( pcb2gcode 1.2.1 )
( Software-independent Gcode )
      

G94 ( Millimeters per minute feed rate. )
G21 ( Units == Millimeters. )

G90 ( Absolute coordinates. )
S10000 ( RPM spindle speed. )
G64 P0.05080 ( set maximum deviation from commanded toolpath )
F600.00000 ( Feedrate. )

F600.00000 ( Feedrate. )
M3 ( Spindle on clockwise. )
G04 P0 ( dwell for no time -- G64 should not smooth over this point )
G00 Z0.50000 ( retract )

G00 X69.35140 Y55.74970 ( rapid move to begin. )
G01 Z-1.65000 F300.00000 ( plunge. )
G04 P0 ( dwell for no time -- G64 should not smooth over this point )
F600.00000
X69.35140 Y55.74970
X69.55460 Y55.57190
X69.73240 Y55.34330
X69.73240 Y43.96410
X72.17080 Y41.52570
X72.24700 Y41.39870
X72.27240 Y6.47370
X72.22160 Y6.32130
X69.73240 Y3.83210
X69.73240 Y1.39370
X69.68160 Y1.24130
X69.52920 Y1.19050
X36.84480 Y1.19050
Z-0.60000
X34.34480 Y1.19050
Z-1.65000 F300.00000
F600.00000X1.66040 Y1.19050
X1.50800 Y1.24130
X1.45720 Y1.39370
X1.45720 Y53.41290
X1.50800 Y56.71490
X1.66040 Y56.76570
X33.73520 Y56.76570
Z-0.60000
X36.23520 Y56.76570
Z-1.65000 F300.00000
F600.00000X68.31000 Y56.76570
X69.35140 Y55.77510

G04 P0 ( dwell for no time -- G64 should not smooth over this point )
G00 Z40.00000 ( retract )


M5 ( Spindle off. )
M9 ( Coolant off. )
M2 ( Program end. )

