( pcb2gcode 1.2.1 )

( This file uses only one drill bit. Forced by 'onedrill' option )

      
G94       (Millimeters per minute feed rate.)
G21       (Units == Millimeters.)
G90       (Absolute coordinates.)
S20000     (RPM spindle speed.)

G00 Z40.00000 (Retract)
T1
M5      (Spindle stop.)
(MSG, Change tool bit to drill size 1.01600 mm)
M6      (Tool change.)
M0      (Temporary machine stop.)
M3      (Spindle on clockwise.)

G81 R0.50000 Z-2.00000 F1000.00000 X60.74080 Y21.37080
X60.74080 Y23.91080
X60.74080 Y26.45080
X63.28080 Y26.45080
X63.28080 Y23.91080
X63.28080 Y21.37080
X63.28080 Y18.83080
X60.74080 Y18.83080
X60.74080 Y16.29080
X63.28080 Y16.29080
X65.82080 Y18.83080
X65.82080 Y21.37080
X65.82080 Y23.91080
X65.82080 Y26.45080
X68.36080 Y26.45080
X68.36080 Y23.91080
X68.36080 Y21.37080
X68.36080 Y18.83080
X68.36080 Y16.29080
X65.82080 Y16.29080
X68.36080 Y13.75080
X65.82080 Y13.75080
X65.82080 Y11.21080
X68.36080 Y11.21080
X68.36080 Y8.67080
X65.82080 Y8.67080
X63.28080 Y8.67080
X60.74080 Y8.67080
X60.74080 Y11.21080
X63.28080 Y11.21080
X63.28080 Y13.75080
X60.74080 Y13.75080
X58.20080 Y13.75080
X58.20080 Y11.21080
X58.20080 Y8.67080
X55.66080 Y8.67080
X53.12080 Y8.67080
X50.58080 Y8.67080
X48.04080 Y8.67080
X48.04080 Y11.21080
X50.58080 Y11.21080
X53.12080 Y11.21080
X55.66080 Y11.21080
X55.66080 Y13.75080
X53.12080 Y13.75080
X50.58080 Y13.75080
X48.04080 Y13.75080
X45.50080 Y16.29080
X42.96080 Y16.29080
X40.42080 Y16.29080
X37.88080 Y16.29080
X35.34080 Y16.29080
X32.80080 Y16.29080
X30.26080 Y16.29080
X30.26080 Y18.83080
X32.80080 Y18.83080
X35.34080 Y18.83080
X37.88080 Y18.83080
X40.42080 Y18.83080
X42.96080 Y18.83080
X45.50080 Y18.83080
X45.50080 Y21.37080
X48.04080 Y21.37080
X48.04080 Y23.91080
X45.50080 Y23.91080
X45.50080 Y26.45080
X42.96080 Y26.45080
X42.96080 Y23.91080
X42.96080 Y21.37080
X40.42080 Y21.37080
X40.42080 Y23.91080
X40.42080 Y26.45080
X37.88080 Y26.45080
X37.88080 Y23.91080
X37.88080 Y21.37080
X35.34080 Y21.37080
X35.34080 Y23.91080
X35.34080 Y26.45080
X32.80080 Y26.45080
X32.80080 Y23.91080
X32.80080 Y21.37080
X30.26080 Y21.37080
X30.26080 Y23.91080
X30.26080 Y26.45080
X30.26080 Y28.99080
X32.80080 Y28.99080
X35.34080 Y28.99080
X37.88080 Y28.99080
X40.42080 Y28.99080
X42.96080 Y28.99080
X45.50080 Y28.99080
X45.50080 Y31.53080
X42.96080 Y31.53080
X40.42080 Y31.53080
X37.88080 Y31.53080
X35.34080 Y31.53080
X32.80080 Y31.53080
X30.26080 Y31.53080
X30.26080 Y34.07080
X32.80080 Y34.07080
X35.34080 Y34.07080
X37.88080 Y34.07080
X40.42080 Y34.07080
X42.96080 Y34.07080
X45.50080 Y34.07080
X48.04080 Y31.53080
X50.58080 Y31.53080
X53.12080 Y31.53080
X55.66080 Y31.53080
X55.66080 Y28.99080
X53.12080 Y28.99080
X50.58080 Y28.99080
X48.04080 Y28.99080
X48.04080 Y26.45080
X50.58080 Y26.45080
X50.58080 Y23.91080
X50.58080 Y21.37080
X53.12080 Y21.37080
X53.12080 Y23.91080
X53.12080 Y26.45080
X55.66080 Y26.45080
X55.66080 Y23.91080
X55.66080 Y21.37080
X55.66080 Y18.83080
X53.12080 Y18.83080
X50.58080 Y18.83080
X48.04080 Y18.83080
X48.04080 Y16.29080
X50.58080 Y16.29080
X53.12080 Y16.29080
X55.66080 Y16.29080
X58.20080 Y16.29080
X58.20080 Y18.83080
X58.20080 Y21.37080
X58.20080 Y23.91080
X58.20080 Y26.45080
X58.20080 Y28.99080
X58.20080 Y31.53080
X60.74080 Y31.53080
X60.74080 Y28.99080
X63.28080 Y28.99080
X63.28080 Y31.53080
X65.82080 Y28.99080
X68.36080 Y28.99080
X68.36080 Y31.53080
X65.82080 Y31.53080
X68.36080 Y34.07080
X68.36080 Y36.61080
X68.36080 Y39.15080
X68.36080 Y41.69080
X68.36080 Y44.23080
X68.36080 Y46.77080
X68.36080 Y49.31080
X65.82080 Y49.31080
X65.82080 Y46.77080
X65.82080 Y44.23080
X65.82080 Y41.69080
X65.82080 Y39.15080
X65.82080 Y36.61080
X65.82080 Y34.07080
X63.28080 Y34.07080
X63.28080 Y36.61080
X63.28080 Y39.15080
X63.28080 Y41.69080
X63.28080 Y44.23080
X63.28080 Y46.77080
X63.28080 Y49.31080
X60.74080 Y49.31080
X60.74080 Y46.77080
X60.74080 Y44.23080
X60.74080 Y41.69080
X60.74080 Y39.15080
X60.74080 Y36.61080
X60.74080 Y34.07080
X58.20080 Y34.07080
X58.20080 Y36.61080
X58.20080 Y39.15080
X58.20080 Y41.69080
X58.20080 Y44.23080
X58.20080 Y46.77080
X58.20080 Y49.31080
X55.66080 Y46.77080
X55.66080 Y44.23080
X55.66080 Y41.69080
X55.66080 Y39.15080
X55.66080 Y36.61080
X55.66080 Y34.07080
X53.12080 Y34.07080
X50.58080 Y34.07080
X48.04080 Y34.07080
X48.04080 Y36.61080
X48.04080 Y39.15080
X48.04080 Y41.69080
X48.04080 Y44.23080
X48.04080 Y46.77080
X48.04080 Y49.31080
X50.58080 Y49.31080
X50.58080 Y46.77080
X50.58080 Y44.23080
X50.58080 Y41.69080
X50.58080 Y39.15080
X50.58080 Y36.61080
X53.12080 Y36.61080
X53.12080 Y39.15080
X53.12080 Y41.69080
X53.12080 Y44.23080
X53.12080 Y46.77080
X55.66080 Y49.31080
X53.12080 Y49.31080
X51.85080 Y53.12080
X49.31080 Y53.12080
X46.77080 Y53.12080
X44.23080 Y53.12080
X41.69080 Y53.12080
X39.15080 Y53.12080
X36.61080 Y53.12080
X37.88080 Y49.31080
X40.42080 Y49.31080
X42.96080 Y49.31080
X45.50080 Y49.31080
X45.50080 Y46.77080
X45.50080 Y44.23080
X45.50080 Y41.69080
X45.50080 Y39.15080
X45.50080 Y36.61080
X42.96080 Y36.61080
X40.42080 Y36.61080
X40.42080 Y39.15080
X42.96080 Y39.15080
X42.96080 Y41.69080
X42.96080 Y44.23080
X42.96080 Y46.77080
X40.42080 Y41.69080
X40.42080 Y44.23080
X40.42080 Y46.77080
X37.88080 Y46.77080
X37.88080 Y44.23080
X37.88080 Y41.69080
X37.88080 Y39.15080
X37.88080 Y36.61080
X35.34080 Y36.61080
X35.34080 Y39.15080
X35.34080 Y41.69080
X35.34080 Y44.23080
X35.34080 Y46.77080
X35.34080 Y49.31080
X32.80080 Y49.31080
X32.80080 Y46.77080
X32.80080 Y44.23080
X32.80080 Y41.69080
X32.80080 Y39.15080
X32.80080 Y36.61080
X30.26080 Y36.61080
X30.26080 Y39.15080
X30.26080 Y41.69080
X30.26080 Y44.23080
X30.26080 Y46.77080
X30.26080 Y49.31080
X34.07080 Y53.12080
X31.53080 Y53.12080
X28.99080 Y53.12080
X24.92680 Y53.12080
X22.38680 Y53.12080
X19.84680 Y53.12080
X17.30680 Y53.12080
X14.76680 Y53.12080
X12.22680 Y53.12080
X9.68680 Y53.12080
X7.14680 Y53.12080
X9.94080 Y49.31080
X9.94080 Y46.77080
X9.94080 Y44.23080
X9.94080 Y41.69080
X9.94080 Y39.15080
X9.94080 Y36.61080
X12.48080 Y36.61080
X15.02080 Y36.61080
X15.02080 Y39.15080
X12.48080 Y39.15080
X12.48080 Y41.69080
X12.48080 Y44.23080
X12.48080 Y46.77080
X12.48080 Y49.31080
X15.02080 Y49.31080
X17.56080 Y49.31080
X17.56080 Y46.77080
X15.02080 Y46.77080
X15.02080 Y44.23080
X15.02080 Y41.69080
X17.56080 Y44.23080
X17.56080 Y41.69080
X17.56080 Y39.15080
X17.56080 Y36.61080
X20.10080 Y36.61080
X20.10080 Y39.15080
X20.10080 Y41.69080
X20.10080 Y44.23080
X20.10080 Y46.77080
X20.10080 Y49.31080
X22.64080 Y49.31080
X22.64080 Y46.77080
X22.64080 Y44.23080
X22.64080 Y41.69080
X22.64080 Y39.15080
X22.64080 Y36.61080
X25.18080 Y36.61080
X25.18080 Y39.15080
X25.18080 Y41.69080
X25.18080 Y44.23080
X25.18080 Y46.77080
X25.18080 Y49.31080
X27.72080 Y49.31080
X27.72080 Y46.77080
X27.72080 Y44.23080
X27.72080 Y41.69080
X27.72080 Y39.15080
X27.72080 Y36.61080
X27.72080 Y34.07080
X25.18080 Y34.07080
X22.64080 Y34.07080
X20.10080 Y34.07080
X17.56080 Y34.07080
X15.02080 Y34.07080
X12.48080 Y34.07080
X9.94080 Y34.07080
X9.94080 Y31.53080
X12.48080 Y31.53080
X15.02080 Y31.53080
X17.56080 Y31.53080
X20.10080 Y31.53080
X22.64080 Y31.53080
X25.18080 Y31.53080
X27.72080 Y31.53080
X27.72080 Y28.99080
X25.18080 Y28.99080
X22.64080 Y28.99080
X20.10080 Y28.99080
X17.56080 Y28.99080
X15.02080 Y28.99080
X12.48080 Y28.99080
X9.94080 Y28.99080
X7.14680 Y30.26080
X7.14680 Y32.80080
X4.60680 Y32.80080
X4.60680 Y30.26080
X4.60680 Y27.72080
X7.14680 Y27.72080
X9.94080 Y26.45080
X9.94080 Y23.91080
X9.94080 Y21.37080
X12.48080 Y26.45080
X12.48080 Y23.91080
X12.48080 Y21.37080
X15.02080 Y21.37080
X15.02080 Y23.91080
X15.02080 Y26.45080
X17.56080 Y26.45080
X17.56080 Y23.91080
X17.56080 Y21.37080
X20.10080 Y21.37080
X20.10080 Y23.91080
X20.10080 Y26.45080
X22.64080 Y26.45080
X22.64080 Y23.91080
X22.64080 Y21.37080
X25.18080 Y21.37080
X25.18080 Y23.91080
X25.18080 Y26.45080
X27.72080 Y26.45080
X27.72080 Y23.91080
X27.72080 Y21.37080
X27.72080 Y18.83080
X25.18080 Y18.83080
X22.64080 Y18.83080
X20.10080 Y18.83080
X17.56080 Y18.83080
X15.02080 Y18.83080
X12.48080 Y18.83080
X9.94080 Y18.83080
X9.94080 Y16.29080
X12.48080 Y16.29080
X15.02080 Y16.29080
X17.56080 Y16.29080
X20.10080 Y16.29080
X22.64080 Y16.29080
X25.18080 Y16.29080
X27.72080 Y16.29080
X30.26080 Y13.75080
X32.80080 Y13.75080
X35.34080 Y13.75080
X37.88080 Y13.75080
X40.42080 Y13.75080
X42.96080 Y13.75080
X45.50080 Y13.75080
X45.50080 Y11.21080
X42.96080 Y11.21080
X40.42080 Y11.21080
X37.88080 Y11.21080
X35.34080 Y11.21080
X32.80080 Y11.21080
X30.26080 Y11.21080
X30.26080 Y8.67080
X32.80080 Y8.67080
X35.34080 Y8.67080
X37.88080 Y8.67080
X40.42080 Y8.67080
X42.96080 Y8.67080
X45.50080 Y8.67080
X42.70680 Y4.86080
X40.16680 Y4.86080
X37.62680 Y4.86080
X35.08680 Y4.86080
X32.54680 Y4.86080
X30.00680 Y4.86080
X27.46680 Y4.86080
X24.92680 Y4.86080
X27.72080 Y8.67080
X25.18080 Y8.67080
X22.64080 Y8.67080
X20.10080 Y8.67080
X17.56080 Y8.67080
X15.02080 Y8.67080
X12.48080 Y8.67080
X15.02080 Y11.21080
X17.56080 Y11.21080
X20.10080 Y11.21080
X22.64080 Y11.21080
X25.18080 Y11.21080
X27.72080 Y11.21080
X27.72080 Y13.75080
X25.18080 Y13.75080
X22.64080 Y13.75080
X20.10080 Y13.75080
X17.56080 Y13.75080
X15.02080 Y13.75080
X12.48080 Y13.75080
X9.94080 Y13.75080
X12.48080 Y11.21080
X9.94080 Y11.21080
X9.94080 Y8.67080
X7.14680 Y4.86080
X9.68680 Y4.86080
X12.22680 Y4.86080
X14.76680 Y4.86080
X17.30680 Y4.86080
X19.84680 Y4.86080

G00 Z40.00000 (All done -- retract)


M5      (Spindle off.)
M9      (Coolant off.)
M2      (Program end.)

