( pcb2gcode 1.2.1 )
( Software-independent Gcode )
      

G94 ( Millimeters per minute feed rate. )
G21 ( Units == Millimeters. )

G90 ( Absolute coordinates. )
S10000 ( RPM spindle speed. )
G64 P0.05080 ( set maximum deviation from commanded toolpath )
F600.00000 ( Feedrate. )

F600.00000 ( Feedrate. )
M3 ( Spindle on clockwise. )
G04 P0 ( dwell for no time -- G64 should not smooth over this point )
G00 Z0.50000 ( retract )

G00 X22.64080 Y54.37810 ( rapid move to begin. )
F300.00000
G01 Z-0.07500
G04 P0 ( dwell for no time -- G64 should not smooth over this point )
F600.00000
X22.64080 Y54.37810
X22.64080 Y50.99990
X21.11680 Y50.94910
X20.32940 Y50.97450
X19.82140 Y51.07610
X19.64360 Y51.30470
X19.59280 Y51.66030
X19.59280 Y54.70830
X19.64360 Y54.96230
X19.82140 Y55.19090
X20.07540 Y55.34330
X20.43100 Y55.39410
X22.05660 Y55.39410
X22.61540 Y55.34330
X22.64080 Y54.55590
G04 P0 ( dwell for no time -- G64 should not smooth over this point )
G00 Z0.50000 ( retract )

G00 X25.18080 Y54.37810 ( rapid move to begin. )
F300.00000
G01 Z-0.07500
G04 P0 ( dwell for no time -- G64 should not smooth over this point )
F600.00000
X25.18080 Y54.37810
X25.18080 Y50.99990
X23.65680 Y50.94910
X22.64080 Y50.99990
X22.66620 Y55.34330
X22.81860 Y55.39410
X25.13000 Y55.36870
X25.18080 Y55.31790
G04 P0 ( dwell for no time -- G64 should not smooth over this point )
G00 Z0.50000 ( retract )

G00 X27.72080 Y54.37810 ( rapid move to begin. )
F300.00000
G01 Z-0.07500
G04 P0 ( dwell for no time -- G64 should not smooth over this point )
F600.00000
X27.72080 Y54.37810
X27.72080 Y50.99990
X26.19680 Y50.94910
X25.18080 Y50.99990
X25.20620 Y55.34330
X25.35860 Y55.39410
X27.67000 Y55.36870
X27.72080 Y55.31790
G04 P0 ( dwell for no time -- G64 should not smooth over this point )
G00 Z0.50000 ( retract )

G00 X30.26080 Y54.37810 ( rapid move to begin. )
F300.00000
G01 Z-0.07500
G04 P0 ( dwell for no time -- G64 should not smooth over this point )
F600.00000
X30.26080 Y54.37810
X30.26080 Y50.99990
X28.73680 Y50.94910
X27.72080 Y50.99990
X27.74620 Y55.34330
X27.89860 Y55.39410
X30.21000 Y55.36870
X30.26080 Y55.31790
G04 P0 ( dwell for no time -- G64 should not smooth over this point )
G00 Z0.50000 ( retract )

G00 X32.80080 Y54.37810 ( rapid move to begin. )
F300.00000
G01 Z-0.07500
G04 P0 ( dwell for no time -- G64 should not smooth over this point )
F600.00000
X32.80080 Y54.37810
X32.80080 Y50.99990
X31.27680 Y50.94910
X30.26080 Y50.99990
X30.28620 Y55.34330
X30.43860 Y55.39410
X32.75000 Y55.36870
X32.80080 Y55.31790
G04 P0 ( dwell for no time -- G64 should not smooth over this point )
G00 Z0.50000 ( retract )

G00 X35.34080 Y54.37810 ( rapid move to begin. )
F300.00000
G01 Z-0.07500
G04 P0 ( dwell for no time -- G64 should not smooth over this point )
F600.00000
X35.34080 Y54.37810
X35.34080 Y50.99990
X33.81680 Y50.94910
X32.80080 Y50.99990
X32.82620 Y55.34330
X32.97860 Y55.39410
X35.29000 Y55.36870
X35.34080 Y55.31790
G04 P0 ( dwell for no time -- G64 should not smooth over this point )
G00 Z0.50000 ( retract )

G00 X37.88080 Y54.37810 ( rapid move to begin. )
F300.00000
G01 Z-0.07500
G04 P0 ( dwell for no time -- G64 should not smooth over this point )
F600.00000
X37.88080 Y54.37810
X37.88080 Y50.99990
X36.35680 Y50.94910
X35.34080 Y50.99990
X35.36620 Y55.34330
X35.51860 Y55.39410
X37.83000 Y55.36870
X37.88080 Y55.31790
G04 P0 ( dwell for no time -- G64 should not smooth over this point )
G00 Z0.50000 ( retract )

G00 X40.42080 Y54.37810 ( rapid move to begin. )
F300.00000
G01 Z-0.07500
G04 P0 ( dwell for no time -- G64 should not smooth over this point )
F600.00000
X40.42080 Y54.37810
X40.42080 Y50.99990
X38.89680 Y50.94910
X37.88080 Y50.99990
X37.90620 Y55.34330
X38.05860 Y55.39410
X40.37000 Y55.36870
X40.42080 Y55.31790
G04 P0 ( dwell for no time -- G64 should not smooth over this point )
G00 Z0.50000 ( retract )

G00 X42.96080 Y54.37810 ( rapid move to begin. )
F300.00000
G01 Z-0.07500
G04 P0 ( dwell for no time -- G64 should not smooth over this point )
F600.00000
X42.96080 Y54.37810
X42.96080 Y50.99990
X41.43680 Y50.94910
X40.42080 Y50.99990
X40.44620 Y55.34330
X40.59860 Y55.39410
X42.91000 Y55.36870
X42.96080 Y55.31790
G04 P0 ( dwell for no time -- G64 should not smooth over this point )
G00 Z0.50000 ( retract )

G00 X45.98340 Y54.37810 ( rapid move to begin. )
F300.00000
G01 Z-0.07500
G04 P0 ( dwell for no time -- G64 should not smooth over this point )
F600.00000
X45.98340 Y54.37810
X45.98340 Y51.55870
X45.93260 Y51.30470
X45.75480 Y51.07610
X45.42460 Y50.99990
X44.25620 Y50.94910
X43.11320 Y50.97450
X42.96080 Y51.02530
X42.98620 Y55.36870
X44.58640 Y55.39410
X45.37380 Y55.36870
X45.78020 Y55.16550
X45.93260 Y54.91150
X45.98340 Y54.55590
G04 P0 ( dwell for no time -- G64 should not smooth over this point )
G00 Z0.50000 ( retract )

G00 X49.56480 Y54.37810 ( rapid move to begin. )
F300.00000
G01 Z-0.07500
G04 P0 ( dwell for no time -- G64 should not smooth over this point )
F600.00000
X49.56480 Y54.37810
X49.56480 Y50.99990
X49.20920 Y50.94910
X47.20260 Y50.97450
X46.84700 Y51.02530
X46.61840 Y51.20310
X46.54220 Y51.53330
X46.56760 Y54.91150
X46.72000 Y55.16550
X46.97400 Y55.31790
X47.30420 Y55.39410
X49.51400 Y55.36870
X49.56480 Y55.31790
G04 P0 ( dwell for no time -- G64 should not smooth over this point )
G00 Z0.50000 ( retract )

G00 X52.10480 Y54.37810 ( rapid move to begin. )
F300.00000
G01 Z-0.07500
G04 P0 ( dwell for no time -- G64 should not smooth over this point )
F600.00000
X52.10480 Y54.37810
X52.10480 Y50.99990
X51.74920 Y50.94910
X49.56480 Y50.99990
X49.59020 Y55.34330
X49.74260 Y55.39410
X52.05400 Y55.36870
X52.10480 Y55.31790
G04 P0 ( dwell for no time -- G64 should not smooth over this point )
G00 Z0.50000 ( retract )

G00 X54.64480 Y54.37810 ( rapid move to begin. )
F300.00000
G01 Z-0.07500
G04 P0 ( dwell for no time -- G64 should not smooth over this point )
F600.00000
X54.64480 Y54.37810
X54.64480 Y50.99990
X54.28920 Y50.94910
X52.10480 Y50.99990
X52.13020 Y55.34330
X52.28260 Y55.39410
X54.59400 Y55.36870
X54.64480 Y55.31790
G04 P0 ( dwell for no time -- G64 should not smooth over this point )
G00 Z0.50000 ( retract )

G00 X57.18480 Y54.37810 ( rapid move to begin. )
F300.00000
G01 Z-0.07500
G04 P0 ( dwell for no time -- G64 should not smooth over this point )
F600.00000
X57.18480 Y54.37810
X57.18480 Y50.99990
X56.82920 Y50.94910
X54.64480 Y50.99990
X54.67020 Y55.34330
X54.82260 Y55.39410
X57.13400 Y55.36870
X57.18480 Y55.31790
G04 P0 ( dwell for no time -- G64 should not smooth over this point )
G00 Z0.50000 ( retract )

G00 X59.72480 Y54.37810 ( rapid move to begin. )
F300.00000
G01 Z-0.07500
G04 P0 ( dwell for no time -- G64 should not smooth over this point )
F600.00000
X59.72480 Y54.37810
X59.72480 Y50.99990
X59.36920 Y50.94910
X57.18480 Y50.99990
X57.21020 Y55.34330
X57.36260 Y55.39410
X59.67400 Y55.36870
X59.72480 Y55.31790
G04 P0 ( dwell for no time -- G64 should not smooth over this point )
G00 Z0.50000 ( retract )

G00 X62.26480 Y54.37810 ( rapid move to begin. )
F300.00000
G01 Z-0.07500
G04 P0 ( dwell for no time -- G64 should not smooth over this point )
F600.00000
X62.26480 Y54.37810
X62.26480 Y50.99990
X61.90920 Y50.94910
X59.72480 Y50.99990
X59.75020 Y55.34330
X59.90260 Y55.39410
X62.21400 Y55.36870
X62.26480 Y55.31790
G04 P0 ( dwell for no time -- G64 should not smooth over this point )
G00 Z0.50000 ( retract )

G00 X64.80480 Y54.37810 ( rapid move to begin. )
F300.00000
G01 Z-0.07500
G04 P0 ( dwell for no time -- G64 should not smooth over this point )
F600.00000
X64.80480 Y54.37810
X64.80480 Y50.89830
X64.06820 Y50.97450
X62.26480 Y50.99990
X62.29020 Y55.34330
X62.44260 Y55.39410
X64.75400 Y55.36870
X64.80480 Y55.31790
G04 P0 ( dwell for no time -- G64 should not smooth over this point )
G00 Z0.50000 ( retract )

G00 X67.82740 Y54.37810 ( rapid move to begin. )
F300.00000
G01 Z-0.07500
G04 P0 ( dwell for no time -- G64 should not smooth over this point )
F600.00000
X67.82740 Y54.37810
X67.82740 Y51.55870
X67.77660 Y51.30470
X67.59880 Y51.07610
X67.59880 Y51.02530
X67.31940 Y50.89830
X66.96380 Y50.84750
X64.85560 Y50.87290
X64.80480 Y50.92370
X64.83020 Y55.36870
X66.43040 Y55.39410
X67.21780 Y55.36870
X67.62420 Y55.16550
X67.77660 Y54.91150
X67.82740 Y54.55590
G04 P0 ( dwell for no time -- G64 should not smooth over this point )
G00 Z0.50000 ( retract )

G00 X6.13080 Y50.08550 ( rapid move to begin. )
F300.00000
G01 Z-0.07500
G04 P0 ( dwell for no time -- G64 should not smooth over this point )
F600.00000
X6.13080 Y50.08550
X6.13080 Y48.02810
X3.08280 Y48.02810
X3.05740 Y49.62830
X3.08280 Y50.61890
X3.28600 Y50.92370
X3.54000 Y51.07610
X6.13080 Y51.07610
G04 P0 ( dwell for no time -- G64 should not smooth over this point )
G00 Z0.50000 ( retract )

G00 X8.67080 Y50.08550 ( rapid move to begin. )
F300.00000
G01 Z-0.07500
G04 P0 ( dwell for no time -- G64 should not smooth over this point )
F600.00000
X8.67080 Y50.08550
X8.67080 Y48.02810
X6.13080 Y48.02810
X6.13080 Y51.07610
X8.67080 Y51.07610
G04 P0 ( dwell for no time -- G64 should not smooth over this point )
G00 Z0.50000 ( retract )

G00 X11.21080 Y50.08550 ( rapid move to begin. )
F300.00000
G01 Z-0.07500
G04 P0 ( dwell for no time -- G64 should not smooth over this point )
F600.00000
X11.21080 Y50.08550
X11.21080 Y48.02810
X8.67080 Y48.02810
X8.67080 Y51.07610
X11.21080 Y51.07610
G04 P0 ( dwell for no time -- G64 should not smooth over this point )
G00 Z0.50000 ( retract )

G00 X13.75080 Y50.08550 ( rapid move to begin. )
F300.00000
G01 Z-0.07500
G04 P0 ( dwell for no time -- G64 should not smooth over this point )
F600.00000
X13.75080 Y50.08550
X13.75080 Y48.02810
X11.21080 Y48.02810
X11.21080 Y51.07610
X13.75080 Y51.07610
G04 P0 ( dwell for no time -- G64 should not smooth over this point )
G00 Z0.50000 ( retract )

G00 X16.29080 Y50.08550 ( rapid move to begin. )
F300.00000
G01 Z-0.07500
G04 P0 ( dwell for no time -- G64 should not smooth over this point )
F600.00000
X16.29080 Y50.08550
X16.29080 Y48.02810
X13.75080 Y48.02810
X13.75080 Y51.07610
X16.29080 Y51.07610
G04 P0 ( dwell for no time -- G64 should not smooth over this point )
G00 Z0.50000 ( retract )

G00 X18.83080 Y50.08550 ( rapid move to begin. )
F300.00000
G01 Z-0.07500
G04 P0 ( dwell for no time -- G64 should not smooth over this point )
F600.00000
X18.83080 Y50.08550
X18.83080 Y48.02810
X16.29080 Y48.02810
X16.29080 Y51.07610
X18.83080 Y51.07610
G04 P0 ( dwell for no time -- G64 should not smooth over this point )
G00 Z0.50000 ( retract )

G00 X21.37080 Y50.08550 ( rapid move to begin. )
F300.00000
G01 Z-0.07500
G04 P0 ( dwell for no time -- G64 should not smooth over this point )
F600.00000
X21.37080 Y50.08550
X21.37080 Y48.02810
X18.83080 Y48.02810
X18.83080 Y51.07610
X19.61820 Y51.10150
X20.30400 Y50.97450
X21.11680 Y50.97450
X21.37080 Y50.92370
G04 P0 ( dwell for no time -- G64 should not smooth over this point )
G00 Z0.50000 ( retract )

G00 X23.91080 Y50.08550 ( rapid move to begin. )
F300.00000
G01 Z-0.07500
G04 P0 ( dwell for no time -- G64 should not smooth over this point )
F600.00000
X23.91080 Y50.08550
X23.91080 Y48.02810
X21.37080 Y48.02810
X21.39620 Y50.94910
X22.94560 Y50.97450
X23.91080 Y50.92370
G04 P0 ( dwell for no time -- G64 should not smooth over this point )
G00 Z0.50000 ( retract )

G00 X26.45080 Y50.08550 ( rapid move to begin. )
F300.00000
G01 Z-0.07500
G04 P0 ( dwell for no time -- G64 should not smooth over this point )
F600.00000
X26.45080 Y50.08550
X26.45080 Y48.02810
X23.91080 Y48.02810
X23.93620 Y50.94910
X25.48560 Y50.97450
X26.45080 Y50.92370
G04 P0 ( dwell for no time -- G64 should not smooth over this point )
G00 Z0.50000 ( retract )

G00 X28.99080 Y50.08550 ( rapid move to begin. )
F300.00000
G01 Z-0.07500
G04 P0 ( dwell for no time -- G64 should not smooth over this point )
F600.00000
X28.99080 Y50.08550
X28.99080 Y48.02810
X26.45080 Y48.02810
X26.47620 Y50.94910
X28.02560 Y50.97450
X28.99080 Y50.92370
G04 P0 ( dwell for no time -- G64 should not smooth over this point )
G00 Z0.50000 ( retract )

G00 X31.53080 Y50.08550 ( rapid move to begin. )
F300.00000
G01 Z-0.07500
G04 P0 ( dwell for no time -- G64 should not smooth over this point )
F600.00000
X31.53080 Y50.08550
X31.53080 Y48.02810
X28.99080 Y48.02810
X29.01620 Y50.94910
X30.56560 Y50.97450
X31.53080 Y50.92370
G04 P0 ( dwell for no time -- G64 should not smooth over this point )
G00 Z0.50000 ( retract )

G00 X34.07080 Y50.08550 ( rapid move to begin. )
F300.00000
G01 Z-0.07500
G04 P0 ( dwell for no time -- G64 should not smooth over this point )
F600.00000
X34.07080 Y50.08550
X34.07080 Y48.02810
X31.53080 Y48.02810
X31.55620 Y50.94910
X33.10560 Y50.97450
X34.07080 Y50.92370
G04 P0 ( dwell for no time -- G64 should not smooth over this point )
G00 Z0.50000 ( retract )

G00 X36.61080 Y50.08550 ( rapid move to begin. )
F300.00000
G01 Z-0.07500
G04 P0 ( dwell for no time -- G64 should not smooth over this point )
F600.00000
X36.61080 Y50.08550
X36.61080 Y48.02810
X34.07080 Y48.02810
X34.09620 Y50.94910
X35.64560 Y50.97450
X36.61080 Y50.92370
G04 P0 ( dwell for no time -- G64 should not smooth over this point )
G00 Z0.50000 ( retract )

G00 X39.15080 Y50.08550 ( rapid move to begin. )
F300.00000
G01 Z-0.07500
G04 P0 ( dwell for no time -- G64 should not smooth over this point )
F600.00000
X39.15080 Y50.08550
X39.15080 Y48.02810
X36.61080 Y48.02810
X36.63620 Y50.94910
X38.18560 Y50.97450
X39.15080 Y50.92370
G04 P0 ( dwell for no time -- G64 should not smooth over this point )
G00 Z0.50000 ( retract )

G00 X41.69080 Y50.08550 ( rapid move to begin. )
F300.00000
G01 Z-0.07500
G04 P0 ( dwell for no time -- G64 should not smooth over this point )
F600.00000
X41.69080 Y50.08550
X41.69080 Y48.02810
X39.15080 Y48.02810
X39.17620 Y50.94910
X40.72560 Y50.97450
X41.69080 Y50.92370
G04 P0 ( dwell for no time -- G64 should not smooth over this point )
G00 Z0.50000 ( retract )

G00 X44.23080 Y50.08550 ( rapid move to begin. )
F300.00000
G01 Z-0.07500
G04 P0 ( dwell for no time -- G64 should not smooth over this point )
F600.00000
X44.23080 Y50.08550
X44.23080 Y48.02810
X41.69080 Y48.02810
X41.71620 Y50.94910
X43.26560 Y50.97450
X44.23080 Y50.92370
G04 P0 ( dwell for no time -- G64 should not smooth over this point )
G00 Z0.50000 ( retract )

G00 X46.77080 Y50.08550 ( rapid move to begin. )
F300.00000
G01 Z-0.07500
G04 P0 ( dwell for no time -- G64 should not smooth over this point )
F600.00000
X46.77080 Y50.08550
X46.77080 Y48.02810
X44.23080 Y48.02810
X44.25620 Y50.94910
X45.42460 Y50.99990
X45.75480 Y51.07610
X46.72000 Y51.07610
X46.77080 Y51.02530
G04 P0 ( dwell for no time -- G64 should not smooth over this point )
G00 Z0.50000 ( retract )

G00 X49.31080 Y50.08550 ( rapid move to begin. )
F300.00000
G01 Z-0.07500
G04 P0 ( dwell for no time -- G64 should not smooth over this point )
F600.00000
X49.31080 Y50.08550
X49.31080 Y48.02810
X46.77080 Y48.02810
X46.79620 Y51.05070
X47.53280 Y50.97450
X49.31080 Y50.92370
G04 P0 ( dwell for no time -- G64 should not smooth over this point )
G00 Z0.50000 ( retract )

G00 X51.85080 Y50.08550 ( rapid move to begin. )
F300.00000
G01 Z-0.07500
G04 P0 ( dwell for no time -- G64 should not smooth over this point )
F600.00000
X51.85080 Y50.08550
X51.85080 Y48.02810
X49.31080 Y48.02810
X49.33620 Y50.94910
X49.69180 Y50.99990
X51.29200 Y50.97450
X51.85080 Y50.92370
G04 P0 ( dwell for no time -- G64 should not smooth over this point )
G00 Z0.50000 ( retract )

G00 X54.39080 Y50.08550 ( rapid move to begin. )
F300.00000
G01 Z-0.07500
G04 P0 ( dwell for no time -- G64 should not smooth over this point )
F600.00000
X54.39080 Y50.08550
X54.39080 Y48.02810
X51.85080 Y48.02810
X51.87620 Y50.94910
X52.23180 Y50.99990
X53.83200 Y50.97450
X54.39080 Y50.92370
G04 P0 ( dwell for no time -- G64 should not smooth over this point )
G00 Z0.50000 ( retract )

G00 X56.93080 Y50.08550 ( rapid move to begin. )
F300.00000
G01 Z-0.07500
G04 P0 ( dwell for no time -- G64 should not smooth over this point )
F600.00000
X56.93080 Y50.08550
X56.93080 Y48.02810
X54.39080 Y48.02810
X54.41620 Y50.94910
X54.77180 Y50.99990
X56.37200 Y50.97450
X56.93080 Y50.92370
G04 P0 ( dwell for no time -- G64 should not smooth over this point )
G00 Z0.50000 ( retract )

G00 X59.47080 Y50.08550 ( rapid move to begin. )
F300.00000
G01 Z-0.07500
G04 P0 ( dwell for no time -- G64 should not smooth over this point )
F600.00000
X59.47080 Y50.08550
X59.47080 Y48.02810
X56.93080 Y48.02810
X56.95620 Y50.94910
X57.31180 Y50.99990
X58.91200 Y50.97450
X59.47080 Y50.92370
G04 P0 ( dwell for no time -- G64 should not smooth over this point )
G00 Z0.50000 ( retract )

G00 X62.01080 Y50.08550 ( rapid move to begin. )
F300.00000
G01 Z-0.07500
G04 P0 ( dwell for no time -- G64 should not smooth over this point )
F600.00000
X62.01080 Y50.08550
X62.01080 Y48.02810
X59.47080 Y48.02810
X59.49620 Y50.94910
X59.85180 Y50.99990
X61.45200 Y50.97450
X62.01080 Y50.92370
G04 P0 ( dwell for no time -- G64 should not smooth over this point )
G00 Z0.50000 ( retract )

G00 X65.05880 Y50.08550 ( rapid move to begin. )
F300.00000
G01 Z-0.07500
G04 P0 ( dwell for no time -- G64 should not smooth over this point )
F600.00000
X65.05880 Y50.08550
X65.05880 Y48.48530
X65.00800 Y48.02810
X62.01080 Y48.02810
X62.03620 Y50.94910
X62.39180 Y50.99990
X64.57620 Y50.94910
X64.83020 Y50.89830
X65.00800 Y50.66970
X65.05880 Y50.51730
G04 P0 ( dwell for no time -- G64 should not smooth over this point )
G00 Z0.50000 ( retract )

G00 X6.13080 Y47.54550 ( rapid move to begin. )
F300.00000
G01 Z-0.07500
G04 P0 ( dwell for no time -- G64 should not smooth over this point )
F600.00000
X6.13080 Y47.54550
X6.13080 Y45.48810
X3.08280 Y45.48810
X3.05740 Y47.08830
X3.08280 Y48.02810
X6.13080 Y48.02810
G04 P0 ( dwell for no time -- G64 should not smooth over this point )
G00 Z0.50000 ( retract )

G00 X8.67080 Y47.54550 ( rapid move to begin. )
F300.00000
G01 Z-0.07500
G04 P0 ( dwell for no time -- G64 should not smooth over this point )
F600.00000
X8.67080 Y47.54550
X8.67080 Y45.48810
X6.13080 Y45.48810
X6.13080 Y48.02810
X8.67080 Y48.02810
G04 P0 ( dwell for no time -- G64 should not smooth over this point )
G00 Z0.50000 ( retract )

G00 X11.21080 Y47.54550 ( rapid move to begin. )
F300.00000
G01 Z-0.07500
G04 P0 ( dwell for no time -- G64 should not smooth over this point )
F600.00000
X11.21080 Y47.54550
X11.21080 Y45.48810
X8.67080 Y45.48810
X8.67080 Y48.02810
X11.21080 Y48.02810
G04 P0 ( dwell for no time -- G64 should not smooth over this point )
G00 Z0.50000 ( retract )

G00 X13.75080 Y47.54550 ( rapid move to begin. )
F300.00000
G01 Z-0.07500
G04 P0 ( dwell for no time -- G64 should not smooth over this point )
F600.00000
X13.75080 Y47.54550
X13.75080 Y45.48810
X11.21080 Y45.48810
X11.21080 Y48.02810
X13.75080 Y48.02810
G04 P0 ( dwell for no time -- G64 should not smooth over this point )
G00 Z0.50000 ( retract )

G00 X16.29080 Y47.54550 ( rapid move to begin. )
F300.00000
G01 Z-0.07500
G04 P0 ( dwell for no time -- G64 should not smooth over this point )
F600.00000
X16.29080 Y47.54550
X16.29080 Y45.48810
X13.75080 Y45.48810
X13.75080 Y48.02810
X16.29080 Y48.02810
G04 P0 ( dwell for no time -- G64 should not smooth over this point )
G00 Z0.50000 ( retract )

G00 X18.83080 Y47.54550 ( rapid move to begin. )
F300.00000
G01 Z-0.07500
G04 P0 ( dwell for no time -- G64 should not smooth over this point )
F600.00000
X18.83080 Y47.54550
X18.83080 Y45.48810
X16.29080 Y45.48810
X16.29080 Y48.02810
X18.83080 Y48.02810
G04 P0 ( dwell for no time -- G64 should not smooth over this point )
G00 Z0.50000 ( retract )

G00 X21.37080 Y47.54550 ( rapid move to begin. )
F300.00000
G01 Z-0.07500
G04 P0 ( dwell for no time -- G64 should not smooth over this point )
F600.00000
X21.37080 Y47.54550
X21.37080 Y45.48810
X18.83080 Y45.48810
X18.83080 Y48.02810
X21.37080 Y48.02810
G04 P0 ( dwell for no time -- G64 should not smooth over this point )
G00 Z0.50000 ( retract )

G00 X23.91080 Y47.54550 ( rapid move to begin. )
F300.00000
G01 Z-0.07500
G04 P0 ( dwell for no time -- G64 should not smooth over this point )
F600.00000
X23.91080 Y47.54550
X23.91080 Y45.48810
X21.37080 Y45.48810
X21.37080 Y48.02810
X23.91080 Y48.02810
G04 P0 ( dwell for no time -- G64 should not smooth over this point )
G00 Z0.50000 ( retract )

G00 X26.45080 Y47.54550 ( rapid move to begin. )
F300.00000
G01 Z-0.07500
G04 P0 ( dwell for no time -- G64 should not smooth over this point )
F600.00000
X26.45080 Y47.54550
X26.45080 Y45.48810
X23.91080 Y45.48810
X23.91080 Y48.02810
X26.45080 Y48.02810
G04 P0 ( dwell for no time -- G64 should not smooth over this point )
G00 Z0.50000 ( retract )

G00 X28.99080 Y47.54550 ( rapid move to begin. )
F300.00000
G01 Z-0.07500
G04 P0 ( dwell for no time -- G64 should not smooth over this point )
F600.00000
X28.99080 Y47.54550
X28.99080 Y45.48810
X26.45080 Y45.48810
X26.45080 Y48.02810
X28.99080 Y48.02810
G04 P0 ( dwell for no time -- G64 should not smooth over this point )
G00 Z0.50000 ( retract )

G00 X31.53080 Y47.54550 ( rapid move to begin. )
F300.00000
G01 Z-0.07500
G04 P0 ( dwell for no time -- G64 should not smooth over this point )
F600.00000
X31.53080 Y47.54550
X31.53080 Y45.48810
X28.99080 Y45.48810
X28.99080 Y48.02810
X31.53080 Y48.02810
G04 P0 ( dwell for no time -- G64 should not smooth over this point )
G00 Z0.50000 ( retract )

G00 X34.07080 Y47.54550 ( rapid move to begin. )
F300.00000
G01 Z-0.07500
G04 P0 ( dwell for no time -- G64 should not smooth over this point )
F600.00000
X34.07080 Y47.54550
X34.07080 Y45.48810
X31.53080 Y45.48810
X31.53080 Y48.02810
X34.07080 Y48.02810
G04 P0 ( dwell for no time -- G64 should not smooth over this point )
G00 Z0.50000 ( retract )

G00 X36.61080 Y47.54550 ( rapid move to begin. )
F300.00000
G01 Z-0.07500
G04 P0 ( dwell for no time -- G64 should not smooth over this point )
F600.00000
X36.61080 Y47.54550
X36.61080 Y45.48810
X34.07080 Y45.48810
X34.07080 Y48.02810
X36.61080 Y48.02810
G04 P0 ( dwell for no time -- G64 should not smooth over this point )
G00 Z0.50000 ( retract )

G00 X39.15080 Y47.54550 ( rapid move to begin. )
F300.00000
G01 Z-0.07500
G04 P0 ( dwell for no time -- G64 should not smooth over this point )
F600.00000
X39.15080 Y47.54550
X39.15080 Y45.48810
X36.61080 Y45.48810
X36.61080 Y48.02810
X39.15080 Y48.02810
G04 P0 ( dwell for no time -- G64 should not smooth over this point )
G00 Z0.50000 ( retract )

G00 X41.69080 Y47.54550 ( rapid move to begin. )
F300.00000
G01 Z-0.07500
G04 P0 ( dwell for no time -- G64 should not smooth over this point )
F600.00000
X41.69080 Y47.54550
X41.69080 Y45.48810
X39.15080 Y45.48810
X39.15080 Y48.02810
X41.69080 Y48.02810
G04 P0 ( dwell for no time -- G64 should not smooth over this point )
G00 Z0.50000 ( retract )

G00 X44.23080 Y47.54550 ( rapid move to begin. )
F300.00000
G01 Z-0.07500
G04 P0 ( dwell for no time -- G64 should not smooth over this point )
F600.00000
X44.23080 Y47.54550
X44.23080 Y45.48810
X41.69080 Y45.48810
X41.69080 Y48.02810
X44.23080 Y48.02810
G04 P0 ( dwell for no time -- G64 should not smooth over this point )
G00 Z0.50000 ( retract )

G00 X46.77080 Y47.54550 ( rapid move to begin. )
F300.00000
G01 Z-0.07500
G04 P0 ( dwell for no time -- G64 should not smooth over this point )
F600.00000
X46.77080 Y47.54550
X46.77080 Y45.48810
X44.23080 Y45.48810
X44.23080 Y48.02810
X46.77080 Y48.02810
G04 P0 ( dwell for no time -- G64 should not smooth over this point )
G00 Z0.50000 ( retract )

G00 X49.31080 Y47.54550 ( rapid move to begin. )
F300.00000
G01 Z-0.07500
G04 P0 ( dwell for no time -- G64 should not smooth over this point )
F600.00000
X49.31080 Y47.54550
X49.31080 Y45.48810
X46.77080 Y45.48810
X46.77080 Y48.02810
X49.31080 Y48.02810
G04 P0 ( dwell for no time -- G64 should not smooth over this point )
G00 Z0.50000 ( retract )

G00 X51.85080 Y47.54550 ( rapid move to begin. )
F300.00000
G01 Z-0.07500
G04 P0 ( dwell for no time -- G64 should not smooth over this point )
F600.00000
X51.85080 Y47.54550
X51.85080 Y45.48810
X49.31080 Y45.48810
X49.31080 Y48.02810
X51.85080 Y48.02810
G04 P0 ( dwell for no time -- G64 should not smooth over this point )
G00 Z0.50000 ( retract )

G00 X54.39080 Y47.54550 ( rapid move to begin. )
F300.00000
G01 Z-0.07500
G04 P0 ( dwell for no time -- G64 should not smooth over this point )
F600.00000
X54.39080 Y47.54550
X54.39080 Y45.48810
X51.85080 Y45.48810
X51.85080 Y48.02810
X54.39080 Y48.02810
G04 P0 ( dwell for no time -- G64 should not smooth over this point )
G00 Z0.50000 ( retract )

G00 X56.93080 Y47.54550 ( rapid move to begin. )
F300.00000
G01 Z-0.07500
G04 P0 ( dwell for no time -- G64 should not smooth over this point )
F600.00000
X56.93080 Y47.54550
X56.93080 Y45.48810
X54.39080 Y45.48810
X54.39080 Y48.02810
X56.93080 Y48.02810
G04 P0 ( dwell for no time -- G64 should not smooth over this point )
G00 Z0.50000 ( retract )

G00 X59.47080 Y47.54550 ( rapid move to begin. )
F300.00000
G01 Z-0.07500
G04 P0 ( dwell for no time -- G64 should not smooth over this point )
F600.00000
X59.47080 Y47.54550
X59.47080 Y45.48810
X56.93080 Y45.48810
X56.93080 Y48.02810
X59.47080 Y48.02810
G04 P0 ( dwell for no time -- G64 should not smooth over this point )
G00 Z0.50000 ( retract )

G00 X62.01080 Y47.54550 ( rapid move to begin. )
F300.00000
G01 Z-0.07500
G04 P0 ( dwell for no time -- G64 should not smooth over this point )
F600.00000
X62.01080 Y47.54550
X62.01080 Y45.48810
X59.47080 Y45.48810
X59.47080 Y48.02810
X62.01080 Y48.02810
G04 P0 ( dwell for no time -- G64 should not smooth over this point )
G00 Z0.50000 ( retract )

G00 X65.05880 Y47.54550 ( rapid move to begin. )
F300.00000
G01 Z-0.07500
G04 P0 ( dwell for no time -- G64 should not smooth over this point )
F600.00000
X65.05880 Y47.54550
X65.05880 Y45.94530
X65.00800 Y45.48810
X62.01080 Y45.48810
X62.01080 Y48.02810
X65.03340 Y48.00270
G04 P0 ( dwell for no time -- G64 should not smooth over this point )
G00 Z0.50000 ( retract )

G00 X6.13080 Y45.00550 ( rapid move to begin. )
F300.00000
G01 Z-0.07500
G04 P0 ( dwell for no time -- G64 should not smooth over this point )
F600.00000
X6.13080 Y45.00550
X6.13080 Y42.94810
X3.08280 Y42.94810
X3.05740 Y44.54830
X3.08280 Y45.48810
X6.13080 Y45.48810
G04 P0 ( dwell for no time -- G64 should not smooth over this point )
G00 Z0.50000 ( retract )

G00 X8.67080 Y45.00550 ( rapid move to begin. )
F300.00000
G01 Z-0.07500
G04 P0 ( dwell for no time -- G64 should not smooth over this point )
F600.00000
X8.67080 Y45.00550
X8.67080 Y42.94810
X6.13080 Y42.94810
X6.13080 Y45.48810
X8.67080 Y45.48810
G04 P0 ( dwell for no time -- G64 should not smooth over this point )
G00 Z0.50000 ( retract )

G00 X11.21080 Y45.00550 ( rapid move to begin. )
F300.00000
G01 Z-0.07500
G04 P0 ( dwell for no time -- G64 should not smooth over this point )
F600.00000
X11.21080 Y45.00550
X11.21080 Y42.94810
X8.67080 Y42.94810
X8.67080 Y45.48810
X11.21080 Y45.48810
G04 P0 ( dwell for no time -- G64 should not smooth over this point )
G00 Z0.50000 ( retract )

G00 X13.75080 Y45.00550 ( rapid move to begin. )
F300.00000
G01 Z-0.07500
G04 P0 ( dwell for no time -- G64 should not smooth over this point )
F600.00000
X13.75080 Y45.00550
X13.75080 Y42.94810
X11.21080 Y42.94810
X11.21080 Y45.48810
X13.75080 Y45.48810
G04 P0 ( dwell for no time -- G64 should not smooth over this point )
G00 Z0.50000 ( retract )

G00 X16.29080 Y45.00550 ( rapid move to begin. )
F300.00000
G01 Z-0.07500
G04 P0 ( dwell for no time -- G64 should not smooth over this point )
F600.00000
X16.29080 Y45.00550
X16.29080 Y42.94810
X13.75080 Y42.94810
X13.75080 Y45.48810
X16.29080 Y45.48810
G04 P0 ( dwell for no time -- G64 should not smooth over this point )
G00 Z0.50000 ( retract )

G00 X18.83080 Y45.00550 ( rapid move to begin. )
F300.00000
G01 Z-0.07500
G04 P0 ( dwell for no time -- G64 should not smooth over this point )
F600.00000
X18.83080 Y45.00550
X18.83080 Y42.94810
X16.29080 Y42.94810
X16.29080 Y45.48810
X18.83080 Y45.48810
G04 P0 ( dwell for no time -- G64 should not smooth over this point )
G00 Z0.50000 ( retract )

G00 X21.37080 Y45.00550 ( rapid move to begin. )
F300.00000
G01 Z-0.07500
G04 P0 ( dwell for no time -- G64 should not smooth over this point )
F600.00000
X21.37080 Y45.00550
X21.37080 Y42.94810
X18.83080 Y42.94810
X18.83080 Y45.48810
X21.37080 Y45.48810
G04 P0 ( dwell for no time -- G64 should not smooth over this point )
G00 Z0.50000 ( retract )

G00 X23.91080 Y45.00550 ( rapid move to begin. )
F300.00000
G01 Z-0.07500
G04 P0 ( dwell for no time -- G64 should not smooth over this point )
F600.00000
X23.91080 Y45.00550
X23.91080 Y42.94810
X21.37080 Y42.94810
X21.37080 Y45.48810
X23.91080 Y45.48810
G04 P0 ( dwell for no time -- G64 should not smooth over this point )
G00 Z0.50000 ( retract )

G00 X26.45080 Y45.00550 ( rapid move to begin. )
F300.00000
G01 Z-0.07500
G04 P0 ( dwell for no time -- G64 should not smooth over this point )
F600.00000
X26.45080 Y45.00550
X26.45080 Y42.94810
X23.91080 Y42.94810
X23.91080 Y45.48810
X26.45080 Y45.48810
G04 P0 ( dwell for no time -- G64 should not smooth over this point )
G00 Z0.50000 ( retract )

G00 X28.99080 Y45.00550 ( rapid move to begin. )
F300.00000
G01 Z-0.07500
G04 P0 ( dwell for no time -- G64 should not smooth over this point )
F600.00000
X28.99080 Y45.00550
X28.99080 Y42.94810
X26.45080 Y42.94810
X26.45080 Y45.48810
X28.99080 Y45.48810
G04 P0 ( dwell for no time -- G64 should not smooth over this point )
G00 Z0.50000 ( retract )

G00 X31.53080 Y45.00550 ( rapid move to begin. )
F300.00000
G01 Z-0.07500
G04 P0 ( dwell for no time -- G64 should not smooth over this point )
F600.00000
X31.53080 Y45.00550
X31.53080 Y42.94810
X28.99080 Y42.94810
X28.99080 Y45.48810
X31.53080 Y45.48810
G04 P0 ( dwell for no time -- G64 should not smooth over this point )
G00 Z0.50000 ( retract )

G00 X34.07080 Y45.00550 ( rapid move to begin. )
F300.00000
G01 Z-0.07500
G04 P0 ( dwell for no time -- G64 should not smooth over this point )
F600.00000
X34.07080 Y45.00550
X34.07080 Y42.94810
X31.53080 Y42.94810
X31.53080 Y45.48810
X34.07080 Y45.48810
G04 P0 ( dwell for no time -- G64 should not smooth over this point )
G00 Z0.50000 ( retract )

G00 X36.61080 Y45.00550 ( rapid move to begin. )
F300.00000
G01 Z-0.07500
G04 P0 ( dwell for no time -- G64 should not smooth over this point )
F600.00000
X36.61080 Y45.00550
X36.61080 Y42.94810
X34.07080 Y42.94810
X34.07080 Y45.48810
X36.61080 Y45.48810
G04 P0 ( dwell for no time -- G64 should not smooth over this point )
G00 Z0.50000 ( retract )

G00 X39.15080 Y45.00550 ( rapid move to begin. )
F300.00000
G01 Z-0.07500
G04 P0 ( dwell for no time -- G64 should not smooth over this point )
F600.00000
X39.15080 Y45.00550
X39.15080 Y42.94810
X36.61080 Y42.94810
X36.61080 Y45.48810
X39.15080 Y45.48810
G04 P0 ( dwell for no time -- G64 should not smooth over this point )
G00 Z0.50000 ( retract )

G00 X41.69080 Y45.00550 ( rapid move to begin. )
F300.00000
G01 Z-0.07500
G04 P0 ( dwell for no time -- G64 should not smooth over this point )
F600.00000
X41.69080 Y45.00550
X41.69080 Y42.94810
X39.15080 Y42.94810
X39.15080 Y45.48810
X41.69080 Y45.48810
G04 P0 ( dwell for no time -- G64 should not smooth over this point )
G00 Z0.50000 ( retract )

G00 X44.23080 Y45.00550 ( rapid move to begin. )
F300.00000
G01 Z-0.07500
G04 P0 ( dwell for no time -- G64 should not smooth over this point )
F600.00000
X44.23080 Y45.00550
X44.23080 Y42.94810
X41.69080 Y42.94810
X41.69080 Y45.48810
X44.23080 Y45.48810
G04 P0 ( dwell for no time -- G64 should not smooth over this point )
G00 Z0.50000 ( retract )

G00 X46.77080 Y45.00550 ( rapid move to begin. )
F300.00000
G01 Z-0.07500
G04 P0 ( dwell for no time -- G64 should not smooth over this point )
F600.00000
X46.77080 Y45.00550
X46.77080 Y42.94810
X44.23080 Y42.94810
X44.23080 Y45.48810
X46.77080 Y45.48810
G04 P0 ( dwell for no time -- G64 should not smooth over this point )
G00 Z0.50000 ( retract )

G00 X49.31080 Y45.00550 ( rapid move to begin. )
F300.00000
G01 Z-0.07500
G04 P0 ( dwell for no time -- G64 should not smooth over this point )
F600.00000
X49.31080 Y45.00550
X49.31080 Y42.94810
X46.77080 Y42.94810
X46.77080 Y45.48810
X49.31080 Y45.48810
G04 P0 ( dwell for no time -- G64 should not smooth over this point )
G00 Z0.50000 ( retract )

G00 X51.85080 Y45.00550 ( rapid move to begin. )
F300.00000
G01 Z-0.07500
G04 P0 ( dwell for no time -- G64 should not smooth over this point )
F600.00000
X51.85080 Y45.00550
X51.85080 Y42.94810
X49.31080 Y42.94810
X49.31080 Y45.48810
X51.85080 Y45.48810
G04 P0 ( dwell for no time -- G64 should not smooth over this point )
G00 Z0.50000 ( retract )

G00 X54.39080 Y45.00550 ( rapid move to begin. )
F300.00000
G01 Z-0.07500
G04 P0 ( dwell for no time -- G64 should not smooth over this point )
F600.00000
X54.39080 Y45.00550
X54.39080 Y42.94810
X51.85080 Y42.94810
X51.85080 Y45.48810
X54.39080 Y45.48810
G04 P0 ( dwell for no time -- G64 should not smooth over this point )
G00 Z0.50000 ( retract )

G00 X56.93080 Y45.00550 ( rapid move to begin. )
F300.00000
G01 Z-0.07500
G04 P0 ( dwell for no time -- G64 should not smooth over this point )
F600.00000
X56.93080 Y45.00550
X56.93080 Y42.94810
X54.39080 Y42.94810
X54.39080 Y45.48810
X56.93080 Y45.48810
G04 P0 ( dwell for no time -- G64 should not smooth over this point )
G00 Z0.50000 ( retract )

G00 X59.47080 Y45.00550 ( rapid move to begin. )
F300.00000
G01 Z-0.07500
G04 P0 ( dwell for no time -- G64 should not smooth over this point )
F600.00000
X59.47080 Y45.00550
X59.47080 Y42.94810
X56.93080 Y42.94810
X56.93080 Y45.48810
X59.47080 Y45.48810
G04 P0 ( dwell for no time -- G64 should not smooth over this point )
G00 Z0.50000 ( retract )

G00 X62.01080 Y45.00550 ( rapid move to begin. )
F300.00000
G01 Z-0.07500
G04 P0 ( dwell for no time -- G64 should not smooth over this point )
F600.00000
X62.01080 Y45.00550
X62.01080 Y42.94810
X59.47080 Y42.94810
X59.47080 Y45.48810
X62.01080 Y45.48810
G04 P0 ( dwell for no time -- G64 should not smooth over this point )
G00 Z0.50000 ( retract )

G00 X65.05880 Y45.00550 ( rapid move to begin. )
F300.00000
G01 Z-0.07500
G04 P0 ( dwell for no time -- G64 should not smooth over this point )
F600.00000
X65.05880 Y45.00550
X65.05880 Y43.40530
X65.00800 Y42.94810
X62.01080 Y42.94810
X62.01080 Y45.48810
X65.03340 Y45.46270
G04 P0 ( dwell for no time -- G64 should not smooth over this point )
G00 Z0.50000 ( retract )

G00 X6.13080 Y42.46550 ( rapid move to begin. )
F300.00000
G01 Z-0.07500
G04 P0 ( dwell for no time -- G64 should not smooth over this point )
F600.00000
X6.13080 Y42.46550
X6.13080 Y40.40810
X3.08280 Y40.40810
X3.05740 Y42.00830
X3.08280 Y42.94810
X6.13080 Y42.94810
G04 P0 ( dwell for no time -- G64 should not smooth over this point )
G00 Z0.50000 ( retract )

G00 X8.67080 Y42.46550 ( rapid move to begin. )
F300.00000
G01 Z-0.07500
G04 P0 ( dwell for no time -- G64 should not smooth over this point )
F600.00000
X8.67080 Y42.46550
X8.67080 Y40.40810
X6.13080 Y40.40810
X6.13080 Y42.94810
X8.67080 Y42.94810
G04 P0 ( dwell for no time -- G64 should not smooth over this point )
G00 Z0.50000 ( retract )

G00 X11.21080 Y42.46550 ( rapid move to begin. )
F300.00000
G01 Z-0.07500
G04 P0 ( dwell for no time -- G64 should not smooth over this point )
F600.00000
X11.21080 Y42.46550
X11.21080 Y40.40810
X8.67080 Y40.40810
X8.67080 Y42.94810
X11.21080 Y42.94810
G04 P0 ( dwell for no time -- G64 should not smooth over this point )
G00 Z0.50000 ( retract )

G00 X13.75080 Y42.46550 ( rapid move to begin. )
F300.00000
G01 Z-0.07500
G04 P0 ( dwell for no time -- G64 should not smooth over this point )
F600.00000
X13.75080 Y42.46550
X13.75080 Y40.40810
X11.21080 Y40.40810
X11.21080 Y42.94810
X13.75080 Y42.94810
G04 P0 ( dwell for no time -- G64 should not smooth over this point )
G00 Z0.50000 ( retract )

G00 X16.29080 Y42.46550 ( rapid move to begin. )
F300.00000
G01 Z-0.07500
G04 P0 ( dwell for no time -- G64 should not smooth over this point )
F600.00000
X16.29080 Y42.46550
X16.29080 Y40.40810
X13.75080 Y40.40810
X13.75080 Y42.94810
X16.29080 Y42.94810
G04 P0 ( dwell for no time -- G64 should not smooth over this point )
G00 Z0.50000 ( retract )

G00 X18.83080 Y42.46550 ( rapid move to begin. )
F300.00000
G01 Z-0.07500
G04 P0 ( dwell for no time -- G64 should not smooth over this point )
F600.00000
X18.83080 Y42.46550
X18.83080 Y40.40810
X16.29080 Y40.40810
X16.29080 Y42.94810
X18.83080 Y42.94810
G04 P0 ( dwell for no time -- G64 should not smooth over this point )
G00 Z0.50000 ( retract )

G00 X21.37080 Y42.46550 ( rapid move to begin. )
F300.00000
G01 Z-0.07500
G04 P0 ( dwell for no time -- G64 should not smooth over this point )
F600.00000
X21.37080 Y42.46550
X21.37080 Y40.40810
X18.83080 Y40.40810
X18.83080 Y42.94810
X21.37080 Y42.94810
G04 P0 ( dwell for no time -- G64 should not smooth over this point )
G00 Z0.50000 ( retract )

G00 X23.91080 Y42.46550 ( rapid move to begin. )
F300.00000
G01 Z-0.07500
G04 P0 ( dwell for no time -- G64 should not smooth over this point )
F600.00000
X23.91080 Y42.46550
X23.91080 Y40.40810
X21.37080 Y40.40810
X21.37080 Y42.94810
X23.91080 Y42.94810
G04 P0 ( dwell for no time -- G64 should not smooth over this point )
G00 Z0.50000 ( retract )

G00 X26.45080 Y42.46550 ( rapid move to begin. )
F300.00000
G01 Z-0.07500
G04 P0 ( dwell for no time -- G64 should not smooth over this point )
F600.00000
X26.45080 Y42.46550
X26.45080 Y40.40810
X23.91080 Y40.40810
X23.91080 Y42.94810
X26.45080 Y42.94810
G04 P0 ( dwell for no time -- G64 should not smooth over this point )
G00 Z0.50000 ( retract )

G00 X28.99080 Y42.46550 ( rapid move to begin. )
F300.00000
G01 Z-0.07500
G04 P0 ( dwell for no time -- G64 should not smooth over this point )
F600.00000
X28.99080 Y42.46550
X28.99080 Y40.40810
X26.45080 Y40.40810
X26.45080 Y42.94810
X28.99080 Y42.94810
G04 P0 ( dwell for no time -- G64 should not smooth over this point )
G00 Z0.50000 ( retract )

G00 X31.53080 Y42.46550 ( rapid move to begin. )
F300.00000
G01 Z-0.07500
G04 P0 ( dwell for no time -- G64 should not smooth over this point )
F600.00000
X31.53080 Y42.46550
X31.53080 Y40.40810
X28.99080 Y40.40810
X28.99080 Y42.94810
X31.53080 Y42.94810
G04 P0 ( dwell for no time -- G64 should not smooth over this point )
G00 Z0.50000 ( retract )

G00 X34.07080 Y42.46550 ( rapid move to begin. )
F300.00000
G01 Z-0.07500
G04 P0 ( dwell for no time -- G64 should not smooth over this point )
F600.00000
X34.07080 Y42.46550
X34.07080 Y40.40810
X31.53080 Y40.40810
X31.53080 Y42.94810
X34.07080 Y42.94810
G04 P0 ( dwell for no time -- G64 should not smooth over this point )
G00 Z0.50000 ( retract )

G00 X36.61080 Y42.46550 ( rapid move to begin. )
F300.00000
G01 Z-0.07500
G04 P0 ( dwell for no time -- G64 should not smooth over this point )
F600.00000
X36.61080 Y42.46550
X36.61080 Y40.40810
X34.07080 Y40.40810
X34.07080 Y42.94810
X36.61080 Y42.94810
G04 P0 ( dwell for no time -- G64 should not smooth over this point )
G00 Z0.50000 ( retract )

G00 X39.15080 Y42.46550 ( rapid move to begin. )
F300.00000
G01 Z-0.07500
G04 P0 ( dwell for no time -- G64 should not smooth over this point )
F600.00000
X39.15080 Y42.46550
X39.15080 Y40.40810
X36.61080 Y40.40810
X36.61080 Y42.94810
X39.15080 Y42.94810
G04 P0 ( dwell for no time -- G64 should not smooth over this point )
G00 Z0.50000 ( retract )

G00 X41.69080 Y42.46550 ( rapid move to begin. )
F300.00000
G01 Z-0.07500
G04 P0 ( dwell for no time -- G64 should not smooth over this point )
F600.00000
X41.69080 Y42.46550
X41.69080 Y40.40810
X39.15080 Y40.40810
X39.15080 Y42.94810
X41.69080 Y42.94810
G04 P0 ( dwell for no time -- G64 should not smooth over this point )
G00 Z0.50000 ( retract )

G00 X44.23080 Y42.46550 ( rapid move to begin. )
F300.00000
G01 Z-0.07500
G04 P0 ( dwell for no time -- G64 should not smooth over this point )
F600.00000
X44.23080 Y42.46550
X44.23080 Y40.40810
X41.69080 Y40.40810
X41.69080 Y42.94810
X44.23080 Y42.94810
G04 P0 ( dwell for no time -- G64 should not smooth over this point )
G00 Z0.50000 ( retract )

G00 X46.77080 Y42.46550 ( rapid move to begin. )
F300.00000
G01 Z-0.07500
G04 P0 ( dwell for no time -- G64 should not smooth over this point )
F600.00000
X46.77080 Y42.46550
X46.77080 Y40.40810
X44.23080 Y40.40810
X44.23080 Y42.94810
X46.77080 Y42.94810
G04 P0 ( dwell for no time -- G64 should not smooth over this point )
G00 Z0.50000 ( retract )

G00 X49.31080 Y42.46550 ( rapid move to begin. )
F300.00000
G01 Z-0.07500
G04 P0 ( dwell for no time -- G64 should not smooth over this point )
F600.00000
X49.31080 Y42.46550
X49.31080 Y40.40810
X46.77080 Y40.40810
X46.77080 Y42.94810
X49.31080 Y42.94810
G04 P0 ( dwell for no time -- G64 should not smooth over this point )
G00 Z0.50000 ( retract )

G00 X51.85080 Y42.46550 ( rapid move to begin. )
F300.00000
G01 Z-0.07500
G04 P0 ( dwell for no time -- G64 should not smooth over this point )
F600.00000
X51.85080 Y42.46550
X51.85080 Y40.40810
X49.31080 Y40.40810
X49.31080 Y42.94810
X51.85080 Y42.94810
G04 P0 ( dwell for no time -- G64 should not smooth over this point )
G00 Z0.50000 ( retract )

G00 X54.39080 Y42.46550 ( rapid move to begin. )
F300.00000
G01 Z-0.07500
G04 P0 ( dwell for no time -- G64 should not smooth over this point )
F600.00000
X54.39080 Y42.46550
X54.39080 Y40.40810
X51.85080 Y40.40810
X51.85080 Y42.94810
X54.39080 Y42.94810
G04 P0 ( dwell for no time -- G64 should not smooth over this point )
G00 Z0.50000 ( retract )

G00 X56.93080 Y42.46550 ( rapid move to begin. )
F300.00000
G01 Z-0.07500
G04 P0 ( dwell for no time -- G64 should not smooth over this point )
F600.00000
X56.93080 Y42.46550
X56.93080 Y40.40810
X54.39080 Y40.40810
X54.39080 Y42.94810
X56.93080 Y42.94810
G04 P0 ( dwell for no time -- G64 should not smooth over this point )
G00 Z0.50000 ( retract )

G00 X59.47080 Y42.46550 ( rapid move to begin. )
F300.00000
G01 Z-0.07500
G04 P0 ( dwell for no time -- G64 should not smooth over this point )
F600.00000
X59.47080 Y42.46550
X59.47080 Y40.40810
X56.93080 Y40.40810
X56.93080 Y42.94810
X59.47080 Y42.94810
G04 P0 ( dwell for no time -- G64 should not smooth over this point )
G00 Z0.50000 ( retract )

G00 X62.01080 Y42.46550 ( rapid move to begin. )
F300.00000
G01 Z-0.07500
G04 P0 ( dwell for no time -- G64 should not smooth over this point )
F600.00000
X62.01080 Y42.46550
X62.01080 Y40.40810
X59.47080 Y40.40810
X59.47080 Y42.94810
X62.01080 Y42.94810
G04 P0 ( dwell for no time -- G64 should not smooth over this point )
G00 Z0.50000 ( retract )

G00 X65.05880 Y42.46550 ( rapid move to begin. )
F300.00000
G01 Z-0.07500
G04 P0 ( dwell for no time -- G64 should not smooth over this point )
F600.00000
X65.05880 Y42.46550
X65.05880 Y40.86530
X65.00800 Y40.40810
X62.01080 Y40.40810
X62.01080 Y42.94810
X65.03340 Y42.92270
G04 P0 ( dwell for no time -- G64 should not smooth over this point )
G00 Z0.50000 ( retract )

G00 X6.13080 Y39.92550 ( rapid move to begin. )
F300.00000
G01 Z-0.07500
G04 P0 ( dwell for no time -- G64 should not smooth over this point )
F600.00000
X6.13080 Y39.92550
X6.13080 Y37.86810
X3.08280 Y37.86810
X3.05740 Y39.46830
X3.08280 Y40.40810
X6.13080 Y40.40810
G04 P0 ( dwell for no time -- G64 should not smooth over this point )
G00 Z0.50000 ( retract )

G00 X8.67080 Y39.92550 ( rapid move to begin. )
F300.00000
G01 Z-0.07500
G04 P0 ( dwell for no time -- G64 should not smooth over this point )
F600.00000
X8.67080 Y39.92550
X8.67080 Y37.86810
X6.13080 Y37.86810
X6.13080 Y40.40810
X8.67080 Y40.40810
G04 P0 ( dwell for no time -- G64 should not smooth over this point )
G00 Z0.50000 ( retract )

G00 X11.21080 Y39.92550 ( rapid move to begin. )
F300.00000
G01 Z-0.07500
G04 P0 ( dwell for no time -- G64 should not smooth over this point )
F600.00000
X11.21080 Y39.92550
X11.21080 Y37.86810
X8.67080 Y37.86810
X8.67080 Y40.40810
X11.21080 Y40.40810
G04 P0 ( dwell for no time -- G64 should not smooth over this point )
G00 Z0.50000 ( retract )

G00 X13.75080 Y39.92550 ( rapid move to begin. )
F300.00000
G01 Z-0.07500
G04 P0 ( dwell for no time -- G64 should not smooth over this point )
F600.00000
X13.75080 Y39.92550
X13.75080 Y37.86810
X11.21080 Y37.86810
X11.21080 Y40.40810
X13.75080 Y40.40810
G04 P0 ( dwell for no time -- G64 should not smooth over this point )
G00 Z0.50000 ( retract )

G00 X16.29080 Y39.92550 ( rapid move to begin. )
F300.00000
G01 Z-0.07500
G04 P0 ( dwell for no time -- G64 should not smooth over this point )
F600.00000
X16.29080 Y39.92550
X16.29080 Y37.86810
X13.75080 Y37.86810
X13.75080 Y40.40810
X16.29080 Y40.40810
G04 P0 ( dwell for no time -- G64 should not smooth over this point )
G00 Z0.50000 ( retract )

G00 X18.83080 Y39.92550 ( rapid move to begin. )
F300.00000
G01 Z-0.07500
G04 P0 ( dwell for no time -- G64 should not smooth over this point )
F600.00000
X18.83080 Y39.92550
X18.83080 Y37.86810
X16.29080 Y37.86810
X16.29080 Y40.40810
X18.83080 Y40.40810
G04 P0 ( dwell for no time -- G64 should not smooth over this point )
G00 Z0.50000 ( retract )

G00 X21.37080 Y39.92550 ( rapid move to begin. )
F300.00000
G01 Z-0.07500
G04 P0 ( dwell for no time -- G64 should not smooth over this point )
F600.00000
X21.37080 Y39.92550
X21.37080 Y37.86810
X18.83080 Y37.86810
X18.83080 Y40.40810
X21.37080 Y40.40810
G04 P0 ( dwell for no time -- G64 should not smooth over this point )
G00 Z0.50000 ( retract )

G00 X23.91080 Y39.92550 ( rapid move to begin. )
F300.00000
G01 Z-0.07500
G04 P0 ( dwell for no time -- G64 should not smooth over this point )
F600.00000
X23.91080 Y39.92550
X23.91080 Y37.86810
X21.37080 Y37.86810
X21.37080 Y40.40810
X23.91080 Y40.40810
G04 P0 ( dwell for no time -- G64 should not smooth over this point )
G00 Z0.50000 ( retract )

G00 X26.45080 Y39.92550 ( rapid move to begin. )
F300.00000
G01 Z-0.07500
G04 P0 ( dwell for no time -- G64 should not smooth over this point )
F600.00000
X26.45080 Y39.92550
X26.45080 Y37.86810
X23.91080 Y37.86810
X23.91080 Y40.40810
X26.45080 Y40.40810
G04 P0 ( dwell for no time -- G64 should not smooth over this point )
G00 Z0.50000 ( retract )

G00 X28.99080 Y39.92550 ( rapid move to begin. )
F300.00000
G01 Z-0.07500
G04 P0 ( dwell for no time -- G64 should not smooth over this point )
F600.00000
X28.99080 Y39.92550
X28.99080 Y37.86810
X26.45080 Y37.86810
X26.45080 Y40.40810
X28.99080 Y40.40810
G04 P0 ( dwell for no time -- G64 should not smooth over this point )
G00 Z0.50000 ( retract )

G00 X31.53080 Y39.92550 ( rapid move to begin. )
F300.00000
G01 Z-0.07500
G04 P0 ( dwell for no time -- G64 should not smooth over this point )
F600.00000
X31.53080 Y39.92550
X31.53080 Y37.86810
X28.99080 Y37.86810
X28.99080 Y40.40810
X31.53080 Y40.40810
G04 P0 ( dwell for no time -- G64 should not smooth over this point )
G00 Z0.50000 ( retract )

G00 X34.07080 Y39.92550 ( rapid move to begin. )
F300.00000
G01 Z-0.07500
G04 P0 ( dwell for no time -- G64 should not smooth over this point )
F600.00000
X34.07080 Y39.92550
X34.07080 Y37.86810
X31.53080 Y37.86810
X31.53080 Y40.40810
X34.07080 Y40.40810
G04 P0 ( dwell for no time -- G64 should not smooth over this point )
G00 Z0.50000 ( retract )

G00 X36.61080 Y39.92550 ( rapid move to begin. )
F300.00000
G01 Z-0.07500
G04 P0 ( dwell for no time -- G64 should not smooth over this point )
F600.00000
X36.61080 Y39.92550
X36.61080 Y37.86810
X34.07080 Y37.86810
X34.07080 Y40.40810
X36.61080 Y40.40810
G04 P0 ( dwell for no time -- G64 should not smooth over this point )
G00 Z0.50000 ( retract )

G00 X39.15080 Y39.92550 ( rapid move to begin. )
F300.00000
G01 Z-0.07500
G04 P0 ( dwell for no time -- G64 should not smooth over this point )
F600.00000
X39.15080 Y39.92550
X39.15080 Y37.86810
X36.61080 Y37.86810
X36.61080 Y40.40810
X39.15080 Y40.40810
G04 P0 ( dwell for no time -- G64 should not smooth over this point )
G00 Z0.50000 ( retract )

G00 X41.69080 Y39.92550 ( rapid move to begin. )
F300.00000
G01 Z-0.07500
G04 P0 ( dwell for no time -- G64 should not smooth over this point )
F600.00000
X41.69080 Y39.92550
X41.69080 Y37.86810
X39.15080 Y37.86810
X39.15080 Y40.40810
X41.69080 Y40.40810
G04 P0 ( dwell for no time -- G64 should not smooth over this point )
G00 Z0.50000 ( retract )

G00 X44.23080 Y39.92550 ( rapid move to begin. )
F300.00000
G01 Z-0.07500
G04 P0 ( dwell for no time -- G64 should not smooth over this point )
F600.00000
X44.23080 Y39.92550
X44.23080 Y37.86810
X41.69080 Y37.86810
X41.69080 Y40.40810
X44.23080 Y40.40810
G04 P0 ( dwell for no time -- G64 should not smooth over this point )
G00 Z0.50000 ( retract )

G00 X46.77080 Y39.92550 ( rapid move to begin. )
F300.00000
G01 Z-0.07500
G04 P0 ( dwell for no time -- G64 should not smooth over this point )
F600.00000
X46.77080 Y39.92550
X46.77080 Y37.86810
X44.23080 Y37.86810
X44.23080 Y40.40810
X46.77080 Y40.40810
G04 P0 ( dwell for no time -- G64 should not smooth over this point )
G00 Z0.50000 ( retract )

G00 X49.31080 Y39.92550 ( rapid move to begin. )
F300.00000
G01 Z-0.07500
G04 P0 ( dwell for no time -- G64 should not smooth over this point )
F600.00000
X49.31080 Y39.92550
X49.31080 Y37.86810
X46.77080 Y37.86810
X46.77080 Y40.40810
X49.31080 Y40.40810
G04 P0 ( dwell for no time -- G64 should not smooth over this point )
G00 Z0.50000 ( retract )

G00 X51.85080 Y39.92550 ( rapid move to begin. )
F300.00000
G01 Z-0.07500
G04 P0 ( dwell for no time -- G64 should not smooth over this point )
F600.00000
X51.85080 Y39.92550
X51.85080 Y37.86810
X49.31080 Y37.86810
X49.31080 Y40.40810
X51.85080 Y40.40810
G04 P0 ( dwell for no time -- G64 should not smooth over this point )
G00 Z0.50000 ( retract )

G00 X54.39080 Y39.92550 ( rapid move to begin. )
F300.00000
G01 Z-0.07500
G04 P0 ( dwell for no time -- G64 should not smooth over this point )
F600.00000
X54.39080 Y39.92550
X54.39080 Y37.86810
X51.85080 Y37.86810
X51.85080 Y40.40810
X54.39080 Y40.40810
G04 P0 ( dwell for no time -- G64 should not smooth over this point )
G00 Z0.50000 ( retract )

G00 X56.93080 Y39.92550 ( rapid move to begin. )
F300.00000
G01 Z-0.07500
G04 P0 ( dwell for no time -- G64 should not smooth over this point )
F600.00000
X56.93080 Y39.92550
X56.93080 Y37.86810
X54.39080 Y37.86810
X54.39080 Y40.40810
X56.93080 Y40.40810
G04 P0 ( dwell for no time -- G64 should not smooth over this point )
G00 Z0.50000 ( retract )

G00 X59.47080 Y39.92550 ( rapid move to begin. )
F300.00000
G01 Z-0.07500
G04 P0 ( dwell for no time -- G64 should not smooth over this point )
F600.00000
X59.47080 Y39.92550
X59.47080 Y37.86810
X56.93080 Y37.86810
X56.93080 Y40.40810
X59.47080 Y40.40810
G04 P0 ( dwell for no time -- G64 should not smooth over this point )
G00 Z0.50000 ( retract )

G00 X62.01080 Y39.92550 ( rapid move to begin. )
F300.00000
G01 Z-0.07500
G04 P0 ( dwell for no time -- G64 should not smooth over this point )
F600.00000
X62.01080 Y39.92550
X62.01080 Y37.86810
X59.47080 Y37.86810
X59.47080 Y40.40810
X62.01080 Y40.40810
G04 P0 ( dwell for no time -- G64 should not smooth over this point )
G00 Z0.50000 ( retract )

G00 X65.05880 Y39.92550 ( rapid move to begin. )
F300.00000
G01 Z-0.07500
G04 P0 ( dwell for no time -- G64 should not smooth over this point )
F600.00000
X65.05880 Y39.92550
X65.05880 Y38.32530
X65.00800 Y37.86810
X62.01080 Y37.86810
X62.01080 Y40.40810
X65.03340 Y40.38270
G04 P0 ( dwell for no time -- G64 should not smooth over this point )
G00 Z0.50000 ( retract )

G00 X6.13080 Y37.38550 ( rapid move to begin. )
F300.00000
G01 Z-0.07500
G04 P0 ( dwell for no time -- G64 should not smooth over this point )
F600.00000
X6.13080 Y37.38550
X6.13080 Y35.32810
X3.08280 Y35.32810
X3.05740 Y36.92830
X3.08280 Y37.86810
X6.13080 Y37.86810
G04 P0 ( dwell for no time -- G64 should not smooth over this point )
G00 Z0.50000 ( retract )

G00 X8.67080 Y37.38550 ( rapid move to begin. )
F300.00000
G01 Z-0.07500
G04 P0 ( dwell for no time -- G64 should not smooth over this point )
F600.00000
X8.67080 Y37.38550
X8.67080 Y35.32810
X6.13080 Y35.32810
X6.13080 Y37.86810
X8.67080 Y37.86810
G04 P0 ( dwell for no time -- G64 should not smooth over this point )
G00 Z0.50000 ( retract )

G00 X11.21080 Y37.38550 ( rapid move to begin. )
F300.00000
G01 Z-0.07500
G04 P0 ( dwell for no time -- G64 should not smooth over this point )
F600.00000
X11.21080 Y37.38550
X11.21080 Y35.32810
X8.67080 Y35.32810
X8.67080 Y37.86810
X11.21080 Y37.86810
G04 P0 ( dwell for no time -- G64 should not smooth over this point )
G00 Z0.50000 ( retract )

G00 X13.75080 Y37.38550 ( rapid move to begin. )
F300.00000
G01 Z-0.07500
G04 P0 ( dwell for no time -- G64 should not smooth over this point )
F600.00000
X13.75080 Y37.38550
X13.75080 Y35.32810
X11.21080 Y35.32810
X11.21080 Y37.86810
X13.75080 Y37.86810
G04 P0 ( dwell for no time -- G64 should not smooth over this point )
G00 Z0.50000 ( retract )

G00 X16.29080 Y37.38550 ( rapid move to begin. )
F300.00000
G01 Z-0.07500
G04 P0 ( dwell for no time -- G64 should not smooth over this point )
F600.00000
X16.29080 Y37.38550
X16.29080 Y35.32810
X13.75080 Y35.32810
X13.75080 Y37.86810
X16.29080 Y37.86810
G04 P0 ( dwell for no time -- G64 should not smooth over this point )
G00 Z0.50000 ( retract )

G00 X18.83080 Y37.38550 ( rapid move to begin. )
F300.00000
G01 Z-0.07500
G04 P0 ( dwell for no time -- G64 should not smooth over this point )
F600.00000
X18.83080 Y37.38550
X18.83080 Y35.32810
X16.29080 Y35.32810
X16.29080 Y37.86810
X18.83080 Y37.86810
G04 P0 ( dwell for no time -- G64 should not smooth over this point )
G00 Z0.50000 ( retract )

G00 X21.37080 Y37.38550 ( rapid move to begin. )
F300.00000
G01 Z-0.07500
G04 P0 ( dwell for no time -- G64 should not smooth over this point )
F600.00000
X21.37080 Y37.38550
X21.37080 Y35.32810
X18.83080 Y35.32810
X18.83080 Y37.86810
X21.37080 Y37.86810
G04 P0 ( dwell for no time -- G64 should not smooth over this point )
G00 Z0.50000 ( retract )

G00 X23.91080 Y37.38550 ( rapid move to begin. )
F300.00000
G01 Z-0.07500
G04 P0 ( dwell for no time -- G64 should not smooth over this point )
F600.00000
X23.91080 Y37.38550
X23.91080 Y35.32810
X21.37080 Y35.32810
X21.37080 Y37.86810
X23.91080 Y37.86810
G04 P0 ( dwell for no time -- G64 should not smooth over this point )
G00 Z0.50000 ( retract )

G00 X26.45080 Y37.38550 ( rapid move to begin. )
F300.00000
G01 Z-0.07500
G04 P0 ( dwell for no time -- G64 should not smooth over this point )
F600.00000
X26.45080 Y37.38550
X26.45080 Y35.32810
X23.91080 Y35.32810
X23.91080 Y37.86810
X26.45080 Y37.86810
G04 P0 ( dwell for no time -- G64 should not smooth over this point )
G00 Z0.50000 ( retract )

G00 X28.99080 Y37.38550 ( rapid move to begin. )
F300.00000
G01 Z-0.07500
G04 P0 ( dwell for no time -- G64 should not smooth over this point )
F600.00000
X28.99080 Y37.38550
X28.99080 Y35.32810
X26.45080 Y35.32810
X26.45080 Y37.86810
X28.99080 Y37.86810
G04 P0 ( dwell for no time -- G64 should not smooth over this point )
G00 Z0.50000 ( retract )

G00 X31.53080 Y37.38550 ( rapid move to begin. )
F300.00000
G01 Z-0.07500
G04 P0 ( dwell for no time -- G64 should not smooth over this point )
F600.00000
X31.53080 Y37.38550
X31.53080 Y35.32810
X28.99080 Y35.32810
X28.99080 Y37.86810
X31.53080 Y37.86810
G04 P0 ( dwell for no time -- G64 should not smooth over this point )
G00 Z0.50000 ( retract )

G00 X34.07080 Y37.38550 ( rapid move to begin. )
F300.00000
G01 Z-0.07500
G04 P0 ( dwell for no time -- G64 should not smooth over this point )
F600.00000
X34.07080 Y37.38550
X34.07080 Y35.32810
X31.53080 Y35.32810
X31.53080 Y37.86810
X34.07080 Y37.86810
G04 P0 ( dwell for no time -- G64 should not smooth over this point )
G00 Z0.50000 ( retract )

G00 X36.61080 Y37.38550 ( rapid move to begin. )
F300.00000
G01 Z-0.07500
G04 P0 ( dwell for no time -- G64 should not smooth over this point )
F600.00000
X36.61080 Y37.38550
X36.61080 Y35.32810
X34.07080 Y35.32810
X34.07080 Y37.86810
X36.61080 Y37.86810
G04 P0 ( dwell for no time -- G64 should not smooth over this point )
G00 Z0.50000 ( retract )

G00 X39.15080 Y37.38550 ( rapid move to begin. )
F300.00000
G01 Z-0.07500
G04 P0 ( dwell for no time -- G64 should not smooth over this point )
F600.00000
X39.15080 Y37.38550
X39.15080 Y35.32810
X36.61080 Y35.32810
X36.61080 Y37.86810
X39.15080 Y37.86810
G04 P0 ( dwell for no time -- G64 should not smooth over this point )
G00 Z0.50000 ( retract )

G00 X41.69080 Y37.38550 ( rapid move to begin. )
F300.00000
G01 Z-0.07500
G04 P0 ( dwell for no time -- G64 should not smooth over this point )
F600.00000
X41.69080 Y37.38550
X41.69080 Y35.32810
X39.15080 Y35.32810
X39.15080 Y37.86810
X41.69080 Y37.86810
G04 P0 ( dwell for no time -- G64 should not smooth over this point )
G00 Z0.50000 ( retract )

G00 X44.23080 Y37.38550 ( rapid move to begin. )
F300.00000
G01 Z-0.07500
G04 P0 ( dwell for no time -- G64 should not smooth over this point )
F600.00000
X44.23080 Y37.38550
X44.23080 Y35.32810
X41.69080 Y35.32810
X41.69080 Y37.86810
X44.23080 Y37.86810
G04 P0 ( dwell for no time -- G64 should not smooth over this point )
G00 Z0.50000 ( retract )

G00 X46.77080 Y37.38550 ( rapid move to begin. )
F300.00000
G01 Z-0.07500
G04 P0 ( dwell for no time -- G64 should not smooth over this point )
F600.00000
X46.77080 Y37.38550
X46.77080 Y35.32810
X44.23080 Y35.32810
X44.23080 Y37.86810
X46.77080 Y37.86810
G04 P0 ( dwell for no time -- G64 should not smooth over this point )
G00 Z0.50000 ( retract )

G00 X49.31080 Y37.38550 ( rapid move to begin. )
F300.00000
G01 Z-0.07500
G04 P0 ( dwell for no time -- G64 should not smooth over this point )
F600.00000
X49.31080 Y37.38550
X49.31080 Y35.32810
X46.77080 Y35.32810
X46.77080 Y37.86810
X49.31080 Y37.86810
G04 P0 ( dwell for no time -- G64 should not smooth over this point )
G00 Z0.50000 ( retract )

G00 X51.85080 Y37.38550 ( rapid move to begin. )
F300.00000
G01 Z-0.07500
G04 P0 ( dwell for no time -- G64 should not smooth over this point )
F600.00000
X51.85080 Y37.38550
X51.85080 Y35.32810
X49.31080 Y35.32810
X49.31080 Y37.86810
X51.85080 Y37.86810
G04 P0 ( dwell for no time -- G64 should not smooth over this point )
G00 Z0.50000 ( retract )

G00 X54.39080 Y37.38550 ( rapid move to begin. )
F300.00000
G01 Z-0.07500
G04 P0 ( dwell for no time -- G64 should not smooth over this point )
F600.00000
X54.39080 Y37.38550
X54.39080 Y35.32810
X51.85080 Y35.32810
X51.85080 Y37.86810
X54.39080 Y37.86810
G04 P0 ( dwell for no time -- G64 should not smooth over this point )
G00 Z0.50000 ( retract )

G00 X56.93080 Y37.38550 ( rapid move to begin. )
F300.00000
G01 Z-0.07500
G04 P0 ( dwell for no time -- G64 should not smooth over this point )
F600.00000
X56.93080 Y37.38550
X56.93080 Y35.32810
X54.39080 Y35.32810
X54.39080 Y37.86810
X56.93080 Y37.86810
G04 P0 ( dwell for no time -- G64 should not smooth over this point )
G00 Z0.50000 ( retract )

G00 X59.47080 Y37.38550 ( rapid move to begin. )
F300.00000
G01 Z-0.07500
G04 P0 ( dwell for no time -- G64 should not smooth over this point )
F600.00000
X59.47080 Y37.38550
X59.47080 Y35.32810
X56.93080 Y35.32810
X56.93080 Y37.86810
X59.47080 Y37.86810
G04 P0 ( dwell for no time -- G64 should not smooth over this point )
G00 Z0.50000 ( retract )

G00 X62.01080 Y37.38550 ( rapid move to begin. )
F300.00000
G01 Z-0.07500
G04 P0 ( dwell for no time -- G64 should not smooth over this point )
F600.00000
X62.01080 Y37.38550
X62.01080 Y35.32810
X59.47080 Y35.32810
X59.47080 Y37.86810
X62.01080 Y37.86810
G04 P0 ( dwell for no time -- G64 should not smooth over this point )
G00 Z0.50000 ( retract )

G00 X65.05880 Y37.38550 ( rapid move to begin. )
F300.00000
G01 Z-0.07500
G04 P0 ( dwell for no time -- G64 should not smooth over this point )
F600.00000
X65.05880 Y37.38550
X65.05880 Y35.78530
X65.00800 Y35.32810
X62.01080 Y35.32810
X62.01080 Y37.86810
X65.03340 Y37.84270
G04 P0 ( dwell for no time -- G64 should not smooth over this point )
G00 Z0.50000 ( retract )

G00 X6.13080 Y34.84550 ( rapid move to begin. )
F300.00000
G01 Z-0.07500
G04 P0 ( dwell for no time -- G64 should not smooth over this point )
F600.00000
X6.13080 Y34.84550
X6.13080 Y32.78810
X3.08280 Y32.78810
X3.05740 Y34.38830
X3.08280 Y35.32810
X6.13080 Y35.32810
G04 P0 ( dwell for no time -- G64 should not smooth over this point )
G00 Z0.50000 ( retract )

G00 X8.67080 Y34.84550 ( rapid move to begin. )
F300.00000
G01 Z-0.07500
G04 P0 ( dwell for no time -- G64 should not smooth over this point )
F600.00000
X8.67080 Y34.84550
X8.67080 Y32.78810
X6.13080 Y32.78810
X6.13080 Y35.32810
X8.67080 Y35.32810
G04 P0 ( dwell for no time -- G64 should not smooth over this point )
G00 Z0.50000 ( retract )

G00 X11.21080 Y34.84550 ( rapid move to begin. )
F300.00000
G01 Z-0.07500
G04 P0 ( dwell for no time -- G64 should not smooth over this point )
F600.00000
X11.21080 Y34.84550
X11.21080 Y32.78810
X8.67080 Y32.78810
X8.67080 Y35.32810
X11.21080 Y35.32810
G04 P0 ( dwell for no time -- G64 should not smooth over this point )
G00 Z0.50000 ( retract )

G00 X13.75080 Y34.84550 ( rapid move to begin. )
F300.00000
G01 Z-0.07500
G04 P0 ( dwell for no time -- G64 should not smooth over this point )
F600.00000
X13.75080 Y34.84550
X13.75080 Y32.78810
X11.21080 Y32.78810
X11.21080 Y35.32810
X13.75080 Y35.32810
G04 P0 ( dwell for no time -- G64 should not smooth over this point )
G00 Z0.50000 ( retract )

G00 X16.29080 Y34.84550 ( rapid move to begin. )
F300.00000
G01 Z-0.07500
G04 P0 ( dwell for no time -- G64 should not smooth over this point )
F600.00000
X16.29080 Y34.84550
X16.29080 Y32.78810
X13.75080 Y32.78810
X13.75080 Y35.32810
X16.29080 Y35.32810
G04 P0 ( dwell for no time -- G64 should not smooth over this point )
G00 Z0.50000 ( retract )

G00 X18.83080 Y34.84550 ( rapid move to begin. )
F300.00000
G01 Z-0.07500
G04 P0 ( dwell for no time -- G64 should not smooth over this point )
F600.00000
X18.83080 Y34.84550
X18.83080 Y32.78810
X16.29080 Y32.78810
X16.29080 Y35.32810
X18.83080 Y35.32810
G04 P0 ( dwell for no time -- G64 should not smooth over this point )
G00 Z0.50000 ( retract )

G00 X21.37080 Y34.84550 ( rapid move to begin. )
F300.00000
G01 Z-0.07500
G04 P0 ( dwell for no time -- G64 should not smooth over this point )
F600.00000
X21.37080 Y34.84550
X21.37080 Y32.78810
X18.83080 Y32.78810
X18.83080 Y35.32810
X21.37080 Y35.32810
G04 P0 ( dwell for no time -- G64 should not smooth over this point )
G00 Z0.50000 ( retract )

G00 X23.91080 Y34.84550 ( rapid move to begin. )
F300.00000
G01 Z-0.07500
G04 P0 ( dwell for no time -- G64 should not smooth over this point )
F600.00000
X23.91080 Y34.84550
X23.91080 Y32.78810
X21.37080 Y32.78810
X21.37080 Y35.32810
X23.91080 Y35.32810
G04 P0 ( dwell for no time -- G64 should not smooth over this point )
G00 Z0.50000 ( retract )

G00 X26.45080 Y34.84550 ( rapid move to begin. )
F300.00000
G01 Z-0.07500
G04 P0 ( dwell for no time -- G64 should not smooth over this point )
F600.00000
X26.45080 Y34.84550
X26.45080 Y32.78810
X23.91080 Y32.78810
X23.91080 Y35.32810
X26.45080 Y35.32810
G04 P0 ( dwell for no time -- G64 should not smooth over this point )
G00 Z0.50000 ( retract )

G00 X28.99080 Y34.84550 ( rapid move to begin. )
F300.00000
G01 Z-0.07500
G04 P0 ( dwell for no time -- G64 should not smooth over this point )
F600.00000
X28.99080 Y34.84550
X28.99080 Y32.78810
X26.45080 Y32.78810
X26.45080 Y35.32810
X28.99080 Y35.32810
G04 P0 ( dwell for no time -- G64 should not smooth over this point )
G00 Z0.50000 ( retract )

G00 X31.53080 Y34.84550 ( rapid move to begin. )
F300.00000
G01 Z-0.07500
G04 P0 ( dwell for no time -- G64 should not smooth over this point )
F600.00000
X31.53080 Y34.84550
X31.53080 Y32.78810
X28.99080 Y32.78810
X28.99080 Y35.32810
X31.53080 Y35.32810
G04 P0 ( dwell for no time -- G64 should not smooth over this point )
G00 Z0.50000 ( retract )

G00 X34.07080 Y34.84550 ( rapid move to begin. )
F300.00000
G01 Z-0.07500
G04 P0 ( dwell for no time -- G64 should not smooth over this point )
F600.00000
X34.07080 Y34.84550
X34.07080 Y32.78810
X31.53080 Y32.78810
X31.53080 Y35.32810
X34.07080 Y35.32810
G04 P0 ( dwell for no time -- G64 should not smooth over this point )
G00 Z0.50000 ( retract )

G00 X36.61080 Y34.84550 ( rapid move to begin. )
F300.00000
G01 Z-0.07500
G04 P0 ( dwell for no time -- G64 should not smooth over this point )
F600.00000
X36.61080 Y34.84550
X36.61080 Y32.78810
X34.07080 Y32.78810
X34.07080 Y35.32810
X36.61080 Y35.32810
G04 P0 ( dwell for no time -- G64 should not smooth over this point )
G00 Z0.50000 ( retract )

G00 X39.15080 Y34.84550 ( rapid move to begin. )
F300.00000
G01 Z-0.07500
G04 P0 ( dwell for no time -- G64 should not smooth over this point )
F600.00000
X39.15080 Y34.84550
X39.15080 Y32.78810
X36.61080 Y32.78810
X36.61080 Y35.32810
X39.15080 Y35.32810
G04 P0 ( dwell for no time -- G64 should not smooth over this point )
G00 Z0.50000 ( retract )

G00 X41.69080 Y34.84550 ( rapid move to begin. )
F300.00000
G01 Z-0.07500
G04 P0 ( dwell for no time -- G64 should not smooth over this point )
F600.00000
X41.69080 Y34.84550
X41.69080 Y32.78810
X39.15080 Y32.78810
X39.15080 Y35.32810
X41.69080 Y35.32810
G04 P0 ( dwell for no time -- G64 should not smooth over this point )
G00 Z0.50000 ( retract )

G00 X44.23080 Y34.84550 ( rapid move to begin. )
F300.00000
G01 Z-0.07500
G04 P0 ( dwell for no time -- G64 should not smooth over this point )
F600.00000
X44.23080 Y34.84550
X44.23080 Y32.78810
X41.69080 Y32.78810
X41.69080 Y35.32810
X44.23080 Y35.32810
G04 P0 ( dwell for no time -- G64 should not smooth over this point )
G00 Z0.50000 ( retract )

G00 X46.77080 Y34.84550 ( rapid move to begin. )
F300.00000
G01 Z-0.07500
G04 P0 ( dwell for no time -- G64 should not smooth over this point )
F600.00000
X46.77080 Y34.84550
X46.77080 Y32.78810
X44.23080 Y32.78810
X44.23080 Y35.32810
X46.77080 Y35.32810
G04 P0 ( dwell for no time -- G64 should not smooth over this point )
G00 Z0.50000 ( retract )

G00 X49.31080 Y34.84550 ( rapid move to begin. )
F300.00000
G01 Z-0.07500
G04 P0 ( dwell for no time -- G64 should not smooth over this point )
F600.00000
X49.31080 Y34.84550
X49.31080 Y32.78810
X46.77080 Y32.78810
X46.77080 Y35.32810
X49.31080 Y35.32810
G04 P0 ( dwell for no time -- G64 should not smooth over this point )
G00 Z0.50000 ( retract )

G00 X51.85080 Y34.84550 ( rapid move to begin. )
F300.00000
G01 Z-0.07500
G04 P0 ( dwell for no time -- G64 should not smooth over this point )
F600.00000
X51.85080 Y34.84550
X51.85080 Y32.78810
X49.31080 Y32.78810
X49.31080 Y35.32810
X51.85080 Y35.32810
G04 P0 ( dwell for no time -- G64 should not smooth over this point )
G00 Z0.50000 ( retract )

G00 X54.39080 Y34.84550 ( rapid move to begin. )
F300.00000
G01 Z-0.07500
G04 P0 ( dwell for no time -- G64 should not smooth over this point )
F600.00000
X54.39080 Y34.84550
X54.39080 Y32.78810
X51.85080 Y32.78810
X51.85080 Y35.32810
X54.39080 Y35.32810
G04 P0 ( dwell for no time -- G64 should not smooth over this point )
G00 Z0.50000 ( retract )

G00 X56.93080 Y34.84550 ( rapid move to begin. )
F300.00000
G01 Z-0.07500
G04 P0 ( dwell for no time -- G64 should not smooth over this point )
F600.00000
X56.93080 Y34.84550
X56.93080 Y32.78810
X54.39080 Y32.78810
X54.39080 Y35.32810
X56.93080 Y35.32810
G04 P0 ( dwell for no time -- G64 should not smooth over this point )
G00 Z0.50000 ( retract )

G00 X59.47080 Y34.84550 ( rapid move to begin. )
F300.00000
G01 Z-0.07500
G04 P0 ( dwell for no time -- G64 should not smooth over this point )
F600.00000
X59.47080 Y34.84550
X59.47080 Y32.78810
X56.93080 Y32.78810
X56.93080 Y35.32810
X59.47080 Y35.32810
G04 P0 ( dwell for no time -- G64 should not smooth over this point )
G00 Z0.50000 ( retract )

G00 X62.01080 Y34.84550 ( rapid move to begin. )
F300.00000
G01 Z-0.07500
G04 P0 ( dwell for no time -- G64 should not smooth over this point )
F600.00000
X62.01080 Y34.84550
X62.01080 Y32.78810
X59.47080 Y32.78810
X59.47080 Y35.32810
X62.01080 Y35.32810
G04 P0 ( dwell for no time -- G64 should not smooth over this point )
G00 Z0.50000 ( retract )

G00 X65.05880 Y34.84550 ( rapid move to begin. )
F300.00000
G01 Z-0.07500
G04 P0 ( dwell for no time -- G64 should not smooth over this point )
F600.00000
X65.05880 Y34.84550
X65.03340 Y34.48990
X64.93180 Y34.38830
X64.80480 Y34.10890
X64.67780 Y33.42310
X64.65240 Y33.04210
X64.57620 Y32.81350
X62.01080 Y32.78810
X62.01080 Y35.32810
X65.03340 Y35.30270
G04 P0 ( dwell for no time -- G64 should not smooth over this point )
G00 Z0.50000 ( retract )

G00 X67.34480 Y33.55010 ( rapid move to begin. )
F300.00000
G01 Z-0.07500
G04 P0 ( dwell for no time -- G64 should not smooth over this point )
F600.00000
X67.34480 Y33.55010
X67.34480 Y31.54350
X64.77940 Y31.51810
X64.70320 Y31.84830
X64.62700 Y32.58490
X64.57620 Y32.73730
X64.65240 Y33.06750
X64.72860 Y33.80410
X64.80480 Y34.13430
X65.08420 Y34.56610
X67.29400 Y34.54070
X67.34480 Y34.48990
G04 P0 ( dwell for no time -- G64 should not smooth over this point )
G00 Z0.50000 ( retract )

G00 X70.36740 Y33.55010 ( rapid move to begin. )
F300.00000
G01 Z-0.07500
G04 P0 ( dwell for no time -- G64 should not smooth over this point )
F600.00000
X70.36740 Y33.55010
X70.36740 Y31.74670
X70.29120 Y31.51810
X67.34480 Y31.51810
X67.37020 Y34.54070
X69.75780 Y34.54070
X70.16420 Y34.33750
X70.31660 Y34.08350
X70.36740 Y33.72790
G04 P0 ( dwell for no time -- G64 should not smooth over this point )
G00 Z0.50000 ( retract )

G00 X6.13080 Y32.30550 ( rapid move to begin. )
F300.00000
G01 Z-0.07500
G04 P0 ( dwell for no time -- G64 should not smooth over this point )
F600.00000
X6.13080 Y32.30550
X6.13080 Y30.24810
X3.08280 Y30.24810
X3.05740 Y31.84830
X3.08280 Y32.78810
X6.13080 Y32.78810
G04 P0 ( dwell for no time -- G64 should not smooth over this point )
G00 Z0.50000 ( retract )

G00 X8.67080 Y32.30550 ( rapid move to begin. )
F300.00000
G01 Z-0.07500
G04 P0 ( dwell for no time -- G64 should not smooth over this point )
F600.00000
X8.67080 Y32.30550
X8.67080 Y30.24810
X6.13080 Y30.24810
X6.13080 Y32.78810
X8.67080 Y32.78810
G04 P0 ( dwell for no time -- G64 should not smooth over this point )
G00 Z0.50000 ( retract )

G00 X11.21080 Y32.30550 ( rapid move to begin. )
F300.00000
G01 Z-0.07500
G04 P0 ( dwell for no time -- G64 should not smooth over this point )
F600.00000
X11.21080 Y32.30550
X11.21080 Y30.24810
X8.67080 Y30.24810
X8.67080 Y32.78810
X11.21080 Y32.78810
G04 P0 ( dwell for no time -- G64 should not smooth over this point )
G00 Z0.50000 ( retract )

G00 X13.75080 Y32.30550 ( rapid move to begin. )
F300.00000
G01 Z-0.07500
G04 P0 ( dwell for no time -- G64 should not smooth over this point )
F600.00000
X13.75080 Y32.30550
X13.75080 Y30.24810
X11.21080 Y30.24810
X11.21080 Y32.78810
X13.75080 Y32.78810
G04 P0 ( dwell for no time -- G64 should not smooth over this point )
G00 Z0.50000 ( retract )

G00 X16.29080 Y32.30550 ( rapid move to begin. )
F300.00000
G01 Z-0.07500
G04 P0 ( dwell for no time -- G64 should not smooth over this point )
F600.00000
X16.29080 Y32.30550
X16.29080 Y30.24810
X13.75080 Y30.24810
X13.75080 Y32.78810
X16.29080 Y32.78810
G04 P0 ( dwell for no time -- G64 should not smooth over this point )
G00 Z0.50000 ( retract )

G00 X18.83080 Y32.30550 ( rapid move to begin. )
F300.00000
G01 Z-0.07500
G04 P0 ( dwell for no time -- G64 should not smooth over this point )
F600.00000
X18.83080 Y32.30550
X18.83080 Y30.24810
X16.29080 Y30.24810
X16.29080 Y32.78810
X18.83080 Y32.78810
G04 P0 ( dwell for no time -- G64 should not smooth over this point )
G00 Z0.50000 ( retract )

G00 X21.37080 Y32.30550 ( rapid move to begin. )
F300.00000
G01 Z-0.07500
G04 P0 ( dwell for no time -- G64 should not smooth over this point )
F600.00000
X21.37080 Y32.30550
X21.37080 Y30.24810
X18.83080 Y30.24810
X18.83080 Y32.78810
X21.37080 Y32.78810
G04 P0 ( dwell for no time -- G64 should not smooth over this point )
G00 Z0.50000 ( retract )

G00 X23.91080 Y32.30550 ( rapid move to begin. )
F300.00000
G01 Z-0.07500
G04 P0 ( dwell for no time -- G64 should not smooth over this point )
F600.00000
X23.91080 Y32.30550
X23.91080 Y30.24810
X21.37080 Y30.24810
X21.37080 Y32.78810
X23.91080 Y32.78810
G04 P0 ( dwell for no time -- G64 should not smooth over this point )
G00 Z0.50000 ( retract )

G00 X26.45080 Y32.30550 ( rapid move to begin. )
F300.00000
G01 Z-0.07500
G04 P0 ( dwell for no time -- G64 should not smooth over this point )
F600.00000
X26.45080 Y32.30550
X26.45080 Y30.24810
X23.91080 Y30.24810
X23.91080 Y32.78810
X26.45080 Y32.78810
G04 P0 ( dwell for no time -- G64 should not smooth over this point )
G00 Z0.50000 ( retract )

G00 X28.99080 Y32.30550 ( rapid move to begin. )
F300.00000
G01 Z-0.07500
G04 P0 ( dwell for no time -- G64 should not smooth over this point )
F600.00000
X28.99080 Y32.30550
X28.99080 Y30.24810
X26.45080 Y30.24810
X26.45080 Y32.78810
X28.99080 Y32.78810
G04 P0 ( dwell for no time -- G64 should not smooth over this point )
G00 Z0.50000 ( retract )

G00 X31.53080 Y32.30550 ( rapid move to begin. )
F300.00000
G01 Z-0.07500
G04 P0 ( dwell for no time -- G64 should not smooth over this point )
F600.00000
X31.53080 Y32.30550
X31.53080 Y30.24810
X28.99080 Y30.24810
X28.99080 Y32.78810
X31.53080 Y32.78810
G04 P0 ( dwell for no time -- G64 should not smooth over this point )
G00 Z0.50000 ( retract )

G00 X34.07080 Y32.30550 ( rapid move to begin. )
F300.00000
G01 Z-0.07500
G04 P0 ( dwell for no time -- G64 should not smooth over this point )
F600.00000
X34.07080 Y32.30550
X34.07080 Y30.24810
X31.53080 Y30.24810
X31.53080 Y32.78810
X34.07080 Y32.78810
G04 P0 ( dwell for no time -- G64 should not smooth over this point )
G00 Z0.50000 ( retract )

G00 X36.61080 Y32.30550 ( rapid move to begin. )
F300.00000
G01 Z-0.07500
G04 P0 ( dwell for no time -- G64 should not smooth over this point )
F600.00000
X36.61080 Y32.30550
X36.61080 Y30.24810
X34.07080 Y30.24810
X34.07080 Y32.78810
X36.61080 Y32.78810
G04 P0 ( dwell for no time -- G64 should not smooth over this point )
G00 Z0.50000 ( retract )

G00 X39.15080 Y32.30550 ( rapid move to begin. )
F300.00000
G01 Z-0.07500
G04 P0 ( dwell for no time -- G64 should not smooth over this point )
F600.00000
X39.15080 Y32.30550
X39.15080 Y30.24810
X36.61080 Y30.24810
X36.61080 Y32.78810
X39.15080 Y32.78810
G04 P0 ( dwell for no time -- G64 should not smooth over this point )
G00 Z0.50000 ( retract )

G00 X41.69080 Y32.30550 ( rapid move to begin. )
F300.00000
G01 Z-0.07500
G04 P0 ( dwell for no time -- G64 should not smooth over this point )
F600.00000
X41.69080 Y32.30550
X41.69080 Y30.24810
X39.15080 Y30.24810
X39.15080 Y32.78810
X41.69080 Y32.78810
G04 P0 ( dwell for no time -- G64 should not smooth over this point )
G00 Z0.50000 ( retract )

G00 X44.23080 Y32.30550 ( rapid move to begin. )
F300.00000
G01 Z-0.07500
G04 P0 ( dwell for no time -- G64 should not smooth over this point )
F600.00000
X44.23080 Y32.30550
X44.23080 Y30.24810
X41.69080 Y30.24810
X41.69080 Y32.78810
X44.23080 Y32.78810
G04 P0 ( dwell for no time -- G64 should not smooth over this point )
G00 Z0.50000 ( retract )

G00 X46.77080 Y32.30550 ( rapid move to begin. )
F300.00000
G01 Z-0.07500
G04 P0 ( dwell for no time -- G64 should not smooth over this point )
F600.00000
X46.77080 Y32.30550
X46.77080 Y30.24810
X44.23080 Y30.24810
X44.23080 Y32.78810
X46.77080 Y32.78810
G04 P0 ( dwell for no time -- G64 should not smooth over this point )
G00 Z0.50000 ( retract )

G00 X49.31080 Y32.30550 ( rapid move to begin. )
F300.00000
G01 Z-0.07500
G04 P0 ( dwell for no time -- G64 should not smooth over this point )
F600.00000
X49.31080 Y32.30550
X49.31080 Y30.24810
X46.77080 Y30.24810
X46.77080 Y32.78810
X49.31080 Y32.78810
G04 P0 ( dwell for no time -- G64 should not smooth over this point )
G00 Z0.50000 ( retract )

G00 X51.85080 Y32.30550 ( rapid move to begin. )
F300.00000
G01 Z-0.07500
G04 P0 ( dwell for no time -- G64 should not smooth over this point )
F600.00000
X51.85080 Y32.30550
X51.85080 Y30.24810
X49.31080 Y30.24810
X49.31080 Y32.78810
X51.85080 Y32.78810
G04 P0 ( dwell for no time -- G64 should not smooth over this point )
G00 Z0.50000 ( retract )

G00 X54.39080 Y32.30550 ( rapid move to begin. )
F300.00000
G01 Z-0.07500
G04 P0 ( dwell for no time -- G64 should not smooth over this point )
F600.00000
X54.39080 Y32.30550
X54.39080 Y30.24810
X51.85080 Y30.24810
X51.85080 Y32.78810
X54.39080 Y32.78810
G04 P0 ( dwell for no time -- G64 should not smooth over this point )
G00 Z0.50000 ( retract )

G00 X56.93080 Y32.30550 ( rapid move to begin. )
F300.00000
G01 Z-0.07500
G04 P0 ( dwell for no time -- G64 should not smooth over this point )
F600.00000
X56.93080 Y32.30550
X56.93080 Y30.24810
X54.39080 Y30.24810
X54.39080 Y32.78810
X56.93080 Y32.78810
G04 P0 ( dwell for no time -- G64 should not smooth over this point )
G00 Z0.50000 ( retract )

G00 X59.47080 Y32.30550 ( rapid move to begin. )
F300.00000
G01 Z-0.07500
G04 P0 ( dwell for no time -- G64 should not smooth over this point )
F600.00000
X59.47080 Y32.30550
X59.47080 Y30.24810
X56.93080 Y30.24810
X56.93080 Y32.78810
X59.47080 Y32.78810
G04 P0 ( dwell for no time -- G64 should not smooth over this point )
G00 Z0.50000 ( retract )

G00 X62.01080 Y32.30550 ( rapid move to begin. )
F300.00000
G01 Z-0.07500
G04 P0 ( dwell for no time -- G64 should not smooth over this point )
F600.00000
X62.01080 Y32.30550
X62.01080 Y30.24810
X59.47080 Y30.24810
X59.47080 Y32.78810
X62.01080 Y32.78810
G04 P0 ( dwell for no time -- G64 should not smooth over this point )
G00 Z0.50000 ( retract )

G00 X64.67780 Y32.30550 ( rapid move to begin. )
F300.00000
G01 Z-0.07500
G04 P0 ( dwell for no time -- G64 should not smooth over this point )
F600.00000
X64.67780 Y32.30550
X64.75400 Y31.59430
X64.60160 Y30.27350
X63.00140 Y30.24810
X62.01080 Y30.27350
X62.03620 Y32.78810
X64.57620 Y32.78810
X64.65240 Y32.45790
G04 P0 ( dwell for no time -- G64 should not smooth over this point )
G00 Z0.50000 ( retract )

G00 X67.34480 Y31.01010 ( rapid move to begin. )
F300.00000
G01 Z-0.07500
G04 P0 ( dwell for no time -- G64 should not smooth over this point )
F600.00000
X67.34480 Y31.01010
X67.34480 Y29.00350
X64.77940 Y28.97810
X64.70320 Y29.30830
X64.62700 Y30.04490
X64.57620 Y30.19730
X64.77940 Y31.51810
X67.31940 Y31.51810
G04 P0 ( dwell for no time -- G64 should not smooth over this point )
G00 Z0.50000 ( retract )

G00 X70.36740 Y31.01010 ( rapid move to begin. )
F300.00000
G01 Z-0.07500
G04 P0 ( dwell for no time -- G64 should not smooth over this point )
F600.00000
X70.36740 Y31.01010
X70.36740 Y29.20670
X70.29120 Y28.97810
X67.34480 Y28.97810
X67.34480 Y31.51810
X70.29120 Y31.51810
X70.34200 Y31.46730
G04 P0 ( dwell for no time -- G64 should not smooth over this point )
G00 Z0.50000 ( retract )

G00 X6.13080 Y29.76550 ( rapid move to begin. )
F300.00000
G01 Z-0.07500
G04 P0 ( dwell for no time -- G64 should not smooth over this point )
F600.00000
X6.13080 Y29.76550
X6.13080 Y27.70810
X3.08280 Y27.70810
X3.05740 Y29.30830
X3.08280 Y30.24810
X6.13080 Y30.24810
G04 P0 ( dwell for no time -- G64 should not smooth over this point )
G00 Z0.50000 ( retract )

G00 X8.67080 Y29.76550 ( rapid move to begin. )
F300.00000
G01 Z-0.07500
G04 P0 ( dwell for no time -- G64 should not smooth over this point )
F600.00000
X8.67080 Y29.76550
X8.67080 Y27.70810
X6.13080 Y27.70810
X6.13080 Y30.24810
X8.67080 Y30.24810
G04 P0 ( dwell for no time -- G64 should not smooth over this point )
G00 Z0.50000 ( retract )

G00 X11.21080 Y29.76550 ( rapid move to begin. )
F300.00000
G01 Z-0.07500
G04 P0 ( dwell for no time -- G64 should not smooth over this point )
F600.00000
X11.21080 Y29.76550
X11.21080 Y27.70810
X8.67080 Y27.70810
X8.67080 Y30.24810
X11.21080 Y30.24810
G04 P0 ( dwell for no time -- G64 should not smooth over this point )
G00 Z0.50000 ( retract )

G00 X13.75080 Y29.76550 ( rapid move to begin. )
F300.00000
G01 Z-0.07500
G04 P0 ( dwell for no time -- G64 should not smooth over this point )
F600.00000
X13.75080 Y29.76550
X13.75080 Y27.70810
X11.21080 Y27.70810
X11.21080 Y30.24810
X13.75080 Y30.24810
G04 P0 ( dwell for no time -- G64 should not smooth over this point )
G00 Z0.50000 ( retract )

G00 X16.29080 Y29.76550 ( rapid move to begin. )
F300.00000
G01 Z-0.07500
G04 P0 ( dwell for no time -- G64 should not smooth over this point )
F600.00000
X16.29080 Y29.76550
X16.29080 Y27.70810
X13.75080 Y27.70810
X13.75080 Y30.24810
X16.29080 Y30.24810
G04 P0 ( dwell for no time -- G64 should not smooth over this point )
G00 Z0.50000 ( retract )

G00 X18.83080 Y29.76550 ( rapid move to begin. )
F300.00000
G01 Z-0.07500
G04 P0 ( dwell for no time -- G64 should not smooth over this point )
F600.00000
X18.83080 Y29.76550
X18.83080 Y27.70810
X16.29080 Y27.70810
X16.29080 Y30.24810
X18.83080 Y30.24810
G04 P0 ( dwell for no time -- G64 should not smooth over this point )
G00 Z0.50000 ( retract )

G00 X21.37080 Y29.76550 ( rapid move to begin. )
F300.00000
G01 Z-0.07500
G04 P0 ( dwell for no time -- G64 should not smooth over this point )
F600.00000
X21.37080 Y29.76550
X21.37080 Y27.70810
X18.83080 Y27.70810
X18.83080 Y30.24810
X21.37080 Y30.24810
G04 P0 ( dwell for no time -- G64 should not smooth over this point )
G00 Z0.50000 ( retract )

G00 X23.91080 Y29.76550 ( rapid move to begin. )
F300.00000
G01 Z-0.07500
G04 P0 ( dwell for no time -- G64 should not smooth over this point )
F600.00000
X23.91080 Y29.76550
X23.91080 Y27.70810
X21.37080 Y27.70810
X21.37080 Y30.24810
X23.91080 Y30.24810
G04 P0 ( dwell for no time -- G64 should not smooth over this point )
G00 Z0.50000 ( retract )

G00 X26.45080 Y29.76550 ( rapid move to begin. )
F300.00000
G01 Z-0.07500
G04 P0 ( dwell for no time -- G64 should not smooth over this point )
F600.00000
X26.45080 Y29.76550
X26.45080 Y27.70810
X23.91080 Y27.70810
X23.91080 Y30.24810
X26.45080 Y30.24810
G04 P0 ( dwell for no time -- G64 should not smooth over this point )
G00 Z0.50000 ( retract )

G00 X28.99080 Y29.76550 ( rapid move to begin. )
F300.00000
G01 Z-0.07500
G04 P0 ( dwell for no time -- G64 should not smooth over this point )
F600.00000
X28.99080 Y29.76550
X28.99080 Y27.70810
X26.45080 Y27.70810
X26.45080 Y30.24810
X28.99080 Y30.24810
G04 P0 ( dwell for no time -- G64 should not smooth over this point )
G00 Z0.50000 ( retract )

G00 X31.53080 Y29.76550 ( rapid move to begin. )
F300.00000
G01 Z-0.07500
G04 P0 ( dwell for no time -- G64 should not smooth over this point )
F600.00000
X31.53080 Y29.76550
X31.53080 Y27.70810
X28.99080 Y27.70810
X28.99080 Y30.24810
X31.53080 Y30.24810
G04 P0 ( dwell for no time -- G64 should not smooth over this point )
G00 Z0.50000 ( retract )

G00 X34.07080 Y29.76550 ( rapid move to begin. )
F300.00000
G01 Z-0.07500
G04 P0 ( dwell for no time -- G64 should not smooth over this point )
F600.00000
X34.07080 Y29.76550
X34.07080 Y27.70810
X31.53080 Y27.70810
X31.53080 Y30.24810
X34.07080 Y30.24810
G04 P0 ( dwell for no time -- G64 should not smooth over this point )
G00 Z0.50000 ( retract )

G00 X36.61080 Y29.76550 ( rapid move to begin. )
F300.00000
G01 Z-0.07500
G04 P0 ( dwell for no time -- G64 should not smooth over this point )
F600.00000
X36.61080 Y29.76550
X36.61080 Y27.70810
X34.07080 Y27.70810
X34.07080 Y30.24810
X36.61080 Y30.24810
G04 P0 ( dwell for no time -- G64 should not smooth over this point )
G00 Z0.50000 ( retract )

G00 X39.15080 Y29.76550 ( rapid move to begin. )
F300.00000
G01 Z-0.07500
G04 P0 ( dwell for no time -- G64 should not smooth over this point )
F600.00000
X39.15080 Y29.76550
X39.15080 Y27.70810
X36.61080 Y27.70810
X36.61080 Y30.24810
X39.15080 Y30.24810
G04 P0 ( dwell for no time -- G64 should not smooth over this point )
G00 Z0.50000 ( retract )

G00 X41.69080 Y29.76550 ( rapid move to begin. )
F300.00000
G01 Z-0.07500
G04 P0 ( dwell for no time -- G64 should not smooth over this point )
F600.00000
X41.69080 Y29.76550
X41.69080 Y27.70810
X39.15080 Y27.70810
X39.15080 Y30.24810
X41.69080 Y30.24810
G04 P0 ( dwell for no time -- G64 should not smooth over this point )
G00 Z0.50000 ( retract )

G00 X44.23080 Y29.76550 ( rapid move to begin. )
F300.00000
G01 Z-0.07500
G04 P0 ( dwell for no time -- G64 should not smooth over this point )
F600.00000
X44.23080 Y29.76550
X44.23080 Y27.70810
X41.69080 Y27.70810
X41.69080 Y30.24810
X44.23080 Y30.24810
G04 P0 ( dwell for no time -- G64 should not smooth over this point )
G00 Z0.50000 ( retract )

G00 X46.77080 Y29.76550 ( rapid move to begin. )
F300.00000
G01 Z-0.07500
G04 P0 ( dwell for no time -- G64 should not smooth over this point )
F600.00000
X46.77080 Y29.76550
X46.77080 Y27.70810
X44.23080 Y27.70810
X44.23080 Y30.24810
X46.77080 Y30.24810
G04 P0 ( dwell for no time -- G64 should not smooth over this point )
G00 Z0.50000 ( retract )

G00 X49.31080 Y29.76550 ( rapid move to begin. )
F300.00000
G01 Z-0.07500
G04 P0 ( dwell for no time -- G64 should not smooth over this point )
F600.00000
X49.31080 Y29.76550
X49.31080 Y27.70810
X46.77080 Y27.70810
X46.77080 Y30.24810
X49.31080 Y30.24810
G04 P0 ( dwell for no time -- G64 should not smooth over this point )
G00 Z0.50000 ( retract )

G00 X51.85080 Y29.76550 ( rapid move to begin. )
F300.00000
G01 Z-0.07500
G04 P0 ( dwell for no time -- G64 should not smooth over this point )
F600.00000
X51.85080 Y29.76550
X51.85080 Y27.70810
X49.31080 Y27.70810
X49.31080 Y30.24810
X51.85080 Y30.24810
G04 P0 ( dwell for no time -- G64 should not smooth over this point )
G00 Z0.50000 ( retract )

G00 X54.39080 Y29.76550 ( rapid move to begin. )
F300.00000
G01 Z-0.07500
G04 P0 ( dwell for no time -- G64 should not smooth over this point )
F600.00000
X54.39080 Y29.76550
X54.39080 Y27.70810
X51.85080 Y27.70810
X51.85080 Y30.24810
X54.39080 Y30.24810
G04 P0 ( dwell for no time -- G64 should not smooth over this point )
G00 Z0.50000 ( retract )

G00 X56.93080 Y29.76550 ( rapid move to begin. )
F300.00000
G01 Z-0.07500
G04 P0 ( dwell for no time -- G64 should not smooth over this point )
F600.00000
X56.93080 Y29.76550
X56.93080 Y27.70810
X54.39080 Y27.70810
X54.39080 Y30.24810
X56.93080 Y30.24810
G04 P0 ( dwell for no time -- G64 should not smooth over this point )
G00 Z0.50000 ( retract )

G00 X59.47080 Y29.76550 ( rapid move to begin. )
F300.00000
G01 Z-0.07500
G04 P0 ( dwell for no time -- G64 should not smooth over this point )
F600.00000
X59.47080 Y29.76550
X59.47080 Y27.70810
X56.93080 Y27.70810
X56.93080 Y30.24810
X59.47080 Y30.24810
G04 P0 ( dwell for no time -- G64 should not smooth over this point )
G00 Z0.50000 ( retract )

G00 X62.01080 Y29.76550 ( rapid move to begin. )
F300.00000
G01 Z-0.07500
G04 P0 ( dwell for no time -- G64 should not smooth over this point )
F600.00000
X62.01080 Y29.76550
X62.01080 Y27.70810
X59.47080 Y27.70810
X59.47080 Y30.24810
X62.01080 Y30.24810
G04 P0 ( dwell for no time -- G64 should not smooth over this point )
G00 Z0.50000 ( retract )

G00 X64.67780 Y29.76550 ( rapid move to begin. )
F300.00000
G01 Z-0.07500
G04 P0 ( dwell for no time -- G64 should not smooth over this point )
F600.00000
X64.67780 Y29.76550
X64.75400 Y29.05430
X64.60160 Y27.73350
X63.00140 Y27.70810
X62.01080 Y27.73350
X62.03620 Y30.24810
X64.57620 Y30.24810
X64.65240 Y29.91790
G04 P0 ( dwell for no time -- G64 should not smooth over this point )
G00 Z0.50000 ( retract )

G00 X67.34480 Y28.47010 ( rapid move to begin. )
F300.00000
G01 Z-0.07500
G04 P0 ( dwell for no time -- G64 should not smooth over this point )
F600.00000
X67.34480 Y28.47010
X67.34480 Y26.00630
X66.98920 Y25.95550
X65.05880 Y25.95550
X64.77940 Y26.38730
X64.70320 Y26.71750
X64.60160 Y27.78430
X64.67780 Y28.11450
X64.70320 Y28.69870
X64.77940 Y28.97810
X67.31940 Y28.97810
G04 P0 ( dwell for no time -- G64 should not smooth over this point )
G00 Z0.50000 ( retract )

G00 X70.36740 Y28.47010 ( rapid move to begin. )
F300.00000
G01 Z-0.07500
G04 P0 ( dwell for no time -- G64 should not smooth over this point )
F600.00000
X70.36740 Y28.47010
X70.36740 Y26.86990
X70.31660 Y26.41270
X70.13880 Y26.18410
X70.13880 Y26.13330
X69.85940 Y26.00630
X69.50380 Y25.95550
X67.39560 Y25.98090
X67.34480 Y26.03170
X67.34480 Y28.97810
X70.29120 Y28.97810
X70.34200 Y28.92730
G04 P0 ( dwell for no time -- G64 should not smooth over this point )
G00 Z0.50000 ( retract )

G00 X6.13080 Y27.22550 ( rapid move to begin. )
F300.00000
G01 Z-0.07500
G04 P0 ( dwell for no time -- G64 should not smooth over this point )
F600.00000
X6.13080 Y27.22550
X6.13080 Y25.16810
X3.08280 Y25.16810
X3.05740 Y26.76830
X3.08280 Y27.70810
X6.13080 Y27.70810
G04 P0 ( dwell for no time -- G64 should not smooth over this point )
G00 Z0.50000 ( retract )

G00 X8.67080 Y27.22550 ( rapid move to begin. )
F300.00000
G01 Z-0.07500
G04 P0 ( dwell for no time -- G64 should not smooth over this point )
F600.00000
X8.67080 Y27.22550
X8.67080 Y25.16810
X6.13080 Y25.16810
X6.13080 Y27.70810
X8.67080 Y27.70810
G04 P0 ( dwell for no time -- G64 should not smooth over this point )
G00 Z0.50000 ( retract )

G00 X11.21080 Y27.22550 ( rapid move to begin. )
F300.00000
G01 Z-0.07500
G04 P0 ( dwell for no time -- G64 should not smooth over this point )
F600.00000
X11.21080 Y27.22550
X11.21080 Y25.16810
X8.67080 Y25.16810
X8.67080 Y27.70810
X11.21080 Y27.70810
G04 P0 ( dwell for no time -- G64 should not smooth over this point )
G00 Z0.50000 ( retract )

G00 X13.75080 Y27.22550 ( rapid move to begin. )
F300.00000
G01 Z-0.07500
G04 P0 ( dwell for no time -- G64 should not smooth over this point )
F600.00000
X13.75080 Y27.22550
X13.75080 Y25.16810
X11.21080 Y25.16810
X11.21080 Y27.70810
X13.75080 Y27.70810
G04 P0 ( dwell for no time -- G64 should not smooth over this point )
G00 Z0.50000 ( retract )

G00 X16.29080 Y27.22550 ( rapid move to begin. )
F300.00000
G01 Z-0.07500
G04 P0 ( dwell for no time -- G64 should not smooth over this point )
F600.00000
X16.29080 Y27.22550
X16.29080 Y25.16810
X13.75080 Y25.16810
X13.75080 Y27.70810
X16.29080 Y27.70810
G04 P0 ( dwell for no time -- G64 should not smooth over this point )
G00 Z0.50000 ( retract )

G00 X18.83080 Y27.22550 ( rapid move to begin. )
F300.00000
G01 Z-0.07500
G04 P0 ( dwell for no time -- G64 should not smooth over this point )
F600.00000
X18.83080 Y27.22550
X18.83080 Y25.16810
X16.29080 Y25.16810
X16.29080 Y27.70810
X18.83080 Y27.70810
G04 P0 ( dwell for no time -- G64 should not smooth over this point )
G00 Z0.50000 ( retract )

G00 X21.37080 Y27.22550 ( rapid move to begin. )
F300.00000
G01 Z-0.07500
G04 P0 ( dwell for no time -- G64 should not smooth over this point )
F600.00000
X21.37080 Y27.22550
X21.37080 Y25.16810
X18.83080 Y25.16810
X18.83080 Y27.70810
X21.37080 Y27.70810
G04 P0 ( dwell for no time -- G64 should not smooth over this point )
G00 Z0.50000 ( retract )

G00 X23.91080 Y27.22550 ( rapid move to begin. )
F300.00000
G01 Z-0.07500
G04 P0 ( dwell for no time -- G64 should not smooth over this point )
F600.00000
X23.91080 Y27.22550
X23.91080 Y25.16810
X21.37080 Y25.16810
X21.37080 Y27.70810
X23.91080 Y27.70810
G04 P0 ( dwell for no time -- G64 should not smooth over this point )
G00 Z0.50000 ( retract )

G00 X26.45080 Y27.22550 ( rapid move to begin. )
F300.00000
G01 Z-0.07500
G04 P0 ( dwell for no time -- G64 should not smooth over this point )
F600.00000
X26.45080 Y27.22550
X26.45080 Y25.16810
X23.91080 Y25.16810
X23.91080 Y27.70810
X26.45080 Y27.70810
G04 P0 ( dwell for no time -- G64 should not smooth over this point )
G00 Z0.50000 ( retract )

G00 X28.99080 Y27.22550 ( rapid move to begin. )
F300.00000
G01 Z-0.07500
G04 P0 ( dwell for no time -- G64 should not smooth over this point )
F600.00000
X28.99080 Y27.22550
X28.99080 Y25.16810
X26.45080 Y25.16810
X26.45080 Y27.70810
X28.99080 Y27.70810
G04 P0 ( dwell for no time -- G64 should not smooth over this point )
G00 Z0.50000 ( retract )

G00 X31.53080 Y27.22550 ( rapid move to begin. )
F300.00000
G01 Z-0.07500
G04 P0 ( dwell for no time -- G64 should not smooth over this point )
F600.00000
X31.53080 Y27.22550
X31.53080 Y25.16810
X28.99080 Y25.16810
X28.99080 Y27.70810
X31.53080 Y27.70810
G04 P0 ( dwell for no time -- G64 should not smooth over this point )
G00 Z0.50000 ( retract )

G00 X34.07080 Y27.22550 ( rapid move to begin. )
F300.00000
G01 Z-0.07500
G04 P0 ( dwell for no time -- G64 should not smooth over this point )
F600.00000
X34.07080 Y27.22550
X34.07080 Y25.16810
X31.53080 Y25.16810
X31.53080 Y27.70810
X34.07080 Y27.70810
G04 P0 ( dwell for no time -- G64 should not smooth over this point )
G00 Z0.50000 ( retract )

G00 X36.61080 Y27.22550 ( rapid move to begin. )
F300.00000
G01 Z-0.07500
G04 P0 ( dwell for no time -- G64 should not smooth over this point )
F600.00000
X36.61080 Y27.22550
X36.61080 Y25.16810
X34.07080 Y25.16810
X34.07080 Y27.70810
X36.61080 Y27.70810
G04 P0 ( dwell for no time -- G64 should not smooth over this point )
G00 Z0.50000 ( retract )

G00 X39.15080 Y27.22550 ( rapid move to begin. )
F300.00000
G01 Z-0.07500
G04 P0 ( dwell for no time -- G64 should not smooth over this point )
F600.00000
X39.15080 Y27.22550
X39.15080 Y25.16810
X36.61080 Y25.16810
X36.61080 Y27.70810
X39.15080 Y27.70810
G04 P0 ( dwell for no time -- G64 should not smooth over this point )
G00 Z0.50000 ( retract )

G00 X41.69080 Y27.22550 ( rapid move to begin. )
F300.00000
G01 Z-0.07500
G04 P0 ( dwell for no time -- G64 should not smooth over this point )
F600.00000
X41.69080 Y27.22550
X41.69080 Y25.16810
X39.15080 Y25.16810
X39.15080 Y27.70810
X41.69080 Y27.70810
G04 P0 ( dwell for no time -- G64 should not smooth over this point )
G00 Z0.50000 ( retract )

G00 X44.23080 Y27.22550 ( rapid move to begin. )
F300.00000
G01 Z-0.07500
G04 P0 ( dwell for no time -- G64 should not smooth over this point )
F600.00000
X44.23080 Y27.22550
X44.23080 Y25.16810
X41.69080 Y25.16810
X41.69080 Y27.70810
X44.23080 Y27.70810
G04 P0 ( dwell for no time -- G64 should not smooth over this point )
G00 Z0.50000 ( retract )

G00 X46.77080 Y27.22550 ( rapid move to begin. )
F300.00000
G01 Z-0.07500
G04 P0 ( dwell for no time -- G64 should not smooth over this point )
F600.00000
X46.77080 Y27.22550
X46.77080 Y25.16810
X44.23080 Y25.16810
X44.23080 Y27.70810
X46.77080 Y27.70810
G04 P0 ( dwell for no time -- G64 should not smooth over this point )
G00 Z0.50000 ( retract )

G00 X49.31080 Y27.22550 ( rapid move to begin. )
F300.00000
G01 Z-0.07500
G04 P0 ( dwell for no time -- G64 should not smooth over this point )
F600.00000
X49.31080 Y27.22550
X49.31080 Y25.16810
X46.77080 Y25.16810
X46.77080 Y27.70810
X49.31080 Y27.70810
G04 P0 ( dwell for no time -- G64 should not smooth over this point )
G00 Z0.50000 ( retract )

G00 X51.85080 Y27.22550 ( rapid move to begin. )
F300.00000
G01 Z-0.07500
G04 P0 ( dwell for no time -- G64 should not smooth over this point )
F600.00000
X51.85080 Y27.22550
X51.85080 Y25.16810
X49.31080 Y25.16810
X49.31080 Y27.70810
X51.85080 Y27.70810
G04 P0 ( dwell for no time -- G64 should not smooth over this point )
G00 Z0.50000 ( retract )

G00 X54.39080 Y27.22550 ( rapid move to begin. )
F300.00000
G01 Z-0.07500
G04 P0 ( dwell for no time -- G64 should not smooth over this point )
F600.00000
X54.39080 Y27.22550
X54.39080 Y25.16810
X51.85080 Y25.16810
X51.85080 Y27.70810
X54.39080 Y27.70810
G04 P0 ( dwell for no time -- G64 should not smooth over this point )
G00 Z0.50000 ( retract )

G00 X56.93080 Y27.22550 ( rapid move to begin. )
F300.00000
G01 Z-0.07500
G04 P0 ( dwell for no time -- G64 should not smooth over this point )
F600.00000
X56.93080 Y27.22550
X56.93080 Y25.16810
X54.39080 Y25.16810
X54.39080 Y27.70810
X56.93080 Y27.70810
G04 P0 ( dwell for no time -- G64 should not smooth over this point )
G00 Z0.50000 ( retract )

G00 X59.47080 Y27.22550 ( rapid move to begin. )
F300.00000
G01 Z-0.07500
G04 P0 ( dwell for no time -- G64 should not smooth over this point )
F600.00000
X59.47080 Y27.22550
X59.47080 Y25.16810
X56.93080 Y25.16810
X56.93080 Y27.70810
X59.47080 Y27.70810
G04 P0 ( dwell for no time -- G64 should not smooth over this point )
G00 Z0.50000 ( retract )

G00 X62.01080 Y27.22550 ( rapid move to begin. )
F300.00000
G01 Z-0.07500
G04 P0 ( dwell for no time -- G64 should not smooth over this point )
F600.00000
X62.01080 Y27.22550
X62.01080 Y25.16810
X59.47080 Y25.16810
X59.47080 Y27.70810
X62.01080 Y27.70810
G04 P0 ( dwell for no time -- G64 should not smooth over this point )
G00 Z0.50000 ( retract )

G00 X64.67780 Y27.22550 ( rapid move to begin. )
F300.00000
G01 Z-0.07500
G04 P0 ( dwell for no time -- G64 should not smooth over this point )
F600.00000
X64.67780 Y27.22550
X64.75400 Y26.51430
X64.93180 Y26.08250
X65.03340 Y25.98090
X65.03340 Y25.16810
X62.01080 Y25.19350
X62.03620 Y27.70810
X64.57620 Y27.70810
X64.65240 Y27.37790
G04 P0 ( dwell for no time -- G64 should not smooth over this point )
G00 Z0.50000 ( retract )

G00 X6.13080 Y24.68550 ( rapid move to begin. )
F300.00000
G01 Z-0.07500
G04 P0 ( dwell for no time -- G64 should not smooth over this point )
F600.00000
X6.13080 Y24.68550
X6.13080 Y22.62810
X3.08280 Y22.62810
X3.05740 Y24.22830
X3.08280 Y25.16810
X6.13080 Y25.16810
G04 P0 ( dwell for no time -- G64 should not smooth over this point )
G00 Z0.50000 ( retract )

G00 X8.67080 Y24.68550 ( rapid move to begin. )
F300.00000
G01 Z-0.07500
G04 P0 ( dwell for no time -- G64 should not smooth over this point )
F600.00000
X8.67080 Y24.68550
X8.67080 Y22.62810
X6.13080 Y22.62810
X6.13080 Y25.16810
X8.67080 Y25.16810
G04 P0 ( dwell for no time -- G64 should not smooth over this point )
G00 Z0.50000 ( retract )

G00 X11.21080 Y24.68550 ( rapid move to begin. )
F300.00000
G01 Z-0.07500
G04 P0 ( dwell for no time -- G64 should not smooth over this point )
F600.00000
X11.21080 Y24.68550
X11.21080 Y22.62810
X8.67080 Y22.62810
X8.67080 Y25.16810
X11.21080 Y25.16810
G04 P0 ( dwell for no time -- G64 should not smooth over this point )
G00 Z0.50000 ( retract )

G00 X13.75080 Y24.68550 ( rapid move to begin. )
F300.00000
G01 Z-0.07500
G04 P0 ( dwell for no time -- G64 should not smooth over this point )
F600.00000
X13.75080 Y24.68550
X13.75080 Y22.62810
X11.21080 Y22.62810
X11.21080 Y25.16810
X13.75080 Y25.16810
G04 P0 ( dwell for no time -- G64 should not smooth over this point )
G00 Z0.50000 ( retract )

G00 X16.29080 Y24.68550 ( rapid move to begin. )
F300.00000
G01 Z-0.07500
G04 P0 ( dwell for no time -- G64 should not smooth over this point )
F600.00000
X16.29080 Y24.68550
X16.29080 Y22.62810
X13.75080 Y22.62810
X13.75080 Y25.16810
X16.29080 Y25.16810
G04 P0 ( dwell for no time -- G64 should not smooth over this point )
G00 Z0.50000 ( retract )

G00 X18.83080 Y24.68550 ( rapid move to begin. )
F300.00000
G01 Z-0.07500
G04 P0 ( dwell for no time -- G64 should not smooth over this point )
F600.00000
X18.83080 Y24.68550
X18.83080 Y22.62810
X16.29080 Y22.62810
X16.29080 Y25.16810
X18.83080 Y25.16810
G04 P0 ( dwell for no time -- G64 should not smooth over this point )
G00 Z0.50000 ( retract )

G00 X21.37080 Y24.68550 ( rapid move to begin. )
F300.00000
G01 Z-0.07500
G04 P0 ( dwell for no time -- G64 should not smooth over this point )
F600.00000
X21.37080 Y24.68550
X21.37080 Y22.62810
X18.83080 Y22.62810
X18.83080 Y25.16810
X21.37080 Y25.16810
G04 P0 ( dwell for no time -- G64 should not smooth over this point )
G00 Z0.50000 ( retract )

G00 X23.91080 Y24.68550 ( rapid move to begin. )
F300.00000
G01 Z-0.07500
G04 P0 ( dwell for no time -- G64 should not smooth over this point )
F600.00000
X23.91080 Y24.68550
X23.91080 Y22.62810
X21.37080 Y22.62810
X21.37080 Y25.16810
X23.91080 Y25.16810
G04 P0 ( dwell for no time -- G64 should not smooth over this point )
G00 Z0.50000 ( retract )

G00 X26.45080 Y24.68550 ( rapid move to begin. )
F300.00000
G01 Z-0.07500
G04 P0 ( dwell for no time -- G64 should not smooth over this point )
F600.00000
X26.45080 Y24.68550
X26.45080 Y22.62810
X23.91080 Y22.62810
X23.91080 Y25.16810
X26.45080 Y25.16810
G04 P0 ( dwell for no time -- G64 should not smooth over this point )
G00 Z0.50000 ( retract )

G00 X28.99080 Y24.68550 ( rapid move to begin. )
F300.00000
G01 Z-0.07500
G04 P0 ( dwell for no time -- G64 should not smooth over this point )
F600.00000
X28.99080 Y24.68550
X28.99080 Y22.62810
X26.45080 Y22.62810
X26.45080 Y25.16810
X28.99080 Y25.16810
G04 P0 ( dwell for no time -- G64 should not smooth over this point )
G00 Z0.50000 ( retract )

G00 X31.53080 Y24.68550 ( rapid move to begin. )
F300.00000
G01 Z-0.07500
