( pcb2gcode 1.2.1 )
( Software-independent Gcode )
      

G94 ( Millimeters per minute feed rate. )
G21 ( Units == Millimeters. )

G90 ( Absolute coordinates. )
S10000 ( RPM spindle speed. )
G64 P0.05080 ( set maximum deviation from commanded toolpath )
F600.00000 ( Feedrate. )

F600.00000 ( Feedrate. )
M3 ( Spindle on clockwise. )
G04 P0 ( dwell for no time -- G64 should not smooth over this point )
G00 Z0.50000 ( retract )

G00 X5.74980 Y55.64810 ( rapid move to begin. )
F300.00000
G01 Z-0.07500
G04 P0 ( dwell for no time -- G64 should not smooth over this point )
F600.00000
X5.74980 Y55.64810
X4.53060 Y54.45430
X4.47980 Y54.30190
X4.45440 Y42.94810
X2.01600 Y40.50970
X1.93980 Y40.38270
X1.93980 Y7.46430
X1.99060 Y7.31190
X4.47980 Y4.82270
X4.47980 Y2.38430
X4.53060 Y2.23190
X4.68300 Y2.18110
X70.69760 Y2.20650
X70.77380 Y2.33350
X70.77380 Y55.57190
X70.69760 Y55.69890
X70.54520 Y55.74970
X5.92760 Y55.74970
X5.74980 Y55.67350
G04 P0 ( dwell for no time -- G64 should not smooth over this point )
G00 Z0.50000 ( retract )

G00 X50.86020 Y54.37810 ( rapid move to begin. )
F300.00000
G01 Z-0.07500
G04 P0 ( dwell for no time -- G64 should not smooth over this point )
F600.00000
X50.86020 Y54.37810
X50.70780 Y54.14950
X50.58080 Y54.07330
X50.60620 Y52.16830
X50.73320 Y52.09210
X50.96180 Y51.71110
X51.31740 Y51.45710
X51.97780 Y51.35550
X52.30800 Y51.43170
X52.79060 Y51.76190
X53.01920 Y52.14290
X53.07000 Y52.49850
X53.17160 Y52.70170
X53.27320 Y52.70170
X53.37480 Y52.60010
X53.47640 Y52.39690
X53.62880 Y52.39690
X53.62880 Y53.87010
X53.45100 Y53.84470
X53.40020 Y53.69230
X53.29860 Y53.59070
X53.14620 Y53.59070
X53.09540 Y53.64150
X53.04460 Y53.99710
X52.76520 Y54.53050
X52.28260 Y54.86070
X51.92700 Y54.91150
X51.41900 Y54.86070
X50.93640 Y54.53050
X50.86020 Y54.40350
G04 P0 ( dwell for no time -- G64 should not smooth over this point )
G00 Z0.50000 ( retract )

G00 X48.32020 Y54.37810 ( rapid move to begin. )
F300.00000
G01 Z-0.07500
G04 P0 ( dwell for no time -- G64 should not smooth over this point )
F600.00000
X48.32020 Y54.37810
X48.16780 Y54.14950
X48.04080 Y54.07330
X48.06620 Y52.16830
X48.19320 Y52.09210
X48.42180 Y51.71110
X48.77740 Y51.45710
X49.43780 Y51.35550
X49.76800 Y51.43170
X50.25060 Y51.76190
X50.58080 Y52.24450
X50.58080 Y54.07330
X50.37760 Y54.27650
X50.22520 Y54.53050
X49.74260 Y54.86070
X49.38700 Y54.91150
X48.87900 Y54.86070
X48.39640 Y54.53050
X48.32020 Y54.40350
G04 P0 ( dwell for no time -- G64 should not smooth over this point )
G00 Z0.50000 ( retract )

G00 X45.78020 Y54.37810 ( rapid move to begin. )
F300.00000
G01 Z-0.07500
G04 P0 ( dwell for no time -- G64 should not smooth over this point )
F600.00000
X45.78020 Y54.37810
X45.62780 Y54.14950
X45.50080 Y54.07330
X45.52620 Y52.16830
X45.65320 Y52.09210
X45.88180 Y51.71110
X46.23740 Y51.45710
X46.89780 Y51.35550
X47.22800 Y51.43170
X47.71060 Y51.76190
X48.04080 Y52.24450
X48.04080 Y54.07330
X47.83760 Y54.27650
X47.68520 Y54.53050
X47.20260 Y54.86070
X46.84700 Y54.91150
X46.33900 Y54.86070
X45.85640 Y54.53050
X45.78020 Y54.40350
G04 P0 ( dwell for no time -- G64 should not smooth over this point )
G00 Z0.50000 ( retract )

G00 X43.24020 Y54.37810 ( rapid move to begin. )
F300.00000
G01 Z-0.07500
G04 P0 ( dwell for no time -- G64 should not smooth over this point )
F600.00000
X43.24020 Y54.37810
X43.08780 Y54.14950
X42.96080 Y54.07330
X42.98620 Y52.16830
X43.11320 Y52.09210
X43.34180 Y51.71110
X43.69740 Y51.45710
X44.35780 Y51.35550
X44.68800 Y51.43170
X45.17060 Y51.76190
X45.50080 Y52.24450
X45.50080 Y54.07330
X45.29760 Y54.27650
X45.14520 Y54.53050
X44.66260 Y54.86070
X44.30700 Y54.91150
X43.79900 Y54.86070
X43.31640 Y54.53050
X43.24020 Y54.40350
G04 P0 ( dwell for no time -- G64 should not smooth over this point )
G00 Z0.50000 ( retract )

G00 X40.70020 Y54.37810 ( rapid move to begin. )
F300.00000
G01 Z-0.07500
G04 P0 ( dwell for no time -- G64 should not smooth over this point )
F600.00000
X40.70020 Y54.37810
X40.54780 Y54.14950
X40.42080 Y54.07330
X40.44620 Y52.16830
X40.57320 Y52.09210
X40.80180 Y51.71110
X41.15740 Y51.45710
X41.81780 Y51.35550
X42.14800 Y51.43170
X42.63060 Y51.76190
X42.96080 Y52.24450
X42.96080 Y54.07330
X42.75760 Y54.27650
X42.60520 Y54.53050
X42.12260 Y54.86070
X41.76700 Y54.91150
X41.25900 Y54.86070
X40.77640 Y54.53050
X40.70020 Y54.40350
G04 P0 ( dwell for no time -- G64 should not smooth over this point )
G00 Z0.50000 ( retract )

G00 X38.16020 Y54.37810 ( rapid move to begin. )
F300.00000
G01 Z-0.07500
G04 P0 ( dwell for no time -- G64 should not smooth over this point )
F600.00000
X38.16020 Y54.37810
X38.00780 Y54.14950
X37.88080 Y54.07330
X37.90620 Y52.16830
X38.03320 Y52.09210
X38.26180 Y51.71110
X38.61740 Y51.45710
X39.27780 Y51.35550
X39.60800 Y51.43170
X40.09060 Y51.76190
X40.42080 Y52.24450
X40.42080 Y54.07330
X40.21760 Y54.27650
X40.06520 Y54.53050
X39.58260 Y54.86070
X39.22700 Y54.91150
X38.71900 Y54.86070
X38.23640 Y54.53050
X38.16020 Y54.40350
G04 P0 ( dwell for no time -- G64 should not smooth over this point )
G00 Z0.50000 ( retract )

G00 X35.62020 Y54.37810 ( rapid move to begin. )
F300.00000
G01 Z-0.07500
G04 P0 ( dwell for no time -- G64 should not smooth over this point )
F600.00000
X35.62020 Y54.37810
X35.46780 Y54.14950
X35.34080 Y54.07330
X35.36620 Y52.16830
X35.49320 Y52.09210
X35.72180 Y51.71110
X36.07740 Y51.45710
X36.73780 Y51.35550
X37.06800 Y51.43170
X37.55060 Y51.76190
X37.88080 Y52.24450
X37.88080 Y54.07330
X37.67760 Y54.27650
X37.52520 Y54.53050
X37.04260 Y54.86070
X36.68700 Y54.91150
X36.17900 Y54.86070
X35.69640 Y54.53050
X35.62020 Y54.40350
G04 P0 ( dwell for no time -- G64 should not smooth over this point )
G00 Z0.50000 ( retract )

G00 X33.08020 Y54.37810 ( rapid move to begin. )
F300.00000
G01 Z-0.07500
G04 P0 ( dwell for no time -- G64 should not smooth over this point )
F600.00000
X33.08020 Y54.37810
X32.92780 Y54.14950
X32.80080 Y54.07330
X32.82620 Y52.16830
X32.95320 Y52.09210
X33.18180 Y51.71110
X33.53740 Y51.45710
X34.19780 Y51.35550
X34.52800 Y51.43170
X35.01060 Y51.76190
X35.34080 Y52.24450
X35.34080 Y54.07330
X35.13760 Y54.27650
X34.98520 Y54.53050
X34.50260 Y54.86070
X34.14700 Y54.91150
X33.63900 Y54.86070
X33.15640 Y54.53050
X33.08020 Y54.40350
G04 P0 ( dwell for no time -- G64 should not smooth over this point )
G00 Z0.50000 ( retract )

G00 X30.54020 Y54.37810 ( rapid move to begin. )
F300.00000
G01 Z-0.07500
G04 P0 ( dwell for no time -- G64 should not smooth over this point )
F600.00000
X30.54020 Y54.37810
X30.38780 Y54.14950
X30.26080 Y54.07330
X30.28620 Y52.16830
X30.41320 Y52.09210
X30.64180 Y51.71110
X30.99740 Y51.45710
X31.65780 Y51.35550
X31.98800 Y51.43170
X32.47060 Y51.76190
X32.80080 Y52.24450
X32.80080 Y54.07330
X32.59760 Y54.27650
X32.44520 Y54.53050
X31.96260 Y54.86070
X31.60700 Y54.91150
X31.09900 Y54.86070
X30.61640 Y54.53050
X30.54020 Y54.40350
G04 P0 ( dwell for no time -- G64 should not smooth over this point )
G00 Z0.50000 ( retract )

G00 X28.00020 Y54.37810 ( rapid move to begin. )
F300.00000
G01 Z-0.07500
G04 P0 ( dwell for no time -- G64 should not smooth over this point )
F600.00000
X28.00020 Y54.37810
X27.84780 Y54.14950
X27.77160 Y53.81930
X27.74620 Y52.62550
X27.79700 Y52.26990
X28.07640 Y51.73650
X28.55900 Y51.40630
X28.91460 Y51.35550
X29.42260 Y51.40630
X29.90520 Y51.73650
X30.05760 Y51.99050
X30.26080 Y52.19370
X30.26080 Y54.02250
X29.93060 Y54.50510
X29.44800 Y54.83530
X29.11780 Y54.91150
X28.45740 Y54.80990
X28.10180 Y54.55590
X28.00020 Y54.40350
G04 P0 ( dwell for no time -- G64 should not smooth over this point )
G00 Z0.50000 ( retract )

G00 X23.93620 Y54.37810 ( rapid move to begin. )
F300.00000
G01 Z-0.07500
G04 P0 ( dwell for no time -- G64 should not smooth over this point )
F600.00000
X23.93620 Y54.37810
X23.78380 Y54.14950
X23.65680 Y54.07330
X23.68220 Y52.16830
X23.80920 Y52.09210
X24.03780 Y51.71110
X24.39340 Y51.45710
X25.05380 Y51.35550
X25.38400 Y51.43170
X25.86660 Y51.76190
X26.09520 Y52.14290
X26.17140 Y52.47310
X26.19680 Y53.66690
X26.12060 Y53.99710
X25.84120 Y54.53050
X25.35860 Y54.86070
X25.00300 Y54.91150
X24.49500 Y54.86070
X24.01240 Y54.53050
X23.93620 Y54.40350
G04 P0 ( dwell for no time -- G64 should not smooth over this point )
G00 Z0.50000 ( retract )

G00 X21.39620 Y54.37810 ( rapid move to begin. )
F300.00000
G01 Z-0.07500
G04 P0 ( dwell for no time -- G64 should not smooth over this point )
F600.00000
X21.39620 Y54.37810
X21.24380 Y54.14950
X21.11680 Y54.07330
X21.14220 Y52.16830
X21.26920 Y52.09210
X21.49780 Y51.71110
X21.85340 Y51.45710
X22.51380 Y51.35550
X22.84400 Y51.43170
X23.32660 Y51.76190
X23.65680 Y52.24450
X23.65680 Y54.07330
X23.45360 Y54.27650
X23.30120 Y54.53050
X22.81860 Y54.86070
X22.46300 Y54.91150
X21.95500 Y54.86070
X21.47240 Y54.53050
X21.39620 Y54.40350
G04 P0 ( dwell for no time -- G64 should not smooth over this point )
G00 Z0.50000 ( retract )

G00 X18.85620 Y54.37810 ( rapid move to begin. )
F300.00000
G01 Z-0.07500
G04 P0 ( dwell for no time -- G64 should not smooth over this point )
F600.00000
X18.85620 Y54.37810
X18.70380 Y54.14950
X18.57680 Y54.07330
X18.60220 Y52.16830
X18.72920 Y52.09210
X18.95780 Y51.71110
X19.31340 Y51.45710
X19.97380 Y51.35550
X20.30400 Y51.43170
X20.78660 Y51.76190
X21.11680 Y52.24450
X21.11680 Y54.07330
X20.91360 Y54.27650
X20.76120 Y54.53050
X20.27860 Y54.86070
X19.92300 Y54.91150
X19.41500 Y54.86070
X18.93240 Y54.53050
X18.85620 Y54.40350
G04 P0 ( dwell for no time -- G64 should not smooth over this point )
G00 Z0.50000 ( retract )

G00 X16.31620 Y54.37810 ( rapid move to begin. )
F300.00000
G01 Z-0.07500
G04 P0 ( dwell for no time -- G64 should not smooth over this point )
F600.00000
X16.31620 Y54.37810
X16.16380 Y54.14950
X16.03680 Y54.07330
X16.06220 Y52.16830
X16.18920 Y52.09210
X16.41780 Y51.71110
X16.77340 Y51.45710
X17.43380 Y51.35550
X17.76400 Y51.43170
X18.24660 Y51.76190
X18.57680 Y52.24450
X18.57680 Y54.07330
X18.37360 Y54.27650
X18.22120 Y54.53050
X17.73860 Y54.86070
X17.38300 Y54.91150
X16.87500 Y54.86070
X16.39240 Y54.53050
X16.31620 Y54.40350
G04 P0 ( dwell for no time -- G64 should not smooth over this point )
G00 Z0.50000 ( retract )

G00 X13.77620 Y54.37810 ( rapid move to begin. )
F300.00000
G01 Z-0.07500
G04 P0 ( dwell for no time -- G64 should not smooth over this point )
F600.00000
X13.77620 Y54.37810
X13.62380 Y54.14950
X13.49680 Y54.07330
X13.52220 Y52.16830
X13.64920 Y52.09210
X13.87780 Y51.71110
X14.23340 Y51.45710
X14.89380 Y51.35550
X15.22400 Y51.43170
X15.70660 Y51.76190
X16.03680 Y52.24450
X16.03680 Y54.07330
X15.83360 Y54.27650
X15.68120 Y54.53050
X15.19860 Y54.86070
X14.84300 Y54.91150
X14.33500 Y54.86070
X13.85240 Y54.53050
X13.77620 Y54.40350
G04 P0 ( dwell for no time -- G64 should not smooth over this point )
G00 Z0.50000 ( retract )

G00 X11.23620 Y54.37810 ( rapid move to begin. )
F300.00000
G01 Z-0.07500
G04 P0 ( dwell for no time -- G64 should not smooth over this point )
F600.00000
X11.23620 Y54.37810
X11.08380 Y54.14950
X10.95680 Y54.07330
X10.98220 Y52.16830
X11.10920 Y52.09210
X11.33780 Y51.71110
X11.69340 Y51.45710
X12.35380 Y51.35550
X12.68400 Y51.43170
X13.16660 Y51.76190
X13.49680 Y52.24450
X13.49680 Y54.07330
X13.29360 Y54.27650
X13.14120 Y54.53050
X12.65860 Y54.86070
X12.30300 Y54.91150
X11.79500 Y54.86070
X11.31240 Y54.53050
X11.23620 Y54.40350
G04 P0 ( dwell for no time -- G64 should not smooth over this point )
G00 Z0.50000 ( retract )

G00 X8.69620 Y54.37810 ( rapid move to begin. )
F300.00000
G01 Z-0.07500
G04 P0 ( dwell for no time -- G64 should not smooth over this point )
F600.00000
X8.69620 Y54.37810
X8.54380 Y54.14950
X8.41680 Y54.07330
X8.44220 Y52.16830
X8.56920 Y52.09210
X8.79780 Y51.71110
X9.15340 Y51.45710
X9.81380 Y51.35550
X10.14400 Y51.43170
X10.62660 Y51.76190
X10.95680 Y52.24450
X10.95680 Y54.07330
X10.75360 Y54.27650
X10.60120 Y54.53050
X10.11860 Y54.86070
X9.76300 Y54.91150
X9.25500 Y54.86070
X8.77240 Y54.53050
X8.69620 Y54.40350
G04 P0 ( dwell for no time -- G64 should not smooth over this point )
G00 Z0.50000 ( retract )

G00 X6.15620 Y54.37810 ( rapid move to begin. )
F300.00000
G01 Z-0.07500
G04 P0 ( dwell for no time -- G64 should not smooth over this point )
F600.00000
X6.15620 Y54.37810
X6.00380 Y54.14950
X5.92760 Y53.81930
X5.90220 Y52.62550
X5.95300 Y52.26990
X6.23240 Y51.73650
X6.71500 Y51.40630
X7.07060 Y51.35550
X7.57860 Y51.40630
X8.06120 Y51.73650
X8.21360 Y51.99050
X8.41680 Y52.19370
X8.41680 Y54.02250
X8.08660 Y54.50510
X7.60400 Y54.83530
X7.27380 Y54.91150
X6.61340 Y54.80990
X6.25780 Y54.55590
X6.15620 Y54.40350
G04 P0 ( dwell for no time -- G64 should not smooth over this point )
G00 Z0.50000 ( retract )

G00 X67.34480 Y50.08550 ( rapid move to begin. )
F300.00000
G01 Z-0.07500
G04 P0 ( dwell for no time -- G64 should not smooth over this point )
F600.00000
X67.34480 Y50.08550
X67.21780 Y49.93310
X67.09080 Y49.85690
X67.09080 Y48.02810
X68.91960 Y48.02810
X69.09740 Y48.25670
X69.32600 Y48.43450
X69.50380 Y48.66310
X69.65620 Y49.12030
X69.65620 Y49.52670
X69.55460 Y49.83150
X69.40220 Y50.08550
X68.97040 Y50.46650
X68.69100 Y50.59350
X68.10680 Y50.61890
X67.67500 Y50.44110
X67.37020 Y50.13630
G04 P0 ( dwell for no time -- G64 should not smooth over this point )
G00 Z0.50000 ( retract )

G00 X64.80480 Y50.08550 ( rapid move to begin. )
F300.00000
G01 Z-0.07500
G04 P0 ( dwell for no time -- G64 should not smooth over this point )
F600.00000
X64.80480 Y50.08550
X64.62700 Y49.88230
X64.55080 Y49.85690
X64.55080 Y48.02810
X67.09080 Y48.02810
X67.09080 Y49.85690
X66.96380 Y49.93310
X66.58280 Y50.36490
X66.32880 Y50.51730
X66.02400 Y50.61890
X65.61760 Y50.61890
X65.31280 Y50.51730
X65.05880 Y50.36490
X64.80480 Y50.11090
G04 P0 ( dwell for no time -- G64 should not smooth over this point )
G00 Z0.50000 ( retract )

G00 X62.26480 Y50.08550 ( rapid move to begin. )
F300.00000
G01 Z-0.07500
G04 P0 ( dwell for no time -- G64 should not smooth over this point )
F600.00000
X62.26480 Y50.08550
X62.08700 Y49.88230
X62.01080 Y49.85690
X62.01080 Y48.02810
X64.55080 Y48.02810
X64.55080 Y49.85690
X64.42380 Y49.93310
X64.04280 Y50.36490
X63.78880 Y50.51730
X63.48400 Y50.61890
X63.07760 Y50.61890
X62.77280 Y50.51730
X62.51880 Y50.36490
X62.26480 Y50.11090
G04 P0 ( dwell for no time -- G64 should not smooth over this point )
G00 Z0.50000 ( retract )

G00 X59.72480 Y50.08550 ( rapid move to begin. )
F300.00000
G01 Z-0.07500
G04 P0 ( dwell for no time -- G64 should not smooth over this point )
F600.00000
X59.72480 Y50.08550
X59.59780 Y49.93310
X59.47080 Y49.85690
X59.47080 Y48.02810
X62.01080 Y48.02810
X62.01080 Y49.85690
X61.88380 Y49.93310
X61.50280 Y50.36490
X61.24880 Y50.51730
X60.94400 Y50.61890
X60.53760 Y50.61890
X60.23280 Y50.51730
X59.97880 Y50.36490
X59.72480 Y50.11090
G04 P0 ( dwell for no time -- G64 should not smooth over this point )
G00 Z0.50000 ( retract )

G00 X57.18480 Y50.08550 ( rapid move to begin. )
F300.00000
G01 Z-0.07500
G04 P0 ( dwell for no time -- G64 should not smooth over this point )
F600.00000
X57.18480 Y50.08550
X57.05780 Y49.93310
X56.93080 Y49.85690
X56.93080 Y48.02810
X59.47080 Y48.02810
X59.47080 Y49.85690
X59.34380 Y49.93310
X58.96280 Y50.36490
X58.70880 Y50.51730
X58.40400 Y50.61890
X57.99760 Y50.61890
X57.69280 Y50.51730
X57.43880 Y50.36490
X57.18480 Y50.11090
G04 P0 ( dwell for no time -- G64 should not smooth over this point )
G00 Z0.50000 ( retract )

G00 X54.64480 Y50.08550 ( rapid move to begin. )
F300.00000
G01 Z-0.07500
G04 P0 ( dwell for no time -- G64 should not smooth over this point )
F600.00000
X54.64480 Y50.08550
X54.46700 Y49.88230
X54.39080 Y49.85690
X54.39080 Y48.02810
X56.93080 Y48.02810
X56.93080 Y49.85690
X56.80380 Y49.93310
X56.42280 Y50.36490
X56.16880 Y50.51730
X55.86400 Y50.61890
X55.45760 Y50.61890
X55.15280 Y50.51730
X54.89880 Y50.36490
X54.64480 Y50.11090
G04 P0 ( dwell for no time -- G64 should not smooth over this point )
G00 Z0.50000 ( retract )

G00 X52.10480 Y50.08550 ( rapid move to begin. )
F300.00000
G01 Z-0.07500
G04 P0 ( dwell for no time -- G64 should not smooth over this point )
F600.00000
X52.10480 Y50.08550
X51.97780 Y49.93310
X51.85080 Y49.85690
X51.85080 Y48.02810
X54.39080 Y48.02810
X54.39080 Y49.85690
X54.26380 Y49.93310
X53.88280 Y50.36490
X53.62880 Y50.51730
X53.32400 Y50.61890
X52.91760 Y50.61890
X52.61280 Y50.51730
X52.35880 Y50.36490
X52.10480 Y50.11090
G04 P0 ( dwell for no time -- G64 should not smooth over this point )
G00 Z0.50000 ( retract )

G00 X49.56480 Y50.08550 ( rapid move to begin. )
F300.00000
G01 Z-0.07500
G04 P0 ( dwell for no time -- G64 should not smooth over this point )
F600.00000
X49.56480 Y50.08550
X49.38700 Y49.88230
X49.31080 Y49.85690
X49.31080 Y48.02810
X51.85080 Y48.02810
X51.85080 Y49.85690
X51.72380 Y49.93310
X51.34280 Y50.36490
X51.08880 Y50.51730
X50.78400 Y50.61890
X50.37760 Y50.61890
X50.07280 Y50.51730
X49.81880 Y50.36490
X49.56480 Y50.11090
G04 P0 ( dwell for no time -- G64 should not smooth over this point )
G00 Z0.50000 ( retract )

G00 X47.02480 Y50.08550 ( rapid move to begin. )
F300.00000
G01 Z-0.07500
G04 P0 ( dwell for no time -- G64 should not smooth over this point )
F600.00000
X47.02480 Y50.08550
X46.89780 Y49.93310
X46.77080 Y49.85690
X46.77080 Y48.02810
X49.31080 Y48.02810
X49.31080 Y49.85690
X49.18380 Y49.93310
X48.80280 Y50.36490
X48.54880 Y50.51730
X48.24400 Y50.61890
X47.83760 Y50.61890
X47.53280 Y50.51730
X47.27880 Y50.36490
X47.02480 Y50.11090
G04 P0 ( dwell for no time -- G64 should not smooth over this point )
G00 Z0.50000 ( retract )

G00 X44.48480 Y50.08550 ( rapid move to begin. )
F300.00000
G01 Z-0.07500
G04 P0 ( dwell for no time -- G64 should not smooth over this point )
F600.00000
X44.48480 Y50.08550
X44.35780 Y49.93310
X44.23080 Y49.85690
X44.23080 Y48.02810
X46.77080 Y48.02810
X46.77080 Y49.85690
X46.64380 Y49.93310
X46.26280 Y50.36490
X46.00880 Y50.51730
X45.70400 Y50.61890
X45.29760 Y50.61890
X44.99280 Y50.51730
X44.73880 Y50.36490
X44.48480 Y50.11090
G04 P0 ( dwell for no time -- G64 should not smooth over this point )
G00 Z0.50000 ( retract )

G00 X41.94480 Y50.08550 ( rapid move to begin. )
F300.00000
G01 Z-0.07500
G04 P0 ( dwell for no time -- G64 should not smooth over this point )
F600.00000
X41.94480 Y50.08550
X41.81780 Y49.93310
X41.69080 Y49.85690
X41.69080 Y48.02810
X44.23080 Y48.02810
X44.23080 Y49.85690
X44.10380 Y49.93310
X43.72280 Y50.36490
X43.46880 Y50.51730
X43.16400 Y50.61890
X42.75760 Y50.61890
X42.45280 Y50.51730
X42.19880 Y50.36490
X41.94480 Y50.11090
G04 P0 ( dwell for no time -- G64 should not smooth over this point )
G00 Z0.50000 ( retract )

G00 X39.40480 Y50.08550 ( rapid move to begin. )
F300.00000
G01 Z-0.07500
G04 P0 ( dwell for no time -- G64 should not smooth over this point )
F600.00000
X39.40480 Y50.08550
X39.27780 Y49.93310
X39.15080 Y49.85690
X39.15080 Y48.02810
X41.69080 Y48.02810
X41.69080 Y49.85690
X41.56380 Y49.93310
X41.18280 Y50.36490
X40.92880 Y50.51730
X40.62400 Y50.61890
X40.21760 Y50.61890
X39.91280 Y50.51730
X39.65880 Y50.36490
X39.40480 Y50.11090
G04 P0 ( dwell for no time -- G64 should not smooth over this point )
G00 Z0.50000 ( retract )

G00 X36.86480 Y50.08550 ( rapid move to begin. )
F300.00000
G01 Z-0.07500
G04 P0 ( dwell for no time -- G64 should not smooth over this point )
F600.00000
X36.86480 Y50.08550
X36.73780 Y49.93310
X36.61080 Y49.85690
X36.61080 Y48.02810
X39.15080 Y48.02810
X39.15080 Y49.85690
X39.02380 Y49.93310
X38.64280 Y50.36490
X38.38880 Y50.51730
X38.08400 Y50.61890
X37.67760 Y50.61890
X37.37280 Y50.51730
X37.11880 Y50.36490
X36.86480 Y50.11090
G04 P0 ( dwell for no time -- G64 should not smooth over this point )
G00 Z0.50000 ( retract )

G00 X34.32480 Y50.08550 ( rapid move to begin. )
F300.00000
G01 Z-0.07500
G04 P0 ( dwell for no time -- G64 should not smooth over this point )
F600.00000
X34.32480 Y50.08550
X34.19780 Y49.93310
X34.07080 Y49.85690
X34.07080 Y48.02810
X36.61080 Y48.02810
X36.61080 Y49.85690
X36.48380 Y49.93310
X36.10280 Y50.36490
X35.84880 Y50.51730
X35.54400 Y50.61890
X35.13760 Y50.61890
X34.83280 Y50.51730
X34.57880 Y50.36490
X34.32480 Y50.11090
G04 P0 ( dwell for no time -- G64 should not smooth over this point )
G00 Z0.50000 ( retract )

G00 X31.78480 Y50.08550 ( rapid move to begin. )
F300.00000
G01 Z-0.07500
G04 P0 ( dwell for no time -- G64 should not smooth over this point )
F600.00000
X31.78480 Y50.08550
X31.65780 Y49.93310
X31.53080 Y49.85690
X31.53080 Y48.02810
X34.07080 Y48.02810
X34.07080 Y49.85690
X33.94380 Y49.93310
X33.56280 Y50.36490
X33.30880 Y50.51730
X33.00400 Y50.61890
X32.59760 Y50.61890
X32.29280 Y50.51730
X32.03880 Y50.36490
X31.78480 Y50.11090
G04 P0 ( dwell for no time -- G64 should not smooth over this point )
G00 Z0.50000 ( retract )

G00 X29.24480 Y50.08550 ( rapid move to begin. )
F300.00000
G01 Z-0.07500
G04 P0 ( dwell for no time -- G64 should not smooth over this point )
F600.00000
X29.24480 Y50.08550
X29.11780 Y49.93310
X28.99080 Y49.85690
X28.99080 Y48.02810
X31.53080 Y48.02810
X31.53080 Y49.85690
X31.40380 Y49.93310
X31.02280 Y50.36490
X30.76880 Y50.51730
X30.46400 Y50.61890
X30.05760 Y50.61890
X29.75280 Y50.51730
X29.49880 Y50.36490
X29.24480 Y50.11090
G04 P0 ( dwell for no time -- G64 should not smooth over this point )
G00 Z0.50000 ( retract )

G00 X26.70480 Y50.08550 ( rapid move to begin. )
F300.00000
G01 Z-0.07500
G04 P0 ( dwell for no time -- G64 should not smooth over this point )
F600.00000
X26.70480 Y50.08550
X26.57780 Y49.93310
X26.45080 Y49.85690
X26.45080 Y48.02810
X28.99080 Y48.02810
X28.99080 Y49.85690
X28.86380 Y49.93310
X28.48280 Y50.36490
X28.22880 Y50.51730
X27.92400 Y50.61890
X27.51760 Y50.61890
X27.21280 Y50.51730
X26.95880 Y50.36490
X26.70480 Y50.11090
G04 P0 ( dwell for no time -- G64 should not smooth over this point )
G00 Z0.50000 ( retract )

G00 X24.16480 Y50.08550 ( rapid move to begin. )
F300.00000
G01 Z-0.07500
G04 P0 ( dwell for no time -- G64 should not smooth over this point )
F600.00000
X24.16480 Y50.08550
X24.03780 Y49.93310
X23.91080 Y49.85690
X23.91080 Y48.02810
X26.45080 Y48.02810
X26.45080 Y49.85690
X26.32380 Y49.93310
X25.94280 Y50.36490
X25.68880 Y50.51730
X25.38400 Y50.61890
X24.97760 Y50.61890
X24.67280 Y50.51730
X24.41880 Y50.36490
X24.16480 Y50.11090
G04 P0 ( dwell for no time -- G64 should not smooth over this point )
G00 Z0.50000 ( retract )

G00 X21.62480 Y50.08550 ( rapid move to begin. )
F300.00000
G01 Z-0.07500
G04 P0 ( dwell for no time -- G64 should not smooth over this point )
F600.00000
X21.62480 Y50.08550
X21.49780 Y49.93310
X21.37080 Y49.85690
X21.37080 Y48.02810
X23.91080 Y48.02810
X23.91080 Y49.85690
X23.78380 Y49.93310
X23.40280 Y50.36490
X23.14880 Y50.51730
X22.84400 Y50.61890
X22.43760 Y50.61890
X22.13280 Y50.51730
X21.87880 Y50.36490
X21.62480 Y50.11090
G04 P0 ( dwell for no time -- G64 should not smooth over this point )
G00 Z0.50000 ( retract )

G00 X19.08480 Y50.08550 ( rapid move to begin. )
F300.00000
G01 Z-0.07500
G04 P0 ( dwell for no time -- G64 should not smooth over this point )
F600.00000
X19.08480 Y50.08550
X18.95780 Y49.93310
X18.83080 Y49.85690
X18.83080 Y48.02810
X21.37080 Y48.02810
X21.37080 Y49.85690
X21.24380 Y49.93310
X20.86280 Y50.36490
X20.60880 Y50.51730
X20.30400 Y50.61890
X19.89760 Y50.61890
X19.59280 Y50.51730
X19.33880 Y50.36490
X19.08480 Y50.11090
G04 P0 ( dwell for no time -- G64 should not smooth over this point )
G00 Z0.50000 ( retract )

G00 X16.54480 Y50.08550 ( rapid move to begin. )
F300.00000
G01 Z-0.07500
G04 P0 ( dwell for no time -- G64 should not smooth over this point )
F600.00000
X16.54480 Y50.08550
X16.41780 Y49.93310
X16.29080 Y49.85690
X16.29080 Y48.02810
X18.83080 Y48.02810
X18.83080 Y49.85690
X18.70380 Y49.93310
X18.32280 Y50.36490
X18.06880 Y50.51730
X17.76400 Y50.61890
X17.35760 Y50.61890
X17.05280 Y50.51730
X16.79880 Y50.36490
X16.54480 Y50.11090
G04 P0 ( dwell for no time -- G64 should not smooth over this point )
G00 Z0.50000 ( retract )

G00 X14.00480 Y50.08550 ( rapid move to begin. )
F300.00000
G01 Z-0.07500
G04 P0 ( dwell for no time -- G64 should not smooth over this point )
F600.00000
X14.00480 Y50.08550
X13.82700 Y49.88230
X13.75080 Y49.85690
X13.75080 Y48.02810
X16.29080 Y48.02810
X16.29080 Y49.85690
X16.16380 Y49.93310
X15.78280 Y50.36490
X15.52880 Y50.51730
X15.22400 Y50.61890
X14.81760 Y50.61890
X14.51280 Y50.51730
X14.25880 Y50.36490
X14.00480 Y50.11090
G04 P0 ( dwell for no time -- G64 should not smooth over this point )
G00 Z0.50000 ( retract )

G00 X11.46480 Y50.08550 ( rapid move to begin. )
F300.00000
G01 Z-0.07500
G04 P0 ( dwell for no time -- G64 should not smooth over this point )
F600.00000
X11.46480 Y50.08550
X11.28700 Y49.88230
X11.21080 Y49.85690
X11.21080 Y48.02810
X13.75080 Y48.02810
X13.75080 Y49.85690
X13.62380 Y49.93310
X13.24280 Y50.36490
X12.98880 Y50.51730
X12.68400 Y50.61890
X12.27760 Y50.61890
X11.97280 Y50.51730
X11.71880 Y50.36490
X11.46480 Y50.11090
G04 P0 ( dwell for no time -- G64 should not smooth over this point )
G00 Z0.50000 ( retract )

G00 X8.92480 Y50.08550 ( rapid move to begin. )
F300.00000
G01 Z-0.07500
G04 P0 ( dwell for no time -- G64 should not smooth over this point )
F600.00000
X8.92480 Y50.08550
X8.82320 Y50.00930
X8.64540 Y49.57750
X8.67080 Y48.99330
X8.79780 Y48.71390
X9.17880 Y48.28210
X9.40740 Y48.10430
X9.43280 Y48.02810
X11.21080 Y48.02810
X11.21080 Y49.85690
X11.08380 Y49.93310
X10.70280 Y50.36490
X10.44880 Y50.51730
X10.14400 Y50.61890
X9.73760 Y50.61890
X9.43280 Y50.51730
X9.17880 Y50.36490
X8.92480 Y50.11090
G04 P0 ( dwell for no time -- G64 should not smooth over this point )
G00 Z0.50000 ( retract )

G00 X67.09080 Y47.54550 ( rapid move to begin. )
F300.00000
G01 Z-0.07500
G04 P0 ( dwell for no time -- G64 should not smooth over this point )
F600.00000
X67.09080 Y47.54550
X67.09080 Y45.48810
X68.91960 Y45.48810
X69.09740 Y45.71670
X69.32600 Y45.89450
X69.50380 Y46.12310
X69.65620 Y46.58030
X69.65620 Y46.98670
X69.55460 Y47.29150
X69.40220 Y47.54550
X68.97040 Y47.92650
X68.91960 Y48.02810
X67.09080 Y48.02810
G04 P0 ( dwell for no time -- G64 should not smooth over this point )
G00 Z0.50000 ( retract )

G00 X64.55080 Y47.54550 ( rapid move to begin. )
F300.00000
G01 Z-0.07500
G04 P0 ( dwell for no time -- G64 should not smooth over this point )
F600.00000
X64.55080 Y47.54550
X64.55080 Y45.48810
X67.09080 Y45.48810
X67.09080 Y48.02810
X64.55080 Y48.02810
G04 P0 ( dwell for no time -- G64 should not smooth over this point )
G00 Z0.50000 ( retract )

G00 X62.01080 Y47.54550 ( rapid move to begin. )
F300.00000
G01 Z-0.07500
G04 P0 ( dwell for no time -- G64 should not smooth over this point )
F600.00000
X62.01080 Y47.54550
X62.01080 Y45.48810
X64.55080 Y45.48810
X64.55080 Y48.02810
X62.01080 Y48.02810
G04 P0 ( dwell for no time -- G64 should not smooth over this point )
G00 Z0.50000 ( retract )

G00 X59.47080 Y47.54550 ( rapid move to begin. )
F300.00000
G01 Z-0.07500
G04 P0 ( dwell for no time -- G64 should not smooth over this point )
F600.00000
X59.47080 Y47.54550
X59.47080 Y45.48810
X62.01080 Y45.48810
X62.01080 Y48.02810
X59.47080 Y48.02810
G04 P0 ( dwell for no time -- G64 should not smooth over this point )
G00 Z0.50000 ( retract )

G00 X56.93080 Y47.54550 ( rapid move to begin. )
F300.00000
G01 Z-0.07500
G04 P0 ( dwell for no time -- G64 should not smooth over this point )
F600.00000
X56.93080 Y47.54550
X56.93080 Y45.48810
X59.47080 Y45.48810
X59.47080 Y48.02810
X56.93080 Y48.02810
G04 P0 ( dwell for no time -- G64 should not smooth over this point )
G00 Z0.50000 ( retract )

G00 X54.39080 Y47.54550 ( rapid move to begin. )
F300.00000
G01 Z-0.07500
G04 P0 ( dwell for no time -- G64 should not smooth over this point )
F600.00000
X54.39080 Y47.54550
X54.39080 Y45.48810
X56.93080 Y45.48810
X56.93080 Y48.02810
X54.39080 Y48.02810
G04 P0 ( dwell for no time -- G64 should not smooth over this point )
G00 Z0.50000 ( retract )

G00 X51.85080 Y47.54550 ( rapid move to begin. )
F300.00000
G01 Z-0.07500
G04 P0 ( dwell for no time -- G64 should not smooth over this point )
F600.00000
X51.85080 Y47.54550
X51.85080 Y45.48810
X54.39080 Y45.48810
X54.39080 Y48.02810
X51.85080 Y48.02810
G04 P0 ( dwell for no time -- G64 should not smooth over this point )
G00 Z0.50000 ( retract )

G00 X49.31080 Y47.54550 ( rapid move to begin. )
F300.00000
G01 Z-0.07500
G04 P0 ( dwell for no time -- G64 should not smooth over this point )
F600.00000
X49.31080 Y47.54550
X49.31080 Y45.48810
X51.85080 Y45.48810
X51.85080 Y48.02810
X49.31080 Y48.02810
G04 P0 ( dwell for no time -- G64 should not smooth over this point )
G00 Z0.50000 ( retract )

G00 X46.77080 Y47.54550 ( rapid move to begin. )
F300.00000
G01 Z-0.07500
G04 P0 ( dwell for no time -- G64 should not smooth over this point )
F600.00000
X46.77080 Y47.54550
X46.77080 Y45.48810
X49.31080 Y45.48810
X49.31080 Y48.02810
X46.77080 Y48.02810
G04 P0 ( dwell for no time -- G64 should not smooth over this point )
G00 Z0.50000 ( retract )

G00 X44.23080 Y47.54550 ( rapid move to begin. )
F300.00000
G01 Z-0.07500
G04 P0 ( dwell for no time -- G64 should not smooth over this point )
F600.00000
X44.23080 Y47.54550
X44.23080 Y45.48810
X46.77080 Y45.48810
X46.77080 Y48.02810
X44.23080 Y48.02810
G04 P0 ( dwell for no time -- G64 should not smooth over this point )
G00 Z0.50000 ( retract )

G00 X41.69080 Y47.54550 ( rapid move to begin. )
F300.00000
G01 Z-0.07500
G04 P0 ( dwell for no time -- G64 should not smooth over this point )
F600.00000
X41.69080 Y47.54550
X41.69080 Y45.48810
X44.23080 Y45.48810
X44.23080 Y48.02810
X41.69080 Y48.02810
G04 P0 ( dwell for no time -- G64 should not smooth over this point )
G00 Z0.50000 ( retract )

G00 X39.15080 Y47.54550 ( rapid move to begin. )
F300.00000
G01 Z-0.07500
G04 P0 ( dwell for no time -- G64 should not smooth over this point )
F600.00000
X39.15080 Y47.54550
X39.15080 Y45.48810
X41.69080 Y45.48810
X41.69080 Y48.02810
X39.15080 Y48.02810
G04 P0 ( dwell for no time -- G64 should not smooth over this point )
G00 Z0.50000 ( retract )

G00 X36.61080 Y47.54550 ( rapid move to begin. )
F300.00000
G01 Z-0.07500
G04 P0 ( dwell for no time -- G64 should not smooth over this point )
F600.00000
X36.61080 Y47.54550
X36.61080 Y45.48810
X39.15080 Y45.48810
X39.15080 Y48.02810
X36.61080 Y48.02810
G04 P0 ( dwell for no time -- G64 should not smooth over this point )
G00 Z0.50000 ( retract )

G00 X34.07080 Y47.54550 ( rapid move to begin. )
F300.00000
G01 Z-0.07500
G04 P0 ( dwell for no time -- G64 should not smooth over this point )
F600.00000
X34.07080 Y47.54550
X34.07080 Y45.48810
X36.61080 Y45.48810
X36.61080 Y48.02810
X34.07080 Y48.02810
G04 P0 ( dwell for no time -- G64 should not smooth over this point )
G00 Z0.50000 ( retract )

G00 X31.53080 Y47.54550 ( rapid move to begin. )
F300.00000
G01 Z-0.07500
G04 P0 ( dwell for no time -- G64 should not smooth over this point )
F600.00000
X31.53080 Y47.54550
X31.53080 Y45.48810
X34.07080 Y45.48810
X34.07080 Y48.02810
X31.53080 Y48.02810
G04 P0 ( dwell for no time -- G64 should not smooth over this point )
G00 Z0.50000 ( retract )

G00 X28.99080 Y47.54550 ( rapid move to begin. )
F300.00000
G01 Z-0.07500
G04 P0 ( dwell for no time -- G64 should not smooth over this point )
F600.00000
X28.99080 Y47.54550
X28.99080 Y45.48810
X31.53080 Y45.48810
X31.53080 Y48.02810
X28.99080 Y48.02810
G04 P0 ( dwell for no time -- G64 should not smooth over this point )
G00 Z0.50000 ( retract )

G00 X26.45080 Y47.54550 ( rapid move to begin. )
F300.00000
G01 Z-0.07500
G04 P0 ( dwell for no time -- G64 should not smooth over this point )
F600.00000
X26.45080 Y47.54550
X26.45080 Y45.48810
X28.99080 Y45.48810
X28.99080 Y48.02810
X26.45080 Y48.02810
G04 P0 ( dwell for no time -- G64 should not smooth over this point )
G00 Z0.50000 ( retract )

G00 X23.91080 Y47.54550 ( rapid move to begin. )
F300.00000
G01 Z-0.07500
G04 P0 ( dwell for no time -- G64 should not smooth over this point )
F600.00000
X23.91080 Y47.54550
X23.91080 Y45.48810
X26.45080 Y45.48810
X26.45080 Y48.02810
X23.91080 Y48.02810
G04 P0 ( dwell for no time -- G64 should not smooth over this point )
G00 Z0.50000 ( retract )

G00 X21.37080 Y47.54550 ( rapid move to begin. )
F300.00000
G01 Z-0.07500
G04 P0 ( dwell for no time -- G64 should not smooth over this point )
F600.00000
X21.37080 Y47.54550
X21.37080 Y45.48810
X23.91080 Y45.48810
X23.91080 Y48.02810
X21.37080 Y48.02810
G04 P0 ( dwell for no time -- G64 should not smooth over this point )
G00 Z0.50000 ( retract )

G00 X18.83080 Y47.54550 ( rapid move to begin. )
F300.00000
G01 Z-0.07500
G04 P0 ( dwell for no time -- G64 should not smooth over this point )
F600.00000
X18.83080 Y47.54550
X18.83080 Y45.48810
X21.37080 Y45.48810
X21.37080 Y48.02810
X18.83080 Y48.02810
G04 P0 ( dwell for no time -- G64 should not smooth over this point )
G00 Z0.50000 ( retract )

G00 X16.29080 Y47.54550 ( rapid move to begin. )
F300.00000
G01 Z-0.07500
G04 P0 ( dwell for no time -- G64 should not smooth over this point )
F600.00000
X16.29080 Y47.54550
X16.29080 Y45.48810
X18.83080 Y45.48810
X18.83080 Y48.02810
X16.29080 Y48.02810
G04 P0 ( dwell for no time -- G64 should not smooth over this point )
G00 Z0.50000 ( retract )

G00 X13.75080 Y47.54550 ( rapid move to begin. )
F300.00000
G01 Z-0.07500
G04 P0 ( dwell for no time -- G64 should not smooth over this point )
F600.00000
X13.75080 Y47.54550
X13.75080 Y45.48810
X16.29080 Y45.48810
X16.29080 Y48.02810
X13.75080 Y48.02810
G04 P0 ( dwell for no time -- G64 should not smooth over this point )
G00 Z0.50000 ( retract )

G00 X11.21080 Y47.54550 ( rapid move to begin. )
F300.00000
G01 Z-0.07500
G04 P0 ( dwell for no time -- G64 should not smooth over this point )
F600.00000
X11.21080 Y47.54550
X11.21080 Y45.48810
X13.75080 Y45.48810
X13.75080 Y48.02810
X11.21080 Y48.02810
G04 P0 ( dwell for no time -- G64 should not smooth over this point )
G00 Z0.50000 ( retract )

G00 X8.92480 Y47.54550 ( rapid move to begin. )
F300.00000
G01 Z-0.07500
G04 P0 ( dwell for no time -- G64 should not smooth over this point )
F600.00000
X8.92480 Y47.54550
X8.82320 Y47.46930
X8.64540 Y47.03750
X8.67080 Y46.45330
X8.79780 Y46.17390
X9.17880 Y45.74210
X9.40740 Y45.56430
X9.43280 Y45.48810
X11.21080 Y45.48810
X11.21080 Y48.02810
X9.40740 Y48.00270
X8.92480 Y47.57090
G04 P0 ( dwell for no time -- G64 should not smooth over this point )
G00 Z0.50000 ( retract )

G00 X67.09080 Y45.00550 ( rapid move to begin. )
F300.00000
G01 Z-0.07500
G04 P0 ( dwell for no time -- G64 should not smooth over this point )
F600.00000
X67.09080 Y45.00550
X67.09080 Y42.94810
X68.91960 Y42.94810
X69.09740 Y43.17670
X69.32600 Y43.35450
X69.50380 Y43.58310
X69.65620 Y44.04030
X69.65620 Y44.44670
X69.55460 Y44.75150
X69.40220 Y45.00550
X68.97040 Y45.38650
X68.91960 Y45.48810
X67.09080 Y45.48810
G04 P0 ( dwell for no time -- G64 should not smooth over this point )
G00 Z0.50000 ( retract )

G00 X64.55080 Y45.00550 ( rapid move to begin. )
F300.00000
G01 Z-0.07500
G04 P0 ( dwell for no time -- G64 should not smooth over this point )
F600.00000
X64.55080 Y45.00550
X64.55080 Y42.94810
X67.09080 Y42.94810
X67.09080 Y45.48810
X64.55080 Y45.48810
G04 P0 ( dwell for no time -- G64 should not smooth over this point )
G00 Z0.50000 ( retract )

G00 X62.01080 Y45.00550 ( rapid move to begin. )
F300.00000
G01 Z-0.07500
G04 P0 ( dwell for no time -- G64 should not smooth over this point )
F600.00000
X62.01080 Y45.00550
X62.01080 Y42.94810
X64.55080 Y42.94810
X64.55080 Y45.48810
X62.01080 Y45.48810
G04 P0 ( dwell for no time -- G64 should not smooth over this point )
G00 Z0.50000 ( retract )

G00 X59.47080 Y45.00550 ( rapid move to begin. )
F300.00000
G01 Z-0.07500
G04 P0 ( dwell for no time -- G64 should not smooth over this point )
F600.00000
X59.47080 Y45.00550
X59.47080 Y42.94810
X62.01080 Y42.94810
X62.01080 Y45.48810
X59.47080 Y45.48810
G04 P0 ( dwell for no time -- G64 should not smooth over this point )
G00 Z0.50000 ( retract )

G00 X56.93080 Y45.00550 ( rapid move to begin. )
F300.00000
G01 Z-0.07500
G04 P0 ( dwell for no time -- G64 should not smooth over this point )
F600.00000
X56.93080 Y45.00550
X56.93080 Y42.94810
X59.47080 Y42.94810
X59.47080 Y45.48810
X56.93080 Y45.48810
G04 P0 ( dwell for no time -- G64 should not smooth over this point )
G00 Z0.50000 ( retract )

G00 X54.39080 Y45.00550 ( rapid move to begin. )
F300.00000
G01 Z-0.07500
G04 P0 ( dwell for no time -- G64 should not smooth over this point )
F600.00000
X54.39080 Y45.00550
X54.39080 Y42.94810
X56.93080 Y42.94810
X56.93080 Y45.48810
X54.39080 Y45.48810
G04 P0 ( dwell for no time -- G64 should not smooth over this point )
G00 Z0.50000 ( retract )

G00 X51.85080 Y45.00550 ( rapid move to begin. )
F300.00000
G01 Z-0.07500
G04 P0 ( dwell for no time -- G64 should not smooth over this point )
F600.00000
X51.85080 Y45.00550
X51.85080 Y42.94810
X54.39080 Y42.94810
X54.39080 Y45.48810
X51.85080 Y45.48810
G04 P0 ( dwell for no time -- G64 should not smooth over this point )
G00 Z0.50000 ( retract )

G00 X49.31080 Y45.00550 ( rapid move to begin. )
F300.00000
G01 Z-0.07500
G04 P0 ( dwell for no time -- G64 should not smooth over this point )
F600.00000
X49.31080 Y45.00550
X49.31080 Y42.94810
X51.85080 Y42.94810
X51.85080 Y45.48810
X49.31080 Y45.48810
G04 P0 ( dwell for no time -- G64 should not smooth over this point )
G00 Z0.50000 ( retract )

G00 X46.77080 Y45.00550 ( rapid move to begin. )
F300.00000
G01 Z-0.07500
G04 P0 ( dwell for no time -- G64 should not smooth over this point )
F600.00000
X46.77080 Y45.00550
X46.77080 Y42.94810
X49.31080 Y42.94810
X49.31080 Y45.48810
X46.77080 Y45.48810
G04 P0 ( dwell for no time -- G64 should not smooth over this point )
G00 Z0.50000 ( retract )

G00 X44.23080 Y45.00550 ( rapid move to begin. )
F300.00000
G01 Z-0.07500
G04 P0 ( dwell for no time -- G64 should not smooth over this point )
F600.00000
X44.23080 Y45.00550
X44.23080 Y42.94810
X46.77080 Y42.94810
X46.77080 Y45.48810
X44.23080 Y45.48810
G04 P0 ( dwell for no time -- G64 should not smooth over this point )
G00 Z0.50000 ( retract )

G00 X41.69080 Y45.00550 ( rapid move to begin. )
F300.00000
G01 Z-0.07500
G04 P0 ( dwell for no time -- G64 should not smooth over this point )
F600.00000
X41.69080 Y45.00550
X41.69080 Y42.94810
X44.23080 Y42.94810
X44.23080 Y45.48810
X41.69080 Y45.48810
G04 P0 ( dwell for no time -- G64 should not smooth over this point )
G00 Z0.50000 ( retract )

G00 X39.15080 Y45.00550 ( rapid move to begin. )
F300.00000
G01 Z-0.07500
G04 P0 ( dwell for no time -- G64 should not smooth over this point )
F600.00000
X39.15080 Y45.00550
X39.15080 Y42.94810
X41.69080 Y42.94810
X41.69080 Y45.48810
X39.15080 Y45.48810
G04 P0 ( dwell for no time -- G64 should not smooth over this point )
G00 Z0.50000 ( retract )

G00 X36.61080 Y45.00550 ( rapid move to begin. )
F300.00000
G01 Z-0.07500
G04 P0 ( dwell for no time -- G64 should not smooth over this point )
F600.00000
X36.61080 Y45.00550
X36.61080 Y42.94810
X39.15080 Y42.94810
X39.15080 Y45.48810
X36.61080 Y45.48810
G04 P0 ( dwell for no time -- G64 should not smooth over this point )
G00 Z0.50000 ( retract )

G00 X34.07080 Y45.00550 ( rapid move to begin. )
F300.00000
G01 Z-0.07500
G04 P0 ( dwell for no time -- G64 should not smooth over this point )
F600.00000
X34.07080 Y45.00550
X34.07080 Y42.94810
X36.61080 Y42.94810
X36.61080 Y45.48810
X34.07080 Y45.48810
G04 P0 ( dwell for no time -- G64 should not smooth over this point )
G00 Z0.50000 ( retract )

G00 X31.53080 Y45.00550 ( rapid move to begin. )
F300.00000
G01 Z-0.07500
G04 P0 ( dwell for no time -- G64 should not smooth over this point )
F600.00000
X31.53080 Y45.00550
X31.53080 Y42.94810
X34.07080 Y42.94810
X34.07080 Y45.48810
X31.53080 Y45.48810
G04 P0 ( dwell for no time -- G64 should not smooth over this point )
G00 Z0.50000 ( retract )

G00 X28.99080 Y45.00550 ( rapid move to begin. )
F300.00000
G01 Z-0.07500
G04 P0 ( dwell for no time -- G64 should not smooth over this point )
F600.00000
X28.99080 Y45.00550
X28.99080 Y42.94810
X31.53080 Y42.94810
X31.53080 Y45.48810
X28.99080 Y45.48810
G04 P0 ( dwell for no time -- G64 should not smooth over this point )
G00 Z0.50000 ( retract )

G00 X26.45080 Y45.00550 ( rapid move to begin. )
F300.00000
G01 Z-0.07500
G04 P0 ( dwell for no time -- G64 should not smooth over this point )
F600.00000
X26.45080 Y45.00550
X26.45080 Y42.94810
X28.99080 Y42.94810
X28.99080 Y45.48810
X26.45080 Y45.48810
G04 P0 ( dwell for no time -- G64 should not smooth over this point )
G00 Z0.50000 ( retract )

G00 X23.91080 Y45.00550 ( rapid move to begin. )
F300.00000
G01 Z-0.07500
G04 P0 ( dwell for no time -- G64 should not smooth over this point )
F600.00000
X23.91080 Y45.00550
X23.91080 Y42.94810
X26.45080 Y42.94810
X26.45080 Y45.48810
X23.91080 Y45.48810
G04 P0 ( dwell for no time -- G64 should not smooth over this point )
G00 Z0.50000 ( retract )

G00 X21.37080 Y45.00550 ( rapid move to begin. )
F300.00000
G01 Z-0.07500
G04 P0 ( dwell for no time -- G64 should not smooth over this point )
F600.00000
X21.37080 Y45.00550
X21.37080 Y42.94810
X23.91080 Y42.94810
X23.91080 Y45.48810
X21.37080 Y45.48810
G04 P0 ( dwell for no time -- G64 should not smooth over this point )
G00 Z0.50000 ( retract )

G00 X18.83080 Y45.00550 ( rapid move to begin. )
F300.00000
G01 Z-0.07500
G04 P0 ( dwell for no time -- G64 should not smooth over this point )
F600.00000
X18.83080 Y45.00550
X18.83080 Y42.94810
X21.37080 Y42.94810
X21.37080 Y45.48810
X18.83080 Y45.48810
G04 P0 ( dwell for no time -- G64 should not smooth over this point )
G00 Z0.50000 ( retract )

G00 X16.29080 Y45.00550 ( rapid move to begin. )
F300.00000
G01 Z-0.07500
G04 P0 ( dwell for no time -- G64 should not smooth over this point )
F600.00000
X16.29080 Y45.00550
X16.29080 Y42.94810
X18.83080 Y42.94810
X18.83080 Y45.48810
X16.29080 Y45.48810
G04 P0 ( dwell for no time -- G64 should not smooth over this point )
G00 Z0.50000 ( retract )

G00 X13.75080 Y45.00550 ( rapid move to begin. )
F300.00000
G01 Z-0.07500
G04 P0 ( dwell for no time -- G64 should not smooth over this point )
F600.00000
X13.75080 Y45.00550
X13.75080 Y42.94810
X16.29080 Y42.94810
X16.29080 Y45.48810
X13.75080 Y45.48810
G04 P0 ( dwell for no time -- G64 should not smooth over this point )
G00 Z0.50000 ( retract )

G00 X11.21080 Y45.00550 ( rapid move to begin. )
F300.00000
G01 Z-0.07500
G04 P0 ( dwell for no time -- G64 should not smooth over this point )
F600.00000
X11.21080 Y45.00550
X11.21080 Y42.94810
X13.75080 Y42.94810
X13.75080 Y45.48810
X11.21080 Y45.48810
G04 P0 ( dwell for no time -- G64 should not smooth over this point )
G00 Z0.50000 ( retract )

G00 X8.92480 Y45.00550 ( rapid move to begin. )
F300.00000
G01 Z-0.07500
G04 P0 ( dwell for no time -- G64 should not smooth over this point )
F600.00000
X8.92480 Y45.00550
X8.82320 Y44.92930
X8.64540 Y44.49750
X8.67080 Y43.91330
X8.79780 Y43.63390
X9.17880 Y43.20210
X9.40740 Y43.02430
X9.43280 Y42.94810
X11.21080 Y42.94810
X11.21080 Y45.48810
X9.40740 Y45.46270
X8.92480 Y45.03090
G04 P0 ( dwell for no time -- G64 should not smooth over this point )
G00 Z0.50000 ( retract )

G00 X67.09080 Y42.46550 ( rapid move to begin. )
F300.00000
G01 Z-0.07500
G04 P0 ( dwell for no time -- G64 should not smooth over this point )
F600.00000
X67.09080 Y42.46550
X67.09080 Y40.40810
X68.91960 Y40.40810
X69.09740 Y40.63670
X69.32600 Y40.81450
X69.50380 Y41.04310
X69.65620 Y41.50030
X69.65620 Y41.90670
X69.55460 Y42.21150
X69.40220 Y42.46550
X68.97040 Y42.84650
X68.91960 Y42.94810
X67.09080 Y42.94810
G04 P0 ( dwell for no time -- G64 should not smooth over this point )
G00 Z0.50000 ( retract )

G00 X64.55080 Y42.46550 ( rapid move to begin. )
F300.00000
G01 Z-0.07500
G04 P0 ( dwell for no time -- G64 should not smooth over this point )
F600.00000
X64.55080 Y42.46550
X64.55080 Y40.40810
X67.09080 Y40.40810
X67.09080 Y42.94810
X64.55080 Y42.94810
G04 P0 ( dwell for no time -- G64 should not smooth over this point )
G00 Z0.50000 ( retract )

G00 X62.01080 Y42.46550 ( rapid move to begin. )
F300.00000
G01 Z-0.07500
G04 P0 ( dwell for no time -- G64 should not smooth over this point )
F600.00000
X62.01080 Y42.46550
X62.01080 Y40.40810
X64.55080 Y40.40810
X64.55080 Y42.94810
X62.01080 Y42.94810
G04 P0 ( dwell for no time -- G64 should not smooth over this point )
G00 Z0.50000 ( retract )

G00 X59.47080 Y42.46550 ( rapid move to begin. )
F300.00000
G01 Z-0.07500
G04 P0 ( dwell for no time -- G64 should not smooth over this point )
F600.00000
X59.47080 Y42.46550
X59.47080 Y40.40810
X62.01080 Y40.40810
X62.01080 Y42.94810
X59.47080 Y42.94810
G04 P0 ( dwell for no time -- G64 should not smooth over this point )
G00 Z0.50000 ( retract )

G00 X56.93080 Y42.46550 ( rapid move to begin. )
F300.00000
G01 Z-0.07500
G04 P0 ( dwell for no time -- G64 should not smooth over this point )
F600.00000
X56.93080 Y42.46550
X56.93080 Y40.40810
X59.47080 Y40.40810
X59.47080 Y42.94810
X56.93080 Y42.94810
G04 P0 ( dwell for no time -- G64 should not smooth over this point )
G00 Z0.50000 ( retract )

G00 X54.39080 Y42.46550 ( rapid move to begin. )
F300.00000
G01 Z-0.07500
G04 P0 ( dwell for no time -- G64 should not smooth over this point )
F600.00000
X54.39080 Y42.46550
X54.39080 Y40.40810
X56.93080 Y40.40810
X56.93080 Y42.94810
X54.39080 Y42.94810
G04 P0 ( dwell for no time -- G64 should not smooth over this point )
G00 Z0.50000 ( retract )

G00 X51.85080 Y42.46550 ( rapid move to begin. )
F300.00000
G01 Z-0.07500
G04 P0 ( dwell for no time -- G64 should not smooth over this point )
F600.00000
X51.85080 Y42.46550
X51.85080 Y40.40810
X54.39080 Y40.40810
X54.39080 Y42.94810
X51.85080 Y42.94810
G04 P0 ( dwell for no time -- G64 should not smooth over this point )
G00 Z0.50000 ( retract )

G00 X49.31080 Y42.46550 ( rapid move to begin. )
F300.00000
G01 Z-0.07500
G04 P0 ( dwell for no time -- G64 should not smooth over this point )
F600.00000
X49.31080 Y42.46550
X49.31080 Y40.40810
X51.85080 Y40.40810
X51.85080 Y42.94810
X49.31080 Y42.94810
G04 P0 ( dwell for no time -- G64 should not smooth over this point )
G00 Z0.50000 ( retract )

G00 X46.77080 Y42.46550 ( rapid move to begin. )
F300.00000
G01 Z-0.07500
G04 P0 ( dwell for no time -- G64 should not smooth over this point )
F600.00000
X46.77080 Y42.46550
X46.77080 Y40.40810
X49.31080 Y40.40810
X49.31080 Y42.94810
X46.77080 Y42.94810
G04 P0 ( dwell for no time -- G64 should not smooth over this point )
G00 Z0.50000 ( retract )

G00 X44.23080 Y42.46550 ( rapid move to begin. )
F300.00000
G01 Z-0.07500
G04 P0 ( dwell for no time -- G64 should not smooth over this point )
F600.00000
X44.23080 Y42.46550
X44.23080 Y40.40810
X46.77080 Y40.40810
X46.77080 Y42.94810
X44.23080 Y42.94810
G04 P0 ( dwell for no time -- G64 should not smooth over this point )
G00 Z0.50000 ( retract )

G00 X41.69080 Y42.46550 ( rapid move to begin. )
F300.00000
G01 Z-0.07500
G04 P0 ( dwell for no time -- G64 should not smooth over this point )
F600.00000
X41.69080 Y42.46550
X41.69080 Y40.40810
X44.23080 Y40.40810
X44.23080 Y42.94810
X41.69080 Y42.94810
G04 P0 ( dwell for no time -- G64 should not smooth over this point )
G00 Z0.50000 ( retract )

G00 X39.15080 Y42.46550 ( rapid move to begin. )
F300.00000
G01 Z-0.07500
G04 P0 ( dwell for no time -- G64 should not smooth over this point )
F600.00000
X39.15080 Y42.46550
X39.15080 Y40.40810
X41.69080 Y40.40810
X41.69080 Y42.94810
X39.15080 Y42.94810
G04 P0 ( dwell for no time -- G64 should not smooth over this point )
G00 Z0.50000 ( retract )

G00 X36.61080 Y42.46550 ( rapid move to begin. )
F300.00000
G01 Z-0.07500
G04 P0 ( dwell for no time -- G64 should not smooth over this point )
F600.00000
X36.61080 Y42.46550
X36.61080 Y40.40810
X39.15080 Y40.40810
X39.15080 Y42.94810
X36.61080 Y42.94810
G04 P0 ( dwell for no time -- G64 should not smooth over this point )
G00 Z0.50000 ( retract )

G00 X34.07080 Y42.46550 ( rapid move to begin. )
F300.00000
G01 Z-0.07500
G04 P0 ( dwell for no time -- G64 should not smooth over this point )
F600.00000
X34.07080 Y42.46550
X34.07080 Y40.40810
X36.61080 Y40.40810
X36.61080 Y42.94810
X34.07080 Y42.94810
G04 P0 ( dwell for no time -- G64 should not smooth over this point )
G00 Z0.50000 ( retract )

G00 X31.53080 Y42.46550 ( rapid move to begin. )
F300.00000
G01 Z-0.07500
G04 P0 ( dwell for no time -- G64 should not smooth over this point )
F600.00000
X31.53080 Y42.46550
X31.53080 Y40.40810
X34.07080 Y40.40810
X34.07080 Y42.94810
X31.53080 Y42.94810
G04 P0 ( dwell for no time -- G64 should not smooth over this point )
G00 Z0.50000 ( retract )

G00 X28.99080 Y42.46550 ( rapid move to begin. )
F300.00000
G01 Z-0.07500
G04 P0 ( dwell for no time -- G64 should not smooth over this point )
F600.00000
X28.99080 Y42.46550
X28.99080 Y40.40810
X31.53080 Y40.40810
X31.53080 Y42.94810
X28.99080 Y42.94810
G04 P0 ( dwell for no time -- G64 should not smooth over this point )
G00 Z0.50000 ( retract )

G00 X26.45080 Y42.46550 ( rapid move to begin. )
F300.00000
G01 Z-0.07500
G04 P0 ( dwell for no time -- G64 should not smooth over this point )
F600.00000
X26.45080 Y42.46550
X26.45080 Y40.40810
X28.99080 Y40.40810
X28.99080 Y42.94810
X26.45080 Y42.94810
G04 P0 ( dwell for no time -- G64 should not smooth over this point )
G00 Z0.50000 ( retract )

G00 X23.91080 Y42.46550 ( rapid move to begin. )
F300.00000
G01 Z-0.07500
G04 P0 ( dwell for no time -- G64 should not smooth over this point )
F600.00000
X23.91080 Y42.46550
X23.91080 Y40.40810
X26.45080 Y40.40810
X26.45080 Y42.94810
X23.91080 Y42.94810
G04 P0 ( dwell for no time -- G64 should not smooth over this point )
G00 Z0.50000 ( retract )

G00 X21.37080 Y42.46550 ( rapid move to begin. )
F300.00000
G01 Z-0.07500
G04 P0 ( dwell for no time -- G64 should not smooth over this point )
F600.00000
X21.37080 Y42.46550
X21.37080 Y40.40810
X23.91080 Y40.40810
X23.91080 Y42.94810
X21.37080 Y42.94810
G04 P0 ( dwell for no time -- G64 should not smooth over this point )
G00 Z0.50000 ( retract )

G00 X18.83080 Y42.46550 ( rapid move to begin. )
F300.00000
G01 Z-0.07500
G04 P0 ( dwell for no time -- G64 should not smooth over this point )
F600.00000
X18.83080 Y42.46550
X18.83080 Y40.40810
X21.37080 Y40.40810
X21.37080 Y42.94810
X18.83080 Y42.94810
G04 P0 ( dwell for no time -- G64 should not smooth over this point )
G00 Z0.50000 ( retract )

G00 X16.29080 Y42.46550 ( rapid move to begin. )
F300.00000
G01 Z-0.07500
G04 P0 ( dwell for no time -- G64 should not smooth over this point )
F600.00000
X16.29080 Y42.46550
X16.29080 Y40.40810
X18.83080 Y40.40810
X18.83080 Y42.94810
X16.29080 Y42.94810
G04 P0 ( dwell for no time -- G64 should not smooth over this point )
G00 Z0.50000 ( retract )

G00 X13.75080 Y42.46550 ( rapid move to begin. )
F300.00000
G01 Z-0.07500
G04 P0 ( dwell for no time -- G64 should not smooth over this point )
F600.00000
X13.75080 Y42.46550
X13.75080 Y40.40810
X16.29080 Y40.40810
X16.29080 Y42.94810
X13.75080 Y42.94810
G04 P0 ( dwell for no time -- G64 should not smooth over this point )
G00 Z0.50000 ( retract )

G00 X11.21080 Y42.46550 ( rapid move to begin. )
F300.00000
G01 Z-0.07500
G04 P0 ( dwell for no time -- G64 should not smooth over this point )
F600.00000
X11.21080 Y42.46550
X11.21080 Y40.40810
X13.75080 Y40.40810
X13.75080 Y42.94810
X11.21080 Y42.94810
G04 P0 ( dwell for no time -- G64 should not smooth over this point )
G00 Z0.50000 ( retract )

G00 X8.92480 Y42.46550 ( rapid move to begin. )
F300.00000
G01 Z-0.07500
G04 P0 ( dwell for no time -- G64 should not smooth over this point )
F600.00000
X8.92480 Y42.46550
X8.82320 Y42.38930
X8.64540 Y41.95750
X8.67080 Y41.37330
X8.79780 Y41.09390
X9.17880 Y40.66210
X9.40740 Y40.48430
X9.43280 Y40.40810
X11.21080 Y40.40810
X11.21080 Y42.94810
X9.40740 Y42.92270
X8.92480 Y42.49090
G04 P0 ( dwell for no time -- G64 should not smooth over this point )
G00 Z0.50000 ( retract )

G00 X67.09080 Y39.92550 ( rapid move to begin. )
F300.00000
G01 Z-0.07500
G04 P0 ( dwell for no time -- G64 should not smooth over this point )
F600.00000
X67.09080 Y39.92550
X67.09080 Y37.86810
X68.91960 Y37.86810
X69.09740 Y38.09670
X69.32600 Y38.27450
X69.50380 Y38.50310
X69.65620 Y38.96030
X69.65620 Y39.36670
X69.55460 Y39.67150
X69.40220 Y39.92550
X68.97040 Y40.30650
X68.91960 Y40.40810
X67.09080 Y40.40810
G04 P0 ( dwell for no time -- G64 should not smooth over this point )
G00 Z0.50000 ( retract )

G00 X64.55080 Y39.92550 ( rapid move to begin. )
F300.00000
G01 Z-0.07500
G04 P0 ( dwell for no time -- G64 should not smooth over this point )
F600.00000
X64.55080 Y39.92550
X64.55080 Y37.86810
X67.09080 Y37.86810
X67.09080 Y40.40810
X64.55080 Y40.40810
G04 P0 ( dwell for no time -- G64 should not smooth over this point )
G00 Z0.50000 ( retract )

G00 X62.01080 Y39.92550 ( rapid move to begin. )
F300.00000
G01 Z-0.07500
G04 P0 ( dwell for no time -- G64 should not smooth over this point )
F600.00000
X62.01080 Y39.92550
X62.01080 Y37.86810
X64.55080 Y37.86810
X64.55080 Y40.40810
X62.01080 Y40.40810
G04 P0 ( dwell for no time -- G64 should not smooth over this point )
G00 Z0.50000 ( retract )

G00 X59.47080 Y39.92550 ( rapid move to begin. )
F300.00000
G01 Z-0.07500
G04 P0 ( dwell for no time -- G64 should not smooth over this point )
F600.00000
X59.47080 Y39.92550
X59.47080 Y37.86810
X62.01080 Y37.86810
X62.01080 Y40.40810
X59.47080 Y40.40810
G04 P0 ( dwell for no time -- G64 should not smooth over this point )
G00 Z0.50000 ( retract )

G00 X56.93080 Y39.92550 ( rapid move to begin. )
F300.00000
G01 Z-0.07500
G04 P0 ( dwell for no time -- G64 should not smooth over this point )
F600.00000
X56.93080 Y39.92550
X56.93080 Y37.86810
X59.47080 Y37.86810
X59.47080 Y40.40810
X56.93080 Y40.40810
G04 P0 ( dwell for no time -- G64 should not smooth over this point )
G00 Z0.50000 ( retract )

G00 X54.39080 Y39.92550 ( rapid move to begin. )
F300.00000
G01 Z-0.07500
G04 P0 ( dwell for no time -- G64 should not smooth over this point )
F600.00000
X54.39080 Y39.92550
X54.39080 Y37.86810
X56.93080 Y37.86810
X56.93080 Y40.40810
X54.39080 Y40.40810
G04 P0 ( dwell for no time -- G64 should not smooth over this point )
G00 Z0.50000 ( retract )

G00 X51.85080 Y39.92550 ( rapid move to begin. )
F300.00000
G01 Z-0.07500
G04 P0 ( dwell for no time -- G64 should not smooth over this point )
F600.00000
X51.85080 Y39.92550
X51.85080 Y37.86810
X54.39080 Y37.86810
X54.39080 Y40.40810
X51.85080 Y40.40810
G04 P0 ( dwell for no time -- G64 should not smooth over this point )
G00 Z0.50000 ( retract )

G00 X49.31080 Y39.92550 ( rapid move to begin. )
F300.00000
G01 Z-0.07500
G04 P0 ( dwell for no time -- G64 should not smooth over this point )
F600.00000
X49.31080 Y39.92550
X49.31080 Y37.86810
X51.85080 Y37.86810
X51.85080 Y40.40810
X49.31080 Y40.40810
G04 P0 ( dwell for no time -- G64 should not smooth over this point )
G00 Z0.50000 ( retract )

G00 X46.77080 Y39.92550 ( rapid move to begin. )
F300.00000
G01 Z-0.07500
G04 P0 ( dwell for no time -- G64 should not smooth over this point )
F600.00000
X46.77080 Y39.92550
X46.77080 Y37.86810
X49.31080 Y37.86810
X49.31080 Y40.40810
X46.77080 Y40.40810
G04 P0 ( dwell for no time -- G64 should not smooth over this point )
G00 Z0.50000 ( retract )

G00 X44.23080 Y39.92550 ( rapid move to begin. )
F300.00000
G01 Z-0.07500
G04 P0 ( dwell for no time -- G64 should not smooth over this point )
F600.00000
X44.23080 Y39.92550
X44.23080 Y37.86810
X46.77080 Y37.86810
X46.77080 Y40.40810
X44.23080 Y40.40810
G04 P0 ( dwell for no time -- G64 should not smooth over this point )
G00 Z0.50000 ( retract )

G00 X41.69080 Y39.92550 ( rapid move to begin. )
F300.00000
G01 Z-0.07500
G04 P0 ( dwell for no time -- G64 should not smooth over this point )
F600.00000
X41.69080 Y39.92550
X41.69080 Y37.86810
X44.23080 Y37.86810
X44.23080 Y40.40810
X41.69080 Y40.40810
G04 P0 ( dwell for no time -- G64 should not smooth over this point )
G00 Z0.50000 ( retract )

G00 X39.15080 Y39.92550 ( rapid move to begin. )
F300.00000
G01 Z-0.07500
G04 P0 ( dwell for no time -- G64 should not smooth over this point )
F600.00000
X39.15080 Y39.92550
X39.15080 Y37.86810
X41.69080 Y37.86810
X41.69080 Y40.40810
X39.15080 Y40.40810
G04 P0 ( dwell for no time -- G64 should not smooth over this point )
G00 Z0.50000 ( retract )

G00 X36.61080 Y39.92550 ( rapid move to begin. )
F300.00000
G01 Z-0.07500
G04 P0 ( dwell for no time -- G64 should not smooth over this point )
F600.00000
X36.61080 Y39.92550
X36.61080 Y37.86810
X39.15080 Y37.86810
X39.15080 Y40.40810
X36.61080 Y40.40810
G04 P0 ( dwell for no time -- G64 should not smooth over this point )
G00 Z0.50000 ( retract )

G00 X34.07080 Y39.92550 ( rapid move to begin. )
F300.00000
G01 Z-0.07500
G04 P0 ( dwell for no time -- G64 should not smooth over this point )
F600.00000
X34.07080 Y39.92550
X34.07080 Y37.86810
X36.61080 Y37.86810
X36.61080 Y40.40810
X34.07080 Y40.40810
G04 P0 ( dwell for no time -- G64 should not smooth over this point )
G00 Z0.50000 ( retract )

G00 X31.53080 Y39.92550 ( rapid move to begin. )
F300.00000
G01 Z-0.07500
G04 P0 ( dwell for no time -- G64 should not smooth over this point )
F600.00000
X31.53080 Y39.92550
X31.53080 Y37.86810
X34.07080 Y37.86810
X34.07080 Y40.40810
X31.53080 Y40.40810
G04 P0 ( dwell for no time -- G64 should not smooth over this point )
G00 Z0.50000 ( retract )

G00 X28.99080 Y39.92550 ( rapid move to begin. )
F300.00000
G01 Z-0.07500
G04 P0 ( dwell for no time -- G64 should not smooth over this point )
F600.00000
X28.99080 Y39.92550
X28.99080 Y37.86810
X31.53080 Y37.86810
X31.53080 Y40.40810
X28.99080 Y40.40810
G04 P0 ( dwell for no time -- G64 should not smooth over this point )
G00 Z0.50000 ( retract )

G00 X26.45080 Y39.92550 ( rapid move to begin. )
F300.00000
G01 Z-0.07500
G04 P0 ( dwell for no time -- G64 should not smooth over this point )
F600.00000
X26.45080 Y39.92550
X26.45080 Y37.86810
X28.99080 Y37.86810
X28.99080 Y40.40810
X26.45080 Y40.40810
G04 P0 ( dwell for no time -- G64 should not smooth over this point )
G00 Z0.50000 ( retract )

G00 X23.91080 Y39.92550 ( rapid move to begin. )
F300.00000
G01 Z-0.07500
G04 P0 ( dwell for no time -- G64 should not smooth over this point )
F600.00000
X23.91080 Y39.92550
X23.91080 Y37.86810
X26.45080 Y37.86810
X26.45080 Y40.40810
X23.91080 Y40.40810
G04 P0 ( dwell for no time -- G64 should not smooth over this point )
G00 Z0.50000 ( retract )

G00 X21.37080 Y39.92550 ( rapid move to begin. )
F300.00000
G01 Z-0.07500
G04 P0 ( dwell for no time -- G64 should not smooth over this point )
F600.00000
X21.37080 Y39.92550
X21.37080 Y37.86810
X23.91080 Y37.86810
X23.91080 Y40.40810
X21.37080 Y40.40810
G04 P0 ( dwell for no time -- G64 should not smooth over this point )
G00 Z0.50000 ( retract )

G00 X18.83080 Y39.92550 ( rapid move to begin. )
F300.00000
G01 Z-0.07500
G04 P0 ( dwell for no time -- G64 should not smooth over this point )
F600.00000
X18.83080 Y39.92550
X18.83080 Y37.86810
X21.37080 Y37.86810
X21.37080 Y40.40810
X18.83080 Y40.40810
G04 P0 ( dwell for no time -- G64 should not smooth over this point )
G00 Z0.50000 ( retract )

G00 X16.29080 Y39.92550 ( rapid move to begin. )
F300.00000
G01 Z-0.07500
G04 P0 ( dwell for no time -- G64 should not smooth over this point )
F600.00000
X16.29080 Y39.92550
X16.29080 Y37.86810
X18.83080 Y37.86810
X18.83080 Y40.40810
X16.29080 Y40.40810
G04 P0 ( dwell for no time -- G64 should not smooth over this point )
G00 Z0.50000 ( retract )

G00 X13.75080 Y39.92550 ( rapid move to begin. )
F300.00000
G01 Z-0.07500
G04 P0 ( dwell for no time -- G64 should not smooth over this point )
F600.00000
X13.75080 Y39.92550
X13.75080 Y37.86810
X16.29080 Y37.86810
X16.29080 Y40.40810
X13.75080 Y40.40810
G04 P0 ( dwell for no time -- G64 should not smooth over this point )
G00 Z0.50000 ( retract )

G00 X11.21080 Y39.92550 ( rapid move to begin. )
F300.00000
G01 Z-0.07500
G04 P0 ( dwell for no time -- G64 should not smooth over this point )
F600.00000
X11.21080 Y39.92550
X11.21080 Y37.86810
X13.75080 Y37.86810
X13.75080 Y40.40810
X11.21080 Y40.40810
G04 P0 ( dwell for no time -- G64 should not smooth over this point )
G00 Z0.50000 ( retract )

G00 X8.92480 Y39.92550 ( rapid move to begin. )
F300.00000
G01 Z-0.07500
G04 P0 ( dwell for no time -- G64 should not smooth over this point )
F600.00000
X8.92480 Y39.92550
X8.82320 Y39.84930
X8.64540 Y39.41750
X8.67080 Y38.83330
X8.79780 Y38.55390
X9.17880 Y38.12210
X9.40740 Y37.94430
X9.43280 Y37.86810
X11.21080 Y37.86810
X11.21080 Y40.40810
X9.40740 Y40.38270
X8.92480 Y39.95090
G04 P0 ( dwell for no time -- G64 should not smooth over this point )
G00 Z0.50000 ( retract )

G00 X67.09080 Y37.38550 ( rapid move to begin. )
F300.00000
G01 Z-0.07500
G04 P0 ( dwell for no time -- G64 should not smooth over this point )
F600.00000
X67.09080 Y37.38550
X67.09080 Y35.32810
X68.91960 Y35.32810
X69.09740 Y35.55670
X69.32600 Y35.73450
X69.50380 Y35.96310
X69.65620 Y36.42030
X69.65620 Y36.82670
X69.55460 Y37.13150
X69.40220 Y37.38550
X68.97040 Y37.76650
X68.91960 Y37.86810
X67.09080 Y37.86810
G04 P0 ( dwell for no time -- G64 should not smooth over this point )
G00 Z0.50000 ( retract )

G00 X64.55080 Y37.38550 ( rapid move to begin. )
F300.00000
G01 Z-0.07500
G04 P0 ( dwell for no time -- G64 should not smooth over this point )
F600.00000
X64.55080 Y37.38550
X64.55080 Y35.32810
X67.09080 Y35.32810
X67.09080 Y37.86810
X64.55080 Y37.86810
G04 P0 ( dwell for no time -- G64 should not smooth over this point )
G00 Z0.50000 ( retract )

G00 X62.01080 Y37.38550 ( rapid move to begin. )
F300.00000
G01 Z-0.07500
G04 P0 ( dwell for no time -- G64 should not smooth over this point )
F600.00000
X62.01080 Y37.38550
X62.01080 Y35.32810
X64.55080 Y35.32810
X64.55080 Y37.86810
X62.01080 Y37.86810
G04 P0 ( dwell for no time -- G64 should not smooth over this point )
G00 Z0.50000 ( retract )

G00 X59.47080 Y37.38550 ( rapid move to begin. )
F300.00000
G01 Z-0.07500
G04 P0 ( dwell for no time -- G64 should not smooth over this point )
F600.00000
X59.47080 Y37.38550
X59.47080 Y35.32810
X62.01080 Y35.32810
X62.01080 Y37.86810
X59.47080 Y37.86810
G04 P0 ( dwell for no time -- G64 should not smooth over this point )
G00 Z0.50000 ( retract )

G00 X56.93080 Y37.38550 ( rapid move to begin. )
F300.00000
G01 Z-0.07500
G04 P0 ( dwell for no time -- G64 should not smooth over this point )
F600.00000
X56.93080 Y37.38550
X56.93080 Y35.32810
X59.47080 Y35.32810
X59.47080 Y37.86810
X56.93080 Y37.86810
G04 P0 ( dwell for no time -- G64 should not smooth over this point )
G00 Z0.50000 ( retract )

G00 X54.39080 Y37.38550 ( rapid move to begin. )
F300.00000
G01 Z-0.07500
G04 P0 ( dwell for no time -- G64 should not smooth over this point )
F600.00000
X54.39080 Y37.38550
X54.39080 Y35.32810
X56.93080 Y35.32810
X56.93080 Y37.86810
X54.39080 Y37.86810
G04 P0 ( dwell for no time -- G64 should not smooth over this point )
G00 Z0.50000 ( retract )

G00 X51.85080 Y37.38550 ( rapid move to begin. )
F300.00000
G01 Z-0.07500
G04 P0 ( dwell for no time -- G64 should not smooth over this point )
F600.00000
X51.85080 Y37.38550
X51.85080 Y35.32810
X54.39080 Y35.32810
X54.39080 Y37.86810
X51.85080 Y37.86810
G04 P0 ( dwell for no time -- G64 should not smooth over this point )
G00 Z0.50000 ( retract )

G00 X49.31080 Y37.38550 ( rapid move to begin. )
F300.00000
G01 Z-0.07500
G04 P0 ( dwell for no time -- G64 should not smooth over this point )
F600.00000
X49.31080 Y37.38550
X49.31080 Y35.32810
X51.85080 Y35.32810
X51.85080 Y37.86810
X49.31080 Y37.86810
G04 P0 ( dwell for no time -- G64 should not smooth over this point )
G00 Z0.50000 ( retract )

G00 X46.77080 Y37.38550 ( rapid move to begin. )
F300.00000
G01 Z-0.07500
G04 P0 ( dwell for no time -- G64 should not smooth over this point )
F600.00000
X46.77080 Y37.38550
X46.77080 Y35.32810
X49.31080 Y35.32810
X49.31080 Y37.86810
X46.77080 Y37.86810
G04 P0 ( dwell for no time -- G64 should not smooth over this point )
G00 Z0.50000 ( retract )

G00 X44.23080 Y37.38550 ( rapid move to begin. )
F300.00000
G01 Z-0.07500
G04 P0 ( dwell for no time -- G64 should not smooth over this point )
F600.00000
X44.23080 Y37.38550
X44.23080 Y35.32810
X46.77080 Y35.32810
X46.77080 Y37.86810
X44.23080 Y37.86810
G04 P0 ( dwell for no time -- G64 should not smooth over this point )
G00 Z0.50000 ( retract )

G00 X41.69080 Y37.38550 ( rapid move to begin. )
F300.00000
G01 Z-0.07500
G04 P0 ( dwell for no time -- G64 should not smooth over this point )
F600.00000
X41.69080 Y37.38550
X41.69080 Y35.32810
X44.23080 Y35.32810
X44.23080 Y37.86810
X41.69080 Y37.86810
G04 P0 ( dwell for no time -- G64 should not smooth over this point )
G00 Z0.50000 ( retract )

G00 X39.15080 Y37.38550 ( rapid move to begin. )
F300.00000
G01 Z-0.07500
G04 P0 ( dwell for no time -- G64 should not smooth over this point )
F600.00000
X39.15080 Y37.38550
X39.15080 Y35.32810
X41.69080 Y35.32810
X41.69080 Y37.86810
X39.15080 Y37.86810
G04 P0 ( dwell for no time -- G64 should not smooth over this point )
G00 Z0.50000 ( retract )

G00 X36.61080 Y37.38550 ( rapid move to begin. )
F300.00000
G01 Z-0.07500
G04 P0 ( dwell for no time -- G64 should not smooth over this point )
F600.00000
X36.61080 Y37.38550
X36.61080 Y35.32810
X39.15080 Y35.32810
X39.15080 Y37.86810
X36.61080 Y37.86810
G04 P0 ( dwell for no time -- G64 should not smooth over this point )
G00 Z0.50000 ( retract )

G00 X34.07080 Y37.38550 ( rapid move to begin. )
F300.00000
G01 Z-0.07500
G04 P0 ( dwell for no time -- G64 should not smooth over this point )
F600.00000
X34.07080 Y37.38550
X34.07080 Y35.32810
X36.61080 Y35.32810
X36.61080 Y37.86810
X34.07080 Y37.86810
G04 P0 ( dwell for no time -- G64 should not smooth over this point )
G00 Z0.50000 ( retract )

G00 X31.53080 Y37.38550 ( rapid move to begin. )
F300.00000
G01 Z-0.07500
G04 P0 ( dwell for no time -- G64 should not smooth over this point )
F600.00000
X31.53080 Y37.38550
X31.53080 Y35.32810
X34.07080 Y35.32810
X34.07080 Y37.86810
X31.53080 Y37.86810
G04 P0 ( dwell for no time -- G64 should not smooth over this point )
G00 Z0.50000 ( retract )

G00 X28.99080 Y37.38550 ( rapid move to begin. )
F300.00000
G01 Z-0.07500
G04 P0 ( dwell for no time -- G64 should not smooth over this point )
F600.00000
X28.99080 Y37.38550
X28.99080 Y35.32810
X31.53080 Y35.32810
X31.53080 Y37.86810
X28.99080 Y37.86810
G04 P0 ( dwell for no time -- G64 should not smooth over this point )
G00 Z0.50000 ( retract )

G00 X26.45080 Y37.38550 ( rapid move to begin. )
F300.00000
G01 Z-0.07500
G04 P0 ( dwell for no time -- G64 should not smooth over this point )
F600.00000
X26.45080 Y37.38550
X26.45080 Y35.32810
X28.99080 Y35.32810
X28.99080 Y37.86810
X26.45080 Y37.86810
G04 P0 ( dwell for no time -- G64 should not smooth over this point )
G00 Z0.50000 ( retract )

G00 X23.91080 Y37.38550 ( rapid move to begin. )
F300.00000
G01 Z-0.07500
G04 P0 ( dwell for no time -- G64 should not smooth over this point )
F600.00000
X23.91080 Y37.38550
X23.91080 Y35.32810
X26.45080 Y35.32810
X26.45080 Y37.86810
X23.91080 Y37.86810
G04 P0 ( dwell for no time -- G64 should not smooth over this point )
G00 Z0.50000 ( retract )

G00 X21.37080 Y37.38550 ( rapid move to begin. )
F300.00000
G01 Z-0.07500
G04 P0 ( dwell for no time -- G64 should not smooth over this point )
F600.00000
X21.37080 Y37.38550
X21.37080 Y35.32810
X23.91080 Y35.32810
X23.91080 Y37.86810
X21.37080 Y37.86810
G04 P0 ( dwell for no time -- G64 should not smooth over this point )
G00 Z0.50000 ( retract )

G00 X18.83080 Y37.38550 ( rapid move to begin. )
F300.00000
G01 Z-0.07500
G04 P0 ( dwell for no time -- G64 should not smooth over this point )
F600.00000
X18.83080 Y37.38550
X18.83080 Y35.32810
X21.37080 Y35.32810
X21.37080 Y37.86810
X18.83080 Y37.86810
G04 P0 ( dwell for no time -- G64 should not smooth over this point )
G00 Z0.50000 ( retract )

G00 X16.29080 Y37.38550 ( rapid move to begin. )
F300.00000
G01 Z-0.07500
G04 P0 ( dwell for no time -- G64 should not smooth over this point )
F600.00000
X16.29080 Y37.38550
X16.29080 Y35.32810
X18.83080 Y35.32810
X18.83080 Y37.86810
X16.29080 Y37.86810
G04 P0 ( dwell for no time -- G64 should not smooth over this point )
G00 Z0.50000 ( retract )

G00 X13.75080 Y37.38550 ( rapid move to begin. )
F300.00000
G01 Z-0.07500
G04 P0 ( dwell for no time -- G64 should not smooth over this point )
F600.00000
X13.75080 Y37.38550
X13.75080 Y35.32810
X16.29080 Y35.32810
X16.29080 Y37.86810
X13.75080 Y37.86810
G04 P0 ( dwell for no time -- G64 should not smooth over this point )
G00 Z0.50000 ( retract )

G00 X11.21080 Y37.38550 ( rapid move to begin. )
F300.00000
G01 Z-0.07500
G04 P0 ( dwell for no time -- G64 should not smooth over this point )
F600.00000
X11.21080 Y37.38550
X11.21080 Y35.32810
X13.75080 Y35.32810
X13.75080 Y37.86810
X11.21080 Y37.86810
G04 P0 ( dwell for no time -- G64 should not smooth over this point )
G00 Z0.50000 ( retract )

G00 X8.92480 Y37.38550 ( rapid move to begin. )
F300.00000
G01 Z-0.07500
G04 P0 ( dwell for no time -- G64 should not smooth over this point )
F600.00000
X8.92480 Y37.38550
X8.82320 Y37.30930
X8.64540 Y36.87750
X8.67080 Y36.29330
X8.79780 Y36.01390
X9.17880 Y35.58210
X9.40740 Y35.40430
X9.43280 Y35.32810
X11.21080 Y35.32810
X11.21080 Y37.86810
X9.40740 Y37.84270
X8.92480 Y37.41090
G04 P0 ( dwell for no time -- G64 should not smooth over this point )
G00 Z0.50000 ( retract )

G00 X67.09080 Y34.84550 ( rapid move to begin. )
F300.00000
G01 Z-0.07500
G04 P0 ( dwell for no time -- G64 should not smooth over this point )
F600.00000
X67.09080 Y34.84550
X67.09080 Y32.78810
X68.91960 Y32.78810
X69.09740 Y33.01670
X69.32600 Y33.19450
X69.50380 Y33.42310
X69.65620 Y33.88030
X69.65620 Y34.28670
X69.55460 Y34.59150
X69.40220 Y34.84550
X68.97040 Y35.22650
X68.91960 Y35.32810
X67.09080 Y35.32810
G04 P0 ( dwell for no time -- G64 should not smooth over this point )
G00 Z0.50000 ( retract )

G00 X64.55080 Y34.84550 ( rapid move to begin. )
F300.00000
G01 Z-0.07500
G04 P0 ( dwell for no time -- G64 should not smooth over this point )
F600.00000
X64.55080 Y34.84550
X64.55080 Y32.78810
X67.09080 Y32.78810
X67.09080 Y35.32810
X64.55080 Y35.32810
G04 P0 ( dwell for no time -- G64 should not smooth over this point )
G00 Z0.50000 ( retract )

G00 X62.01080 Y34.84550 ( rapid move to begin. )
F300.00000
G01 Z-0.07500
G04 P0 ( dwell for no time -- G64 should not smooth over this point )
F600.00000
X62.01080 Y34.84550
X62.01080 Y32.78810
X64.55080 Y32.78810
X64.55080 Y35.32810
X62.01080 Y35.32810
G04 P0 ( dwell for no time -- G64 should not smooth over this point )
G00 Z0.50000 ( retract )

G00 X59.47080 Y34.84550 ( rapid move to begin. )
F300.00000
G01 Z-0.07500
G04 P0 ( dwell for no time -- G64 should not smooth over this point )
F600.00000
X59.47080 Y34.84550
X59.47080 Y32.78810
X62.01080 Y32.78810
X62.01080 Y35.32810
X59.47080 Y35.32810
G04 P0 ( dwell for no time -- G64 should not smooth over this point )
G00 Z0.50000 ( retract )

G00 X56.93080 Y34.84550 ( rapid move to begin. )
F300.00000
G01 Z-0.07500
G04 P0 ( dwell for no time -- G64 should not smooth over this point )
F600.00000
X56.93080 Y34.84550
X56.93080 Y32.78810
X59.47080 Y32.78810
X59.47080 Y35.32810
X56.93080 Y35.32810
G04 P0 ( dwell for no time -- G64 should not smooth over this point )
G00 Z0.50000 ( retract )

G00 X54.39080 Y34.84550 ( rapid move to begin. )
F300.00000
G01 Z-0.07500
G04 P0 ( dwell for no time -- G64 should not smooth over this point )
F600.00000
X54.39080 Y34.84550
X54.39080 Y32.78810
X56.93080 Y32.78810
X56.93080 Y35.32810
X54.39080 Y35.32810
G04 P0 ( dwell for no time -- G64 should not smooth over this point )
G00 Z0.50000 ( retract )

G00 X51.85080 Y34.84550 ( rapid move to begin. )
F300.00000
G01 Z-0.07500
G04 P0 ( dwell for no time -- G64 should not smooth over this point )
F600.00000
X51.85080 Y34.84550
X51.85080 Y32.78810
X54.39080 Y32.78810
X54.39080 Y35.32810
X51.85080 Y35.32810
G04 P0 ( dwell for no time -- G64 should not smooth over this point )
G00 Z0.50000 ( retract )

G00 X49.31080 Y34.84550 ( rapid move to begin. )
F300.00000
G01 Z-0.07500
G04 P0 ( dwell for no time -- G64 should not smooth over this point )
F600.00000
X49.31080 Y34.84550
X49.31080 Y32.78810
X51.85080 Y32.78810
X51.85080 Y35.32810
X49.31080 Y35.32810
G04 P0 ( dwell for no time -- G64 should not smooth over this point )
G00 Z0.50000 ( retract )

G00 X46.77080 Y34.84550 ( rapid move to begin. )
F300.00000
G01 Z-0.07500
G04 P0 ( dwell for no time -- G64 should not smooth over this point )
F600.00000
X46.77080 Y34.84550
X46.77080 Y32.78810
X49.31080 Y32.78810
X49.31080 Y35.32810
X46.77080 Y35.32810
G04 P0 ( dwell for no time -- G64 should not smooth over this point )
G00 Z0.50000 ( retract )

G00 X44.23080 Y34.84550 ( rapid move to begin. )
F300.00000
G01 Z-0.07500
G04 P0 ( dwell for no time -- G64 should not smooth over this point )
F600.00000
X44.23080 Y34.84550
X44.23080 Y32.78810
X46.77080 Y32.78810
X46.77080 Y35.32810
X44.23080 Y35.32810
G04 P0 ( dwell for no time -- G64 should not smooth over this point )
G00 Z0.50000 ( retract )

G00 X41.69080 Y34.84550 ( rapid move to begin. )
F300.00000
G01 Z-0.07500
G04 P0 ( dwell for no time -- G64 should not smooth over this point )
F600.00000
X41.69080 Y34.84550
X41.69080 Y32.78810
X44.23080 Y32.78810
X44.23080 Y35.32810
X41.69080 Y35.32810
G04 P0 ( dwell for no time -- G64 should not smooth over this point )
G00 Z0.50000 ( retract )

G00 X39.15080 Y34.84550 ( rapid move to begin. )
F300.00000
G01 Z-0.07500
G04 P0 ( dwell for no time -- G64 should not smooth over this point )
F600.00000
X39.15080 Y34.84550
X39.15080 Y32.78810
X41.69080 Y32.78810
X41.69080 Y35.32810
X39.15080 Y35.32810
G04 P0 ( dwell for no time -- G64 should not smooth over this point )
G00 Z0.50000 ( retract )

G00 X36.61080 Y34.84550 ( rapid move to begin. )
F300.00000
G01 Z-0.07500
G04 P0 ( dwell for no time -- G64 should not smooth over this point )
F600.00000
X36.61080 Y34.84550
X36.61080 Y32.78810
X39.15080 Y32.78810
X39.15080 Y35.32810
X36.61080 Y35.32810
G04 P0 ( dwell for no time -- G64 should not smooth over this point )
G00 Z0.50000 ( retract )

G00 X34.07080 Y34.84550 ( rapid move to begin. )
F300.00000
G01 Z-0.07500
G04 P0 ( dwell for no time -- G64 should not smooth over this point )
F600.00000
X34.07080 Y34.84550
X34.07080 Y32.78810
X36.61080 Y32.78810
X36.61080 Y35.32810
X34.07080 Y35.32810
G04 P0 ( dwell for no time -- G64 should not smooth over this point )
G00 Z0.50000 ( retract )

G00 X31.53080 Y34.84550 ( rapid move to begin. )
F300.00000
G01 Z-0.07500
G04 P0 ( dwell for no time -- G64 should not smooth over this point )
F600.00000
X31.53080 Y34.84550
X31.53080 Y32.78810
X34.07080 Y32.78810
X34.07080 Y35.32810
X31.53080 Y35.32810
G04 P0 ( dwell for no time -- G64 should not smooth over this point )
G00 Z0.50000 ( retract )

G00 X28.99080 Y34.84550 ( rapid move to begin. )
F300.00000
G01 Z-0.07500
G04 P0 ( dwell for no time -- G64 should not smooth over this point )
F600.00000
X28.99080 Y34.84550
X28.99080 Y32.78810
X31.53080 Y32.78810
X31.53080 Y35.32810
X28.99080 Y35.32810
G04 P0 ( dwell for no time -- G64 should not smooth over this point )
G00 Z0.50000 ( retract )

G00 X26.45080 Y34.84550 ( rapid move to begin. )
F300.00000
G01 Z-0.07500
G04 P0 ( dwell for no time -- G64 should not smooth over this point )
F600.00000
X26.45080 Y34.84550
X26.45080 Y32.78810
X28.99080 Y32.78810
X28.99080 Y35.32810
X26.45080 Y35.32810
G04 P0 ( dwell for no time -- G64 should not smooth over this point )
G00 Z0.50000 ( retract )

G00 X23.91080 Y34.84550 ( rapid move to begin. )
F300.00000
G01 Z-0.07500
G04 P0 ( dwell for no time -- G64 should not smooth over this point )
F600.00000
X23.91080 Y34.84550
X23.91080 Y32.78810
X26.45080 Y32.78810
X26.45080 Y35.32810
X23.91080 Y35.32810
G04 P0 ( dwell for no time -- G64 should not smooth over this point )
G00 Z0.50000 ( retract )

G00 X21.37080 Y34.84550 ( rapid move to begin. )
F300.00000
G01 Z-0.07500
G04 P0 ( dwell for no time -- G64 should not smooth over this point )
F600.00000
X21.37080 Y34.84550
X21.37080 Y32.78810
X23.91080 Y32.78810
X23.91080 Y35.32810
X21.37080 Y35.32810
G04 P0 ( dwell for no time -- G64 should not smooth over this point )
G00 Z0.50000 ( retract )

G00 X18.83080 Y34.84550 ( rapid move to begin. )
F300.00000
G01 Z-0.07500
G04 P0 ( dwell for no time -- G64 should not smooth over this point )
F600.00000
X18.83080 Y34.84550
X18.83080 Y32.78810
X21.37080 Y32.78810
X21.37080 Y35.32810
X18.83080 Y35.32810
G04 P0 ( dwell for no time -- G64 should not smooth over this point )
G00 Z0.50000 ( retract )

G00 X16.29080 Y34.84550 ( rapid move to begin. )
F300.00000
G01 Z-0.07500
G04 P0 ( dwell for no time -- G64 should not smooth over this point )
F600.00000
X16.29080 Y34.84550
X16.29080 Y32.78810
X18.83080 Y32.78810
X18.83080 Y35.32810
X16.29080 Y35.32810
G04 P0 ( dwell for no time -- G64 should not smooth over this point )
G00 Z0.50000 ( retract )

G00 X13.75080 Y34.84550 ( rapid move to begin. )
F300.00000
G01 Z-0.07500
G04 P0 ( dwell for no time -- G64 should not smooth over this point )
F600.00000
X13.75080 Y34.84550
X13.75080 Y32.78810
X16.29080 Y32.78810
X16.29080 Y35.32810
X13.75080 Y35.32810
G04 P0 ( dwell for no time -- G64 should not smooth over this point )
G00 Z0.50000 ( retract )

G00 X11.21080 Y34.84550 ( rapid move to begin. )
F300.00000
G01 Z-0.07500
G04 P0 ( dwell for no time -- G64 should not smooth over this point )
F600.00000
X11.21080 Y34.84550
X11.21080 Y32.78810
X13.75080 Y32.78810
X13.75080 Y35.32810
X11.21080 Y35.32810
G04 P0 ( dwell for no time -- G64 should not smooth over this point )
G00 Z0.50000 ( retract )

G00 X8.92480 Y34.84550 ( rapid move to begin. )
F300.00000
G01 Z-0.07500
G04 P0 ( dwell for no time -- G64 should not smooth over this point )
F600.00000
X8.92480 Y34.84550
X8.82320 Y34.76930
X8.64540 Y34.33750
X8.67080 Y33.75330
X8.79780 Y33.47390
X9.17880 Y33.04210
X9.40740 Y32.86430
X9.43280 Y32.78810
X11.21080 Y32.78810
X11.21080 Y35.32810
X9.40740 Y35.30270
X8.92480 Y34.87090
G04 P0 ( dwell for no time -- G64 should not smooth over this point )
G00 Z0.50000 ( retract )

G00 X5.87680 Y33.55010 ( rapid move to begin. )
F300.00000
G01 Z-0.07500
G04 P0 ( dwell for no time -- G64 should not smooth over this point )
F600.00000
X5.87680 Y33.55010
X5.87680 Y31.54350
X8.03580 Y31.51810
X8.03580 Y31.92450
X8.23900 Y32.12770
X8.41680 Y32.55950
X8.41680 Y33.06750
X8.13740 Y33.60090
X8.03580 Y33.70250
X8.03580 Y34.05810
X5.90220 Y34.05810
G04 P0 ( dwell for no time -- G64 should not smooth over this point )
G00 Z0.50000 ( retract )

G00 X2.98120 Y33.55010 ( rapid move to begin. )
F300.00000
G01 Z-0.07500
G04 P0 ( dwell for no time -- G64 should not smooth over this point )
F600.00000
X2.98120 Y33.55010
X2.98120 Y31.54350
X4.58140 Y31.51810
X5.87680 Y31.54350
X5.85140 Y34.05810
X3.00660 Y34.05810
X2.98120 Y33.67710
G04 P0 ( dwell for no time -- G64 should not smooth over this point )
G00 Z0.50000 ( retract )

G00 X67.09080 Y32.30550 ( rapid move to begin. )
F300.00000
G01 Z-0.07500
G04 P0 ( dwell for no time -- G64 should not smooth over this point )
F600.00000
X67.09080 Y32.30550
X67.09080 Y30.24810
X68.91960 Y30.24810
X69.09740 Y30.47670
X69.32600 Y30.65450
X69.50380 Y30.88310
X69.65620 Y31.34030
X69.65620 Y31.74670
X69.55460 Y32.05150
X69.40220 Y32.30550
X68.97040 Y32.68650
X68.91960 Y32.78810
X67.09080 Y32.78810
G04 P0 ( dwell for no time -- G64 should not smooth over this point )
G00 Z0.50000 ( retract )

G00 X64.55080 Y32.30550 ( rapid move to begin. )
F300.00000
G01 Z-0.07500
G04 P0 ( dwell for no time -- G64 should not smooth over this point )
F600.00000
X64.55080 Y32.30550
X64.55080 Y30.24810
X67.09080 Y30.24810
X67.09080 Y32.78810
X64.55080 Y32.78810
G04 P0 ( dwell for no time -- G64 should not smooth over this point )
G00 Z0.50000 ( retract )

G00 X62.01080 Y32.30550 ( rapid move to begin. )
F300.00000
G01 Z-0.07500
G04 P0 ( dwell for no time -- G64 should not smooth over this point )
F600.00000
X62.01080 Y32.30550
X62.01080 Y30.24810
X64.55080 Y30.24810
X64.55080 Y32.78810
X62.01080 Y32.78810
G04 P0 ( dwell for no time -- G64 should not smooth over this point )
G00 Z0.50000 ( retract )

G00 X59.47080 Y32.30550 ( rapid move to begin. )
F300.00000
G01 Z-0.07500
G04 P0 ( dwell for no time -- G64 should not smooth over this point )
F600.00000
X59.47080 Y32.30550
X59.47080 Y30.24810
X62.01080 Y30.24810
X62.01080 Y32.78810
X59.47080 Y32.78810
G04 P0 ( dwell for no time -- G64 should not smooth over this point )
G00 Z0.50000 ( retract )

G00 X56.93080 Y32.30550 ( rapid move to begin. )
F300.00000
G01 Z-0.07500
G04 P0 ( dwell for no time -- G64 should not smooth over this point )
F600.00000
X56.93080 Y32.30550
X56.93080 Y30.24810
X59.47080 Y30.24810
X59.47080 Y32.78810
X56.93080 Y32.78810
G04 P0 ( dwell for no time -- G64 should not smooth over this point )
G00 Z0.50000 ( retract )

G00 X54.39080 Y32.30550 ( rapid move to begin. )
F300.00000
G01 Z-0.07500
G04 P0 ( dwell for no time -- G64 should not smooth over this point )
F600.00000
X54.39080 Y32.30550
X54.39080 Y30.24810
X56.93080 Y30.24810
X56.93080 Y32.78810
X54.39080 Y32.78810
G04 P0 ( dwell for no time -- G64 should not smooth over this point )
G00 Z0.50000 ( retract )

G00 X51.85080 Y32.30550 ( rapid move to begin. )
F300.00000
G01 Z-0.07500
G04 P0 ( dwell for no time -- G64 should not smooth over this point )
F600.00000
X51.85080 Y32.30550
X51.85080 Y30.24810
X54.39080 Y30.24810
X54.39080 Y32.78810
X51.85080 Y32.78810
G04 P0 ( dwell for no time -- G64 should not smooth over this point )
G00 Z0.50000 ( retract )

G00 X49.31080 Y32.30550 ( rapid move to begin. )
F300.00000
G01 Z-0.07500
G04 P0 ( dwell for no time -- G64 should not smooth over this point )
F600.00000
X49.31080 Y32.30550
X49.31080 Y30.24810
X51.85080 Y30.24810
X51.85080 Y32.78810
X49.31080 Y32.78810
G04 P0 ( dwell for no time -- G64 should not smooth over this point )
G00 Z0.50000 ( retract )

G00 X46.77080 Y32.30550 ( rapid move to begin. )
F300.00000
G01 Z-0.07500
G04 P0 ( dwell for no time -- G64 should not smooth over this point )
F600.00000
X46.77080 Y32.30550
X46.77080 Y30.24810
X49.31080 Y30.24810
X49.31080 Y32.78810
X46.77080 Y32.78810
G04 P0 ( dwell for no time -- G64 should not smooth over this point )
G00 Z0.50000 ( retract )

G00 X44.23080 Y32.30550 ( rapid move to begin. )
F300.00000
G01 Z-0.07500
G04 P0 ( dwell for no time -- G64 should not smooth over this point )
F600.00000
X44.23080 Y32.30550
X44.23080 Y30.24810
X46.77080 Y30.24810
X46.77080 Y32.78810
X44.23080 Y32.78810
G04 P0 ( dwell for no time -- G64 should not smooth over this point )
G00 Z0.50000 ( retract )

G00 X41.69080 Y32.30550 ( rapid move to begin. )
F300.00000
G01 Z-0.07500
G04 P0 ( dwell for no time -- G64 should not smooth over this point )
F600.00000
X41.69080 Y32.30550
X41.69080 Y30.24810
X44.23080 Y30.24810
X44.23080 Y32.78810
X41.69080 Y32.78810
G04 P0 ( dwell for no time -- G64 should not smooth over this point )
G00 Z0.50000 ( retract )

G00 X39.15080 Y32.30550 ( rapid move to begin. )
F300.00000
G01 Z-0.07500
G04 P0 ( dwell for no time -- G64 should not smooth over this point )
F600.00000
X39.15080 Y32.30550
X39.15080 Y30.24810
X41.69080 Y30.24810
X41.69080 Y32.78810
X39.15080 Y32.78810
G04 P0 ( dwell for no time -- G64 should not smooth over this point )
G00 Z0.50000 ( retract )

G00 X36.61080 Y32.30550 ( rapid move to begin. )
F300.00000
G01 Z-0.07500
G04 P0 ( dwell for no time -- G64 should not smooth over this point )
F600.00000
X36.61080 Y32.30550
X36.61080 Y30.24810
X39.15080 Y30.24810
X39.15080 Y32.78810
X36.61080 Y32.78810
G04 P0 ( dwell for no time -- G64 should not smooth over this point )
G00 Z0.50000 ( retract )

G00 X34.07080 Y32.30550 ( rapid move to begin. )
F300.00000
G01 Z-0.07500
G04 P0 ( dwell for no time -- G64 should not smooth over this point )
F600.00000
X34.07080 Y32.30550
X34.07080 Y30.24810
X36.61080 Y30.24810
X36.61080 Y32.78810
X34.07080 Y32.78810
G04 P0 ( dwell for no time -- G64 should not smooth over this point )
G00 Z0.50000 ( retract )

G00 X31.53080 Y32.30550 ( rapid move to begin. )
F300.00000
G01 Z-0.07500
G04 P0 ( dwell for no time -- G64 should not smooth over this point )
F600.00000
X31.53080 Y32.30550
X31.53080 Y30.24810
X34.07080 Y30.24810
X34.07080 Y32.78810
X31.53080 Y32.78810
G04 P0 ( dwell for no time -- G64 should not smooth over this point )
G00 Z0.50000 ( retract )

G00 X28.99080 Y32.30550 ( rapid move to begin. )
F300.00000
G01 Z-0.07500
G04 P0 ( dwell for no time -- G64 should not smooth over this point )
F600.00000
X28.99080 Y32.30550
X28.99080 Y30.24810
X31.53080 Y30.24810
X31.53080 Y32.78810
X28.99080 Y32.78810
G04 P0 ( dwell for no time -- G64 should not smooth over this point )
G00 Z0.50000 ( retract )

G00 X26.45080 Y32.30550 ( rapid move to begin. )
F300.00000
G01 Z-0.07500
G04 P0 ( dwell for no time -- G64 should not smooth over this point )
F600.00000
X26.45080 Y32.30550
X26.45080 Y30.24810
X28.99080 Y30.24810
X28.99080 Y32.78810
X26.45080 Y32.78810
G04 P0 ( dwell for no time -- G64 should not smooth over this point )
G00 Z0.50000 ( retract )

G00 X23.91080 Y32.30550 ( rapid move to begin. )
F300.00000
G01 Z-0.07500
G04 P0 ( dwell for no time -- G64 should not smooth over this point )
F600.00000
X23.91080 Y32.30550
X23.91080 Y30.24810
X26.45080 Y30.24810
X26.45080 Y32.78810
X23.91080 Y32.78810
G04 P0 ( dwell for no time -- G64 should not smooth over this point )
G00 Z0.50000 ( retract )

G00 X21.37080 Y32.30550 ( rapid move to begin. )
F300.00000
G01 Z-0.07500
G04 P0 ( dwell for no time -- G64 should not smooth over this point )
F600.00000
X21.37080 Y32.30550
X21.37080 Y30.24810
X23.91080 Y30.24810
X23.91080 Y32.78810
X21.37080 Y32.78810
G04 P0 ( dwell for no time -- G64 should not smooth over this point )
G00 Z0.50000 ( retract )

G00 X18.83080 Y32.30550 ( rapid move to begin. )
F300.00000
G01 Z-0.07500
G04 P0 ( dwell for no time -- G64 should not smooth over this point )
F600.00000
X18.83080 Y32.30550
X18.83080 Y30.24810
X21.37080 Y30.24810
X21.37080 Y32.78810
X18.83080 Y32.78810
G04 P0 ( dwell for no time -- G64 should not smooth over this point )
G00 Z0.50000 ( retract )

G00 X16.29080 Y32.30550 ( rapid move to begin. )
F300.00000
G01 Z-0.07500
G04 P0 ( dwell for no time -- G64 should not smooth over this point )
F600.00000
X16.29080 Y32.30550
X16.29080 Y30.24810
X18.83080 Y30.24810
X18.83080 Y32.78810
X16.29080 Y32.78810
G04 P0 ( dwell for no time -- G64 should not smooth over this point )
G00 Z0.50000 ( retract )

G00 X13.75080 Y32.30550 ( rapid move to begin. )
F300.00000
G01 Z-0.07500
G04 P0 ( dwell for no time -- G64 should not smooth over this point )
F600.00000
X13.75080 Y32.30550
X13.75080 Y30.24810
X16.29080 Y30.24810
X16.29080 Y32.78810
X13.75080 Y32.78810
G04 P0 ( dwell for no time -- G64 should not smooth over this point )
G00 Z0.50000 ( retract )

G00 X11.21080 Y32.30550 ( rapid move to begin. )
F300.00000
G01 Z-0.07500
G04 P0 ( dwell for no time -- G64 should not smooth over this point )
F600.00000
X11.21080 Y32.30550
X11.21080 Y30.24810
X13.75080 Y30.24810
X13.75080 Y32.78810
X11.21080 Y32.78810
G04 P0 ( dwell for no time -- G64 should not smooth over this point )
G00 Z0.50000 ( retract )

G00 X8.92480 Y32.30550 ( rapid move to begin. )
F300.00000
G01 Z-0.07500
G04 P0 ( dwell for no time -- G64 should not smooth over this point )
F600.00000
X8.92480 Y32.30550
X8.82320 Y32.22930
X8.64540 Y31.79750
X8.67080 Y31.21330
X8.79780 Y30.93390
X9.17880 Y30.50210
X9.40740 Y30.32430
X9.43280 Y30.24810
X11.21080 Y30.24810
X11.21080 Y32.78810
X9.40740 Y32.76270
X8.92480 Y32.33090
G04 P0 ( dwell for no time -- G64 should not smooth over this point )
G00 Z0.50000 ( retract )

G00 X5.87680 Y31.01010 ( rapid move to begin. )
F300.00000
G01 Z-0.07500
G04 P0 ( dwell for no time -- G64 should not smooth over this point )
F600.00000
X5.87680 Y31.01010
X5.87680 Y29.00350
X8.03580 Y28.97810
X8.03580 Y29.38450
X8.23900 Y29.58770
X8.41680 Y30.01950
X8.41680 Y30.52750
X8.13740 Y31.06090
X8.03580 Y31.16250
X8.03580 Y31.51810
X5.90220 Y31.51810
G04 P0 ( dwell for no time -- G64 should not smooth over this point )
G00 Z0.50000 ( retract )

G00 X2.98120 Y31.01010 ( rapid move to begin. )
F300.00000
G01 Z-0.07500
G04 P0 ( dwell for no time -- G64 should not smooth over this point )
F600.00000
X2.98120 Y31.01010
X2.98120 Y29.00350
X3.89560 Y29.00350
X3.99720 Y28.90190
X3.99720 Y28.74950
X4.25120 Y28.49550
X5.03860 Y28.52090
X5.24180 Y28.72410
X5.21640 Y28.90190
X5.31800 Y29.00350
X5.87680 Y29.00350
X5.85140 Y31.51810
X3.00660 Y31.51810
X2.98120 Y31.13710
G04 P0 ( dwell for no time -- G64 should not smooth over this point )
G00 Z0.50000 ( retract )

G00 X67.09080 Y29.76550 ( rapid move to begin. )
F300.00000
G01 Z-0.07500
G04 P0 ( dwell for no time -- G64 should not smooth over this point )
F600.00000
X67.09080 Y29.76550
X67.09080 Y27.70810
X68.91960 Y27.70810
X69.09740 Y27.93670
X69.32600 Y28.11450
X69.50380 Y28.34310
X69.65620 Y28.80030
X69.65620 Y29.20670
X69.55460 Y29.51150
X69.40220 Y29.76550
X68.97040 Y30.14650
X68.91960 Y30.24810
X67.09080 Y30.24810
G04 P0 ( dwell for no time -- G64 should not smooth over this point )
G00 Z0.50000 ( retract )

G00 X64.55080 Y29.76550 ( rapid move to begin. )
F300.00000
G01 Z-0.07500
G04 P0 ( dwell for no time -- G64 should not smooth over this point )
F600.00000
X64.55080 Y29.76550
X64.55080 Y27.70810
X67.09080 Y27.70810
X67.09080 Y30.24810
X64.55080 Y30.24810
G04 P0 ( dwell for no time -- G64 should not smooth over this point )
G00 Z0.50000 ( retract )

G00 X62.01080 Y29.76550 ( rapid move to begin. )
F300.00000
G01 Z-0.07500
G04 P0 ( dwell for no time -- G64 should not smooth over this point )
F600.00000
X62.01080 Y29.76550
X62.01080 Y27.70810
X64.55080 Y27.70810
X64.55080 Y30.24810
X62.01080 Y30.24810
G04 P0 ( dwell for no time -- G64 should not smooth over this point )
G00 Z0.50000 ( retract )

G00 X59.47080 Y29.76550 ( rapid move to begin. )
F300.00000
G01 Z-0.07500
G04 P0 ( dwell for no time -- G64 should not smooth over this point )
F600.00000
X59.47080 Y29.76550
X59.47080 Y27.70810
X62.01080 Y27.70810
X62.01080 Y30.24810
X59.47080 Y30.24810
G04 P0 ( dwell for no time -- G64 should not smooth over this point )
G00 Z0.50000 ( retract )

G00 X56.93080 Y29.76550 ( rapid move to begin. )
F300.00000
G01 Z-0.07500
G04 P0 ( dwell for no time -- G64 should not smooth over this point )
F600.00000
X56.93080 Y29.76550
X56.93080 Y27.70810
X59.47080 Y27.70810
X59.47080 Y30.24810
X56.93080 Y30.24810
G04 P0 ( dwell for no time -- G64 should not smooth over this point )
G00 Z0.50000 ( retract )

G00 X54.39080 Y29.76550 ( rapid move to begin. )
F300.00000
G01 Z-0.07500
G04 P0 ( dwell for no time -- G64 should not smooth over this point )
F600.00000
X54.39080 Y29.76550
X54.39080 Y27.70810
X56.93080 Y27.70810
X56.93080 Y30.24810
X54.39080 Y30.24810
G04 P0 ( dwell for no time -- G64 should not smooth over this point )
G00 Z0.50000 ( retract )

G00 X51.85080 Y29.76550 ( rapid move to begin. )
F300.00000
G01 Z-0.07500
G04 P0 ( dwell for no time -- G64 should not smooth over this point )
F600.00000
X51.85080 Y29.76550
X51.85080 Y27.70810
X54.39080 Y27.70810
X54.39080 Y30.24810
X51.85080 Y30.24810
G04 P0 ( dwell for no time -- G64 should not smooth over this point )
G00 Z0.50000 ( retract )

G00 X49.31080 Y29.76550 ( rapid move to begin. )
F300.00000
G01 Z-0.07500
G04 P0 ( dwell for no time -- G64 should not smooth over this point )
F600.00000
X49.31080 Y29.76550
X49.31080 Y27.70810
X51.85080 Y27.70810
X51.85080 Y30.24810
X49.31080 Y30.24810
G04 P0 ( dwell for no time -- G64 should not smooth over this point )
G00 Z0.50000 ( retract )

G00 X46.77080 Y29.76550 ( rapid move to begin. )
F300.00000
G01 Z-0.07500
G04 P0 ( dwell for no time -- G64 should not smooth over this point )
F600.00000
X46.77080 Y29.76550
X46.77080 Y27.70810
X49.31080 Y27.70810
X49.31080 Y30.24810
X46.77080 Y30.24810
G04 P0 ( dwell for no time -- G64 should not smooth over this point )
G00 Z0.50000 ( retract )

G00 X44.23080 Y29.76550 ( rapid move to begin. )
F300.00000
G01 Z-0.07500
G04 P0 ( dwell for no time -- G64 should not smooth over this point )
F600.00000
X44.23080 Y29.76550
X44.23080 Y27.70810
X46.77080 Y27.70810
X46.77080 Y30.24810
X44.23080 Y30.24810
G04 P0 ( dwell for no time -- G64 should not smooth over this point )
G00 Z0.50000 ( retract )

G00 X41.69080 Y29.76550 ( rapid move to begin. )
F300.00000
G01 Z-0.07500
G04 P0 ( dwell for no time -- G64 should not smooth over this point )
F600.00000
X41.69080 Y29.76550
X41.69080 Y27.70810
X44.23080 Y27.70810
X44.23080 Y30.24810
X41.69080 Y30.24810
G04 P0 ( dwell for no time -- G64 should not smooth over this point )
G00 Z0.50000 ( retract )

G00 X39.15080 Y29.76550 ( rapid move to begin. )
F300.00000
G01 Z-0.07500
G04 P0 ( dwell for no time -- G64 should not smooth over this point )
F600.00000
X39.15080 Y29.76550
X39.15080 Y27.70810
X41.69080 Y27.70810
X41.69080 Y30.24810
X39.15080 Y30.24810
G04 P0 ( dwell for no time -- G64 should not smooth over this point )
G00 Z0.50000 ( retract )

G00 X36.61080 Y29.76550 ( rapid move to begin. )
F300.00000
G01 Z-0.07500
G04 P0 ( dwell for no time -- G64 should not smooth over this point )
F600.00000
X36.61080 Y29.76550
X36.61080 Y27.70810
X39.15080 Y27.70810
X39.15080 Y30.24810
X36.61080 Y30.24810
G04 P0 ( dwell for no time -- G64 should not smooth over this point )
G00 Z0.50000 ( retract )

G00 X34.07080 Y29.76550 ( rapid move to begin. )
F300.00000
G01 Z-0.07500
G04 P0 ( dwell for no time -- G64 should not smooth over this point )
F600.00000
X34.07080 Y29.76550
X34.07080 Y27.70810
X36.61080 Y27.70810
X36.61080 Y30.24810
X34.07080 Y30.24810
G04 P0 ( dwell for no time -- G64 should not smooth over this point )
G00 Z0.50000 ( retract )

G00 X31.53080 Y29.76550 ( rapid move to begin. )
F300.00000
G01 Z-0.07500
G04 P0 ( dwell for no time -- G64 should not smooth over this point )
F600.00000
X31.53080 Y29.76550
X31.53080 Y27.70810
X34.07080 Y27.70810
X34.07080 Y30.24810
X31.53080 Y30.24810
G04 P0 ( dwell for no time -- G64 should not smooth over this point )
G00 Z0.50000 ( retract )

G00 X28.99080 Y29.76550 ( rapid move to begin. )
F300.00000
G01 Z-0.07500
G04 P0 ( dwell for no time -- G64 should not smooth over this point )
F600.00000
X28.99080 Y29.76550
X28.99080 Y27.70810
X31.53080 Y27.70810
X31.53080 Y30.24810
X28.99080 Y30.24810
G04 P0 ( dwell for no time -- G64 should not smooth over this point )
G00 Z0.50000 ( retract )

G00 X26.45080 Y29.76550 ( rapid move to begin. )
F300.00000
G01 Z-0.07500
G04 P0 ( dwell for no time -- G64 should not smooth over this point )
F600.00000
X26.45080 Y29.76550
X26.45080 Y27.70810
X28.99080 Y27.70810
X28.99080 Y30.24810
X26.45080 Y30.24810
G04 P0 ( dwell for no time -- G64 should not smooth over this point )
G00 Z0.50000 ( retract )

G00 X23.91080 Y29.76550 ( rapid move to begin. )
F300.00000
G01 Z-0.07500
G04 P0 ( dwell for no time -- G64 should not smooth over this point )
F600.00000
X23.91080 Y29.76550
X23.91080 Y27.70810
X26.45080 Y27.70810
X26.45080 Y30.24810
X23.91080 Y30.24810
G04 P0 ( dwell for no time -- G64 should not smooth over this point )
G00 Z0.50000 ( retract )

G00 X21.37080 Y29.76550 ( rapid move to begin. )
F300.00000
G01 Z-0.07500
G04 P0 ( dwell for no time -- G64 should not smooth over this point )
F600.00000
X21.37080 Y29.76550
X21.37080 Y27.70810
X23.91080 Y27.70810
X23.91080 Y30.24810
X21.37080 Y30.24810
G04 P0 ( dwell for no time -- G64 should not smooth over this point )
G00 Z0.50000 ( retract )

G00 X18.83080 Y29.76550 ( rapid move to begin. )
F300.00000
G01 Z-0.07500
G04 P0 ( dwell for no time -- G64 should not smooth over this point )
F600.00000
X18.83080 Y29.76550
X18.83080 Y27.70810
X21.37080 Y27.70810
X21.37080 Y30.24810
X18.83080 Y30.24810
G04 P0 ( dwell for no time -- G64 should not smooth over this point )
G00 Z0.50000 ( retract )

G00 X16.29080 Y29.76550 ( rapid move to begin. )
F300.00000
G01 Z-0.07500
G04 P0 ( dwell for no time -- G64 should not smooth over this point )
F600.00000
X16.29080 Y29.76550
X16.29080 Y27.70810
X18.83080 Y27.70810
X18.83080 Y30.24810
X16.29080 Y30.24810
G04 P0 ( dwell for no time -- G64 should not smooth over this point )
G00 Z0.50000 ( retract )

G00 X13.75080 Y29.76550 ( rapid move to begin. )
F300.00000
G01 Z-0.07500
G04 P0 ( dwell for no time -- G64 should not smooth over this point )
F600.00000
X13.75080 Y29.76550
X13.75080 Y27.70810
X16.29080 Y27.70810
X16.29080 Y30.24810
X13.75080 Y30.24810
G04 P0 ( dwell for no time -- G64 should not smooth over this point )
G00 Z0.50000 ( retract )

G00 X11.21080 Y29.76550 ( rapid move to begin. )
F300.00000
G01 Z-0.07500
G04 P0 ( dwell for no time -- G64 should not smooth over this point )
F600.00000
X11.21080 Y29.76550
X11.21080 Y27.70810
X13.75080 Y27.70810
X13.75080 Y30.24810
X11.21080 Y30.24810
G04 P0 ( dwell for no time -- G64 should not smooth over this point )
G00 Z0.50000 ( retract )

G00 X8.92480 Y29.76550 ( rapid move to begin. )
F300.00000
G01 Z-0.07500
G04 P0 ( dwell for no time -- G64 should not smooth over this point )
F600.00000
X8.92480 Y29.76550
X8.82320 Y29.68930
X8.64540 Y29.25750
X8.67080 Y28.67330
X8.79780 Y28.39390
X9.17880 Y27.96210
X9.40740 Y27.78430
X9.43280 Y27.70810
X11.21080 Y27.70810
X11.21080 Y30.24810
X9.40740 Y30.22270
X8.92480 Y29.79090
G04 P0 ( dwell for no time -- G64 should not smooth over this point )
G00 Z0.50000 ( retract )

G00 X6.13080 Y28.47010 ( rapid move to begin. )
F300.00000
G01 Z-0.07500
G04 P0 ( dwell for no time -- G64 should not smooth over this point )
F600.00000
X6.13080 Y28.47010
X5.92760 Y28.19070
X5.82600 Y28.19070
X5.74980 Y28.31770
X5.62280 Y28.34310
X5.41960 Y28.13990
X5.39420 Y27.35250
X5.64820 Y27.09850
X5.72440 Y27.12390
X5.80060 Y27.25090
X5.95300 Y27.25090
X6.05460 Y27.14930
X6.15620 Y26.94610
X6.18160 Y26.46350
X8.01040 Y26.46350
X8.03580 Y26.84450
X8.23900 Y27.04770
X8.41680 Y27.47950
X8.41680 Y27.98750
X8.13740 Y28.52090
X8.03580 Y28.62250
X8.03580 Y28.97810
X6.13080 Y28.95270
G04 P0 ( dwell for no time -- G64 should not smooth over this point )
G00 Z0.50000 ( retract )

G00 X67.09080 Y27.22550 ( rapid move to begin. )
F300.00000
G01 Z-0.07500
G04 P0 ( dwell for no time -- G64 should not smooth over this point )
F600.00000
X67.09080 Y27.22550
X67.09080 Y25.16810
X68.91960 Y25.16810
X69.09740 Y25.39670
X69.32600 Y25.57450
X69.50380 Y25.80310
X69.65620 Y26.26030
X69.65620 Y26.66670
X69.55460 Y26.97150
X69.40220 Y27.22550
X68.97040 Y27.60650
X68.91960 Y27.70810
X67.09080 Y27.70810
G04 P0 ( dwell for no time -- G64 should not smooth over this point )
G00 Z0.50000 ( retract )

G00 X64.55080 Y27.22550 ( rapid move to begin. )
F300.00000
G01 Z-0.07500
G04 P0 ( dwell for no time -- G64 should not smooth over this point )
F600.00000
X64.55080 Y27.22550
X64.55080 Y25.16810
X67.09080 Y25.16810
X67.09080 Y27.70810
X64.55080 Y27.70810
G04 P0 ( dwell for no time -- G64 should not smooth over this point )
G00 Z0.50000 ( retract )

G00 X62.01080 Y27.22550 ( rapid move to begin. )
F300.00000
G01 Z-0.07500
G04 P0 ( dwell for no time -- G64 should not smooth over this point )
F600.00000
X62.01080 Y27.22550
X62.01080 Y25.16810
X64.55080 Y25.16810
X64.55080 Y27.70810
X62.01080 Y27.70810
G04 P0 ( dwell for no time -- G64 should not smooth over this point )
G00 Z0.50000 ( retract )

G00 X59.47080 Y27.22550 ( rapid move to begin. )
F300.00000
G01 Z-0.07500
G04 P0 ( dwell for no time -- G64 should not smooth over this point )
F600.00000
X59.47080 Y27.22550
X59.47080 Y25.16810
X62.01080 Y25.16810
X62.01080 Y27.70810
X59.47080 Y27.70810
G04 P0 ( dwell for no time -- G64 should not smooth over this point )
G00 Z0.50000 ( retract )

G00 X56.93080 Y27.22550 ( rapid move to begin. )
F300.00000
G01 Z-0.07500
G04 P0 ( dwell for no time -- G64 should not smooth over this point )
F600.00000
X56.93080 Y27.22550
X56.93080 Y25.16810
X59.47080 Y25.16810
X59.47080 Y27.70810
X56.93080 Y27.70810
G04 P0 ( dwell for no time -- G64 should not smooth over this point )
G00 Z0.50000 ( retract )

G00 X54.39080 Y27.22550 ( rapid move to begin. )
F300.00000
G01 Z-0.07500
G04 P0 ( dwell for no time -- G64 should not smooth over this point )
F600.00000
X54.39080 Y27.22550
X54.39080 Y25.16810
X56.93080 Y25.16810
X56.93080 Y27.70810
X54.39080 Y27.70810
G04 P0 ( dwell for no time -- G64 should not smooth over this point )
G00 Z0.50000 ( retract )

G00 X51.85080 Y27.22550 ( rapid move to begin. )
