( pcb2gcode 1.2.1 )
( Software-independent Gcode )
      

G94 ( Inches per minute feed rate. )
G20 ( Units == INCHES. )

G90 ( Absolute coordinates. )
S20000 ( RPM spindle speed. )
G64 P0.00200 ( set maximum deviation from commanded toolpath )
F3.93701 ( Feedrate. )

F3.93701 ( Feedrate. )
M3 ( Spindle on clockwise. )
G04 P0 ( dwell for no time -- G64 should not smooth over this point )
G00 Z0.07874 ( retract )

G00 X0.17900 Y2.14950 ( rapid move to begin. )
F1.96850
G01 Z-0.00787
G04 P0 ( dwell for no time -- G64 should not smooth over this point )
F3.93701
X0.17900 Y2.14950
X0.17800 Y2.14950
X0.17800 Y2.14850
X0.17700 Y2.14850
X0.17700 Y2.14750
X0.17600 Y2.14750
X0.17600 Y2.14650
X0.17500 Y2.14650
X0.17500 Y2.14550
X0.17400 Y2.14550
X0.17400 Y2.14450
X0.17300 Y2.14450
X0.17300 Y2.14350
X0.17200 Y2.14350
X0.17200 Y2.14250
X0.17100 Y2.14250
X0.17100 Y2.14150
X0.17000 Y2.14150
X0.17000 Y2.14050
X0.16900 Y2.14050
X0.16900 Y2.13950
X0.16800 Y2.13950
X0.16800 Y2.13850
X0.16700 Y2.13850
X0.16700 Y2.13750
X0.16600 Y2.13750
X0.16600 Y2.13650
X0.16500 Y2.13650
X0.16500 Y2.13550
X0.16400 Y2.13550
X0.16400 Y2.13450
X0.16300 Y2.13450
X0.16300 Y2.13350
X0.16200 Y2.13350
X0.16200 Y2.13250
X0.16100 Y2.13250
X0.16100 Y2.13150
X0.16000 Y2.13150
X0.16000 Y2.13050
X0.15900 Y2.13050
X0.15900 Y2.12950
X0.15800 Y2.12950
X0.15800 Y2.12850
X0.15700 Y2.12850
X0.15700 Y2.12750
X0.15600 Y2.12750
X0.15600 Y2.12650
X0.15500 Y2.12650
X0.15500 Y2.12550
X0.15400 Y2.12550
X0.15400 Y2.12450
X0.15300 Y2.12450
X0.15300 Y2.12350
X0.15200 Y2.12350
X0.15200 Y2.12250
X0.15100 Y2.12250
X0.15100 Y2.12150
X0.15000 Y2.12150
X0.15000 Y2.12050
X0.14900 Y2.12050
X0.14900 Y2.11950
X0.14800 Y2.11950
X0.14800 Y2.11850
X0.14700 Y2.11850
X0.14700 Y2.11750
X0.14600 Y2.11750
X0.14600 Y2.11650
X0.14500 Y2.11650
X0.14500 Y2.11550
X0.14400 Y2.11550
X0.14400 Y2.11450
X0.14300 Y2.11450
X0.14300 Y2.11350
X0.14200 Y2.11350
X0.14200 Y2.11250
X0.14100 Y2.11250
X0.14100 Y2.11150
X0.14000 Y2.11150
X0.14000 Y2.11050
X0.13900 Y2.11050
X0.13900 Y2.10950
X0.13800 Y2.10950
X0.13800 Y2.10850
X0.13700 Y2.10850
X0.13700 Y2.10750
X0.13600 Y2.10750
X0.13600 Y2.10650
X0.13500 Y2.10650
X0.13500 Y2.10550
X0.13400 Y2.10550
X0.13400 Y2.10450
X0.13300 Y2.10450
X0.13300 Y2.10250
X0.13200 Y2.10250
X0.13200 Y1.65250
X0.13100 Y1.65250
X0.13100 Y1.65150
X0.13000 Y1.65150
X0.13000 Y1.65050
X0.12900 Y1.65050
X0.12900 Y1.64950
X0.12800 Y1.64950
X0.12800 Y1.64850
X0.12700 Y1.64850
X0.12700 Y1.64750
X0.12600 Y1.64750
X0.12600 Y1.64650
X0.12500 Y1.64650
X0.12500 Y1.64550
X0.12400 Y1.64550
X0.12400 Y1.64450
X0.12300 Y1.64450
X0.12300 Y1.64350
X0.12200 Y1.64350
X0.12200 Y1.64250
X0.12100 Y1.64250
X0.12100 Y1.64150
X0.12000 Y1.64150
X0.12000 Y1.64050
X0.11900 Y1.64050
X0.11900 Y1.63950
X0.11800 Y1.63950
X0.11800 Y1.63850
X0.11700 Y1.63850
X0.11700 Y1.63750
X0.11600 Y1.63750
X0.11600 Y1.63650
X0.11500 Y1.63650
X0.11500 Y1.63550
X0.11400 Y1.63550
X0.11400 Y1.63450
X0.11300 Y1.63450
X0.11300 Y1.63350
X0.11200 Y1.63350
X0.11200 Y1.63250
X0.11100 Y1.63250
X0.11100 Y1.63150
X0.11000 Y1.63150
X0.11000 Y1.63050
X0.10900 Y1.63050
X0.10900 Y1.62950
X0.10800 Y1.62950
X0.10800 Y1.62850
X0.10700 Y1.62850
X0.10700 Y1.62750
X0.10600 Y1.62750
X0.10600 Y1.62650
X0.10500 Y1.62650
X0.10500 Y1.62550
X0.10400 Y1.62550
X0.10400 Y1.62450
X0.10300 Y1.62450
X0.10300 Y1.62350
X0.10200 Y1.62350
X0.10200 Y1.62250
X0.10100 Y1.62250
X0.10100 Y1.62150
X0.10000 Y1.62150
X0.10000 Y1.62050
X0.09900 Y1.62050
X0.09900 Y1.61950
X0.09800 Y1.61950
X0.09800 Y1.61850
X0.09700 Y1.61850
X0.09700 Y1.61750
X0.09600 Y1.61750
X0.09600 Y1.61650
X0.09500 Y1.61650
X0.09500 Y1.61550
X0.09400 Y1.61550
X0.09400 Y1.61450
X0.09300 Y1.61450
X0.09300 Y1.61350
X0.09200 Y1.61350
X0.09200 Y1.61250
X0.09100 Y1.61250
X0.09100 Y1.61150
X0.09000 Y1.61150
X0.09000 Y1.61050
X0.08900 Y1.61050
X0.08900 Y1.60950
X0.08800 Y1.60950
X0.08800 Y1.60850
X0.08700 Y1.60850
X0.08700 Y1.60750
X0.08600 Y1.60750
X0.08600 Y1.60650
X0.08500 Y1.60650
X0.08500 Y1.60550
X0.08400 Y1.60550
X0.08400 Y1.60450
X0.08300 Y1.60450
X0.08300 Y1.60350
X0.08200 Y1.60350
X0.08200 Y1.60250
X0.08100 Y1.60250
X0.08100 Y1.60150
X0.08000 Y1.60150
X0.08000 Y1.60050
X0.07900 Y1.60050
X0.07900 Y1.59950
X0.07800 Y1.59950
X0.07800 Y1.59850
X0.07700 Y1.59850
X0.07700 Y1.59750
X0.07600 Y1.59750
X0.07600 Y1.59650
X0.07500 Y1.59650
X0.07500 Y1.59550
X0.07400 Y1.59550
X0.07400 Y1.59450
X0.07300 Y1.59450
X0.07300 Y1.59350
X0.07200 Y1.59350
X0.07200 Y1.59250
X0.07100 Y1.59250
X0.07100 Y1.59150
X0.07000 Y1.59150
X0.07000 Y1.59050
X0.06900 Y1.59050
X0.06900 Y1.58950
X0.06800 Y1.58950
X0.06800 Y1.58850
X0.06700 Y1.58850
X0.06700 Y1.58750
X0.06600 Y1.58750
X0.06600 Y1.58650
X0.06500 Y1.58650
X0.06500 Y1.58550
X0.06400 Y1.58550
X0.06400 Y1.58450
X0.06300 Y1.58450
X0.06300 Y1.58350
X0.06200 Y1.58350
X0.06200 Y1.58250
X0.06100 Y1.58250
X0.06100 Y1.58150
X0.06000 Y1.58150
X0.06000 Y1.58050
X0.05900 Y1.58050
X0.05900 Y1.57950
X0.05800 Y1.57950
X0.05800 Y1.57850
X0.05700 Y1.57850
X0.05700 Y1.57750
X0.05600 Y1.57750
X0.05600 Y1.57650
X0.05500 Y1.57650
X0.05500 Y1.57550
X0.05400 Y1.57550
X0.05400 Y1.57450
X0.05300 Y1.57450
X0.05300 Y1.57350
X0.05200 Y1.57350
X0.05200 Y1.57250
X0.05100 Y1.57250
X0.05100 Y1.57150
X0.05000 Y1.57150
X0.05000 Y1.57050
X0.04900 Y1.57050
X0.04900 Y1.56950
X0.04800 Y1.56950
X0.04800 Y1.56850
X0.04700 Y1.56850
X0.04700 Y1.56750
X0.04600 Y1.56750
X0.04600 Y1.56650
X0.04500 Y1.56650
X0.04500 Y1.56550
X0.04400 Y1.56550
X0.04400 Y1.56450
X0.04300 Y1.56450
X0.04300 Y1.56350
X0.04200 Y1.56350
X0.04200 Y1.56250
X0.04100 Y1.56250
X0.04100 Y1.56150
X0.04000 Y1.56150
X0.04000 Y1.56050
X0.03900 Y1.56050
X0.03900 Y1.55950
X0.03800 Y1.55950
X0.03800 Y1.55850
X0.03700 Y1.55850
X0.03700 Y1.55750
X0.03600 Y1.55750
X0.03600 Y1.55650
X0.03500 Y1.55650
X0.03500 Y1.55550
X0.03400 Y1.55550
X0.03400 Y1.55450
X0.03300 Y1.55450
X0.03300 Y1.55250
X0.03200 Y1.55250
X0.03200 Y0.24650
X0.03300 Y0.24650
X0.03300 Y0.24450
X0.03400 Y0.24450
X0.03400 Y0.24350
X0.03500 Y0.24350
X0.03500 Y0.24250
X0.03600 Y0.24250
X0.03600 Y0.24150
X0.03700 Y0.24150
X0.03700 Y0.24050
X0.03800 Y0.24050
X0.03800 Y0.23950
X0.03900 Y0.23950
X0.03900 Y0.23850
X0.04000 Y0.23850
X0.04000 Y0.23750
X0.04100 Y0.23750
X0.04100 Y0.23650
X0.04200 Y0.23650
X0.04200 Y0.23550
X0.04300 Y0.23550
X0.04300 Y0.23450
X0.04400 Y0.23450
X0.04400 Y0.23350
X0.04500 Y0.23350
X0.04500 Y0.23250
X0.04600 Y0.23250
X0.04600 Y0.23150
X0.04700 Y0.23150
X0.04700 Y0.23050
X0.04800 Y0.23050
X0.04800 Y0.22950
X0.04900 Y0.22950
X0.04900 Y0.22850
X0.05000 Y0.22850
X0.05000 Y0.22750
X0.05100 Y0.22750
X0.05100 Y0.22650
X0.05200 Y0.22650
X0.05200 Y0.22550
X0.05300 Y0.22550
X0.05300 Y0.22450
X0.05400 Y0.22450
X0.05400 Y0.22350
X0.05500 Y0.22350
X0.05500 Y0.22250
X0.05600 Y0.22250
X0.05600 Y0.22150
X0.05700 Y0.22150
X0.05700 Y0.22050
X0.05800 Y0.22050
X0.05800 Y0.21950
X0.05900 Y0.21950
X0.05900 Y0.21850
X0.06000 Y0.21850
X0.06000 Y0.21750
X0.06100 Y0.21750
X0.06100 Y0.21650
X0.06200 Y0.21650
X0.06200 Y0.21550
X0.06300 Y0.21550
X0.06300 Y0.21450
X0.06400 Y0.21450
X0.06400 Y0.21350
X0.06500 Y0.21350
X0.06500 Y0.21250
X0.06600 Y0.21250
X0.06600 Y0.21150
X0.06700 Y0.21150
X0.06700 Y0.21050
X0.06800 Y0.21050
X0.06800 Y0.20950
X0.06900 Y0.20950
X0.06900 Y0.20850
X0.07000 Y0.20850
X0.07000 Y0.20750
X0.07100 Y0.20750
X0.07100 Y0.20650
X0.07200 Y0.20650
X0.07200 Y0.20550
X0.07300 Y0.20550
X0.07300 Y0.20450
X0.07400 Y0.20450
X0.07400 Y0.20350
X0.07500 Y0.20350
X0.07500 Y0.20250
X0.07600 Y0.20250
X0.07600 Y0.20150
X0.07700 Y0.20150
X0.07700 Y0.20050
X0.07800 Y0.20050
X0.07800 Y0.19950
X0.07900 Y0.19950
X0.07900 Y0.19850
X0.08000 Y0.19850
X0.08000 Y0.19750
X0.08100 Y0.19750
X0.08100 Y0.19650
X0.08200 Y0.19650
X0.08200 Y0.19550
X0.08300 Y0.19550
X0.08300 Y0.19450
X0.08400 Y0.19450
X0.08400 Y0.19350
X0.08500 Y0.19350
X0.08500 Y0.19250
X0.08600 Y0.19250
X0.08600 Y0.19150
X0.08700 Y0.19150
X0.08700 Y0.19050
X0.08800 Y0.19050
X0.08800 Y0.18950
X0.08900 Y0.18950
X0.08900 Y0.18850
X0.09000 Y0.18850
X0.09000 Y0.18750
X0.09100 Y0.18750
X0.09100 Y0.18650
X0.09200 Y0.18650
X0.09200 Y0.18550
X0.09300 Y0.18550
X0.09300 Y0.18450
X0.09400 Y0.18450
X0.09400 Y0.18350
X0.09500 Y0.18350
X0.09500 Y0.18250
X0.09600 Y0.18250
X0.09600 Y0.18150
X0.09700 Y0.18150
X0.09700 Y0.18050
X0.09800 Y0.18050
X0.09800 Y0.17950
X0.09900 Y0.17950
X0.09900 Y0.17850
X0.10000 Y0.17850
X0.10000 Y0.17750
X0.10100 Y0.17750
X0.10100 Y0.17650
X0.10200 Y0.17650
X0.10200 Y0.17550
X0.10300 Y0.17550
X0.10300 Y0.17450
X0.10400 Y0.17450
X0.10400 Y0.17350
X0.10500 Y0.17350
X0.10500 Y0.17250
X0.10600 Y0.17250
X0.10600 Y0.17150
X0.10700 Y0.17150
X0.10700 Y0.17050
X0.10800 Y0.17050
X0.10800 Y0.16950
X0.10900 Y0.16950
X0.10900 Y0.16850
X0.11000 Y0.16850
X0.11000 Y0.16750
X0.11100 Y0.16750
X0.11100 Y0.16650
X0.11200 Y0.16650
X0.11200 Y0.16550
X0.11300 Y0.16550
X0.11300 Y0.16450
X0.11400 Y0.16450
X0.11400 Y0.16350
X0.11500 Y0.16350
X0.11500 Y0.16250
X0.11600 Y0.16250
X0.11600 Y0.16150
X0.11700 Y0.16150
X0.11700 Y0.16050
X0.11800 Y0.16050
X0.11800 Y0.15950
X0.11900 Y0.15950
X0.11900 Y0.15850
X0.12000 Y0.15850
X0.12000 Y0.15750
X0.12100 Y0.15750
X0.12100 Y0.15650
X0.12200 Y0.15650
X0.12200 Y0.15550
X0.12300 Y0.15550
X0.12300 Y0.15450
X0.12400 Y0.15450
X0.12400 Y0.15350
X0.12500 Y0.15350
X0.12500 Y0.15250
X0.12600 Y0.15250
X0.12600 Y0.15150
X0.12700 Y0.15150
X0.12700 Y0.15050
X0.12800 Y0.15050
X0.12800 Y0.14950
X0.12900 Y0.14950
X0.12900 Y0.14850
X0.13000 Y0.14850
X0.13000 Y0.14750
X0.13100 Y0.14750
X0.13100 Y0.14650
X0.13200 Y0.14650
X0.13200 Y0.04650
X0.13300 Y0.04650
X0.13300 Y0.04450
X0.13400 Y0.04450
X0.13400 Y0.04350
X0.13500 Y0.04350
X0.13500 Y0.04250
X0.13700 Y0.04250
X0.13700 Y0.04150
X2.74300 Y0.04150
X2.74300 Y0.04250
X2.74500 Y0.04250
X2.74500 Y0.04350
X2.74600 Y0.04350
X2.74600 Y0.04450
X2.74700 Y0.04450
X2.74700 Y0.04650
X2.74800 Y0.04650
X2.74800 Y2.15050
X2.74700 Y2.15050
X2.74700 Y2.15150
X2.74600 Y2.15150
X2.74600 Y2.15350
X2.74500 Y2.15350
X2.74500 Y2.15450
X2.74400 Y2.15450
X2.74400 Y2.15550
X2.74200 Y2.15550
X2.74200 Y2.15650
X0.18800 Y2.15650
X0.18800 Y2.15550
X0.18600 Y2.15550
X0.18600 Y2.15450
X0.18500 Y2.15450
X0.18500 Y2.15350
X0.18400 Y2.15350
X0.18400 Y2.15250
X0.18300 Y2.15250
X0.18300 Y2.15150
X0.18200 Y2.15150
X0.18200 Y2.15050
X0.17900 Y2.15050
X0.17900 Y2.14950

G04 P0 ( dwell for no time -- G64 should not smooth over this point )
G00 Z1.18110 ( retract )


M5 ( Spindle off. )
M9 ( Coolant off. )
M2 ( Program end. )

