( pcb2gcode 1.2.1 )
( Software-independent Gcode )
      

G94 ( Millimeters per minute feed rate. )
G21 ( Units == Millimeters. )

G90 ( Absolute coordinates. )
S10000 ( RPM spindle speed. )
G64 P0.05080 ( set maximum deviation from commanded toolpath )
F600.00000 ( Feedrate. )

F600.00000 ( Feedrate. )
M3 ( Spindle on clockwise. )
G04 P0 ( dwell for no time -- G64 should not smooth over this point )
G00 Z0.50000 ( retract )

G00 X50.58080 Y54.37810 ( rapid move to begin. )
F300.00000
G01 Z-0.07500
G04 P0 ( dwell for no time -- G64 should not smooth over this point )
F600.00000
X50.58080 Y54.37810
X50.58080 Y50.99990
X52.10480 Y50.94910
X52.89220 Y50.97450
X53.40020 Y51.07610
X53.57800 Y51.30470
X53.62880 Y51.66030
X53.62880 Y54.70830
X53.57800 Y54.96230
X53.40020 Y55.19090
X53.14620 Y55.34330
X52.79060 Y55.39410
X51.16500 Y55.39410
X50.60620 Y55.34330
G04 P0 ( dwell for no time -- G64 should not smooth over this point )
G00 Z0.50000 ( retract )

G00 X48.04080 Y54.37810 ( rapid move to begin. )
F300.00000
G01 Z-0.07500
G04 P0 ( dwell for no time -- G64 should not smooth over this point )
F600.00000
X48.04080 Y54.37810
X48.04080 Y50.99990
X49.56480 Y50.94910
X50.58080 Y50.99990
X50.55540 Y55.34330
X50.40300 Y55.39410
X48.09160 Y55.36870
X48.04080 Y55.31790
G04 P0 ( dwell for no time -- G64 should not smooth over this point )
G00 Z0.50000 ( retract )

G00 X45.50080 Y54.37810 ( rapid move to begin. )
F300.00000
G01 Z-0.07500
G04 P0 ( dwell for no time -- G64 should not smooth over this point )
F600.00000
X45.50080 Y54.37810
X45.50080 Y50.99990
X47.02480 Y50.94910
X48.04080 Y50.99990
X48.01540 Y55.34330
X47.86300 Y55.39410
X45.55160 Y55.36870
X45.50080 Y55.31790
G04 P0 ( dwell for no time -- G64 should not smooth over this point )
G00 Z0.50000 ( retract )

G00 X42.96080 Y54.37810 ( rapid move to begin. )
F300.00000
G01 Z-0.07500
G04 P0 ( dwell for no time -- G64 should not smooth over this point )
F600.00000
X42.96080 Y54.37810
X42.96080 Y50.99990
X44.48480 Y50.94910
X45.50080 Y50.99990
X45.47540 Y55.34330
X45.32300 Y55.39410
X43.01160 Y55.36870
X42.96080 Y55.31790
G04 P0 ( dwell for no time -- G64 should not smooth over this point )
G00 Z0.50000 ( retract )

G00 X40.42080 Y54.37810 ( rapid move to begin. )
F300.00000
G01 Z-0.07500
G04 P0 ( dwell for no time -- G64 should not smooth over this point )
F600.00000
X40.42080 Y54.37810
X40.42080 Y50.99990
X41.94480 Y50.94910
X42.96080 Y50.99990
X42.93540 Y55.34330
X42.78300 Y55.39410
X40.47160 Y55.36870
X40.42080 Y55.31790
G04 P0 ( dwell for no time -- G64 should not smooth over this point )
G00 Z0.50000 ( retract )

G00 X37.88080 Y54.37810 ( rapid move to begin. )
F300.00000
G01 Z-0.07500
G04 P0 ( dwell for no time -- G64 should not smooth over this point )
F600.00000
X37.88080 Y54.37810
X37.88080 Y50.99990
X39.40480 Y50.94910
X40.42080 Y50.99990
X40.39540 Y55.34330
X40.24300 Y55.39410
X37.93160 Y55.36870
X37.88080 Y55.31790
G04 P0 ( dwell for no time -- G64 should not smooth over this point )
G00 Z0.50000 ( retract )

G00 X35.34080 Y54.37810 ( rapid move to begin. )
F300.00000
G01 Z-0.07500
G04 P0 ( dwell for no time -- G64 should not smooth over this point )
F600.00000
X35.34080 Y54.37810
X35.34080 Y50.99990
X36.86480 Y50.94910
X37.88080 Y50.99990
X37.85540 Y55.34330
X37.70300 Y55.39410
X35.39160 Y55.36870
X35.34080 Y55.31790
G04 P0 ( dwell for no time -- G64 should not smooth over this point )
G00 Z0.50000 ( retract )

G00 X32.80080 Y54.37810 ( rapid move to begin. )
F300.00000
G01 Z-0.07500
G04 P0 ( dwell for no time -- G64 should not smooth over this point )
F600.00000
X32.80080 Y54.37810
X32.80080 Y50.99990
X34.32480 Y50.94910
X35.34080 Y50.99990
X35.31540 Y55.34330
X35.16300 Y55.39410
X32.85160 Y55.36870
X32.80080 Y55.31790
G04 P0 ( dwell for no time -- G64 should not smooth over this point )
G00 Z0.50000 ( retract )

G00 X30.26080 Y54.37810 ( rapid move to begin. )
F300.00000
G01 Z-0.07500
G04 P0 ( dwell for no time -- G64 should not smooth over this point )
F600.00000
X30.26080 Y54.37810
X30.26080 Y50.99990
X31.78480 Y50.94910
X32.80080 Y50.99990
X32.77540 Y55.34330
X32.62300 Y55.39410
X30.31160 Y55.36870
X30.26080 Y55.31790
G04 P0 ( dwell for no time -- G64 should not smooth over this point )
G00 Z0.50000 ( retract )

G00 X27.23820 Y54.37810 ( rapid move to begin. )
F300.00000
G01 Z-0.07500
G04 P0 ( dwell for no time -- G64 should not smooth over this point )
F600.00000
X27.23820 Y54.37810
X27.23820 Y51.55870
X27.28900 Y51.30470
X27.46680 Y51.07610
X27.79700 Y50.99990
X28.96540 Y50.94910
X30.10840 Y50.97450
X30.26080 Y51.02530
X30.23540 Y55.36870
X28.63520 Y55.39410
X27.84780 Y55.36870
X27.44140 Y55.16550
X27.28900 Y54.91150
X27.23820 Y54.55590
G04 P0 ( dwell for no time -- G64 should not smooth over this point )
G00 Z0.50000 ( retract )

G00 X23.65680 Y54.37810 ( rapid move to begin. )
F300.00000
G01 Z-0.07500
G04 P0 ( dwell for no time -- G64 should not smooth over this point )
F600.00000
X23.65680 Y54.37810
X23.65680 Y50.99990
X24.01240 Y50.94910
X26.01900 Y50.97450
X26.37460 Y51.02530
X26.60320 Y51.20310
X26.67940 Y51.53330
X26.65400 Y54.91150
X26.50160 Y55.16550
X26.24760 Y55.31790
X25.91740 Y55.39410
X23.70760 Y55.36870
X23.65680 Y55.31790
G04 P0 ( dwell for no time -- G64 should not smooth over this point )
G00 Z0.50000 ( retract )

G00 X21.11680 Y54.37810 ( rapid move to begin. )
F300.00000
G01 Z-0.07500
G04 P0 ( dwell for no time -- G64 should not smooth over this point )
F600.00000
X21.11680 Y54.37810
X21.11680 Y50.99990
X21.47240 Y50.94910
X23.65680 Y50.99990
X23.63140 Y55.34330
X23.47900 Y55.39410
X21.16760 Y55.36870
X21.11680 Y55.31790
G04 P0 ( dwell for no time -- G64 should not smooth over this point )
G00 Z0.50000 ( retract )

G00 X18.57680 Y54.37810 ( rapid move to begin. )
F300.00000
G01 Z-0.07500
G04 P0 ( dwell for no time -- G64 should not smooth over this point )
F600.00000
X18.57680 Y54.37810
X18.57680 Y50.99990
X18.93240 Y50.94910
X21.11680 Y50.99990
X21.09140 Y55.34330
X20.93900 Y55.39410
X18.62760 Y55.36870
X18.57680 Y55.31790
G04 P0 ( dwell for no time -- G64 should not smooth over this point )
G00 Z0.50000 ( retract )

G00 X16.03680 Y54.37810 ( rapid move to begin. )
F300.00000
G01 Z-0.07500
G04 P0 ( dwell for no time -- G64 should not smooth over this point )
F600.00000
X16.03680 Y54.37810
X16.03680 Y50.99990
X16.39240 Y50.94910
X18.57680 Y50.99990
X18.55140 Y55.34330
X18.39900 Y55.39410
X16.08760 Y55.36870
X16.03680 Y55.31790
G04 P0 ( dwell for no time -- G64 should not smooth over this point )
G00 Z0.50000 ( retract )

G00 X13.49680 Y54.37810 ( rapid move to begin. )
F300.00000
G01 Z-0.07500
G04 P0 ( dwell for no time -- G64 should not smooth over this point )
F600.00000
X13.49680 Y54.37810
X13.49680 Y50.99990
X13.85240 Y50.94910
X16.03680 Y50.99990
X16.01140 Y55.34330
X15.85900 Y55.39410
X13.54760 Y55.36870
X13.49680 Y55.31790
G04 P0 ( dwell for no time -- G64 should not smooth over this point )
G00 Z0.50000 ( retract )

G00 X10.95680 Y54.37810 ( rapid move to begin. )
F300.00000
G01 Z-0.07500
G04 P0 ( dwell for no time -- G64 should not smooth over this point )
F600.00000
X10.95680 Y54.37810
X10.95680 Y50.99990
X11.31240 Y50.94910
X13.49680 Y50.99990
X13.47140 Y55.34330
X13.31900 Y55.39410
X11.00760 Y55.36870
X10.95680 Y55.31790
G04 P0 ( dwell for no time -- G64 should not smooth over this point )
G00 Z0.50000 ( retract )

G00 X8.41680 Y54.37810 ( rapid move to begin. )
F300.00000
G01 Z-0.07500
G04 P0 ( dwell for no time -- G64 should not smooth over this point )
F600.00000
X8.41680 Y54.37810
X8.41680 Y50.89830
X9.15340 Y50.97450
X10.95680 Y50.99990
X10.93140 Y55.34330
X10.77900 Y55.39410
X8.46760 Y55.36870
X8.41680 Y55.31790
G04 P0 ( dwell for no time -- G64 should not smooth over this point )
G00 Z0.50000 ( retract )

G00 X5.39420 Y54.37810 ( rapid move to begin. )
F300.00000
G01 Z-0.07500
G04 P0 ( dwell for no time -- G64 should not smooth over this point )
F600.00000
X5.39420 Y54.37810
X5.39420 Y51.55870
X5.44500 Y51.30470
X5.62280 Y51.07610
X5.62280 Y51.02530
X5.90220 Y50.89830
X6.25780 Y50.84750
X8.36600 Y50.87290
X8.41680 Y50.92370
X8.39140 Y55.36870
X6.79120 Y55.39410
X6.00380 Y55.36870
X5.59740 Y55.16550
X5.44500 Y54.91150
X5.39420 Y54.55590
G04 P0 ( dwell for no time -- G64 should not smooth over this point )
G00 Z0.50000 ( retract )

G00 X67.09080 Y50.08550 ( rapid move to begin. )
F300.00000
G01 Z-0.07500
G04 P0 ( dwell for no time -- G64 should not smooth over this point )
F600.00000
X67.09080 Y50.08550
X67.09080 Y48.02810
X70.13880 Y48.02810
X70.13880 Y50.61890
X69.93560 Y50.92370
X69.68160 Y51.07610
X67.09080 Y51.07610
G04 P0 ( dwell for no time -- G64 should not smooth over this point )
G00 Z0.50000 ( retract )

G00 X64.55080 Y50.08550 ( rapid move to begin. )
F300.00000
G01 Z-0.07500
G04 P0 ( dwell for no time -- G64 should not smooth over this point )
F600.00000
X64.55080 Y50.08550
X64.55080 Y48.02810
X67.09080 Y48.02810
X67.09080 Y51.07610
X64.55080 Y51.07610
G04 P0 ( dwell for no time -- G64 should not smooth over this point )
G00 Z0.50000 ( retract )

G00 X62.01080 Y50.08550 ( rapid move to begin. )
F300.00000
G01 Z-0.07500
G04 P0 ( dwell for no time -- G64 should not smooth over this point )
F600.00000
X62.01080 Y50.08550
X62.01080 Y48.02810
X64.55080 Y48.02810
X64.55080 Y51.07610
X62.01080 Y51.07610
G04 P0 ( dwell for no time -- G64 should not smooth over this point )
G00 Z0.50000 ( retract )

G00 X59.47080 Y50.08550 ( rapid move to begin. )
F300.00000
G01 Z-0.07500
G04 P0 ( dwell for no time -- G64 should not smooth over this point )
F600.00000
X59.47080 Y50.08550
X59.47080 Y48.02810
X62.01080 Y48.02810
X62.01080 Y51.07610
X59.47080 Y51.07610
G04 P0 ( dwell for no time -- G64 should not smooth over this point )
G00 Z0.50000 ( retract )

G00 X56.93080 Y50.08550 ( rapid move to begin. )
F300.00000
G01 Z-0.07500
G04 P0 ( dwell for no time -- G64 should not smooth over this point )
F600.00000
X56.93080 Y50.08550
X56.93080 Y48.02810
X59.47080 Y48.02810
X59.47080 Y51.07610
X56.93080 Y51.07610
G04 P0 ( dwell for no time -- G64 should not smooth over this point )
G00 Z0.50000 ( retract )

G00 X54.39080 Y50.08550 ( rapid move to begin. )
F300.00000
G01 Z-0.07500
G04 P0 ( dwell for no time -- G64 should not smooth over this point )
F600.00000
X54.39080 Y50.08550
X54.39080 Y48.02810
X56.93080 Y48.02810
X56.93080 Y51.07610
X54.39080 Y51.07610
G04 P0 ( dwell for no time -- G64 should not smooth over this point )
G00 Z0.50000 ( retract )

G00 X51.85080 Y50.08550 ( rapid move to begin. )
F300.00000
G01 Z-0.07500
G04 P0 ( dwell for no time -- G64 should not smooth over this point )
F600.00000
X51.85080 Y50.08550
X51.85080 Y48.02810
X54.39080 Y48.02810
X54.39080 Y51.07610
X53.60340 Y51.10150
X52.91760 Y50.97450
X52.10480 Y50.97450
X51.85080 Y50.92370
G04 P0 ( dwell for no time -- G64 should not smooth over this point )
G00 Z0.50000 ( retract )

G00 X49.31080 Y50.08550 ( rapid move to begin. )
F300.00000
G01 Z-0.07500
G04 P0 ( dwell for no time -- G64 should not smooth over this point )
F600.00000
X49.31080 Y50.08550
X49.31080 Y48.02810
X51.85080 Y48.02810
X51.82540 Y50.94910
X50.27600 Y50.97450
X49.31080 Y50.92370
G04 P0 ( dwell for no time -- G64 should not smooth over this point )
G00 Z0.50000 ( retract )

G00 X46.77080 Y50.08550 ( rapid move to begin. )
F300.00000
G01 Z-0.07500
G04 P0 ( dwell for no time -- G64 should not smooth over this point )
F600.00000
X46.77080 Y50.08550
X46.77080 Y48.02810
X49.31080 Y48.02810
X49.28540 Y50.94910
X47.73600 Y50.97450
X46.77080 Y50.92370
G04 P0 ( dwell for no time -- G64 should not smooth over this point )
G00 Z0.50000 ( retract )

G00 X44.23080 Y50.08550 ( rapid move to begin. )
F300.00000
G01 Z-0.07500
G04 P0 ( dwell for no time -- G64 should not smooth over this point )
F600.00000
X44.23080 Y50.08550
X44.23080 Y48.02810
X46.77080 Y48.02810
X46.74540 Y50.94910
X45.19600 Y50.97450
X44.23080 Y50.92370
G04 P0 ( dwell for no time -- G64 should not smooth over this point )
G00 Z0.50000 ( retract )

G00 X41.69080 Y50.08550 ( rapid move to begin. )
F300.00000
G01 Z-0.07500
G04 P0 ( dwell for no time -- G64 should not smooth over this point )
F600.00000
X41.69080 Y50.08550
X41.69080 Y48.02810
X44.23080 Y48.02810
X44.20540 Y50.94910
X42.65600 Y50.97450
X41.69080 Y50.92370
G04 P0 ( dwell for no time -- G64 should not smooth over this point )
G00 Z0.50000 ( retract )

G00 X39.15080 Y50.08550 ( rapid move to begin. )
F300.00000
G01 Z-0.07500
G04 P0 ( dwell for no time -- G64 should not smooth over this point )
F600.00000
X39.15080 Y50.08550
X39.15080 Y48.02810
X41.69080 Y48.02810
X41.66540 Y50.94910
X40.11600 Y50.97450
X39.15080 Y50.92370
G04 P0 ( dwell for no time -- G64 should not smooth over this point )
G00 Z0.50000 ( retract )

G00 X36.61080 Y50.08550 ( rapid move to begin. )
F300.00000
G01 Z-0.07500
G04 P0 ( dwell for no time -- G64 should not smooth over this point )
F600.00000
X36.61080 Y50.08550
X36.61080 Y48.02810
X39.15080 Y48.02810
X39.12540 Y50.94910
X37.57600 Y50.97450
X36.61080 Y50.92370
G04 P0 ( dwell for no time -- G64 should not smooth over this point )
G00 Z0.50000 ( retract )

G00 X34.07080 Y50.08550 ( rapid move to begin. )
F300.00000
G01 Z-0.07500
G04 P0 ( dwell for no time -- G64 should not smooth over this point )
F600.00000
X34.07080 Y50.08550
X34.07080 Y48.02810
X36.61080 Y48.02810
X36.58540 Y50.94910
X35.03600 Y50.97450
X34.07080 Y50.92370
G04 P0 ( dwell for no time -- G64 should not smooth over this point )
G00 Z0.50000 ( retract )

G00 X31.53080 Y50.08550 ( rapid move to begin. )
F300.00000
G01 Z-0.07500
G04 P0 ( dwell for no time -- G64 should not smooth over this point )
F600.00000
X31.53080 Y50.08550
X31.53080 Y48.02810
X34.07080 Y48.02810
X34.04540 Y50.94910
X32.49600 Y50.97450
X31.53080 Y50.92370
G04 P0 ( dwell for no time -- G64 should not smooth over this point )
G00 Z0.50000 ( retract )

G00 X28.99080 Y50.08550 ( rapid move to begin. )
F300.00000
G01 Z-0.07500
G04 P0 ( dwell for no time -- G64 should not smooth over this point )
F600.00000
X28.99080 Y50.08550
X28.99080 Y48.02810
X31.53080 Y48.02810
X31.50540 Y50.94910
X29.95600 Y50.97450
X28.99080 Y50.92370
G04 P0 ( dwell for no time -- G64 should not smooth over this point )
G00 Z0.50000 ( retract )

G00 X26.45080 Y50.08550 ( rapid move to begin. )
F300.00000
G01 Z-0.07500
G04 P0 ( dwell for no time -- G64 should not smooth over this point )
F600.00000
X26.45080 Y50.08550
X26.45080 Y48.02810
X28.99080 Y48.02810
X28.96540 Y50.94910
X27.79700 Y50.99990
X27.46680 Y51.07610
X26.50160 Y51.07610
X26.45080 Y51.02530
G04 P0 ( dwell for no time -- G64 should not smooth over this point )
G00 Z0.50000 ( retract )

G00 X23.91080 Y50.08550 ( rapid move to begin. )
F300.00000
G01 Z-0.07500
G04 P0 ( dwell for no time -- G64 should not smooth over this point )
F600.00000
X23.91080 Y50.08550
X23.91080 Y48.02810
X26.45080 Y48.02810
X26.42540 Y51.05070
X25.68880 Y50.97450
X23.91080 Y50.92370
G04 P0 ( dwell for no time -- G64 should not smooth over this point )
G00 Z0.50000 ( retract )

G00 X21.37080 Y50.08550 ( rapid move to begin. )
F300.00000
G01 Z-0.07500
G04 P0 ( dwell for no time -- G64 should not smooth over this point )
F600.00000
X21.37080 Y50.08550
X21.37080 Y48.02810
X23.91080 Y48.02810
X23.88540 Y50.94910
X23.52980 Y50.99990
X21.92960 Y50.97450
X21.37080 Y50.92370
G04 P0 ( dwell for no time -- G64 should not smooth over this point )
G00 Z0.50000 ( retract )

G00 X18.83080 Y50.08550 ( rapid move to begin. )
F300.00000
G01 Z-0.07500
G04 P0 ( dwell for no time -- G64 should not smooth over this point )
F600.00000
X18.83080 Y50.08550
X18.83080 Y48.02810
X21.37080 Y48.02810
X21.34540 Y50.94910
X20.98980 Y50.99990
X19.38960 Y50.97450
X18.83080 Y50.92370
G04 P0 ( dwell for no time -- G64 should not smooth over this point )
G00 Z0.50000 ( retract )

G00 X16.29080 Y50.08550 ( rapid move to begin. )
F300.00000
G01 Z-0.07500
G04 P0 ( dwell for no time -- G64 should not smooth over this point )
F600.00000
X16.29080 Y50.08550
X16.29080 Y48.02810
X18.83080 Y48.02810
X18.80540 Y50.94910
X18.44980 Y50.99990
X16.84960 Y50.97450
X16.29080 Y50.92370
G04 P0 ( dwell for no time -- G64 should not smooth over this point )
G00 Z0.50000 ( retract )

G00 X13.75080 Y50.08550 ( rapid move to begin. )
F300.00000
G01 Z-0.07500
G04 P0 ( dwell for no time -- G64 should not smooth over this point )
F600.00000
X13.75080 Y50.08550
X13.75080 Y48.02810
X16.29080 Y48.02810
X16.26540 Y50.94910
X15.90980 Y50.99990
X14.30960 Y50.97450
X13.75080 Y50.92370
G04 P0 ( dwell for no time -- G64 should not smooth over this point )
G00 Z0.50000 ( retract )

G00 X11.21080 Y50.08550 ( rapid move to begin. )
F300.00000
G01 Z-0.07500
G04 P0 ( dwell for no time -- G64 should not smooth over this point )
F600.00000
X11.21080 Y50.08550
X11.21080 Y48.02810
X13.75080 Y48.02810
X13.72540 Y50.94910
X13.36980 Y50.99990
X11.76960 Y50.97450
X11.21080 Y50.92370
G04 P0 ( dwell for no time -- G64 should not smooth over this point )
G00 Z0.50000 ( retract )

G00 X8.16280 Y50.08550 ( rapid move to begin. )
F300.00000
G01 Z-0.07500
G04 P0 ( dwell for no time -- G64 should not smooth over this point )
F600.00000
X8.16280 Y50.08550
X8.16280 Y48.48530
X8.21360 Y48.02810
X11.21080 Y48.02810
X11.18540 Y50.94910
X10.82980 Y50.99990
X8.64540 Y50.94910
X8.39140 Y50.89830
X8.21360 Y50.66970
X8.16280 Y50.51730
G04 P0 ( dwell for no time -- G64 should not smooth over this point )
G00 Z0.50000 ( retract )

G00 X67.09080 Y47.54550 ( rapid move to begin. )
F300.00000
G01 Z-0.07500
G04 P0 ( dwell for no time -- G64 should not smooth over this point )
F600.00000
X67.09080 Y47.54550
X67.09080 Y45.48810
X70.13880 Y45.48810
X70.13880 Y48.02810
X67.09080 Y48.02810
G04 P0 ( dwell for no time -- G64 should not smooth over this point )
G00 Z0.50000 ( retract )

G00 X64.55080 Y47.54550 ( rapid move to begin. )
F300.00000
G01 Z-0.07500
G04 P0 ( dwell for no time -- G64 should not smooth over this point )
F600.00000
X64.55080 Y47.54550
X64.55080 Y45.48810
X67.09080 Y45.48810
X67.09080 Y48.02810
X64.55080 Y48.02810
G04 P0 ( dwell for no time -- G64 should not smooth over this point )
G00 Z0.50000 ( retract )

G00 X62.01080 Y47.54550 ( rapid move to begin. )
F300.00000
G01 Z-0.07500
G04 P0 ( dwell for no time -- G64 should not smooth over this point )
F600.00000
X62.01080 Y47.54550
X62.01080 Y45.48810
X64.55080 Y45.48810
X64.55080 Y48.02810
X62.01080 Y48.02810
G04 P0 ( dwell for no time -- G64 should not smooth over this point )
G00 Z0.50000 ( retract )

G00 X59.47080 Y47.54550 ( rapid move to begin. )
F300.00000
G01 Z-0.07500
G04 P0 ( dwell for no time -- G64 should not smooth over this point )
F600.00000
X59.47080 Y47.54550
X59.47080 Y45.48810
X62.01080 Y45.48810
X62.01080 Y48.02810
X59.47080 Y48.02810
G04 P0 ( dwell for no time -- G64 should not smooth over this point )
G00 Z0.50000 ( retract )

G00 X56.93080 Y47.54550 ( rapid move to begin. )
F300.00000
G01 Z-0.07500
G04 P0 ( dwell for no time -- G64 should not smooth over this point )
F600.00000
X56.93080 Y47.54550
X56.93080 Y45.48810
X59.47080 Y45.48810
X59.47080 Y48.02810
X56.93080 Y48.02810
G04 P0 ( dwell for no time -- G64 should not smooth over this point )
G00 Z0.50000 ( retract )

G00 X54.39080 Y47.54550 ( rapid move to begin. )
F300.00000
G01 Z-0.07500
G04 P0 ( dwell for no time -- G64 should not smooth over this point )
F600.00000
X54.39080 Y47.54550
X54.39080 Y45.48810
X56.93080 Y45.48810
X56.93080 Y48.02810
X54.39080 Y48.02810
G04 P0 ( dwell for no time -- G64 should not smooth over this point )
G00 Z0.50000 ( retract )

G00 X51.85080 Y47.54550 ( rapid move to begin. )
F300.00000
G01 Z-0.07500
G04 P0 ( dwell for no time -- G64 should not smooth over this point )
F600.00000
X51.85080 Y47.54550
X51.85080 Y45.48810
X54.39080 Y45.48810
X54.39080 Y48.02810
X51.85080 Y48.02810
G04 P0 ( dwell for no time -- G64 should not smooth over this point )
G00 Z0.50000 ( retract )

G00 X49.31080 Y47.54550 ( rapid move to begin. )
F300.00000
G01 Z-0.07500
G04 P0 ( dwell for no time -- G64 should not smooth over this point )
F600.00000
X49.31080 Y47.54550
X49.31080 Y45.48810
X51.85080 Y45.48810
X51.85080 Y48.02810
X49.31080 Y48.02810
G04 P0 ( dwell for no time -- G64 should not smooth over this point )
G00 Z0.50000 ( retract )

G00 X46.77080 Y47.54550 ( rapid move to begin. )
F300.00000
G01 Z-0.07500
G04 P0 ( dwell for no time -- G64 should not smooth over this point )
F600.00000
X46.77080 Y47.54550
X46.77080 Y45.48810
X49.31080 Y45.48810
X49.31080 Y48.02810
X46.77080 Y48.02810
G04 P0 ( dwell for no time -- G64 should not smooth over this point )
G00 Z0.50000 ( retract )

G00 X44.23080 Y47.54550 ( rapid move to begin. )
F300.00000
G01 Z-0.07500
G04 P0 ( dwell for no time -- G64 should not smooth over this point )
F600.00000
X44.23080 Y47.54550
X44.23080 Y45.48810
X46.77080 Y45.48810
X46.77080 Y48.02810
X44.23080 Y48.02810
G04 P0 ( dwell for no time -- G64 should not smooth over this point )
G00 Z0.50000 ( retract )

G00 X41.69080 Y47.54550 ( rapid move to begin. )
F300.00000
G01 Z-0.07500
G04 P0 ( dwell for no time -- G64 should not smooth over this point )
F600.00000
X41.69080 Y47.54550
X41.69080 Y45.48810
X44.23080 Y45.48810
X44.23080 Y48.02810
X41.69080 Y48.02810
G04 P0 ( dwell for no time -- G64 should not smooth over this point )
G00 Z0.50000 ( retract )

G00 X39.15080 Y47.54550 ( rapid move to begin. )
F300.00000
G01 Z-0.07500
G04 P0 ( dwell for no time -- G64 should not smooth over this point )
F600.00000
X39.15080 Y47.54550
X39.15080 Y45.48810
X41.69080 Y45.48810
X41.69080 Y48.02810
X39.15080 Y48.02810
G04 P0 ( dwell for no time -- G64 should not smooth over this point )
G00 Z0.50000 ( retract )

G00 X36.61080 Y47.54550 ( rapid move to begin. )
F300.00000
G01 Z-0.07500
G04 P0 ( dwell for no time -- G64 should not smooth over this point )
F600.00000
X36.61080 Y47.54550
X36.61080 Y45.48810
X39.15080 Y45.48810
X39.15080 Y48.02810
X36.61080 Y48.02810
G04 P0 ( dwell for no time -- G64 should not smooth over this point )
G00 Z0.50000 ( retract )

G00 X34.07080 Y47.54550 ( rapid move to begin. )
F300.00000
G01 Z-0.07500
G04 P0 ( dwell for no time -- G64 should not smooth over this point )
F600.00000
X34.07080 Y47.54550
X34.07080 Y45.48810
X36.61080 Y45.48810
X36.61080 Y48.02810
X34.07080 Y48.02810
G04 P0 ( dwell for no time -- G64 should not smooth over this point )
G00 Z0.50000 ( retract )

G00 X31.53080 Y47.54550 ( rapid move to begin. )
F300.00000
G01 Z-0.07500
G04 P0 ( dwell for no time -- G64 should not smooth over this point )
F600.00000
X31.53080 Y47.54550
X31.53080 Y45.48810
X34.07080 Y45.48810
X34.07080 Y48.02810
X31.53080 Y48.02810
G04 P0 ( dwell for no time -- G64 should not smooth over this point )
G00 Z0.50000 ( retract )

G00 X28.99080 Y47.54550 ( rapid move to begin. )
F300.00000
G01 Z-0.07500
G04 P0 ( dwell for no time -- G64 should not smooth over this point )
F600.00000
X28.99080 Y47.54550
X28.99080 Y45.48810
X31.53080 Y45.48810
X31.53080 Y48.02810
X28.99080 Y48.02810
G04 P0 ( dwell for no time -- G64 should not smooth over this point )
G00 Z0.50000 ( retract )

G00 X26.45080 Y47.54550 ( rapid move to begin. )
F300.00000
G01 Z-0.07500
G04 P0 ( dwell for no time -- G64 should not smooth over this point )
F600.00000
X26.45080 Y47.54550
X26.45080 Y45.48810
X28.99080 Y45.48810
X28.99080 Y48.02810
X26.45080 Y48.02810
G04 P0 ( dwell for no time -- G64 should not smooth over this point )
G00 Z0.50000 ( retract )

G00 X23.91080 Y47.54550 ( rapid move to begin. )
F300.00000
G01 Z-0.07500
G04 P0 ( dwell for no time -- G64 should not smooth over this point )
F600.00000
X23.91080 Y47.54550
X23.91080 Y45.48810
X26.45080 Y45.48810
X26.45080 Y48.02810
X23.91080 Y48.02810
G04 P0 ( dwell for no time -- G64 should not smooth over this point )
G00 Z0.50000 ( retract )

G00 X21.37080 Y47.54550 ( rapid move to begin. )
F300.00000
G01 Z-0.07500
G04 P0 ( dwell for no time -- G64 should not smooth over this point )
F600.00000
X21.37080 Y47.54550
X21.37080 Y45.48810
X23.91080 Y45.48810
X23.91080 Y48.02810
X21.37080 Y48.02810
G04 P0 ( dwell for no time -- G64 should not smooth over this point )
G00 Z0.50000 ( retract )

G00 X18.83080 Y47.54550 ( rapid move to begin. )
F300.00000
G01 Z-0.07500
G04 P0 ( dwell for no time -- G64 should not smooth over this point )
F600.00000
X18.83080 Y47.54550
X18.83080 Y45.48810
X21.37080 Y45.48810
X21.37080 Y48.02810
X18.83080 Y48.02810
G04 P0 ( dwell for no time -- G64 should not smooth over this point )
G00 Z0.50000 ( retract )

G00 X16.29080 Y47.54550 ( rapid move to begin. )
F300.00000
G01 Z-0.07500
G04 P0 ( dwell for no time -- G64 should not smooth over this point )
F600.00000
X16.29080 Y47.54550
X16.29080 Y45.48810
X18.83080 Y45.48810
X18.83080 Y48.02810
X16.29080 Y48.02810
G04 P0 ( dwell for no time -- G64 should not smooth over this point )
G00 Z0.50000 ( retract )

G00 X13.75080 Y47.54550 ( rapid move to begin. )
F300.00000
G01 Z-0.07500
G04 P0 ( dwell for no time -- G64 should not smooth over this point )
F600.00000
X13.75080 Y47.54550
X13.75080 Y45.48810
X16.29080 Y45.48810
X16.29080 Y48.02810
X13.75080 Y48.02810
G04 P0 ( dwell for no time -- G64 should not smooth over this point )
G00 Z0.50000 ( retract )

G00 X11.21080 Y47.54550 ( rapid move to begin. )
F300.00000
G01 Z-0.07500
G04 P0 ( dwell for no time -- G64 should not smooth over this point )
F600.00000
X11.21080 Y47.54550
X11.21080 Y45.48810
X13.75080 Y45.48810
X13.75080 Y48.02810
X11.21080 Y48.02810
G04 P0 ( dwell for no time -- G64 should not smooth over this point )
G00 Z0.50000 ( retract )

G00 X8.16280 Y47.54550 ( rapid move to begin. )
F300.00000
G01 Z-0.07500
G04 P0 ( dwell for no time -- G64 should not smooth over this point )
F600.00000
X8.16280 Y47.54550
X8.16280 Y45.94530
X8.21360 Y45.48810
X11.21080 Y45.48810
X11.21080 Y48.02810
X8.18820 Y48.00270
G04 P0 ( dwell for no time -- G64 should not smooth over this point )
G00 Z0.50000 ( retract )

G00 X67.09080 Y45.00550 ( rapid move to begin. )
F300.00000
G01 Z-0.07500
G04 P0 ( dwell for no time -- G64 should not smooth over this point )
F600.00000
X67.09080 Y45.00550
X67.09080 Y42.94810
X70.13880 Y42.94810
X70.13880 Y45.48810
X67.09080 Y45.48810
G04 P0 ( dwell for no time -- G64 should not smooth over this point )
G00 Z0.50000 ( retract )

G00 X64.55080 Y45.00550 ( rapid move to begin. )
F300.00000
G01 Z-0.07500
G04 P0 ( dwell for no time -- G64 should not smooth over this point )
F600.00000
X64.55080 Y45.00550
X64.55080 Y42.94810
X67.09080 Y42.94810
X67.09080 Y45.48810
X64.55080 Y45.48810
G04 P0 ( dwell for no time -- G64 should not smooth over this point )
G00 Z0.50000 ( retract )

G00 X62.01080 Y45.00550 ( rapid move to begin. )
F300.00000
G01 Z-0.07500
G04 P0 ( dwell for no time -- G64 should not smooth over this point )
F600.00000
X62.01080 Y45.00550
X62.01080 Y42.94810
X64.55080 Y42.94810
X64.55080 Y45.48810
X62.01080 Y45.48810
G04 P0 ( dwell for no time -- G64 should not smooth over this point )
G00 Z0.50000 ( retract )

G00 X59.47080 Y45.00550 ( rapid move to begin. )
F300.00000
G01 Z-0.07500
G04 P0 ( dwell for no time -- G64 should not smooth over this point )
F600.00000
X59.47080 Y45.00550
X59.47080 Y42.94810
X62.01080 Y42.94810
X62.01080 Y45.48810
X59.47080 Y45.48810
G04 P0 ( dwell for no time -- G64 should not smooth over this point )
G00 Z0.50000 ( retract )

G00 X56.93080 Y45.00550 ( rapid move to begin. )
F300.00000
G01 Z-0.07500
G04 P0 ( dwell for no time -- G64 should not smooth over this point )
F600.00000
X56.93080 Y45.00550
X56.93080 Y42.94810
X59.47080 Y42.94810
X59.47080 Y45.48810
X56.93080 Y45.48810
G04 P0 ( dwell for no time -- G64 should not smooth over this point )
G00 Z0.50000 ( retract )

G00 X54.39080 Y45.00550 ( rapid move to begin. )
F300.00000
G01 Z-0.07500
G04 P0 ( dwell for no time -- G64 should not smooth over this point )
F600.00000
X54.39080 Y45.00550
X54.39080 Y42.94810
X56.93080 Y42.94810
X56.93080 Y45.48810
X54.39080 Y45.48810
G04 P0 ( dwell for no time -- G64 should not smooth over this point )
G00 Z0.50000 ( retract )

G00 X51.85080 Y45.00550 ( rapid move to begin. )
F300.00000
G01 Z-0.07500
G04 P0 ( dwell for no time -- G64 should not smooth over this point )
F600.00000
X51.85080 Y45.00550
X51.85080 Y42.94810
X54.39080 Y42.94810
X54.39080 Y45.48810
X51.85080 Y45.48810
G04 P0 ( dwell for no time -- G64 should not smooth over this point )
G00 Z0.50000 ( retract )

G00 X49.31080 Y45.00550 ( rapid move to begin. )
F300.00000
G01 Z-0.07500
G04 P0 ( dwell for no time -- G64 should not smooth over this point )
F600.00000
X49.31080 Y45.00550
X49.31080 Y42.94810
X51.85080 Y42.94810
X51.85080 Y45.48810
X49.31080 Y45.48810
G04 P0 ( dwell for no time -- G64 should not smooth over this point )
G00 Z0.50000 ( retract )

G00 X46.77080 Y45.00550 ( rapid move to begin. )
F300.00000
G01 Z-0.07500
G04 P0 ( dwell for no time -- G64 should not smooth over this point )
F600.00000
X46.77080 Y45.00550
X46.77080 Y42.94810
X49.31080 Y42.94810
X49.31080 Y45.48810
X46.77080 Y45.48810
G04 P0 ( dwell for no time -- G64 should not smooth over this point )
G00 Z0.50000 ( retract )

G00 X44.23080 Y45.00550 ( rapid move to begin. )
F300.00000
G01 Z-0.07500
G04 P0 ( dwell for no time -- G64 should not smooth over this point )
F600.00000
X44.23080 Y45.00550
X44.23080 Y42.94810
X46.77080 Y42.94810
X46.77080 Y45.48810
X44.23080 Y45.48810
G04 P0 ( dwell for no time -- G64 should not smooth over this point )
G00 Z0.50000 ( retract )

G00 X41.69080 Y45.00550 ( rapid move to begin. )
F300.00000
G01 Z-0.07500
G04 P0 ( dwell for no time -- G64 should not smooth over this point )
F600.00000
X41.69080 Y45.00550
X41.69080 Y42.94810
X44.23080 Y42.94810
X44.23080 Y45.48810
X41.69080 Y45.48810
G04 P0 ( dwell for no time -- G64 should not smooth over this point )
G00 Z0.50000 ( retract )

G00 X39.15080 Y45.00550 ( rapid move to begin. )
F300.00000
G01 Z-0.07500
G04 P0 ( dwell for no time -- G64 should not smooth over this point )
F600.00000
X39.15080 Y45.00550
X39.15080 Y42.94810
X41.69080 Y42.94810
X41.69080 Y45.48810
X39.15080 Y45.48810
G04 P0 ( dwell for no time -- G64 should not smooth over this point )
G00 Z0.50000 ( retract )

G00 X36.61080 Y45.00550 ( rapid move to begin. )
F300.00000
G01 Z-0.07500
G04 P0 ( dwell for no time -- G64 should not smooth over this point )
F600.00000
X36.61080 Y45.00550
X36.61080 Y42.94810
X39.15080 Y42.94810
X39.15080 Y45.48810
X36.61080 Y45.48810
G04 P0 ( dwell for no time -- G64 should not smooth over this point )
G00 Z0.50000 ( retract )

G00 X34.07080 Y45.00550 ( rapid move to begin. )
F300.00000
G01 Z-0.07500
G04 P0 ( dwell for no time -- G64 should not smooth over this point )
F600.00000
X34.07080 Y45.00550
X34.07080 Y42.94810
X36.61080 Y42.94810
X36.61080 Y45.48810
X34.07080 Y45.48810
G04 P0 ( dwell for no time -- G64 should not smooth over this point )
G00 Z0.50000 ( retract )

G00 X31.53080 Y45.00550 ( rapid move to begin. )
F300.00000
G01 Z-0.07500
G04 P0 ( dwell for no time -- G64 should not smooth over this point )
F600.00000
X31.53080 Y45.00550
X31.53080 Y42.94810
X34.07080 Y42.94810
X34.07080 Y45.48810
X31.53080 Y45.48810
G04 P0 ( dwell for no time -- G64 should not smooth over this point )
G00 Z0.50000 ( retract )

G00 X28.99080 Y45.00550 ( rapid move to begin. )
F300.00000
G01 Z-0.07500
G04 P0 ( dwell for no time -- G64 should not smooth over this point )
F600.00000
X28.99080 Y45.00550
X28.99080 Y42.94810
X31.53080 Y42.94810
X31.53080 Y45.48810
X28.99080 Y45.48810
G04 P0 ( dwell for no time -- G64 should not smooth over this point )
G00 Z0.50000 ( retract )

G00 X26.45080 Y45.00550 ( rapid move to begin. )
F300.00000
G01 Z-0.07500
G04 P0 ( dwell for no time -- G64 should not smooth over this point )
F600.00000
X26.45080 Y45.00550
X26.45080 Y42.94810
X28.99080 Y42.94810
X28.99080 Y45.48810
X26.45080 Y45.48810
G04 P0 ( dwell for no time -- G64 should not smooth over this point )
G00 Z0.50000 ( retract )

G00 X23.91080 Y45.00550 ( rapid move to begin. )
F300.00000
G01 Z-0.07500
G04 P0 ( dwell for no time -- G64 should not smooth over this point )
F600.00000
X23.91080 Y45.00550
X23.91080 Y42.94810
X26.45080 Y42.94810
X26.45080 Y45.48810
X23.91080 Y45.48810
G04 P0 ( dwell for no time -- G64 should not smooth over this point )
G00 Z0.50000 ( retract )

G00 X21.37080 Y45.00550 ( rapid move to begin. )
F300.00000
G01 Z-0.07500
G04 P0 ( dwell for no time -- G64 should not smooth over this point )
F600.00000
X21.37080 Y45.00550
X21.37080 Y42.94810
X23.91080 Y42.94810
X23.91080 Y45.48810
X21.37080 Y45.48810
G04 P0 ( dwell for no time -- G64 should not smooth over this point )
G00 Z0.50000 ( retract )

G00 X18.83080 Y45.00550 ( rapid move to begin. )
F300.00000
G01 Z-0.07500
G04 P0 ( dwell for no time -- G64 should not smooth over this point )
F600.00000
X18.83080 Y45.00550
X18.83080 Y42.94810
X21.37080 Y42.94810
X21.37080 Y45.48810
X18.83080 Y45.48810
G04 P0 ( dwell for no time -- G64 should not smooth over this point )
G00 Z0.50000 ( retract )

G00 X16.29080 Y45.00550 ( rapid move to begin. )
F300.00000
G01 Z-0.07500
G04 P0 ( dwell for no time -- G64 should not smooth over this point )
F600.00000
X16.29080 Y45.00550
X16.29080 Y42.94810
X18.83080 Y42.94810
X18.83080 Y45.48810
X16.29080 Y45.48810
G04 P0 ( dwell for no time -- G64 should not smooth over this point )
G00 Z0.50000 ( retract )

G00 X13.75080 Y45.00550 ( rapid move to begin. )
F300.00000
G01 Z-0.07500
G04 P0 ( dwell for no time -- G64 should not smooth over this point )
F600.00000
X13.75080 Y45.00550
X13.75080 Y42.94810
X16.29080 Y42.94810
X16.29080 Y45.48810
X13.75080 Y45.48810
G04 P0 ( dwell for no time -- G64 should not smooth over this point )
G00 Z0.50000 ( retract )

G00 X11.21080 Y45.00550 ( rapid move to begin. )
F300.00000
G01 Z-0.07500
G04 P0 ( dwell for no time -- G64 should not smooth over this point )
F600.00000
X11.21080 Y45.00550
X11.21080 Y42.94810
X13.75080 Y42.94810
X13.75080 Y45.48810
X11.21080 Y45.48810
G04 P0 ( dwell for no time -- G64 should not smooth over this point )
G00 Z0.50000 ( retract )

G00 X8.16280 Y45.00550 ( rapid move to begin. )
F300.00000
G01 Z-0.07500
G04 P0 ( dwell for no time -- G64 should not smooth over this point )
F600.00000
X8.16280 Y45.00550
X8.16280 Y43.40530
X8.21360 Y42.94810
X11.21080 Y42.94810
X11.21080 Y45.48810
X8.18820 Y45.46270
G04 P0 ( dwell for no time -- G64 should not smooth over this point )
G00 Z0.50000 ( retract )

G00 X67.09080 Y42.46550 ( rapid move to begin. )
F300.00000
G01 Z-0.07500
G04 P0 ( dwell for no time -- G64 should not smooth over this point )
F600.00000
X67.09080 Y42.46550
X67.09080 Y40.40810
X70.13880 Y40.40810
X70.13880 Y42.94810
X67.09080 Y42.94810
G04 P0 ( dwell for no time -- G64 should not smooth over this point )
G00 Z0.50000 ( retract )

G00 X64.55080 Y42.46550 ( rapid move to begin. )
F300.00000
G01 Z-0.07500
G04 P0 ( dwell for no time -- G64 should not smooth over this point )
F600.00000
X64.55080 Y42.46550
X64.55080 Y40.40810
X67.09080 Y40.40810
X67.09080 Y42.94810
X64.55080 Y42.94810
G04 P0 ( dwell for no time -- G64 should not smooth over this point )
G00 Z0.50000 ( retract )

G00 X62.01080 Y42.46550 ( rapid move to begin. )
F300.00000
G01 Z-0.07500
G04 P0 ( dwell for no time -- G64 should not smooth over this point )
F600.00000
X62.01080 Y42.46550
X62.01080 Y40.40810
X64.55080 Y40.40810
X64.55080 Y42.94810
X62.01080 Y42.94810
G04 P0 ( dwell for no time -- G64 should not smooth over this point )
G00 Z0.50000 ( retract )

G00 X59.47080 Y42.46550 ( rapid move to begin. )
F300.00000
G01 Z-0.07500
G04 P0 ( dwell for no time -- G64 should not smooth over this point )
F600.00000
X59.47080 Y42.46550
X59.47080 Y40.40810
X62.01080 Y40.40810
X62.01080 Y42.94810
X59.47080 Y42.94810
G04 P0 ( dwell for no time -- G64 should not smooth over this point )
G00 Z0.50000 ( retract )

G00 X56.93080 Y42.46550 ( rapid move to begin. )
F300.00000
G01 Z-0.07500
G04 P0 ( dwell for no time -- G64 should not smooth over this point )
F600.00000
X56.93080 Y42.46550
X56.93080 Y40.40810
X59.47080 Y40.40810
X59.47080 Y42.94810
X56.93080 Y42.94810
G04 P0 ( dwell for no time -- G64 should not smooth over this point )
G00 Z0.50000 ( retract )

G00 X54.39080 Y42.46550 ( rapid move to begin. )
F300.00000
G01 Z-0.07500
G04 P0 ( dwell for no time -- G64 should not smooth over this point )
F600.00000
X54.39080 Y42.46550
X54.39080 Y40.40810
X56.93080 Y40.40810
X56.93080 Y42.94810
X54.39080 Y42.94810
G04 P0 ( dwell for no time -- G64 should not smooth over this point )
G00 Z0.50000 ( retract )

G00 X51.85080 Y42.46550 ( rapid move to begin. )
F300.00000
G01 Z-0.07500
G04 P0 ( dwell for no time -- G64 should not smooth over this point )
F600.00000
X51.85080 Y42.46550
X51.85080 Y40.40810
X54.39080 Y40.40810
X54.39080 Y42.94810
X51.85080 Y42.94810
G04 P0 ( dwell for no time -- G64 should not smooth over this point )
G00 Z0.50000 ( retract )

G00 X49.31080 Y42.46550 ( rapid move to begin. )
F300.00000
G01 Z-0.07500
G04 P0 ( dwell for no time -- G64 should not smooth over this point )
F600.00000
X49.31080 Y42.46550
X49.31080 Y40.40810
X51.85080 Y40.40810
X51.85080 Y42.94810
X49.31080 Y42.94810
G04 P0 ( dwell for no time -- G64 should not smooth over this point )
G00 Z0.50000 ( retract )

G00 X46.77080 Y42.46550 ( rapid move to begin. )
F300.00000
G01 Z-0.07500
G04 P0 ( dwell for no time -- G64 should not smooth over this point )
F600.00000
X46.77080 Y42.46550
X46.77080 Y40.40810
X49.31080 Y40.40810
X49.31080 Y42.94810
X46.77080 Y42.94810
G04 P0 ( dwell for no time -- G64 should not smooth over this point )
G00 Z0.50000 ( retract )

G00 X44.23080 Y42.46550 ( rapid move to begin. )
F300.00000
G01 Z-0.07500
G04 P0 ( dwell for no time -- G64 should not smooth over this point )
F600.00000
X44.23080 Y42.46550
X44.23080 Y40.40810
X46.77080 Y40.40810
X46.77080 Y42.94810
X44.23080 Y42.94810
G04 P0 ( dwell for no time -- G64 should not smooth over this point )
G00 Z0.50000 ( retract )

G00 X41.69080 Y42.46550 ( rapid move to begin. )
F300.00000
G01 Z-0.07500
G04 P0 ( dwell for no time -- G64 should not smooth over this point )
F600.00000
X41.69080 Y42.46550
X41.69080 Y40.40810
X44.23080 Y40.40810
X44.23080 Y42.94810
X41.69080 Y42.94810
G04 P0 ( dwell for no time -- G64 should not smooth over this point )
G00 Z0.50000 ( retract )

G00 X39.15080 Y42.46550 ( rapid move to begin. )
F300.00000
G01 Z-0.07500
G04 P0 ( dwell for no time -- G64 should not smooth over this point )
F600.00000
X39.15080 Y42.46550
X39.15080 Y40.40810
X41.69080 Y40.40810
X41.69080 Y42.94810
X39.15080 Y42.94810
G04 P0 ( dwell for no time -- G64 should not smooth over this point )
G00 Z0.50000 ( retract )

G00 X36.61080 Y42.46550 ( rapid move to begin. )
F300.00000
G01 Z-0.07500
G04 P0 ( dwell for no time -- G64 should not smooth over this point )
F600.00000
X36.61080 Y42.46550
X36.61080 Y40.40810
X39.15080 Y40.40810
X39.15080 Y42.94810
X36.61080 Y42.94810
G04 P0 ( dwell for no time -- G64 should not smooth over this point )
G00 Z0.50000 ( retract )

G00 X34.07080 Y42.46550 ( rapid move to begin. )
F300.00000
G01 Z-0.07500
G04 P0 ( dwell for no time -- G64 should not smooth over this point )
F600.00000
X34.07080 Y42.46550
X34.07080 Y40.40810
X36.61080 Y40.40810
X36.61080 Y42.94810
X34.07080 Y42.94810
G04 P0 ( dwell for no time -- G64 should not smooth over this point )
G00 Z0.50000 ( retract )

G00 X31.53080 Y42.46550 ( rapid move to begin. )
F300.00000
G01 Z-0.07500
G04 P0 ( dwell for no time -- G64 should not smooth over this point )
F600.00000
X31.53080 Y42.46550
X31.53080 Y40.40810
X34.07080 Y40.40810
X34.07080 Y42.94810
X31.53080 Y42.94810
G04 P0 ( dwell for no time -- G64 should not smooth over this point )
G00 Z0.50000 ( retract )

G00 X28.99080 Y42.46550 ( rapid move to begin. )
F300.00000
G01 Z-0.07500
G04 P0 ( dwell for no time -- G64 should not smooth over this point )
F600.00000
X28.99080 Y42.46550
X28.99080 Y40.40810
X31.53080 Y40.40810
X31.53080 Y42.94810
X28.99080 Y42.94810
G04 P0 ( dwell for no time -- G64 should not smooth over this point )
G00 Z0.50000 ( retract )

G00 X26.45080 Y42.46550 ( rapid move to begin. )
F300.00000
G01 Z-0.07500
G04 P0 ( dwell for no time -- G64 should not smooth over this point )
F600.00000
X26.45080 Y42.46550
X26.45080 Y40.40810
X28.99080 Y40.40810
X28.99080 Y42.94810
X26.45080 Y42.94810
G04 P0 ( dwell for no time -- G64 should not smooth over this point )
G00 Z0.50000 ( retract )

G00 X23.91080 Y42.46550 ( rapid move to begin. )
F300.00000
G01 Z-0.07500
G04 P0 ( dwell for no time -- G64 should not smooth over this point )
F600.00000
X23.91080 Y42.46550
X23.91080 Y40.40810
X26.45080 Y40.40810
X26.45080 Y42.94810
X23.91080 Y42.94810
G04 P0 ( dwell for no time -- G64 should not smooth over this point )
G00 Z0.50000 ( retract )

G00 X21.37080 Y42.46550 ( rapid move to begin. )
F300.00000
G01 Z-0.07500
G04 P0 ( dwell for no time -- G64 should not smooth over this point )
F600.00000
X21.37080 Y42.46550
X21.37080 Y40.40810
X23.91080 Y40.40810
X23.91080 Y42.94810
X21.37080 Y42.94810
G04 P0 ( dwell for no time -- G64 should not smooth over this point )
G00 Z0.50000 ( retract )

G00 X18.83080 Y42.46550 ( rapid move to begin. )
F300.00000
G01 Z-0.07500
G04 P0 ( dwell for no time -- G64 should not smooth over this point )
F600.00000
X18.83080 Y42.46550
X18.83080 Y40.40810
X21.37080 Y40.40810
X21.37080 Y42.94810
X18.83080 Y42.94810
G04 P0 ( dwell for no time -- G64 should not smooth over this point )
G00 Z0.50000 ( retract )

G00 X16.29080 Y42.46550 ( rapid move to begin. )
F300.00000
G01 Z-0.07500
G04 P0 ( dwell for no time -- G64 should not smooth over this point )
F600.00000
X16.29080 Y42.46550
X16.29080 Y40.40810
X18.83080 Y40.40810
X18.83080 Y42.94810
X16.29080 Y42.94810
G04 P0 ( dwell for no time -- G64 should not smooth over this point )
G00 Z0.50000 ( retract )

G00 X13.75080 Y42.46550 ( rapid move to begin. )
F300.00000
G01 Z-0.07500
G04 P0 ( dwell for no time -- G64 should not smooth over this point )
F600.00000
X13.75080 Y42.46550
X13.75080 Y40.40810
X16.29080 Y40.40810
X16.29080 Y42.94810
X13.75080 Y42.94810
G04 P0 ( dwell for no time -- G64 should not smooth over this point )
G00 Z0.50000 ( retract )

G00 X11.21080 Y42.46550 ( rapid move to begin. )
F300.00000
G01 Z-0.07500
G04 P0 ( dwell for no time -- G64 should not smooth over this point )
F600.00000
X11.21080 Y42.46550
X11.21080 Y40.40810
X13.75080 Y40.40810
X13.75080 Y42.94810
X11.21080 Y42.94810
G04 P0 ( dwell for no time -- G64 should not smooth over this point )
G00 Z0.50000 ( retract )

G00 X8.16280 Y42.46550 ( rapid move to begin. )
F300.00000
G01 Z-0.07500
G04 P0 ( dwell for no time -- G64 should not smooth over this point )
F600.00000
X8.16280 Y42.46550
X8.16280 Y40.86530
X8.21360 Y40.40810
X11.21080 Y40.40810
X11.21080 Y42.94810
X8.18820 Y42.92270
G04 P0 ( dwell for no time -- G64 should not smooth over this point )
G00 Z0.50000 ( retract )

G00 X67.09080 Y39.92550 ( rapid move to begin. )
F300.00000
G01 Z-0.07500
G04 P0 ( dwell for no time -- G64 should not smooth over this point )
F600.00000
X67.09080 Y39.92550
X67.09080 Y37.86810
X70.13880 Y37.86810
X70.13880 Y40.40810
X67.09080 Y40.40810
G04 P0 ( dwell for no time -- G64 should not smooth over this point )
G00 Z0.50000 ( retract )

G00 X64.55080 Y39.92550 ( rapid move to begin. )
F300.00000
G01 Z-0.07500
G04 P0 ( dwell for no time -- G64 should not smooth over this point )
F600.00000
X64.55080 Y39.92550
X64.55080 Y37.86810
X67.09080 Y37.86810
X67.09080 Y40.40810
X64.55080 Y40.40810
G04 P0 ( dwell for no time -- G64 should not smooth over this point )
G00 Z0.50000 ( retract )

G00 X62.01080 Y39.92550 ( rapid move to begin. )
F300.00000
G01 Z-0.07500
G04 P0 ( dwell for no time -- G64 should not smooth over this point )
F600.00000
X62.01080 Y39.92550
X62.01080 Y37.86810
X64.55080 Y37.86810
X64.55080 Y40.40810
X62.01080 Y40.40810
G04 P0 ( dwell for no time -- G64 should not smooth over this point )
G00 Z0.50000 ( retract )

G00 X59.47080 Y39.92550 ( rapid move to begin. )
F300.00000
G01 Z-0.07500
G04 P0 ( dwell for no time -- G64 should not smooth over this point )
F600.00000
X59.47080 Y39.92550
X59.47080 Y37.86810
X62.01080 Y37.86810
X62.01080 Y40.40810
X59.47080 Y40.40810
G04 P0 ( dwell for no time -- G64 should not smooth over this point )
G00 Z0.50000 ( retract )

G00 X56.93080 Y39.92550 ( rapid move to begin. )
F300.00000
G01 Z-0.07500
G04 P0 ( dwell for no time -- G64 should not smooth over this point )
F600.00000
X56.93080 Y39.92550
X56.93080 Y37.86810
X59.47080 Y37.86810
X59.47080 Y40.40810
X56.93080 Y40.40810
G04 P0 ( dwell for no time -- G64 should not smooth over this point )
G00 Z0.50000 ( retract )

G00 X54.39080 Y39.92550 ( rapid move to begin. )
F300.00000
G01 Z-0.07500
G04 P0 ( dwell for no time -- G64 should not smooth over this point )
F600.00000
X54.39080 Y39.92550
X54.39080 Y37.86810
X56.93080 Y37.86810
X56.93080 Y40.40810
X54.39080 Y40.40810
G04 P0 ( dwell for no time -- G64 should not smooth over this point )
G00 Z0.50000 ( retract )

G00 X51.85080 Y39.92550 ( rapid move to begin. )
F300.00000
G01 Z-0.07500
G04 P0 ( dwell for no time -- G64 should not smooth over this point )
F600.00000
X51.85080 Y39.92550
X51.85080 Y37.86810
X54.39080 Y37.86810
X54.39080 Y40.40810
X51.85080 Y40.40810
G04 P0 ( dwell for no time -- G64 should not smooth over this point )
G00 Z0.50000 ( retract )

G00 X49.31080 Y39.92550 ( rapid move to begin. )
F300.00000
G01 Z-0.07500
G04 P0 ( dwell for no time -- G64 should not smooth over this point )
F600.00000
X49.31080 Y39.92550
X49.31080 Y37.86810
X51.85080 Y37.86810
X51.85080 Y40.40810
X49.31080 Y40.40810
G04 P0 ( dwell for no time -- G64 should not smooth over this point )
G00 Z0.50000 ( retract )

G00 X46.77080 Y39.92550 ( rapid move to begin. )
F300.00000
G01 Z-0.07500
G04 P0 ( dwell for no time -- G64 should not smooth over this point )
F600.00000
X46.77080 Y39.92550
X46.77080 Y37.86810
X49.31080 Y37.86810
X49.31080 Y40.40810
X46.77080 Y40.40810
G04 P0 ( dwell for no time -- G64 should not smooth over this point )
G00 Z0.50000 ( retract )

G00 X44.23080 Y39.92550 ( rapid move to begin. )
F300.00000
G01 Z-0.07500
G04 P0 ( dwell for no time -- G64 should not smooth over this point )
F600.00000
X44.23080 Y39.92550
X44.23080 Y37.86810
X46.77080 Y37.86810
X46.77080 Y40.40810
X44.23080 Y40.40810
G04 P0 ( dwell for no time -- G64 should not smooth over this point )
G00 Z0.50000 ( retract )

G00 X41.69080 Y39.92550 ( rapid move to begin. )
F300.00000
G01 Z-0.07500
G04 P0 ( dwell for no time -- G64 should not smooth over this point )
F600.00000
X41.69080 Y39.92550
X41.69080 Y37.86810
X44.23080 Y37.86810
X44.23080 Y40.40810
X41.69080 Y40.40810
G04 P0 ( dwell for no time -- G64 should not smooth over this point )
G00 Z0.50000 ( retract )

G00 X39.15080 Y39.92550 ( rapid move to begin. )
F300.00000
G01 Z-0.07500
G04 P0 ( dwell for no time -- G64 should not smooth over this point )
F600.00000
X39.15080 Y39.92550
X39.15080 Y37.86810
X41.69080 Y37.86810
X41.69080 Y40.40810
X39.15080 Y40.40810
G04 P0 ( dwell for no time -- G64 should not smooth over this point )
G00 Z0.50000 ( retract )

G00 X36.61080 Y39.92550 ( rapid move to begin. )
F300.00000
G01 Z-0.07500
G04 P0 ( dwell for no time -- G64 should not smooth over this point )
F600.00000
X36.61080 Y39.92550
X36.61080 Y37.86810
X39.15080 Y37.86810
X39.15080 Y40.40810
X36.61080 Y40.40810
G04 P0 ( dwell for no time -- G64 should not smooth over this point )
G00 Z0.50000 ( retract )

G00 X34.07080 Y39.92550 ( rapid move to begin. )
F300.00000
G01 Z-0.07500
G04 P0 ( dwell for no time -- G64 should not smooth over this point )
F600.00000
X34.07080 Y39.92550
X34.07080 Y37.86810
X36.61080 Y37.86810
X36.61080 Y40.40810
X34.07080 Y40.40810
G04 P0 ( dwell for no time -- G64 should not smooth over this point )
G00 Z0.50000 ( retract )

G00 X31.53080 Y39.92550 ( rapid move to begin. )
F300.00000
G01 Z-0.07500
G04 P0 ( dwell for no time -- G64 should not smooth over this point )
F600.00000
X31.53080 Y39.92550
X31.53080 Y37.86810
X34.07080 Y37.86810
X34.07080 Y40.40810
X31.53080 Y40.40810
G04 P0 ( dwell for no time -- G64 should not smooth over this point )
G00 Z0.50000 ( retract )

G00 X28.99080 Y39.92550 ( rapid move to begin. )
F300.00000
G01 Z-0.07500
G04 P0 ( dwell for no time -- G64 should not smooth over this point )
F600.00000
X28.99080 Y39.92550
X28.99080 Y37.86810
X31.53080 Y37.86810
X31.53080 Y40.40810
X28.99080 Y40.40810
G04 P0 ( dwell for no time -- G64 should not smooth over this point )
G00 Z0.50000 ( retract )

G00 X26.45080 Y39.92550 ( rapid move to begin. )
F300.00000
G01 Z-0.07500
G04 P0 ( dwell for no time -- G64 should not smooth over this point )
F600.00000
X26.45080 Y39.92550
X26.45080 Y37.86810
X28.99080 Y37.86810
X28.99080 Y40.40810
X26.45080 Y40.40810
G04 P0 ( dwell for no time -- G64 should not smooth over this point )
G00 Z0.50000 ( retract )

G00 X23.91080 Y39.92550 ( rapid move to begin. )
F300.00000
G01 Z-0.07500
G04 P0 ( dwell for no time -- G64 should not smooth over this point )
F600.00000
X23.91080 Y39.92550
X23.91080 Y37.86810
X26.45080 Y37.86810
X26.45080 Y40.40810
X23.91080 Y40.40810
G04 P0 ( dwell for no time -- G64 should not smooth over this point )
G00 Z0.50000 ( retract )

G00 X21.37080 Y39.92550 ( rapid move to begin. )
F300.00000
G01 Z-0.07500
G04 P0 ( dwell for no time -- G64 should not smooth over this point )
F600.00000
X21.37080 Y39.92550
X21.37080 Y37.86810
X23.91080 Y37.86810
X23.91080 Y40.40810
X21.37080 Y40.40810
G04 P0 ( dwell for no time -- G64 should not smooth over this point )
G00 Z0.50000 ( retract )

G00 X18.83080 Y39.92550 ( rapid move to begin. )
F300.00000
G01 Z-0.07500
G04 P0 ( dwell for no time -- G64 should not smooth over this point )
F600.00000
X18.83080 Y39.92550
X18.83080 Y37.86810
X21.37080 Y37.86810
X21.37080 Y40.40810
X18.83080 Y40.40810
G04 P0 ( dwell for no time -- G64 should not smooth over this point )
G00 Z0.50000 ( retract )

G00 X16.29080 Y39.92550 ( rapid move to begin. )
F300.00000
G01 Z-0.07500
G04 P0 ( dwell for no time -- G64 should not smooth over this point )
F600.00000
X16.29080 Y39.92550
X16.29080 Y37.86810
X18.83080 Y37.86810
X18.83080 Y40.40810
X16.29080 Y40.40810
G04 P0 ( dwell for no time -- G64 should not smooth over this point )
G00 Z0.50000 ( retract )

G00 X13.75080 Y39.92550 ( rapid move to begin. )
F300.00000
G01 Z-0.07500
G04 P0 ( dwell for no time -- G64 should not smooth over this point )
F600.00000
X13.75080 Y39.92550
X13.75080 Y37.86810
X16.29080 Y37.86810
X16.29080 Y40.40810
X13.75080 Y40.40810
G04 P0 ( dwell for no time -- G64 should not smooth over this point )
G00 Z0.50000 ( retract )

G00 X11.21080 Y39.92550 ( rapid move to begin. )
F300.00000
G01 Z-0.07500
G04 P0 ( dwell for no time -- G64 should not smooth over this point )
F600.00000
X11.21080 Y39.92550
X11.21080 Y37.86810
X13.75080 Y37.86810
X13.75080 Y40.40810
X11.21080 Y40.40810
G04 P0 ( dwell for no time -- G64 should not smooth over this point )
G00 Z0.50000 ( retract )

G00 X8.16280 Y39.92550 ( rapid move to begin. )
F300.00000
G01 Z-0.07500
G04 P0 ( dwell for no time -- G64 should not smooth over this point )
F600.00000
X8.16280 Y39.92550
X8.16280 Y38.32530
X8.21360 Y37.86810
X11.21080 Y37.86810
X11.21080 Y40.40810
X8.18820 Y40.38270
G04 P0 ( dwell for no time -- G64 should not smooth over this point )
G00 Z0.50000 ( retract )

G00 X67.09080 Y37.38550 ( rapid move to begin. )
F300.00000
G01 Z-0.07500
G04 P0 ( dwell for no time -- G64 should not smooth over this point )
F600.00000
X67.09080 Y37.38550
X67.09080 Y35.32810
X70.13880 Y35.32810
X70.13880 Y37.86810
X67.09080 Y37.86810
G04 P0 ( dwell for no time -- G64 should not smooth over this point )
G00 Z0.50000 ( retract )

G00 X64.55080 Y37.38550 ( rapid move to begin. )
F300.00000
G01 Z-0.07500
G04 P0 ( dwell for no time -- G64 should not smooth over this point )
F600.00000
X64.55080 Y37.38550
X64.55080 Y35.32810
X67.09080 Y35.32810
X67.09080 Y37.86810
X64.55080 Y37.86810
G04 P0 ( dwell for no time -- G64 should not smooth over this point )
G00 Z0.50000 ( retract )

G00 X62.01080 Y37.38550 ( rapid move to begin. )
F300.00000
G01 Z-0.07500
G04 P0 ( dwell for no time -- G64 should not smooth over this point )
F600.00000
X62.01080 Y37.38550
X62.01080 Y35.32810
X64.55080 Y35.32810
X64.55080 Y37.86810
X62.01080 Y37.86810
G04 P0 ( dwell for no time -- G64 should not smooth over this point )
G00 Z0.50000 ( retract )

G00 X59.47080 Y37.38550 ( rapid move to begin. )
F300.00000
G01 Z-0.07500
G04 P0 ( dwell for no time -- G64 should not smooth over this point )
F600.00000
X59.47080 Y37.38550
X59.47080 Y35.32810
X62.01080 Y35.32810
X62.01080 Y37.86810
X59.47080 Y37.86810
G04 P0 ( dwell for no time -- G64 should not smooth over this point )
G00 Z0.50000 ( retract )

G00 X56.93080 Y37.38550 ( rapid move to begin. )
F300.00000
G01 Z-0.07500
G04 P0 ( dwell for no time -- G64 should not smooth over this point )
F600.00000
X56.93080 Y37.38550
X56.93080 Y35.32810
X59.47080 Y35.32810
X59.47080 Y37.86810
X56.93080 Y37.86810
G04 P0 ( dwell for no time -- G64 should not smooth over this point )
G00 Z0.50000 ( retract )

G00 X54.39080 Y37.38550 ( rapid move to begin. )
F300.00000
G01 Z-0.07500
G04 P0 ( dwell for no time -- G64 should not smooth over this point )
F600.00000
X54.39080 Y37.38550
X54.39080 Y35.32810
X56.93080 Y35.32810
X56.93080 Y37.86810
X54.39080 Y37.86810
G04 P0 ( dwell for no time -- G64 should not smooth over this point )
G00 Z0.50000 ( retract )

G00 X51.85080 Y37.38550 ( rapid move to begin. )
F300.00000
G01 Z-0.07500
G04 P0 ( dwell for no time -- G64 should not smooth over this point )
F600.00000
X51.85080 Y37.38550
X51.85080 Y35.32810
X54.39080 Y35.32810
X54.39080 Y37.86810
X51.85080 Y37.86810
G04 P0 ( dwell for no time -- G64 should not smooth over this point )
G00 Z0.50000 ( retract )

G00 X49.31080 Y37.38550 ( rapid move to begin. )
F300.00000
G01 Z-0.07500
G04 P0 ( dwell for no time -- G64 should not smooth over this point )
F600.00000
X49.31080 Y37.38550
X49.31080 Y35.32810
X51.85080 Y35.32810
X51.85080 Y37.86810
X49.31080 Y37.86810
G04 P0 ( dwell for no time -- G64 should not smooth over this point )
G00 Z0.50000 ( retract )

G00 X46.77080 Y37.38550 ( rapid move to begin. )
F300.00000
G01 Z-0.07500
G04 P0 ( dwell for no time -- G64 should not smooth over this point )
F600.00000
X46.77080 Y37.38550
X46.77080 Y35.32810
X49.31080 Y35.32810
X49.31080 Y37.86810
X46.77080 Y37.86810
G04 P0 ( dwell for no time -- G64 should not smooth over this point )
G00 Z0.50000 ( retract )

G00 X44.23080 Y37.38550 ( rapid move to begin. )
F300.00000
G01 Z-0.07500
G04 P0 ( dwell for no time -- G64 should not smooth over this point )
F600.00000
X44.23080 Y37.38550
X44.23080 Y35.32810
X46.77080 Y35.32810
X46.77080 Y37.86810
X44.23080 Y37.86810
G04 P0 ( dwell for no time -- G64 should not smooth over this point )
G00 Z0.50000 ( retract )

G00 X41.69080 Y37.38550 ( rapid move to begin. )
F300.00000
G01 Z-0.07500
G04 P0 ( dwell for no time -- G64 should not smooth over this point )
F600.00000
X41.69080 Y37.38550
X41.69080 Y35.32810
X44.23080 Y35.32810
X44.23080 Y37.86810
X41.69080 Y37.86810
G04 P0 ( dwell for no time -- G64 should not smooth over this point )
G00 Z0.50000 ( retract )

G00 X39.15080 Y37.38550 ( rapid move to begin. )
F300.00000
G01 Z-0.07500
G04 P0 ( dwell for no time -- G64 should not smooth over this point )
F600.00000
X39.15080 Y37.38550
X39.15080 Y35.32810
X41.69080 Y35.32810
X41.69080 Y37.86810
X39.15080 Y37.86810
G04 P0 ( dwell for no time -- G64 should not smooth over this point )
G00 Z0.50000 ( retract )

G00 X36.61080 Y37.38550 ( rapid move to begin. )
F300.00000
G01 Z-0.07500
G04 P0 ( dwell for no time -- G64 should not smooth over this point )
F600.00000
X36.61080 Y37.38550
X36.61080 Y35.32810
X39.15080 Y35.32810
X39.15080 Y37.86810
X36.61080 Y37.86810
G04 P0 ( dwell for no time -- G64 should not smooth over this point )
G00 Z0.50000 ( retract )

G00 X34.07080 Y37.38550 ( rapid move to begin. )
F300.00000
G01 Z-0.07500
G04 P0 ( dwell for no time -- G64 should not smooth over this point )
F600.00000
X34.07080 Y37.38550
X34.07080 Y35.32810
X36.61080 Y35.32810
X36.61080 Y37.86810
X34.07080 Y37.86810
G04 P0 ( dwell for no time -- G64 should not smooth over this point )
G00 Z0.50000 ( retract )

G00 X31.53080 Y37.38550 ( rapid move to begin. )
F300.00000
G01 Z-0.07500
G04 P0 ( dwell for no time -- G64 should not smooth over this point )
F600.00000
X31.53080 Y37.38550
X31.53080 Y35.32810
X34.07080 Y35.32810
X34.07080 Y37.86810
X31.53080 Y37.86810
G04 P0 ( dwell for no time -- G64 should not smooth over this point )
G00 Z0.50000 ( retract )

G00 X28.99080 Y37.38550 ( rapid move to begin. )
F300.00000
G01 Z-0.07500
G04 P0 ( dwell for no time -- G64 should not smooth over this point )
F600.00000
X28.99080 Y37.38550
X28.99080 Y35.32810
X31.53080 Y35.32810
X31.53080 Y37.86810
X28.99080 Y37.86810
G04 P0 ( dwell for no time -- G64 should not smooth over this point )
G00 Z0.50000 ( retract )

G00 X26.45080 Y37.38550 ( rapid move to begin. )
F300.00000
G01 Z-0.07500
G04 P0 ( dwell for no time -- G64 should not smooth over this point )
F600.00000
X26.45080 Y37.38550
X26.45080 Y35.32810
X28.99080 Y35.32810
X28.99080 Y37.86810
X26.45080 Y37.86810
G04 P0 ( dwell for no time -- G64 should not smooth over this point )
G00 Z0.50000 ( retract )

G00 X23.91080 Y37.38550 ( rapid move to begin. )
F300.00000
G01 Z-0.07500
G04 P0 ( dwell for no time -- G64 should not smooth over this point )
F600.00000
X23.91080 Y37.38550
X23.91080 Y35.32810
X26.45080 Y35.32810
X26.45080 Y37.86810
X23.91080 Y37.86810
G04 P0 ( dwell for no time -- G64 should not smooth over this point )
G00 Z0.50000 ( retract )

G00 X21.37080 Y37.38550 ( rapid move to begin. )
F300.00000
G01 Z-0.07500
G04 P0 ( dwell for no time -- G64 should not smooth over this point )
F600.00000
X21.37080 Y37.38550
X21.37080 Y35.32810
X23.91080 Y35.32810
X23.91080 Y37.86810
X21.37080 Y37.86810
G04 P0 ( dwell for no time -- G64 should not smooth over this point )
G00 Z0.50000 ( retract )

G00 X18.83080 Y37.38550 ( rapid move to begin. )
F300.00000
G01 Z-0.07500
G04 P0 ( dwell for no time -- G64 should not smooth over this point )
F600.00000
X18.83080 Y37.38550
X18.83080 Y35.32810
X21.37080 Y35.32810
X21.37080 Y37.86810
X18.83080 Y37.86810
G04 P0 ( dwell for no time -- G64 should not smooth over this point )
G00 Z0.50000 ( retract )

G00 X16.29080 Y37.38550 ( rapid move to begin. )
F300.00000
G01 Z-0.07500
G04 P0 ( dwell for no time -- G64 should not smooth over this point )
F600.00000
X16.29080 Y37.38550
X16.29080 Y35.32810
X18.83080 Y35.32810
X18.83080 Y37.86810
X16.29080 Y37.86810
G04 P0 ( dwell for no time -- G64 should not smooth over this point )
G00 Z0.50000 ( retract )

G00 X13.75080 Y37.38550 ( rapid move to begin. )
F300.00000
G01 Z-0.07500
G04 P0 ( dwell for no time -- G64 should not smooth over this point )
F600.00000
X13.75080 Y37.38550
X13.75080 Y35.32810
X16.29080 Y35.32810
X16.29080 Y37.86810
X13.75080 Y37.86810
G04 P0 ( dwell for no time -- G64 should not smooth over this point )
G00 Z0.50000 ( retract )

G00 X11.21080 Y37.38550 ( rapid move to begin. )
F300.00000
G01 Z-0.07500
G04 P0 ( dwell for no time -- G64 should not smooth over this point )
F600.00000
X11.21080 Y37.38550
X11.21080 Y35.32810
X13.75080 Y35.32810
X13.75080 Y37.86810
X11.21080 Y37.86810
G04 P0 ( dwell for no time -- G64 should not smooth over this point )
G00 Z0.50000 ( retract )

G00 X8.16280 Y37.38550 ( rapid move to begin. )
F300.00000
G01 Z-0.07500
G04 P0 ( dwell for no time -- G64 should not smooth over this point )
F600.00000
X8.16280 Y37.38550
X8.16280 Y35.78530
X8.21360 Y35.32810
X11.21080 Y35.32810
X11.21080 Y37.86810
X8.18820 Y37.84270
G04 P0 ( dwell for no time -- G64 should not smooth over this point )
G00 Z0.50000 ( retract )

G00 X67.09080 Y34.84550 ( rapid move to begin. )
F300.00000
G01 Z-0.07500
G04 P0 ( dwell for no time -- G64 should not smooth over this point )
F600.00000
X67.09080 Y34.84550
X67.09080 Y32.78810
X70.13880 Y32.78810
X70.13880 Y35.32810
X67.09080 Y35.32810
G04 P0 ( dwell for no time -- G64 should not smooth over this point )
G00 Z0.50000 ( retract )

G00 X64.55080 Y34.84550 ( rapid move to begin. )
F300.00000
G01 Z-0.07500
G04 P0 ( dwell for no time -- G64 should not smooth over this point )
F600.00000
X64.55080 Y34.84550
X64.55080 Y32.78810
X67.09080 Y32.78810
X67.09080 Y35.32810
X64.55080 Y35.32810
G04 P0 ( dwell for no time -- G64 should not smooth over this point )
G00 Z0.50000 ( retract )

G00 X62.01080 Y34.84550 ( rapid move to begin. )
F300.00000
G01 Z-0.07500
G04 P0 ( dwell for no time -- G64 should not smooth over this point )
F600.00000
X62.01080 Y34.84550
X62.01080 Y32.78810
X64.55080 Y32.78810
X64.55080 Y35.32810
X62.01080 Y35.32810
G04 P0 ( dwell for no time -- G64 should not smooth over this point )
G00 Z0.50000 ( retract )

G00 X59.47080 Y34.84550 ( rapid move to begin. )
F300.00000
G01 Z-0.07500
G04 P0 ( dwell for no time -- G64 should not smooth over this point )
F600.00000
X59.47080 Y34.84550
X59.47080 Y32.78810
X62.01080 Y32.78810
X62.01080 Y35.32810
X59.47080 Y35.32810
G04 P0 ( dwell for no time -- G64 should not smooth over this point )
G00 Z0.50000 ( retract )

G00 X56.93080 Y34.84550 ( rapid move to begin. )
F300.00000
G01 Z-0.07500
G04 P0 ( dwell for no time -- G64 should not smooth over this point )
F600.00000
X56.93080 Y34.84550
X56.93080 Y32.78810
X59.47080 Y32.78810
X59.47080 Y35.32810
X56.93080 Y35.32810
G04 P0 ( dwell for no time -- G64 should not smooth over this point )
G00 Z0.50000 ( retract )

G00 X54.39080 Y34.84550 ( rapid move to begin. )
F300.00000
G01 Z-0.07500
G04 P0 ( dwell for no time -- G64 should not smooth over this point )
F600.00000
X54.39080 Y34.84550
X54.39080 Y32.78810
X56.93080 Y32.78810
X56.93080 Y35.32810
X54.39080 Y35.32810
G04 P0 ( dwell for no time -- G64 should not smooth over this point )
G00 Z0.50000 ( retract )

G00 X51.85080 Y34.84550 ( rapid move to begin. )
F300.00000
G01 Z-0.07500
G04 P0 ( dwell for no time -- G64 should not smooth over this point )
F600.00000
X51.85080 Y34.84550
X51.85080 Y32.78810
X54.39080 Y32.78810
X54.39080 Y35.32810
X51.85080 Y35.32810
G04 P0 ( dwell for no time -- G64 should not smooth over this point )
G00 Z0.50000 ( retract )

G00 X49.31080 Y34.84550 ( rapid move to begin. )
F300.00000
G01 Z-0.07500
G04 P0 ( dwell for no time -- G64 should not smooth over this point )
F600.00000
X49.31080 Y34.84550
X49.31080 Y32.78810
X51.85080 Y32.78810
X51.85080 Y35.32810
X49.31080 Y35.32810
G04 P0 ( dwell for no time -- G64 should not smooth over this point )
G00 Z0.50000 ( retract )

G00 X46.77080 Y34.84550 ( rapid move to begin. )
F300.00000
G01 Z-0.07500
G04 P0 ( dwell for no time -- G64 should not smooth over this point )
F600.00000
X46.77080 Y34.84550
X46.77080 Y32.78810
X49.31080 Y32.78810
X49.31080 Y35.32810
X46.77080 Y35.32810
G04 P0 ( dwell for no time -- G64 should not smooth over this point )
G00 Z0.50000 ( retract )

G00 X44.23080 Y34.84550 ( rapid move to begin. )
F300.00000
G01 Z-0.07500
G04 P0 ( dwell for no time -- G64 should not smooth over this point )
F600.00000
X44.23080 Y34.84550
X44.23080 Y32.78810
X46.77080 Y32.78810
X46.77080 Y35.32810
X44.23080 Y35.32810
G04 P0 ( dwell for no time -- G64 should not smooth over this point )
G00 Z0.50000 ( retract )

G00 X41.69080 Y34.84550 ( rapid move to begin. )
F300.00000
G01 Z-0.07500
G04 P0 ( dwell for no time -- G64 should not smooth over this point )
F600.00000
X41.69080 Y34.84550
X41.69080 Y32.78810
X44.23080 Y32.78810
X44.23080 Y35.32810
X41.69080 Y35.32810
G04 P0 ( dwell for no time -- G64 should not smooth over this point )
G00 Z0.50000 ( retract )

G00 X39.15080 Y34.84550 ( rapid move to begin. )
F300.00000
G01 Z-0.07500
G04 P0 ( dwell for no time -- G64 should not smooth over this point )
F600.00000
X39.15080 Y34.84550
X39.15080 Y32.78810
X41.69080 Y32.78810
X41.69080 Y35.32810
X39.15080 Y35.32810
G04 P0 ( dwell for no time -- G64 should not smooth over this point )
G00 Z0.50000 ( retract )

G00 X36.61080 Y34.84550 ( rapid move to begin. )
F300.00000
G01 Z-0.07500
G04 P0 ( dwell for no time -- G64 should not smooth over this point )
F600.00000
X36.61080 Y34.84550
X36.61080 Y32.78810
X39.15080 Y32.78810
X39.15080 Y35.32810
X36.61080 Y35.32810
G04 P0 ( dwell for no time -- G64 should not smooth over this point )
G00 Z0.50000 ( retract )

G00 X34.07080 Y34.84550 ( rapid move to begin. )
F300.00000
G01 Z-0.07500
G04 P0 ( dwell for no time -- G64 should not smooth over this point )
F600.00000
X34.07080 Y34.84550
X34.07080 Y32.78810
X36.61080 Y32.78810
X36.61080 Y35.32810
X34.07080 Y35.32810
G04 P0 ( dwell for no time -- G64 should not smooth over this point )
G00 Z0.50000 ( retract )

G00 X31.53080 Y34.84550 ( rapid move to begin. )
F300.00000
G01 Z-0.07500
G04 P0 ( dwell for no time -- G64 should not smooth over this point )
F600.00000
X31.53080 Y34.84550
X31.53080 Y32.78810
X34.07080 Y32.78810
X34.07080 Y35.32810
X31.53080 Y35.32810
G04 P0 ( dwell for no time -- G64 should not smooth over this point )
G00 Z0.50000 ( retract )

G00 X28.99080 Y34.84550 ( rapid move to begin. )
F300.00000
G01 Z-0.07500
G04 P0 ( dwell for no time -- G64 should not smooth over this point )
F600.00000
X28.99080 Y34.84550
X28.99080 Y32.78810
X31.53080 Y32.78810
X31.53080 Y35.32810
X28.99080 Y35.32810
G04 P0 ( dwell for no time -- G64 should not smooth over this point )
G00 Z0.50000 ( retract )

G00 X26.45080 Y34.84550 ( rapid move to begin. )
F300.00000
G01 Z-0.07500
G04 P0 ( dwell for no time -- G64 should not smooth over this point )
F600.00000
X26.45080 Y34.84550
X26.45080 Y32.78810
X28.99080 Y32.78810
X28.99080 Y35.32810
X26.45080 Y35.32810
G04 P0 ( dwell for no time -- G64 should not smooth over this point )
G00 Z0.50000 ( retract )

G00 X23.91080 Y34.84550 ( rapid move to begin. )
F300.00000
G01 Z-0.07500
G04 P0 ( dwell for no time -- G64 should not smooth over this point )
F600.00000
X23.91080 Y34.84550
X23.91080 Y32.78810
X26.45080 Y32.78810
X26.45080 Y35.32810
X23.91080 Y35.32810
G04 P0 ( dwell for no time -- G64 should not smooth over this point )
G00 Z0.50000 ( retract )

G00 X21.37080 Y34.84550 ( rapid move to begin. )
F300.00000
G01 Z-0.07500
G04 P0 ( dwell for no time -- G64 should not smooth over this point )
F600.00000
X21.37080 Y34.84550
X21.37080 Y32.78810
X23.91080 Y32.78810
X23.91080 Y35.32810
X21.37080 Y35.32810
G04 P0 ( dwell for no time -- G64 should not smooth over this point )
G00 Z0.50000 ( retract )

G00 X18.83080 Y34.84550 ( rapid move to begin. )
F300.00000
G01 Z-0.07500
G04 P0 ( dwell for no time -- G64 should not smooth over this point )
F600.00000
X18.83080 Y34.84550
X18.83080 Y32.78810
X21.37080 Y32.78810
X21.37080 Y35.32810
X18.83080 Y35.32810
G04 P0 ( dwell for no time -- G64 should not smooth over this point )
G00 Z0.50000 ( retract )

G00 X16.29080 Y34.84550 ( rapid move to begin. )
F300.00000
G01 Z-0.07500
G04 P0 ( dwell for no time -- G64 should not smooth over this point )
F600.00000
X16.29080 Y34.84550
X16.29080 Y32.78810
X18.83080 Y32.78810
X18.83080 Y35.32810
X16.29080 Y35.32810
G04 P0 ( dwell for no time -- G64 should not smooth over this point )
G00 Z0.50000 ( retract )

G00 X13.75080 Y34.84550 ( rapid move to begin. )
F300.00000
G01 Z-0.07500
G04 P0 ( dwell for no time -- G64 should not smooth over this point )
F600.00000
X13.75080 Y34.84550
X13.75080 Y32.78810
X16.29080 Y32.78810
X16.29080 Y35.32810
X13.75080 Y35.32810
G04 P0 ( dwell for no time -- G64 should not smooth over this point )
G00 Z0.50000 ( retract )

G00 X11.21080 Y34.84550 ( rapid move to begin. )
F300.00000
G01 Z-0.07500
G04 P0 ( dwell for no time -- G64 should not smooth over this point )
F600.00000
X11.21080 Y34.84550
X11.21080 Y32.78810
X13.75080 Y32.78810
X13.75080 Y35.32810
X11.21080 Y35.32810
G04 P0 ( dwell for no time -- G64 should not smooth over this point )
G00 Z0.50000 ( retract )

G00 X8.16280 Y34.84550 ( rapid move to begin. )
F300.00000
G01 Z-0.07500
G04 P0 ( dwell for no time -- G64 should not smooth over this point )
F600.00000
X8.16280 Y34.84550
X8.18820 Y34.48990
X8.28980 Y34.38830
X8.41680 Y34.10890
X8.54380 Y33.42310
X8.56920 Y33.04210
X8.64540 Y32.81350
X11.21080 Y32.78810
X11.21080 Y35.32810
X8.18820 Y35.30270
G04 P0 ( dwell for no time -- G64 should not smooth over this point )
G00 Z0.50000 ( retract )

G00 X5.87680 Y33.55010 ( rapid move to begin. )
F300.00000
G01 Z-0.07500
G04 P0 ( dwell for no time -- G64 should not smooth over this point )
F600.00000
X5.87680 Y33.55010
X5.87680 Y31.54350
X8.44220 Y31.51810
X8.51840 Y31.84830
X8.59460 Y32.58490
X8.64540 Y32.73730
X8.56920 Y33.06750
X8.49300 Y33.80410
X8.41680 Y34.13430
X8.13740 Y34.56610
X5.92760 Y34.54070
X5.87680 Y34.48990
G04 P0 ( dwell for no time -- G64 should not smooth over this point )
G00 Z0.50000 ( retract )

G00 X2.85420 Y33.55010 ( rapid move to begin. )
F300.00000
G01 Z-0.07500
G04 P0 ( dwell for no time -- G64 should not smooth over this point )
F600.00000
X2.85420 Y33.55010
X2.85420 Y31.74670
X2.93040 Y31.51810
X5.87680 Y31.51810
X5.85140 Y34.54070
X3.46380 Y34.54070
X3.05740 Y34.33750
X2.90500 Y34.08350
X2.85420 Y33.72790
G04 P0 ( dwell for no time -- G64 should not smooth over this point )
G00 Z0.50000 ( retract )

G00 X67.09080 Y32.30550 ( rapid move to begin. )
F300.00000
G01 Z-0.07500
G04 P0 ( dwell for no time -- G64 should not smooth over this point )
F600.00000
X67.09080 Y32.30550
X67.09080 Y30.24810
X70.13880 Y30.24810
X70.13880 Y32.78810
X67.09080 Y32.78810
G04 P0 ( dwell for no time -- G64 should not smooth over this point )
G00 Z0.50000 ( retract )

G00 X64.55080 Y32.30550 ( rapid move to begin. )
F300.00000
G01 Z-0.07500
G04 P0 ( dwell for no time -- G64 should not smooth over this point )
F600.00000
X64.55080 Y32.30550
X64.55080 Y30.24810
X67.09080 Y30.24810
X67.09080 Y32.78810
X64.55080 Y32.78810
G04 P0 ( dwell for no time -- G64 should not smooth over this point )
G00 Z0.50000 ( retract )

G00 X62.01080 Y32.30550 ( rapid move to begin. )
F300.00000
G01 Z-0.07500
G04 P0 ( dwell for no time -- G64 should not smooth over this point )
F600.00000
X62.01080 Y32.30550
X62.01080 Y30.24810
X64.55080 Y30.24810
X64.55080 Y32.78810
X62.01080 Y32.78810
G04 P0 ( dwell for no time -- G64 should not smooth over this point )
G00 Z0.50000 ( retract )

G00 X59.47080 Y32.30550 ( rapid move to begin. )
F300.00000
G01 Z-0.07500
G04 P0 ( dwell for no time -- G64 should not smooth over this point )
F600.00000
X59.47080 Y32.30550
X59.47080 Y30.24810
X62.01080 Y30.24810
X62.01080 Y32.78810
X59.47080 Y32.78810
G04 P0 ( dwell for no time -- G64 should not smooth over this point )
G00 Z0.50000 ( retract )

G00 X56.93080 Y32.30550 ( rapid move to begin. )
F300.00000
G01 Z-0.07500
G04 P0 ( dwell for no time -- G64 should not smooth over this point )
F600.00000
X56.93080 Y32.30550
X56.93080 Y30.24810
X59.47080 Y30.24810
X59.47080 Y32.78810
X56.93080 Y32.78810
G04 P0 ( dwell for no time -- G64 should not smooth over this point )
G00 Z0.50000 ( retract )

G00 X54.39080 Y32.30550 ( rapid move to begin. )
F300.00000
G01 Z-0.07500
G04 P0 ( dwell for no time -- G64 should not smooth over this point )
F600.00000
X54.39080 Y32.30550
X54.39080 Y30.24810
X56.93080 Y30.24810
X56.93080 Y32.78810
X54.39080 Y32.78810
G04 P0 ( dwell for no time -- G64 should not smooth over this point )
G00 Z0.50000 ( retract )

G00 X51.85080 Y32.30550 ( rapid move to begin. )
F300.00000
G01 Z-0.07500
G04 P0 ( dwell for no time -- G64 should not smooth over this point )
F600.00000
X51.85080 Y32.30550
X51.85080 Y30.24810
X54.39080 Y30.24810
X54.39080 Y32.78810
X51.85080 Y32.78810
G04 P0 ( dwell for no time -- G64 should not smooth over this point )
G00 Z0.50000 ( retract )

G00 X49.31080 Y32.30550 ( rapid move to begin. )
F300.00000
G01 Z-0.07500
G04 P0 ( dwell for no time -- G64 should not smooth over this point )
F600.00000
X49.31080 Y32.30550
X49.31080 Y30.24810
X51.85080 Y30.24810
X51.85080 Y32.78810
X49.31080 Y32.78810
G04 P0 ( dwell for no time -- G64 should not smooth over this point )
G00 Z0.50000 ( retract )

G00 X46.77080 Y32.30550 ( rapid move to begin. )
F300.00000
G01 Z-0.07500
G04 P0 ( dwell for no time -- G64 should not smooth over this point )
F600.00000
X46.77080 Y32.30550
X46.77080 Y30.24810
X49.31080 Y30.24810
X49.31080 Y32.78810
X46.77080 Y32.78810
G04 P0 ( dwell for no time -- G64 should not smooth over this point )
G00 Z0.50000 ( retract )

G00 X44.23080 Y32.30550 ( rapid move to begin. )
F300.00000
G01 Z-0.07500
G04 P0 ( dwell for no time -- G64 should not smooth over this point )
F600.00000
X44.23080 Y32.30550
X44.23080 Y30.24810
X46.77080 Y30.24810
X46.77080 Y32.78810
X44.23080 Y32.78810
G04 P0 ( dwell for no time -- G64 should not smooth over this point )
G00 Z0.50000 ( retract )

G00 X41.69080 Y32.30550 ( rapid move to begin. )
F300.00000
G01 Z-0.07500
G04 P0 ( dwell for no time -- G64 should not smooth over this point )
F600.00000
X41.69080 Y32.30550
X41.69080 Y30.24810
X44.23080 Y30.24810
X44.23080 Y32.78810
X41.69080 Y32.78810
G04 P0 ( dwell for no time -- G64 should not smooth over this point )
G00 Z0.50000 ( retract )

G00 X39.15080 Y32.30550 ( rapid move to begin. )
F300.00000
G01 Z-0.07500
G04 P0 ( dwell for no time -- G64 should not smooth over this point )
F600.00000
X39.15080 Y32.30550
X39.15080 Y30.24810
X41.69080 Y30.24810
X41.69080 Y32.78810
X39.15080 Y32.78810
G04 P0 ( dwell for no time -- G64 should not smooth over this point )
G00 Z0.50000 ( retract )

G00 X36.61080 Y32.30550 ( rapid move to begin. )
F300.00000
G01 Z-0.07500
G04 P0 ( dwell for no time -- G64 should not smooth over this point )
F600.00000
X36.61080 Y32.30550
X36.61080 Y30.24810
X39.15080 Y30.24810
X39.15080 Y32.78810
X36.61080 Y32.78810
G04 P0 ( dwell for no time -- G64 should not smooth over this point )
G00 Z0.50000 ( retract )

G00 X34.07080 Y32.30550 ( rapid move to begin. )
F300.00000
G01 Z-0.07500
G04 P0 ( dwell for no time -- G64 should not smooth over this point )
F600.00000
X34.07080 Y32.30550
X34.07080 Y30.24810
X36.61080 Y30.24810
X36.61080 Y32.78810
X34.07080 Y32.78810
G04 P0 ( dwell for no time -- G64 should not smooth over this point )
G00 Z0.50000 ( retract )

G00 X31.53080 Y32.30550 ( rapid move to begin. )
F300.00000
G01 Z-0.07500
G04 P0 ( dwell for no time -- G64 should not smooth over this point )
F600.00000
X31.53080 Y32.30550
X31.53080 Y30.24810
X34.07080 Y30.24810
X34.07080 Y32.78810
X31.53080 Y32.78810
G04 P0 ( dwell for no time -- G64 should not smooth over this point )
G00 Z0.50000 ( retract )

G00 X28.99080 Y32.30550 ( rapid move to begin. )
F300.00000
G01 Z-0.07500
G04 P0 ( dwell for no time -- G64 should not smooth over this point )
F600.00000
X28.99080 Y32.30550
X28.99080 Y30.24810
X31.53080 Y30.24810
X31.53080 Y32.78810
X28.99080 Y32.78810
G04 P0 ( dwell for no time -- G64 should not smooth over this point )
G00 Z0.50000 ( retract )

G00 X26.45080 Y32.30550 ( rapid move to begin. )
F300.00000
G01 Z-0.07500
G04 P0 ( dwell for no time -- G64 should not smooth over this point )
F600.00000
X26.45080 Y32.30550
X26.45080 Y30.24810
X28.99080 Y30.24810
X28.99080 Y32.78810
X26.45080 Y32.78810
G04 P0 ( dwell for no time -- G64 should not smooth over this point )
G00 Z0.50000 ( retract )

G00 X23.91080 Y32.30550 ( rapid move to begin. )
F300.00000
G01 Z-0.07500
G04 P0 ( dwell for no time -- G64 should not smooth over this point )
F600.00000
X23.91080 Y32.30550
X23.91080 Y30.24810
X26.45080 Y30.24810
X26.45080 Y32.78810
X23.91080 Y32.78810
G04 P0 ( dwell for no time -- G64 should not smooth over this point )
G00 Z0.50000 ( retract )

G00 X21.37080 Y32.30550 ( rapid move to begin. )
F300.00000
G01 Z-0.07500
G04 P0 ( dwell for no time -- G64 should not smooth over this point )
F600.00000
X21.37080 Y32.30550
X21.37080 Y30.24810
X23.91080 Y30.24810
X23.91080 Y32.78810
X21.37080 Y32.78810
G04 P0 ( dwell for no time -- G64 should not smooth over this point )
G00 Z0.50000 ( retract )

G00 X18.83080 Y32.30550 ( rapid move to begin. )
F300.00000
G01 Z-0.07500
G04 P0 ( dwell for no time -- G64 should not smooth over this point )
F600.00000
X18.83080 Y32.30550
X18.83080 Y30.24810
X21.37080 Y30.24810
X21.37080 Y32.78810
X18.83080 Y32.78810
G04 P0 ( dwell for no time -- G64 should not smooth over this point )
G00 Z0.50000 ( retract )

G00 X16.29080 Y32.30550 ( rapid move to begin. )
F300.00000
G01 Z-0.07500
G04 P0 ( dwell for no time -- G64 should not smooth over this point )
F600.00000
X16.29080 Y32.30550
X16.29080 Y30.24810
X18.83080 Y30.24810
X18.83080 Y32.78810
X16.29080 Y32.78810
G04 P0 ( dwell for no time -- G64 should not smooth over this point )
G00 Z0.50000 ( retract )

G00 X13.75080 Y32.30550 ( rapid move to begin. )
F300.00000
G01 Z-0.07500
G04 P0 ( dwell for no time -- G64 should not smooth over this point )
F600.00000
X13.75080 Y32.30550
X13.75080 Y30.24810
X16.29080 Y30.24810
X16.29080 Y32.78810
X13.75080 Y32.78810
G04 P0 ( dwell for no time -- G64 should not smooth over this point )
G00 Z0.50000 ( retract )

G00 X11.21080 Y32.30550 ( rapid move to begin. )
F300.00000
G01 Z-0.07500
G04 P0 ( dwell for no time -- G64 should not smooth over this point )
F600.00000
X11.21080 Y32.30550
X11.21080 Y30.24810
X13.75080 Y30.24810
X13.75080 Y32.78810
X11.21080 Y32.78810
G04 P0 ( dwell for no time -- G64 should not smooth over this point )
G00 Z0.50000 ( retract )

G00 X8.54380 Y32.30550 ( rapid move to begin. )
F300.00000
G01 Z-0.07500
G04 P0 ( dwell for no time -- G64 should not smooth over this point )
F600.00000
X8.54380 Y32.30550
X8.46760 Y31.59430
X8.62000 Y30.27350
X10.22020 Y30.24810
X11.21080 Y30.27350
X11.18540 Y32.78810
X8.64540 Y32.78810
X8.56920 Y32.45790
G04 P0 ( dwell for no time -- G64 should not smooth over this point )
G00 Z0.50000 ( retract )

G00 X5.87680 Y31.01010 ( rapid move to begin. )
F300.00000
G01 Z-0.07500
G04 P0 ( dwell for no time -- G64 should not smooth over this point )
F600.00000
X5.87680 Y31.01010
X5.87680 Y29.00350
X8.44220 Y28.97810
X8.51840 Y29.30830
X8.59460 Y30.04490
X8.64540 Y30.19730
X8.44220 Y31.51810
X5.90220 Y31.51810
G04 P0 ( dwell for no time -- G64 should not smooth over this point )
G00 Z0.50000 ( retract )

G00 X2.85420 Y31.01010 ( rapid move to begin. )
F300.00000
G01 Z-0.07500
G04 P0 ( dwell for no time -- G64 should not smooth over this point )
F600.00000
X2.85420 Y31.01010
X2.85420 Y29.20670
X2.93040 Y28.97810
X5.87680 Y28.97810
X5.87680 Y31.51810
X2.93040 Y31.51810
X2.87960 Y31.46730
G04 P0 ( dwell for no time -- G64 should not smooth over this point )
G00 Z0.50000 ( retract )

G00 X67.09080 Y29.76550 ( rapid move to begin. )
F300.00000
G01 Z-0.07500
G04 P0 ( dwell for no time -- G64 should not smooth over this point )
F600.00000
X67.09080 Y29.76550
X67.09080 Y27.70810
X70.13880 Y27.70810
X70.13880 Y30.24810
X67.09080 Y30.24810
G04 P0 ( dwell for no time -- G64 should not smooth over this point )
G00 Z0.50000 ( retract )

G00 X64.55080 Y29.76550 ( rapid move to begin. )
F300.00000
G01 Z-0.07500
G04 P0 ( dwell for no time -- G64 should not smooth over this point )
F600.00000
X64.55080 Y29.76550
X64.55080 Y27.70810
X67.09080 Y27.70810
X67.09080 Y30.24810
X64.55080 Y30.24810
G04 P0 ( dwell for no time -- G64 should not smooth over this point )
G00 Z0.50000 ( retract )

G00 X62.01080 Y29.76550 ( rapid move to begin. )
F300.00000
G01 Z-0.07500
G04 P0 ( dwell for no time -- G64 should not smooth over this point )
F600.00000
X62.01080 Y29.76550
X62.01080 Y27.70810
X64.55080 Y27.70810
X64.55080 Y30.24810
X62.01080 Y30.24810
G04 P0 ( dwell for no time -- G64 should not smooth over this point )
G00 Z0.50000 ( retract )

G00 X59.47080 Y29.76550 ( rapid move to begin. )
F300.00000
G01 Z-0.07500
G04 P0 ( dwell for no time -- G64 should not smooth over this point )
F600.00000
X59.47080 Y29.76550
X59.47080 Y27.70810
X62.01080 Y27.70810
X62.01080 Y30.24810
X59.47080 Y30.24810
G04 P0 ( dwell for no time -- G64 should not smooth over this point )
G00 Z0.50000 ( retract )

G00 X56.93080 Y29.76550 ( rapid move to begin. )
F300.00000
G01 Z-0.07500
G04 P0 ( dwell for no time -- G64 should not smooth over this point )
F600.00000
X56.93080 Y29.76550
X56.93080 Y27.70810
X59.47080 Y27.70810
X59.47080 Y30.24810
X56.93080 Y30.24810
G04 P0 ( dwell for no time -- G64 should not smooth over this point )
G00 Z0.50000 ( retract )

G00 X54.39080 Y29.76550 ( rapid move to begin. )
F300.00000
G01 Z-0.07500
G04 P0 ( dwell for no time -- G64 should not smooth over this point )
F600.00000
X54.39080 Y29.76550
X54.39080 Y27.70810
X56.93080 Y27.70810
X56.93080 Y30.24810
X54.39080 Y30.24810
G04 P0 ( dwell for no time -- G64 should not smooth over this point )
G00 Z0.50000 ( retract )

G00 X51.85080 Y29.76550 ( rapid move to begin. )
F300.00000
G01 Z-0.07500
G04 P0 ( dwell for no time -- G64 should not smooth over this point )
F600.00000
X51.85080 Y29.76550
X51.85080 Y27.70810
X54.39080 Y27.70810
X54.39080 Y30.24810
X51.85080 Y30.24810
G04 P0 ( dwell for no time -- G64 should not smooth over this point )
G00 Z0.50000 ( retract )

G00 X49.31080 Y29.76550 ( rapid move to begin. )
F300.00000
G01 Z-0.07500
G04 P0 ( dwell for no time -- G64 should not smooth over this point )
F600.00000
X49.31080 Y29.76550
X49.31080 Y27.70810
X51.85080 Y27.70810
X51.85080 Y30.24810
X49.31080 Y30.24810
G04 P0 ( dwell for no time -- G64 should not smooth over this point )
G00 Z0.50000 ( retract )

G00 X46.77080 Y29.76550 ( rapid move to begin. )
F300.00000
G01 Z-0.07500
G04 P0 ( dwell for no time -- G64 should not smooth over this point )
F600.00000
X46.77080 Y29.76550
X46.77080 Y27.70810
X49.31080 Y27.70810
X49.31080 Y30.24810
X46.77080 Y30.24810
G04 P0 ( dwell for no time -- G64 should not smooth over this point )
G00 Z0.50000 ( retract )

G00 X44.23080 Y29.76550 ( rapid move to begin. )
F300.00000
G01 Z-0.07500
G04 P0 ( dwell for no time -- G64 should not smooth over this point )
F600.00000
X44.23080 Y29.76550
X44.23080 Y27.70810
X46.77080 Y27.70810
X46.77080 Y30.24810
X44.23080 Y30.24810
G04 P0 ( dwell for no time -- G64 should not smooth over this point )
G00 Z0.50000 ( retract )

G00 X41.69080 Y29.76550 ( rapid move to begin. )
F300.00000
G01 Z-0.07500
G04 P0 ( dwell for no time -- G64 should not smooth over this point )
F600.00000
X41.69080 Y29.76550
X41.69080 Y27.70810
X44.23080 Y27.70810
X44.23080 Y30.24810
X41.69080 Y30.24810
G04 P0 ( dwell for no time -- G64 should not smooth over this point )
G00 Z0.50000 ( retract )

G00 X39.15080 Y29.76550 ( rapid move to begin. )
F300.00000
G01 Z-0.07500
G04 P0 ( dwell for no time -- G64 should not smooth over this point )
F600.00000
X39.15080 Y29.76550
X39.15080 Y27.70810
X41.69080 Y27.70810
X41.69080 Y30.24810
X39.15080 Y30.24810
G04 P0 ( dwell for no time -- G64 should not smooth over this point )
G00 Z0.50000 ( retract )

G00 X36.61080 Y29.76550 ( rapid move to begin. )
F300.00000
G01 Z-0.07500
G04 P0 ( dwell for no time -- G64 should not smooth over this point )
F600.00000
X36.61080 Y29.76550
X36.61080 Y27.70810
X39.15080 Y27.70810
X39.15080 Y30.24810
X36.61080 Y30.24810
G04 P0 ( dwell for no time -- G64 should not smooth over this point )
G00 Z0.50000 ( retract )

G00 X34.07080 Y29.76550 ( rapid move to begin. )
F300.00000
G01 Z-0.07500
G04 P0 ( dwell for no time -- G64 should not smooth over this point )
F600.00000
X34.07080 Y29.76550
X34.07080 Y27.70810
X36.61080 Y27.70810
X36.61080 Y30.24810
X34.07080 Y30.24810
G04 P0 ( dwell for no time -- G64 should not smooth over this point )
G00 Z0.50000 ( retract )

G00 X31.53080 Y29.76550 ( rapid move to begin. )
F300.00000
G01 Z-0.07500
G04 P0 ( dwell for no time -- G64 should not smooth over this point )
F600.00000
X31.53080 Y29.76550
X31.53080 Y27.70810
X34.07080 Y27.70810
X34.07080 Y30.24810
X31.53080 Y30.24810
G04 P0 ( dwell for no time -- G64 should not smooth over this point )
G00 Z0.50000 ( retract )

G00 X28.99080 Y29.76550 ( rapid move to begin. )
F300.00000
G01 Z-0.07500
G04 P0 ( dwell for no time -- G64 should not smooth over this point )
F600.00000
X28.99080 Y29.76550
X28.99080 Y27.70810
X31.53080 Y27.70810
X31.53080 Y30.24810
X28.99080 Y30.24810
G04 P0 ( dwell for no time -- G64 should not smooth over this point )
G00 Z0.50000 ( retract )

G00 X26.45080 Y29.76550 ( rapid move to begin. )
F300.00000
G01 Z-0.07500
G04 P0 ( dwell for no time -- G64 should not smooth over this point )
F600.00000
X26.45080 Y29.76550
X26.45080 Y27.70810
X28.99080 Y27.70810
X28.99080 Y30.24810
X26.45080 Y30.24810
G04 P0 ( dwell for no time -- G64 should not smooth over this point )
G00 Z0.50000 ( retract )

G00 X23.91080 Y29.76550 ( rapid move to begin. )
F300.00000
G01 Z-0.07500
G04 P0 ( dwell for no time -- G64 should not smooth over this point )
F600.00000
X23.91080 Y29.76550
X23.91080 Y27.70810
X26.45080 Y27.70810
X26.45080 Y30.24810
X23.91080 Y30.24810
G04 P0 ( dwell for no time -- G64 should not smooth over this point )
G00 Z0.50000 ( retract )

G00 X21.37080 Y29.76550 ( rapid move to begin. )
F300.00000
G01 Z-0.07500
G04 P0 ( dwell for no time -- G64 should not smooth over this point )
F600.00000
X21.37080 Y29.76550
X21.37080 Y27.70810
X23.91080 Y27.70810
X23.91080 Y30.24810
X21.37080 Y30.24810
G04 P0 ( dwell for no time -- G64 should not smooth over this point )
G00 Z0.50000 ( retract )

G00 X18.83080 Y29.76550 ( rapid move to begin. )
F300.00000
G01 Z-0.07500
G04 P0 ( dwell for no time -- G64 should not smooth over this point )
F600.00000
X18.83080 Y29.76550
X18.83080 Y27.70810
X21.37080 Y27.70810
X21.37080 Y30.24810
X18.83080 Y30.24810
G04 P0 ( dwell for no time -- G64 should not smooth over this point )
G00 Z0.50000 ( retract )

G00 X16.29080 Y29.76550 ( rapid move to begin. )
F300.00000
G01 Z-0.07500
G04 P0 ( dwell for no time -- G64 should not smooth over this point )
F600.00000
X16.29080 Y29.76550
X16.29080 Y27.70810
X18.83080 Y27.70810
X18.83080 Y30.24810
X16.29080 Y30.24810
G04 P0 ( dwell for no time -- G64 should not smooth over this point )
G00 Z0.50000 ( retract )

G00 X13.75080 Y29.76550 ( rapid move to begin. )
F300.00000
G01 Z-0.07500
G04 P0 ( dwell for no time -- G64 should not smooth over this point )
F600.00000
X13.75080 Y29.76550
X13.75080 Y27.70810
X16.29080 Y27.70810
X16.29080 Y30.24810
X13.75080 Y30.24810
G04 P0 ( dwell for no time -- G64 should not smooth over this point )
G00 Z0.50000 ( retract )

G00 X11.21080 Y29.76550 ( rapid move to begin. )
F300.00000
G01 Z-0.07500
G04 P0 ( dwell for no time -- G64 should not smooth over this point )
F600.00000
X11.21080 Y29.76550
X11.21080 Y27.70810
X13.75080 Y27.70810
X13.75080 Y30.24810
X11.21080 Y30.24810
G04 P0 ( dwell for no time -- G64 should not smooth over this point )
G00 Z0.50000 ( retract )

G00 X8.54380 Y29.76550 ( rapid move to begin. )
F300.00000
G01 Z-0.07500
G04 P0 ( dwell for no time -- G64 should not smooth over this point )
F600.00000
X8.54380 Y29.76550
X8.46760 Y29.05430
X8.62000 Y27.73350
X10.22020 Y27.70810
X11.21080 Y27.73350
X11.18540 Y30.24810
X8.64540 Y30.24810
X8.56920 Y29.91790
G04 P0 ( dwell for no time -- G64 should not smooth over this point )
G00 Z0.50000 ( retract )

G00 X5.87680 Y28.47010 ( rapid move to begin. )
F300.00000
G01 Z-0.07500
G04 P0 ( dwell for no time -- G64 should not smooth over this point )
F600.00000
X5.87680 Y28.47010
X5.87680 Y26.00630
X6.23240 Y25.95550
X8.16280 Y25.95550
X8.44220 Y26.38730
X8.51840 Y26.71750
X8.62000 Y27.78430
X8.54380 Y28.11450
X8.51840 Y28.69870
X8.44220 Y28.97810
X5.90220 Y28.97810
G04 P0 ( dwell for no time -- G64 should not smooth over this point )
G00 Z0.50000 ( retract )

G00 X2.85420 Y28.47010 ( rapid move to begin. )
F300.00000
G01 Z-0.07500
G04 P0 ( dwell for no time -- G64 should not smooth over this point )
F600.00000
X2.85420 Y28.47010
X2.85420 Y26.86990
X2.90500 Y26.41270
X3.08280 Y26.18410
X3.08280 Y26.13330
X3.36220 Y26.00630
X3.71780 Y25.95550
X5.82600 Y25.98090
X5.87680 Y26.03170
X5.87680 Y28.97810
X2.93040 Y28.97810
X2.87960 Y28.92730
G04 P0 ( dwell for no time -- G64 should not smooth over this point )
G00 Z0.50000 ( retract )

G00 X67.09080 Y27.22550 ( rapid move to begin. )
F300.00000
G01 Z-0.07500
G04 P0 ( dwell for no time -- G64 should not smooth over this point )
F600.00000
X67.09080 Y27.22550
X67.09080 Y25.16810
X70.13880 Y25.16810
X70.13880 Y27.70810
X67.09080 Y27.70810
G04 P0 ( dwell for no time -- G64 should not smooth over this point )
G00 Z0.50000 ( retract )

G00 X64.55080 Y27.22550 ( rapid move to begin. )
F300.00000
G01 Z-0.07500
G04 P0 ( dwell for no time -- G64 should not smooth over this point )
F600.00000
X64.55080 Y27.22550
X64.55080 Y25.16810
X67.09080 Y25.16810
X67.09080 Y27.70810
X64.55080 Y27.70810
G04 P0 ( dwell for no time -- G64 should not smooth over this point )
G00 Z0.50000 ( retract )

G00 X62.01080 Y27.22550 ( rapid move to begin. )
F300.00000
G01 Z-0.07500
G04 P0 ( dwell for no time -- G64 should not smooth over this point )
F600.00000
X62.01080 Y27.22550
X62.01080 Y25.16810
X64.55080 Y25.16810
X64.55080 Y27.70810
X62.01080 Y27.70810
G04 P0 ( dwell for no time -- G64 should not smooth over this point )
G00 Z0.50000 ( retract )

G00 X59.47080 Y27.22550 ( rapid move to begin. )
F300.00000
G01 Z-0.07500
G04 P0 ( dwell for no time -- G64 should not smooth over this point )
F600.00000
X59.47080 Y27.22550
X59.47080 Y25.16810
X62.01080 Y25.16810
X62.01080 Y27.70810
X59.47080 Y27.70810
G04 P0 ( dwell for no time -- G64 should not smooth over this point )
G00 Z0.50000 ( retract )

G00 X56.93080 Y27.22550 ( rapid move to begin. )
F300.00000
G01 Z-0.07500
G04 P0 ( dwell for no time -- G64 should not smooth over this point )
F600.00000
X56.93080 Y27.22550
X56.93080 Y25.16810
X59.47080 Y25.16810
X59.47080 Y27.70810
X56.93080 Y27.70810
G04 P0 ( dwell for no time -- G64 should not smooth over this point )
G00 Z0.50000 ( retract )

G00 X54.39080 Y27.22550 ( rapid move to begin. )
F300.00000
G01 Z-0.07500
G04 P0 ( dwell for no time -- G64 should not smooth over this point )
F600.00000
X54.39080 Y27.22550
X54.39080 Y25.16810
X56.93080 Y25.16810
X56.93080 Y27.70810
X54.39080 Y27.70810
G04 P0 ( dwell for no time -- G64 should not smooth over this point )
G00 Z0.50000 ( retract )

G00 X51.85080 Y27.22550 ( rapid move to begin. )
F300.00000
G01 Z-0.07500
G04 P0 ( dwell for no time -- G64 should not smooth over this point )
F600.00000
X51.85080 Y27.22550
X51.85080 Y25.16810
X54.39080 Y25.16810
X54.39080 Y27.70810
X51.85080 Y27.70810
G04 P0 ( dwell for no time -- G64 should not smooth over this point )
G00 Z0.50000 ( retract )

G00 X49.31080 Y27.22550 ( rapid move to begin. )
F300.00000
G01 Z-0.07500
G04 P0 ( dwell for no time -- G64 should not smooth over this point )
F600.00000
X49.31080 Y27.22550
X49.31080 Y25.16810
X51.85080 Y25.16810
X51.85080 Y27.70810
X49.31080 Y27.70810
G04 P0 ( dwell for no time -- G64 should not smooth over this point )
G00 Z0.50000 ( retract )

G00 X46.77080 Y27.22550 ( rapid move to begin. )
F300.00000
G01 Z-0.07500
G04 P0 ( dwell for no time -- G64 should not smooth over this point )
F600.00000
X46.77080 Y27.22550
X46.77080 Y25.16810
X49.31080 Y25.16810
X49.31080 Y27.70810
X46.77080 Y27.70810
G04 P0 ( dwell for no time -- G64 should not smooth over this point )
G00 Z0.50000 ( retract )

G00 X44.23080 Y27.22550 ( rapid move to begin. )
F300.00000
G01 Z-0.07500
G04 P0 ( dwell for no time -- G64 should not smooth over this point )
F600.00000
X44.23080 Y27.22550
X44.23080 Y25.16810
X46.77080 Y25.16810
X46.77080 Y27.70810
X44.23080 Y27.70810
G04 P0 ( dwell for no time -- G64 should not smooth over this point )
G00 Z0.50000 ( retract )

G00 X41.69080 Y27.22550 ( rapid move to begin. )
F300.00000
G01 Z-0.07500
G04 P0 ( dwell for no time -- G64 should not smooth over this point )
F600.00000
X41.69080 Y27.22550
X41.69080 Y25.16810
X44.23080 Y25.16810
X44.23080 Y27.70810
X41.69080 Y27.70810
G04 P0 ( dwell for no time -- G64 should not smooth over this point )
G00 Z0.50000 ( retract )

G00 X39.15080 Y27.22550 ( rapid move to begin. )
F300.00000
G01 Z-0.07500
G04 P0 ( dwell for no time -- G64 should not smooth over this point )
F600.00000
X39.15080 Y27.22550
X39.15080 Y25.16810
X41.69080 Y25.16810
X41.69080 Y27.70810
X39.15080 Y27.70810
G04 P0 ( dwell for no time -- G64 should not smooth over this point )
G00 Z0.50000 ( retract )

G00 X36.61080 Y27.22550 ( rapid move to begin. )
F300.00000
G01 Z-0.07500
G04 P0 ( dwell for no time -- G64 should not smooth over this point )
F600.00000
X36.61080 Y27.22550
X36.61080 Y25.16810
X39.15080 Y25.16810
X39.15080 Y27.70810
X36.61080 Y27.70810
G04 P0 ( dwell for no time -- G64 should not smooth over this point )
G00 Z0.50000 ( retract )

G00 X34.07080 Y27.22550 ( rapid move to begin. )
F300.00000
G01 Z-0.07500
G04 P0 ( dwell for no time -- G64 should not smooth over this point )
F600.00000
X34.07080 Y27.22550
X34.07080 Y25.16810
X36.61080 Y25.16810
X36.61080 Y27.70810
X34.07080 Y27.70810
G04 P0 ( dwell for no time -- G64 should not smooth over this point )
G00 Z0.50000 ( retract )

G00 X31.53080 Y27.22550 ( rapid move to begin. )
F300.00000
G01 Z-0.07500
G04 P0 ( dwell for no time -- G64 should not smooth over this point )
F600.00000
X31.53080 Y27.22550
X31.53080 Y25.16810
X34.07080 Y25.16810
X34.07080 Y27.70810
X31.53080 Y27.70810
G04 P0 ( dwell for no time -- G64 should not smooth over this point )
G00 Z0.50000 ( retract )

G00 X28.99080 Y27.22550 ( rapid move to begin. )
F300.00000
G01 Z-0.07500
G04 P0 ( dwell for no time -- G64 should not smooth over this point )
F600.00000
X28.99080 Y27.22550
X28.99080 Y25.16810
X31.53080 Y25.16810
X31.53080 Y27.70810
X28.99080 Y27.70810
G04 P0 ( dwell for no time -- G64 should not smooth over this point )
G00 Z0.50000 ( retract )

G00 X26.45080 Y27.22550 ( rapid move to begin. )
F300.00000
G01 Z-0.07500
G04 P0 ( dwell for no time -- G64 should not smooth over this point )
F600.00000
X26.45080 Y27.22550
X26.45080 Y25.16810
X28.99080 Y25.16810
X28.99080 Y27.70810
X26.45080 Y27.70810
G04 P0 ( dwell for no time -- G64 should not smooth over this point )
G00 Z0.50000 ( retract )

G00 X23.91080 Y27.22550 ( rapid move to begin. )
F300.00000
G01 Z-0.07500
G04 P0 ( dwell for no time -- G64 should not smooth over this point )
F600.00000
X23.91080 Y27.22550
X23.91080 Y25.16810
X26.45080 Y25.16810
X26.45080 Y27.70810
X23.91080 Y27.70810
G04 P0 ( dwell for no time -- G64 should not smooth over this point )
G00 Z0.50000 ( retract )

G00 X21.37080 Y27.22550 ( rapid move to begin. )
F300.00000
G01 Z-0.07500
G04 P0 ( dwell for no time -- G64 should not smooth over this point )
F600.00000
X21.37080 Y27.22550
X21.37080 Y25.16810
X23.91080 Y25.16810
X23.91080 Y27.70810
X21.37080 Y27.70810
G04 P0 ( dwell for no time -- G64 should not smooth over this point )
G00 Z0.50000 ( retract )

G00 X18.83080 Y27.22550 ( rapid move to begin. )
F300.00000
G01 Z-0.07500
G04 P0 ( dwell for no time -- G64 should not smooth over this point )
F600.00000
X18.83080 Y27.22550
X18.83080 Y25.16810
X21.37080 Y25.16810
X21.37080 Y27.70810
X18.83080 Y27.70810
G04 P0 ( dwell for no time -- G64 should not smooth over this point )
G00 Z0.50000 ( retract )

G00 X16.29080 Y27.22550 ( rapid move to begin. )
F300.00000
G01 Z-0.07500
G04 P0 ( dwell for no time -- G64 should not smooth over this point )
F600.00000
X16.29080 Y27.22550
X16.29080 Y25.16810
X18.83080 Y25.16810
X18.83080 Y27.70810
X16.29080 Y27.70810
G04 P0 ( dwell for no time -- G64 should not smooth over this point )
G00 Z0.50000 ( retract )

G00 X13.75080 Y27.22550 ( rapid move to begin. )
F300.00000
G01 Z-0.07500
G04 P0 ( dwell for no time -- G64 should not smooth over this point )
F600.00000
X13.75080 Y27.22550
X13.75080 Y25.16810
X16.29080 Y25.16810
X16.29080 Y27.70810
X13.75080 Y27.70810
G04 P0 ( dwell for no time -- G64 should not smooth over this point )
G00 Z0.50000 ( retract )

G00 X11.21080 Y27.22550 ( rapid move to begin. )
F300.00000
G01 Z-0.07500
G04 P0 ( dwell for no time -- G64 should not smooth over this point )
F600.00000
X11.21080 Y27.22550
X11.21080 Y25.16810
X13.75080 Y25.16810
X13.75080 Y27.70810
X11.21080 Y27.70810
G04 P0 ( dwell for no time -- G64 should not smooth over this point )
G00 Z0.50000 ( retract )

G00 X8.54380 Y27.22550 ( rapid move to begin. )
F300.00000
G01 Z-0.07500
G04 P0 ( dwell for no time -- G64 should not smooth over this point )
F600.00000
X8.54380 Y27.22550
X8.46760 Y26.51430
X8.28980 Y26.08250
X8.18820 Y25.98090
X8.18820 Y25.16810
X11.21080 Y25.19350
X11.18540 Y27.70810
X8.64540 Y27.70810
X8.56920 Y27.37790
G04 P0 ( dwell for no time -- G64 should not smooth over this point )
G00 Z0.50000 ( retract )

G00 X67.09080 Y24.68550 ( rapid move to begin. )
F300.00000
G01 Z-0.07500
G04 P0 ( dwell for no time -- G64 should not smooth over this point )
F600.00000
X67.09080 Y24.68550
X67.09080 Y22.62810
X70.13880 Y22.62810
X70.13880 Y25.16810
X67.09080 Y25.16810
G04 P0 ( dwell for no time -- G64 should not smooth over this point )
G00 Z0.50000 ( retract )

G00 X64.55080 Y24.68550 ( rapid move to begin. )
F300.00000
G01 Z-0.07500
G04 P0 ( dwell for no time -- G64 should not smooth over this point )
F600.00000
X64.55080 Y24.68550
X64.55080 Y22.62810
X67.09080 Y22.62810
X67.09080 Y25.16810
X64.55080 Y25.16810
G04 P0 ( dwell for no time -- G64 should not smooth over this point )
G00 Z0.50000 ( retract )

G00 X62.01080 Y24.68550 ( rapid move to begin. )
F300.00000
G01 Z-0.07500
G04 P0 ( dwell for no time -- G64 should not smooth over this point )
F600.00000
X62.01080 Y24.68550
X62.01080 Y22.62810
X64.55080 Y22.62810
X64.55080 Y25.16810
X62.01080 Y25.16810
G04 P0 ( dwell for no time -- G64 should not smooth over this point )
G00 Z0.50000 ( retract )

G00 X59.47080 Y24.68550 ( rapid move to begin. )
F300.00000
G01 Z-0.07500
G04 P0 ( dwell for no time -- G64 should not smooth over this point )
F600.00000
X59.47080 Y24.68550
X59.47080 Y22.62810
X62.01080 Y22.62810
X62.01080 Y25.16810
X59.47080 Y25.16810
G04 P0 ( dwell for no time -- G64 should not smooth over this point )
G00 Z0.50000 ( retract )

G00 X56.93080 Y24.68550 ( rapid move to begin. )
F300.00000
G01 Z-0.07500
G04 P0 ( dwell for no time -- G64 should not smooth over this point )
F600.00000
X56.93080 Y24.68550
X56.93080 Y22.62810
X59.47080 Y22.62810
X59.47080 Y25.16810
X56.93080 Y25.16810
G04 P0 ( dwell for no time -- G64 should not smooth over this point )
G00 Z0.50000 ( retract )

G00 X54.39080 Y24.68550 ( rapid move to begin. )
F300.00000
G01 Z-0.07500
G04 P0 ( dwell for no time -- G64 should not smooth over this point )
F600.00000
X54.39080 Y24.68550
X54.39080 Y22.62810
X56.93080 Y22.62810
X56.93080 Y25.16810
X54.39080 Y25.16810
G04 P0 ( dwell for no time -- G64 should not smooth over this point )
G00 Z0.50000 ( retract )

G00 X51.85080 Y24.68550 ( rapid move to begin. )
F300.00000
G01 Z-0.07500
G04 P0 ( dwell for no time -- G64 should not smooth over this point )
F600.00000
X51.85080 Y24.68550
X51.85080 Y22.62810
X54.39080 Y22.62810
X54.39080 Y25.16810
X51.85080 Y25.16810
G04 P0 ( dwell for no time -- G64 should not smooth over this point )
G00 Z0.50000 ( retract )

G00 X49.31080 Y24.68550 ( rapid move to begin. )
F300.00000
G01 Z-0.07500
G04 P0 ( dwell for no time -- G64 should not smooth over this point )
F600.00000
X49.31080 Y24.68550
X49.31080 Y22.62810
X51.85080 Y22.62810
X51.85080 Y25.16810
X49.31080 Y25.16810
G04 P0 ( dwell for no time -- G64 should not smooth over this point )
G00 Z0.50000 ( retract )

G00 X46.77080 Y24.68550 ( rapid move to begin. )
F300.00000
G01 Z-0.07500
G04 P0 ( dwell for no time -- G64 should not smooth over this point )
F600.00000
X46.77080 Y24.68550
X46.77080 Y22.62810
X49.31080 Y22.62810
X49.31080 Y25.16810
X46.77080 Y25.16810
G04 P0 ( dwell for no time -- G64 should not smooth over this point )
G00 Z0.50000 ( retract )

G00 X44.23080 Y24.68550 ( rapid move to begin. )
F300.00000
G01 Z-0.07500
G04 P0 ( dwell for no time -- G64 should not smooth over this point )
F600.00000
X44.23080 Y24.68550
X44.23080 Y22.62810
X46.77080 Y22.62810
X46.77080 Y25.16810
X44.23080 Y25.16810
G04 P0 ( dwell for no time -- G64 should not smooth over this point )
G00 Z0.50000 ( retract )

G00 X41.69080 Y24.68550 ( rapid move to begin. )
F300.00000
G01 Z-0.07500
G04 P0 ( dwell for no time -- G64 should not smooth over this point )
F600.00000
X41.69080 Y24.68550
X41.69080 Y22.62810
X44.23080 Y22.62810
X44.23080 Y25.16810
X41.69080 Y25.16810
G04 P0 ( dwell for no time -- G64 should not smooth over this point )
