( pcb2gcode 1.2.1 )
( Gcode for LinuxCNC )
      

G94 ( Millimeters per minute feed rate. )
G21 ( Units == Millimeters. )

G90 ( Absolute coordinates. )
S10000 ( RPM spindle speed. )
G64 P0.05080 ( set maximum deviation from commanded toolpath )
F600.00000 ( Feedrate. )

o5 sub ( Bilinear interpolation macro )
    #7 = [ #3 + [ #1 - #3 ] * #5 ] ( Linear interpolation of the x-min elements )
    #8 = [ #4 + [ #2 - #4 ] * #5 ] ( Linear interpolation of the x-max elements )
    #100 = [ #7 + [ #8 - #7 ] * #6 ] ( Linear interpolation of previously interpolated points )
o5 endsub

o6 sub ( Z-correction subroutine )
    #3 = [ FIX[ [ #1 - 1.56388 ] / 13.97813 ] ] ( Lower left point X index )
    #4 = [ FIX[ [ #2 - 1.32258 ] / 13.82776 ] ] ( Lower left point Y index )
    #5 = [ #3 * 5 + [ #4 + 1 ] + 500 ] ( Upper left point parameter number )
    #6 = [ [ #3 + 1 ] *5 + [ #4 + 1 ] + 500 ] ( Upper right point parameter number )
    #7 = [ #3 * 5 + #4 + 500 ] ( Lower left point parameter number )
    #8 = [ [ #3 + 1 ] * 5 + #4 + 500 ] ( Lower right point parameter number )
    #9 = [ [ #2 - 1.32258 - #4 * 13.82776 ] / 13.82776 ] ( Distance between the point and the left border of the rectangle, normalized to 1 )
    #10 = [ [ #1 - 1.56388 - #3 * 13.97813 ] / 13.97813 ] ( Distance between the point and the down border of the rectangle, normalized to 1 ) 
    o5 call [##5] [##6] [##7] [##8] [#9] [#10]
o6 endsub

o7 sub ( G01 with Z-correction subroutine )
    o6 call [#1] [#2]
    G01 X#1 Y#2 Z[-0.03000+#100]
o7 endsub

o8 sub ( Y probe subroutine )
    G0 Z1.000 ( Move to probe height )
    X[#110 * 13.97813 + 1.56388] Y[#111 * 13.82776 + 1.32258]  ( Move to the current probe point )
    G38.2 Z-5 F100 ( Probe it )
    #[#110 * 5 + #111 + 500] = #5063 ( Save the probe in the correct parameter )
    #111 = [#111 + #112] ( Increment/decrement by 1 the Y counter )
o8 endsub

o9 sub ( X probe subroutine )
    o10 repeat [#113]
        o8 call
    o10 endrepeat
    #113 = 5
    #112 = [0 - #112]
    #111 = [#111 + #112]
    #110 = [#110 + 1] ( Increment by 1 the X counter )
o9 endsub

(MSG, Attach the probe tool)
M0 ( Temporary machine stop. )
G0 Z1.000 ( Move Z to safe height )
G0 X1.56388 Y1.32258 ( Move XY to start point )
G0 Z1.000 ( Move Z to probe height )
(PROBEOPEN RawProbeLog.txt) ( Record all probes in RawProbeLog.txt )
G38.2 Z-5 F100 ( Z-probe )
#500 = 0 ( Probe point [0, 0] is our reference )
G10 L20 P0 Z0 ( Set the current Z as zero-value )

( We now start the real probing: move the Z axis to the probing height, move to )
( the probing XY position, probe it and save the result, parameter #5063, )
( in a numbered parameter; we will make 6 probes on the X-axis and )
( 5 probes on the Y-axis, for a grand total of 30 probes )

#110 = 0 ( X iterator )
#111 = 1 ( Y iterator )
#112 = 1 ( UP or DOWN increment )
#113 = 4 ( number of Y points; the 1st Y row can be done one time less )
o11 repeat [6]
    o9 call
o11 endrepeat

G0 Z1.000 ( Move Z to safe height )
(PROBECLOSE) ( Close the probe log file )
( Probing has ended, each Z-coordinate will be corrected with a bilinear interpolation )
(MSG, Detach the probe tool)
M0 ( Temporary machine stop. )

F600.00000 ( Feedrate. )
M3 ( Spindle on clockwise. )
G04 P0 ( dwell for no time -- G64 should not smooth over this point )
G00 Z1.00000 ( retract )

G00 X67.09080 Y55.16550 ( rapid move to begin. )
F300.00000
o7 call [67.0908] [55.1655]
G04 P0 ( dwell for no time -- G64 should not smooth over this point )
F600.00000
o7 call [67.0908] [53.1081]
o7 call [70.1388] [53.1081]
o7 call [70.1642] [55.3179]
o7 call [67.0908] [55.3433]
o7 call [67.0908] [55.1909]
G04 P0 ( dwell for no time -- G64 should not smooth over this point )
G00 Z1.00000 ( retract )

G00 X64.55080 Y55.16550 ( rapid move to begin. )
F300.00000
o7 call [64.5508] [55.1655]
G04 P0 ( dwell for no time -- G64 should not smooth over this point )
F600.00000
o7 call [64.5508] [53.1081]
o7 call [67.0908] [53.1081]
o7 call [67.0908] [55.3433]
o7 call [64.5508] [55.3433]
o7 call [64.5508] [55.1909]
G04 P0 ( dwell for no time -- G64 should not smooth over this point )
G00 Z1.00000 ( retract )

G00 X62.01080 Y55.16550 ( rapid move to begin. )
F300.00000
o7 call [62.0108] [55.1655]
G04 P0 ( dwell for no time -- G64 should not smooth over this point )
F600.00000
o7 call [62.0108] [53.1081]
o7 call [64.5508] [53.1081]
o7 call [64.5508] [55.3433]
o7 call [62.0108] [55.3433]
o7 call [62.0108] [55.1909]
G04 P0 ( dwell for no time -- G64 should not smooth over this point )
G00 Z1.00000 ( retract )

G00 X58.96280 Y55.16550 ( rapid move to begin. )
F300.00000
o7 call [58.9628] [55.1655]
G04 P0 ( dwell for no time -- G64 should not smooth over this point )
F600.00000
o7 call [58.9628] [53.5653]
o7 call [59.0136] [53.1081]
o7 call [62.0108] [53.1081]
o7 call [62.0108] [55.3433]
o7 call [58.9628] [55.3433]
o7 call [58.9628] [55.1909]
G04 P0 ( dwell for no time -- G64 should not smooth over this point )
G00 Z1.00000 ( retract )

G00 X50.58080 Y54.37810 ( rapid move to begin. )
F300.00000
o7 call [50.5808] [54.3781]
G04 P0 ( dwell for no time -- G64 should not smooth over this point )
F600.00000
o7 call [50.5808] [50.9999]
o7 call [52.1048] [50.9491]
o7 call [52.8922] [50.9745]
o7 call [53.4002] [51.0761]
o7 call [53.578] [51.3047]
o7 call [53.6288] [51.6603]
o7 call [53.6288] [54.7083]
o7 call [53.578] [54.9623]
o7 call [53.4002] [55.1909]
o7 call [53.1462] [55.3433]
o7 call [50.6062] [55.3433]
o7 call [50.5808] [54.4035]
G04 P0 ( dwell for no time -- G64 should not smooth over this point )
G00 Z1.00000 ( retract )

G00 X48.04080 Y54.37810 ( rapid move to begin. )
F300.00000
o7 call [48.0408] [54.3781]
G04 P0 ( dwell for no time -- G64 should not smooth over this point )
F600.00000
o7 call [48.0408] [50.9999]
o7 call [49.5648] [50.9491]
o7 call [50.5808] [50.9999]
o7 call [50.5554] [55.3433]
o7 call [48.0408] [55.3179]
o7 call [48.0408] [54.4035]
G04 P0 ( dwell for no time -- G64 should not smooth over this point )
G00 Z1.00000 ( retract )

G00 X45.50080 Y54.37810 ( rapid move to begin. )
F300.00000
o7 call [45.5008] [54.3781]
G04 P0 ( dwell for no time -- G64 should not smooth over this point )
F600.00000
o7 call [45.5008] [50.9999]
o7 call [47.0248] [50.9491]
o7 call [48.0408] [50.9999]
o7 call [48.0154] [55.3433]
o7 call [45.5008] [55.3179]
o7 call [45.5008] [54.4035]
G04 P0 ( dwell for no time -- G64 should not smooth over this point )
G00 Z1.00000 ( retract )

G00 X42.96080 Y54.37810 ( rapid move to begin. )
F300.00000
o7 call [42.9608] [54.3781]
G04 P0 ( dwell for no time -- G64 should not smooth over this point )
F600.00000
o7 call [42.9608] [50.9999]
o7 call [44.4848] [50.9491]
o7 call [45.5008] [50.9999]
o7 call [45.4754] [55.3433]
o7 call [42.9608] [55.3179]
o7 call [42.9608] [54.4035]
G04 P0 ( dwell for no time -- G64 should not smooth over this point )
G00 Z1.00000 ( retract )

G00 X40.42080 Y54.37810 ( rapid move to begin. )
F300.00000
o7 call [40.4208] [54.3781]
G04 P0 ( dwell for no time -- G64 should not smooth over this point )
F600.00000
o7 call [40.4208] [50.9999]
o7 call [41.9448] [50.9491]
o7 call [42.9608] [50.9999]
o7 call [42.9354] [55.3433]
o7 call [40.4208] [55.3179]
o7 call [40.4208] [54.4035]
G04 P0 ( dwell for no time -- G64 should not smooth over this point )
G00 Z1.00000 ( retract )

G00 X37.88080 Y54.37810 ( rapid move to begin. )
F300.00000
o7 call [37.8808] [54.3781]
G04 P0 ( dwell for no time -- G64 should not smooth over this point )
F600.00000
o7 call [37.8808] [50.9999]
o7 call [39.4048] [50.9491]
o7 call [40.4208] [50.9999]
o7 call [40.3954] [55.3433]
o7 call [37.8808] [55.3179]
o7 call [37.8808] [54.4035]
G04 P0 ( dwell for no time -- G64 should not smooth over this point )
G00 Z1.00000 ( retract )

G00 X35.34080 Y54.37810 ( rapid move to begin. )
F300.00000
o7 call [35.3408] [54.3781]
G04 P0 ( dwell for no time -- G64 should not smooth over this point )
F600.00000
o7 call [35.3408] [50.9999]
o7 call [36.8648] [50.9491]
o7 call [37.8808] [50.9999]
o7 call [37.8554] [55.3433]
o7 call [35.3408] [55.3179]
o7 call [35.3408] [54.4035]
G04 P0 ( dwell for no time -- G64 should not smooth over this point )
G00 Z1.00000 ( retract )

G00 X32.80080 Y54.37810 ( rapid move to begin. )
F300.00000
o7 call [32.8008] [54.3781]
G04 P0 ( dwell for no time -- G64 should not smooth over this point )
F600.00000
o7 call [32.8008] [50.9999]
o7 call [34.3248] [50.9491]
o7 call [35.3408] [50.9999]
o7 call [35.3154] [55.3433]
o7 call [32.8008] [55.3179]
o7 call [32.8008] [54.4035]
G04 P0 ( dwell for no time -- G64 should not smooth over this point )
G00 Z1.00000 ( retract )

G00 X30.26080 Y54.37810 ( rapid move to begin. )
F300.00000
o7 call [30.2608] [54.3781]
G04 P0 ( dwell for no time -- G64 should not smooth over this point )
F600.00000
o7 call [30.2608] [50.9999]
o7 call [31.7848] [50.9491]
o7 call [32.8008] [50.9999]
o7 call [32.7754] [55.3433]
o7 call [30.2608] [55.3179]
o7 call [30.2608] [54.4035]
G04 P0 ( dwell for no time -- G64 should not smooth over this point )
G00 Z1.00000 ( retract )

G00 X27.23820 Y54.37810 ( rapid move to begin. )
F300.00000
o7 call [27.2382] [54.3781]
G04 P0 ( dwell for no time -- G64 should not smooth over this point )
F600.00000
o7 call [27.2382] [51.5587]
o7 call [27.289] [51.3047]
o7 call [27.4668] [51.0761]
o7 call [27.797] [50.9999]
o7 call [28.9654] [50.9491]
o7 call [30.1084] [50.9745]
o7 call [30.2608] [51.0253]
o7 call [30.2608] [55.3433]
o7 call [27.6446] [55.3179]
o7 call [27.416] [55.1401]
o7 call [27.289] [54.9623]
o7 call [27.2382] [54.4035]
G04 P0 ( dwell for no time -- G64 should not smooth over this point )
G00 Z1.00000 ( retract )

G00 X23.65680 Y54.37810 ( rapid move to begin. )
F300.00000
o7 call [23.6568] [54.3781]
G04 P0 ( dwell for no time -- G64 should not smooth over this point )
F600.00000
o7 call [23.6568] [50.9999]
o7 call [24.0124] [50.9491]
o7 call [26.019] [50.9745]
o7 call [26.3746] [51.0253]
o7 call [26.6032] [51.2031]
o7 call [26.6794] [51.5333]
o7 call [26.654] [54.9115]
o7 call [26.5016] [55.1655]
o7 call [26.2476] [55.3179]
o7 call [23.6568] [55.3179]
o7 call [23.6568] [54.4035]
G04 P0 ( dwell for no time -- G64 should not smooth over this point )
G00 Z1.00000 ( retract )

G00 X21.11680 Y54.37810 ( rapid move to begin. )
F300.00000
o7 call [21.1168] [54.3781]
G04 P0 ( dwell for no time -- G64 should not smooth over this point )
F600.00000
o7 call [21.1168] [50.9999]
o7 call [21.4724] [50.9491]
o7 call [23.6568] [50.9999]
o7 call [23.6314] [55.3433]
o7 call [21.1168] [55.3179]
o7 call [21.1168] [54.4035]
G04 P0 ( dwell for no time -- G64 should not smooth over this point )
G00 Z1.00000 ( retract )

G00 X18.57680 Y54.37810 ( rapid move to begin. )
F300.00000
o7 call [18.5768] [54.3781]
G04 P0 ( dwell for no time -- G64 should not smooth over this point )
F600.00000
o7 call [18.5768] [50.9999]
o7 call [18.9324] [50.9491]
o7 call [21.1168] [50.9999]
o7 call [21.0914] [55.3433]
o7 call [18.5768] [55.3179]
o7 call [18.5768] [54.4035]
G04 P0 ( dwell for no time -- G64 should not smooth over this point )
G00 Z1.00000 ( retract )

G00 X16.03680 Y54.37810 ( rapid move to begin. )
F300.00000
o7 call [16.0368] [54.3781]
G04 P0 ( dwell for no time -- G64 should not smooth over this point )
F600.00000
o7 call [16.0368] [50.9999]
o7 call [16.3924] [50.9491]
o7 call [18.5768] [50.9999]
o7 call [18.5514] [55.3433]
o7 call [16.0368] [55.3179]
o7 call [16.0368] [54.4035]
G04 P0 ( dwell for no time -- G64 should not smooth over this point )
G00 Z1.00000 ( retract )

G00 X13.49680 Y54.37810 ( rapid move to begin. )
F300.00000
o7 call [13.4968] [54.3781]
G04 P0 ( dwell for no time -- G64 should not smooth over this point )
F600.00000
o7 call [13.4968] [50.9999]
o7 call [13.8524] [50.9491]
o7 call [16.0368] [50.9999]
o7 call [16.0114] [55.3433]
o7 call [13.4968] [55.3179]
o7 call [13.4968] [54.5051]
G04 P0 ( dwell for no time -- G64 should not smooth over this point )
G00 Z1.00000 ( retract )

G00 X10.95680 Y54.37810 ( rapid move to begin. )
F300.00000
o7 call [10.9568] [54.3781]
G04 P0 ( dwell for no time -- G64 should not smooth over this point )
F600.00000
o7 call [10.9568] [50.9999]
o7 call [11.3124] [50.9491]
o7 call [13.4968] [50.9999]
o7 call [13.4714] [55.3433]
o7 call [10.9568] [55.3179]
o7 call [10.9568] [54.5051]
G04 P0 ( dwell for no time -- G64 should not smooth over this point )
G00 Z1.00000 ( retract )

G00 X8.41680 Y54.37810 ( rapid move to begin. )
F300.00000
o7 call [8.4168] [54.3781]
G04 P0 ( dwell for no time -- G64 should not smooth over this point )
F600.00000
o7 call [8.4168] [50.9999]
o7 call [8.7724] [50.9491]
o7 call [10.9568] [50.9999]
o7 call [10.9314] [55.3433]
o7 call [8.4168] [55.3179]
o7 call [8.4168] [54.5051]
G04 P0 ( dwell for no time -- G64 should not smooth over this point )
G00 Z1.00000 ( retract )

G00 X5.39420 Y54.37810 ( rapid move to begin. )
F300.00000
o7 call [5.3942] [54.3781]
G04 P0 ( dwell for no time -- G64 should not smooth over this point )
F600.00000
o7 call [5.3942] [51.5587]
o7 call [5.445] [51.3047]
o7 call [5.6228] [51.0761]
o7 call [5.6228] [51.0253]
o7 call [5.9022] [50.8983]
o7 call [6.6388] [50.9745]
o7 call [8.2644] [50.9745]
o7 call [8.4168] [51.0253]
o7 call [8.4168] [55.3433]
o7 call [6.3848] [55.3433]
o7 call [6.2324] [55.2925]
o7 call [5.4196] [54.4797]
G04 P0 ( dwell for no time -- G64 should not smooth over this point )
G00 Z1.00000 ( retract )

G00 X67.09080 Y52.62550 ( rapid move to begin. )
F300.00000
o7 call [67.0908] [52.6255]
G04 P0 ( dwell for no time -- G64 should not smooth over this point )
F600.00000
o7 call [67.0908] [50.5681]
o7 call [70.1388] [50.5681]
o7 call [70.1388] [53.1081]
o7 call [67.0908] [53.1081]
o7 call [67.0908] [52.6509]
G04 P0 ( dwell for no time -- G64 should not smooth over this point )
G00 Z1.00000 ( retract )

G00 X64.55080 Y52.62550 ( rapid move to begin. )
F300.00000
o7 call [64.5508] [52.6255]
G04 P0 ( dwell for no time -- G64 should not smooth over this point )
F600.00000
o7 call [64.5508] [50.5681]
o7 call [67.0908] [50.5681]
o7 call [67.0908] [53.1081]
o7 call [64.5508] [53.1081]
o7 call [64.5508] [52.6509]
G04 P0 ( dwell for no time -- G64 should not smooth over this point )
G00 Z1.00000 ( retract )

G00 X62.01080 Y52.62550 ( rapid move to begin. )
F300.00000
o7 call [62.0108] [52.6255]
G04 P0 ( dwell for no time -- G64 should not smooth over this point )
F600.00000
o7 call [62.0108] [50.5681]
o7 call [64.5508] [50.5681]
o7 call [64.5508] [53.1081]
o7 call [62.0108] [53.1081]
o7 call [62.0108] [52.6509]
G04 P0 ( dwell for no time -- G64 should not smooth over this point )
G00 Z1.00000 ( retract )

G00 X58.96280 Y52.62550 ( rapid move to begin. )
F300.00000
o7 call [58.9628] [52.6255]
G04 P0 ( dwell for no time -- G64 should not smooth over this point )
F600.00000
o7 call [58.9882] [51.0507]
o7 call [59.1914] [50.8475]
o7 call [59.2676] [50.8221]
o7 call [59.3438] [50.6951]
o7 call [59.4708] [50.6189]
o7 call [59.4708] [50.5681]
o7 call [62.0108] [50.5681]
o7 call [62.0108] [53.1081]
o7 call [58.9882] [53.0827]
o7 call [58.9628] [52.6509]
G04 P0 ( dwell for no time -- G64 should not smooth over this point )
G00 Z1.00000 ( retract )

G00 X67.09080 Y50.08550 ( rapid move to begin. )
F300.00000
o7 call [67.0908] [50.0855]
G04 P0 ( dwell for no time -- G64 should not smooth over this point )
F600.00000
o7 call [67.0908] [48.0281]
o7 call [70.1388] [48.0281]
o7 call [70.1388] [50.5681]
o7 call [67.0908] [50.5681]
o7 call [67.0908] [50.1109]
G04 P0 ( dwell for no time -- G64 should not smooth over this point )
G00 Z1.00000 ( retract )

G00 X64.55080 Y50.08550 ( rapid move to begin. )
F300.00000
o7 call [64.5508] [50.0855]
G04 P0 ( dwell for no time -- G64 should not smooth over this point )
F600.00000
o7 call [64.5508] [48.0281]
o7 call [67.0908] [48.0281]
o7 call [67.0908] [50.5681]
o7 call [64.5508] [50.5681]
o7 call [64.5508] [50.1109]
G04 P0 ( dwell for no time -- G64 should not smooth over this point )
G00 Z1.00000 ( retract )

G00 X62.01080 Y50.08550 ( rapid move to begin. )
F300.00000
o7 call [62.0108] [50.0855]
G04 P0 ( dwell for no time -- G64 should not smooth over this point )
F600.00000
o7 call [62.0108] [48.0281]
o7 call [64.5508] [48.0281]
o7 call [64.5508] [50.5681]
o7 call [62.0108] [50.5681]
o7 call [62.0108] [50.1109]
G04 P0 ( dwell for no time -- G64 should not smooth over this point )
G00 Z1.00000 ( retract )

G00 X59.47080 Y50.08550 ( rapid move to begin. )
F300.00000
o7 call [59.4708] [50.0855]
G04 P0 ( dwell for no time -- G64 should not smooth over this point )
F600.00000
o7 call [59.4708] [48.0281]
o7 call [62.0108] [48.0281]
o7 call [62.0108] [50.5681]
o7 call [59.4708] [50.5681]
o7 call [59.4708] [50.1109]
G04 P0 ( dwell for no time -- G64 should not smooth over this point )
G00 Z1.00000 ( retract )

G00 X56.93080 Y50.08550 ( rapid move to begin. )
F300.00000
o7 call [56.9308] [50.0855]
G04 P0 ( dwell for no time -- G64 should not smooth over this point )
F600.00000
o7 call [56.9308] [48.0281]
o7 call [59.4708] [48.0281]
o7 call [59.4708] [50.6189]
o7 call [59.3438] [50.6951]
o7 call [59.2676] [50.8221]
o7 call [58.9374] [51.1015]
o7 call [56.9308] [51.0761]
o7 call [56.9308] [50.1109]
G04 P0 ( dwell for no time -- G64 should not smooth over this point )
G00 Z1.00000 ( retract )

G00 X54.39080 Y50.08550 ( rapid move to begin. )
F300.00000
o7 call [54.3908] [50.0855]
G04 P0 ( dwell for no time -- G64 should not smooth over this point )
F600.00000
o7 call [54.3908] [48.0281]
o7 call [56.9308] [48.0281]
o7 call [56.9308] [51.0761]
o7 call [54.3908] [51.0761]
o7 call [54.3908] [50.1109]
G04 P0 ( dwell for no time -- G64 should not smooth over this point )
G00 Z1.00000 ( retract )

G00 X51.85080 Y50.08550 ( rapid move to begin. )
F300.00000
o7 call [51.8508] [50.0855]
G04 P0 ( dwell for no time -- G64 should not smooth over this point )
F600.00000
o7 call [51.8508] [48.0281]
o7 call [54.3908] [48.0281]
o7 call [54.3908] [51.0761]
o7 call [53.6034] [51.1015]
o7 call [52.9176] [50.9745]
o7 call [52.1048] [50.9745]
o7 call [51.8508] [50.9237]
o7 call [51.8508] [50.1109]
G04 P0 ( dwell for no time -- G64 should not smooth over this point )
G00 Z1.00000 ( retract )

G00 X49.31080 Y50.08550 ( rapid move to begin. )
F300.00000
o7 call [49.3108] [50.0855]
G04 P0 ( dwell for no time -- G64 should not smooth over this point )
F600.00000
o7 call [49.3108] [48.0281]
o7 call [51.8508] [48.0281]
o7 call [51.8254] [50.9491]
o7 call [50.276] [50.9745]
o7 call [49.3108] [50.9237]
o7 call [49.3108] [50.1109]
G04 P0 ( dwell for no time -- G64 should not smooth over this point )
G00 Z1.00000 ( retract )

G00 X46.77080 Y50.08550 ( rapid move to begin. )
F300.00000
o7 call [46.7708] [50.0855]
G04 P0 ( dwell for no time -- G64 should not smooth over this point )
F600.00000
o7 call [46.7708] [48.0281]
o7 call [49.3108] [48.0281]
o7 call [49.2854] [50.9491]
o7 call [47.736] [50.9745]
o7 call [46.7708] [50.9237]
o7 call [46.7708] [50.1109]
G04 P0 ( dwell for no time -- G64 should not smooth over this point )
G00 Z1.00000 ( retract )

G00 X44.23080 Y50.08550 ( rapid move to begin. )
F300.00000
o7 call [44.2308] [50.0855]
G04 P0 ( dwell for no time -- G64 should not smooth over this point )
F600.00000
o7 call [44.2308] [48.0281]
o7 call [46.7708] [48.0281]
o7 call [46.7454] [50.9491]
o7 call [45.196] [50.9745]
o7 call [44.2308] [50.9237]
o7 call [44.2308] [50.1109]
G04 P0 ( dwell for no time -- G64 should not smooth over this point )
G00 Z1.00000 ( retract )

G00 X41.69080 Y50.08550 ( rapid move to begin. )
F300.00000
o7 call [41.6908] [50.0855]
G04 P0 ( dwell for no time -- G64 should not smooth over this point )
F600.00000
o7 call [41.6908] [48.0281]
o7 call [44.2308] [48.0281]
o7 call [44.2054] [50.9491]
o7 call [42.656] [50.9745]
o7 call [41.6908] [50.9237]
o7 call [41.6908] [50.1109]
G04 P0 ( dwell for no time -- G64 should not smooth over this point )
G00 Z1.00000 ( retract )

G00 X39.15080 Y50.08550 ( rapid move to begin. )
F300.00000
o7 call [39.1508] [50.0855]
G04 P0 ( dwell for no time -- G64 should not smooth over this point )
F600.00000
o7 call [39.1508] [48.0281]
o7 call [41.6908] [48.0281]
o7 call [41.6654] [50.9491]
o7 call [40.116] [50.9745]
o7 call [39.1508] [50.9237]
o7 call [39.1508] [50.1109]
G04 P0 ( dwell for no time -- G64 should not smooth over this point )
G00 Z1.00000 ( retract )

G00 X36.61080 Y50.08550 ( rapid move to begin. )
F300.00000
o7 call [36.6108] [50.0855]
G04 P0 ( dwell for no time -- G64 should not smooth over this point )
F600.00000
o7 call [36.6108] [48.0281]
o7 call [39.1508] [48.0281]
o7 call [39.1254] [50.9491]
o7 call [37.576] [50.9745]
o7 call [36.6108] [50.9237]
o7 call [36.6108] [50.1109]
G04 P0 ( dwell for no time -- G64 should not smooth over this point )
G00 Z1.00000 ( retract )

G00 X34.07080 Y50.08550 ( rapid move to begin. )
F300.00000
o7 call [34.0708] [50.0855]
G04 P0 ( dwell for no time -- G64 should not smooth over this point )
F600.00000
o7 call [34.0708] [48.0281]
o7 call [36.6108] [48.0281]
o7 call [36.5854] [50.9491]
o7 call [35.036] [50.9745]
o7 call [34.0708] [50.9237]
o7 call [34.0708] [50.1109]
G04 P0 ( dwell for no time -- G64 should not smooth over this point )
G00 Z1.00000 ( retract )

G00 X31.53080 Y50.08550 ( rapid move to begin. )
F300.00000
o7 call [31.5308] [50.0855]
G04 P0 ( dwell for no time -- G64 should not smooth over this point )
F600.00000
o7 call [31.5308] [48.0281]
o7 call [34.0708] [48.0281]
o7 call [34.0454] [50.9491]
o7 call [32.496] [50.9745]
o7 call [31.5308] [50.9237]
o7 call [31.5308] [50.1109]
G04 P0 ( dwell for no time -- G64 should not smooth over this point )
G00 Z1.00000 ( retract )

G00 X28.99080 Y50.08550 ( rapid move to begin. )
F300.00000
o7 call [28.9908] [50.0855]
G04 P0 ( dwell for no time -- G64 should not smooth over this point )
F600.00000
o7 call [28.9908] [48.0281]
o7 call [31.5308] [48.0281]
o7 call [31.5054] [50.9491]
o7 call [29.956] [50.9745]
o7 call [28.9908] [50.9237]
o7 call [28.9908] [50.1109]
G04 P0 ( dwell for no time -- G64 should not smooth over this point )
G00 Z1.00000 ( retract )

G00 X26.45080 Y50.08550 ( rapid move to begin. )
F300.00000
o7 call [26.4508] [50.0855]
G04 P0 ( dwell for no time -- G64 should not smooth over this point )
F600.00000
o7 call [26.4508] [48.0281]
o7 call [28.9908] [48.0281]
o7 call [28.9654] [50.9491]
o7 call [27.797] [50.9999]
o7 call [27.4668] [51.0761]
o7 call [26.5016] [51.0761]
o7 call [26.4508] [51.0253]
o7 call [26.4508] [50.1109]
G04 P0 ( dwell for no time -- G64 should not smooth over this point )
G00 Z1.00000 ( retract )

G00 X23.91080 Y50.08550 ( rapid move to begin. )
F300.00000
o7 call [23.9108] [50.0855]
G04 P0 ( dwell for no time -- G64 should not smooth over this point )
F600.00000
o7 call [23.9108] [48.0281]
o7 call [26.4508] [48.0281]
o7 call [26.4254] [51.0507]
o7 call [25.6888] [50.9745]
o7 call [23.9108] [50.9237]
o7 call [23.9108] [50.1109]
G04 P0 ( dwell for no time -- G64 should not smooth over this point )
G00 Z1.00000 ( retract )

G00 X21.37080 Y50.08550 ( rapid move to begin. )
F300.00000
o7 call [21.3708] [50.0855]
G04 P0 ( dwell for no time -- G64 should not smooth over this point )
F600.00000
o7 call [21.3708] [48.0281]
o7 call [23.9108] [48.0281]
o7 call [23.8854] [50.9491]
o7 call [23.5298] [50.9999]
o7 call [21.9296] [50.9745]
o7 call [21.3708] [50.9237]
o7 call [21.3708] [50.1109]
G04 P0 ( dwell for no time -- G64 should not smooth over this point )
G00 Z1.00000 ( retract )

G00 X18.83080 Y50.08550 ( rapid move to begin. )
F300.00000
o7 call [18.8308] [50.0855]
G04 P0 ( dwell for no time -- G64 should not smooth over this point )
F600.00000
o7 call [18.8308] [48.0281]
o7 call [21.3708] [48.0281]
o7 call [21.3454] [50.9491]
o7 call [20.9898] [50.9999]
o7 call [19.3896] [50.9745]
o7 call [18.8308] [50.9237]
o7 call [18.8308] [50.1109]
G04 P0 ( dwell for no time -- G64 should not smooth over this point )
G00 Z1.00000 ( retract )

G00 X16.29080 Y50.08550 ( rapid move to begin. )
F300.00000
o7 call [16.2908] [50.0855]
G04 P0 ( dwell for no time -- G64 should not smooth over this point )
F600.00000
o7 call [16.2908] [48.0281]
o7 call [18.8308] [48.0281]
o7 call [18.8054] [50.9491]
o7 call [18.4498] [50.9999]
o7 call [16.8496] [50.9745]
o7 call [16.2908] [50.9237]
o7 call [16.2908] [50.1109]
G04 P0 ( dwell for no time -- G64 should not smooth over this point )
G00 Z1.00000 ( retract )

G00 X13.75080 Y50.08550 ( rapid move to begin. )
F300.00000
o7 call [13.7508] [50.0855]
G04 P0 ( dwell for no time -- G64 should not smooth over this point )
F600.00000
o7 call [13.7508] [48.0281]
o7 call [16.2908] [48.0281]
o7 call [16.2654] [50.9491]
o7 call [15.9098] [50.9999]
o7 call [14.3096] [50.9745]
o7 call [13.7508] [50.9237]
o7 call [13.7508] [50.1109]
G04 P0 ( dwell for no time -- G64 should not smooth over this point )
G00 Z1.00000 ( retract )

G00 X11.21080 Y50.08550 ( rapid move to begin. )
F300.00000
o7 call [11.2108] [50.0855]
G04 P0 ( dwell for no time -- G64 should not smooth over this point )
F600.00000
o7 call [11.2108] [48.0281]
o7 call [13.7508] [48.0281]
o7 call [13.7254] [50.9491]
o7 call [13.3698] [50.9999]
o7 call [11.7696] [50.9745]
o7 call [11.2108] [50.9237]
o7 call [11.2108] [50.1109]
G04 P0 ( dwell for no time -- G64 should not smooth over this point )
G00 Z1.00000 ( retract )

G00 X8.67080 Y50.08550 ( rapid move to begin. )
F300.00000
o7 call [8.6708] [50.0855]
G04 P0 ( dwell for no time -- G64 should not smooth over this point )
F600.00000
o7 call [8.6708] [48.0281]
o7 call [11.2108] [48.0281]
o7 call [11.1854] [50.9491]
o7 call [10.8298] [50.9999]
o7 call [9.2296] [50.9745]
o7 call [8.6708] [50.9237]
o7 call [8.6708] [50.1109]
G04 P0 ( dwell for no time -- G64 should not smooth over this point )
G00 Z1.00000 ( retract )

G00 X5.62280 Y50.08550 ( rapid move to begin. )
F300.00000
o7 call [5.6228] [50.0855]
G04 P0 ( dwell for no time -- G64 should not smooth over this point )
F600.00000
o7 call [5.6228] [48.4853]
o7 call [5.6736] [48.0281]
o7 call [8.6708] [48.0281]
o7 call [8.6454] [50.9491]
o7 call [8.2898] [50.9999]
o7 call [6.1054] [50.9491]
o7 call [5.8514] [50.8983]
o7 call [5.6736] [50.6697]
o7 call [5.6228] [50.5173]
o7 call [5.6228] [50.1109]
G04 P0 ( dwell for no time -- G64 should not smooth over this point )
G00 Z1.00000 ( retract )

G00 X67.09080 Y47.54550 ( rapid move to begin. )
F300.00000
o7 call [67.0908] [47.5455]
G04 P0 ( dwell for no time -- G64 should not smooth over this point )
F600.00000
o7 call [67.0908] [45.4881]
o7 call [70.1388] [45.4881]
o7 call [70.1388] [48.0281]
o7 call [67.0908] [48.0281]
o7 call [67.0908] [47.5709]
G04 P0 ( dwell for no time -- G64 should not smooth over this point )
G00 Z1.00000 ( retract )

G00 X64.55080 Y47.54550 ( rapid move to begin. )
F300.00000
o7 call [64.5508] [47.5455]
G04 P0 ( dwell for no time -- G64 should not smooth over this point )
F600.00000
o7 call [64.5508] [45.4881]
o7 call [67.0908] [45.4881]
o7 call [67.0908] [48.0281]
o7 call [64.5508] [48.0281]
o7 call [64.5508] [47.5709]
G04 P0 ( dwell for no time -- G64 should not smooth over this point )
G00 Z1.00000 ( retract )

G00 X62.01080 Y47.54550 ( rapid move to begin. )
F300.00000
o7 call [62.0108] [47.5455]
G04 P0 ( dwell for no time -- G64 should not smooth over this point )
F600.00000
o7 call [62.0108] [45.4881]
o7 call [64.5508] [45.4881]
o7 call [64.5508] [48.0281]
o7 call [62.0108] [48.0281]
o7 call [62.0108] [47.5709]
G04 P0 ( dwell for no time -- G64 should not smooth over this point )
G00 Z1.00000 ( retract )

G00 X59.47080 Y47.54550 ( rapid move to begin. )
F300.00000
o7 call [59.4708] [47.5455]
G04 P0 ( dwell for no time -- G64 should not smooth over this point )
F600.00000
o7 call [59.4708] [45.4881]
o7 call [62.0108] [45.4881]
o7 call [62.0108] [48.0281]
o7 call [59.4708] [48.0281]
o7 call [59.4708] [47.5709]
G04 P0 ( dwell for no time -- G64 should not smooth over this point )
G00 Z1.00000 ( retract )

G00 X56.93080 Y47.54550 ( rapid move to begin. )
F300.00000
o7 call [56.9308] [47.5455]
G04 P0 ( dwell for no time -- G64 should not smooth over this point )
F600.00000
o7 call [56.9308] [45.4881]
o7 call [59.4708] [45.4881]
o7 call [59.4708] [48.0281]
o7 call [56.9308] [48.0281]
o7 call [56.9308] [47.5709]
G04 P0 ( dwell for no time -- G64 should not smooth over this point )
G00 Z1.00000 ( retract )

G00 X54.39080 Y47.54550 ( rapid move to begin. )
F300.00000
o7 call [54.3908] [47.5455]
G04 P0 ( dwell for no time -- G64 should not smooth over this point )
F600.00000
o7 call [54.3908] [45.4881]
o7 call [56.9308] [45.4881]
o7 call [56.9308] [48.0281]
o7 call [54.3908] [48.0281]
o7 call [54.3908] [47.5709]
G04 P0 ( dwell for no time -- G64 should not smooth over this point )
G00 Z1.00000 ( retract )

G00 X51.85080 Y47.54550 ( rapid move to begin. )
F300.00000
o7 call [51.8508] [47.5455]
G04 P0 ( dwell for no time -- G64 should not smooth over this point )
F600.00000
o7 call [51.8508] [45.4881]
o7 call [54.3908] [45.4881]
o7 call [54.3908] [48.0281]
o7 call [51.8508] [48.0281]
o7 call [51.8508] [47.5709]
G04 P0 ( dwell for no time -- G64 should not smooth over this point )
G00 Z1.00000 ( retract )

G00 X49.31080 Y47.54550 ( rapid move to begin. )
F300.00000
o7 call [49.3108] [47.5455]
G04 P0 ( dwell for no time -- G64 should not smooth over this point )
F600.00000
o7 call [49.3108] [45.4881]
o7 call [51.8508] [45.4881]
o7 call [51.8508] [48.0281]
o7 call [49.3108] [48.0281]
o7 call [49.3108] [47.5709]
G04 P0 ( dwell for no time -- G64 should not smooth over this point )
G00 Z1.00000 ( retract )

G00 X46.77080 Y47.54550 ( rapid move to begin. )
F300.00000
o7 call [46.7708] [47.5455]
G04 P0 ( dwell for no time -- G64 should not smooth over this point )
F600.00000
o7 call [46.7708] [45.4881]
o7 call [49.3108] [45.4881]
o7 call [49.3108] [48.0281]
o7 call [46.7708] [48.0281]
o7 call [46.7708] [47.5709]
G04 P0 ( dwell for no time -- G64 should not smooth over this point )
G00 Z1.00000 ( retract )

G00 X44.23080 Y47.54550 ( rapid move to begin. )
F300.00000
o7 call [44.2308] [47.5455]
G04 P0 ( dwell for no time -- G64 should not smooth over this point )
F600.00000
o7 call [44.2308] [45.4881]
o7 call [46.7708] [45.4881]
o7 call [46.7708] [48.0281]
o7 call [44.2308] [48.0281]
o7 call [44.2308] [47.5709]
G04 P0 ( dwell for no time -- G64 should not smooth over this point )
G00 Z1.00000 ( retract )

G00 X41.69080 Y47.54550 ( rapid move to begin. )
F300.00000
o7 call [41.6908] [47.5455]
G04 P0 ( dwell for no time -- G64 should not smooth over this point )
F600.00000
o7 call [41.6908] [45.4881]
o7 call [44.2308] [45.4881]
o7 call [44.2308] [48.0281]
o7 call [41.6908] [48.0281]
o7 call [41.6908] [47.5709]
G04 P0 ( dwell for no time -- G64 should not smooth over this point )
G00 Z1.00000 ( retract )

G00 X39.15080 Y47.54550 ( rapid move to begin. )
F300.00000
o7 call [39.1508] [47.5455]
G04 P0 ( dwell for no time -- G64 should not smooth over this point )
F600.00000
o7 call [39.1508] [45.4881]
o7 call [41.6908] [45.4881]
o7 call [41.6908] [48.0281]
o7 call [39.1508] [48.0281]
o7 call [39.1508] [47.5709]
G04 P0 ( dwell for no time -- G64 should not smooth over this point )
G00 Z1.00000 ( retract )

G00 X36.61080 Y47.54550 ( rapid move to begin. )
F300.00000
o7 call [36.6108] [47.5455]
G04 P0 ( dwell for no time -- G64 should not smooth over this point )
F600.00000
o7 call [36.6108] [45.4881]
o7 call [39.1508] [45.4881]
o7 call [39.1508] [48.0281]
o7 call [36.6108] [48.0281]
o7 call [36.6108] [47.5709]
G04 P0 ( dwell for no time -- G64 should not smooth over this point )
G00 Z1.00000 ( retract )

G00 X34.07080 Y47.54550 ( rapid move to begin. )
F300.00000
o7 call [34.0708] [47.5455]
G04 P0 ( dwell for no time -- G64 should not smooth over this point )
F600.00000
o7 call [34.0708] [45.4881]
o7 call [36.6108] [45.4881]
o7 call [36.6108] [48.0281]
o7 call [34.0708] [48.0281]
o7 call [34.0708] [47.5709]
G04 P0 ( dwell for no time -- G64 should not smooth over this point )
G00 Z1.00000 ( retract )

G00 X31.53080 Y47.54550 ( rapid move to begin. )
F300.00000
o7 call [31.5308] [47.5455]
G04 P0 ( dwell for no time -- G64 should not smooth over this point )
F600.00000
o7 call [31.5308] [45.4881]
o7 call [34.0708] [45.4881]
o7 call [34.0708] [48.0281]
o7 call [31.5308] [48.0281]
o7 call [31.5308] [47.5709]
G04 P0 ( dwell for no time -- G64 should not smooth over this point )
G00 Z1.00000 ( retract )

G00 X28.99080 Y47.54550 ( rapid move to begin. )
F300.00000
o7 call [28.9908] [47.5455]
G04 P0 ( dwell for no time -- G64 should not smooth over this point )
F600.00000
o7 call [28.9908] [45.4881]
o7 call [31.5308] [45.4881]
o7 call [31.5308] [48.0281]
o7 call [28.9908] [48.0281]
o7 call [28.9908] [47.5709]
G04 P0 ( dwell for no time -- G64 should not smooth over this point )
G00 Z1.00000 ( retract )

G00 X26.45080 Y47.54550 ( rapid move to begin. )
F300.00000
o7 call [26.4508] [47.5455]
G04 P0 ( dwell for no time -- G64 should not smooth over this point )
F600.00000
o7 call [26.4508] [45.4881]
o7 call [28.9908] [45.4881]
o7 call [28.9908] [48.0281]
o7 call [26.4508] [48.0281]
o7 call [26.4508] [47.6217]
G04 P0 ( dwell for no time -- G64 should not smooth over this point )
G00 Z1.00000 ( retract )

G00 X23.91080 Y47.54550 ( rapid move to begin. )
F300.00000
o7 call [23.9108] [47.5455]
G04 P0 ( dwell for no time -- G64 should not smooth over this point )
F600.00000
o7 call [23.9108] [45.4881]
o7 call [26.4508] [45.4881]
o7 call [26.4508] [48.0281]
o7 call [23.9108] [48.0281]
o7 call [23.9108] [47.6217]
G04 P0 ( dwell for no time -- G64 should not smooth over this point )
G00 Z1.00000 ( retract )

G00 X21.37080 Y47.54550 ( rapid move to begin. )
F300.00000
o7 call [21.3708] [47.5455]
G04 P0 ( dwell for no time -- G64 should not smooth over this point )
F600.00000
o7 call [21.3708] [45.4881]
o7 call [23.9108] [45.4881]
o7 call [23.9108] [48.0281]
o7 call [21.3708] [48.0281]
o7 call [21.3708] [47.6217]
G04 P0 ( dwell for no time -- G64 should not smooth over this point )
G00 Z1.00000 ( retract )

G00 X18.83080 Y47.54550 ( rapid move to begin. )
F300.00000
o7 call [18.8308] [47.5455]
G04 P0 ( dwell for no time -- G64 should not smooth over this point )
F600.00000
o7 call [18.8308] [45.4881]
o7 call [21.3708] [45.4881]
o7 call [21.3708] [48.0281]
o7 call [18.8308] [48.0281]
o7 call [18.8308] [47.6217]
G04 P0 ( dwell for no time -- G64 should not smooth over this point )
G00 Z1.00000 ( retract )

G00 X16.29080 Y47.54550 ( rapid move to begin. )
F300.00000
o7 call [16.2908] [47.5455]
G04 P0 ( dwell for no time -- G64 should not smooth over this point )
F600.00000
o7 call [16.2908] [45.4881]
o7 call [18.8308] [45.4881]
o7 call [18.8308] [48.0281]
o7 call [16.2908] [48.0281]
o7 call [16.2908] [47.6217]
G04 P0 ( dwell for no time -- G64 should not smooth over this point )
G00 Z1.00000 ( retract )

G00 X13.75080 Y47.54550 ( rapid move to begin. )
F300.00000
o7 call [13.7508] [47.5455]
G04 P0 ( dwell for no time -- G64 should not smooth over this point )
F600.00000
o7 call [13.7508] [45.4881]
o7 call [16.2908] [45.4881]
o7 call [16.2908] [48.0281]
o7 call [13.7508] [48.0281]
o7 call [13.7508] [47.6217]
G04 P0 ( dwell for no time -- G64 should not smooth over this point )
G00 Z1.00000 ( retract )

G00 X11.21080 Y47.54550 ( rapid move to begin. )
F300.00000
o7 call [11.2108] [47.5455]
G04 P0 ( dwell for no time -- G64 should not smooth over this point )
F600.00000
o7 call [11.2108] [45.4881]
o7 call [13.7508] [45.4881]
o7 call [13.7508] [48.0281]
o7 call [11.2108] [48.0281]
o7 call [11.2108] [47.6217]
G04 P0 ( dwell for no time -- G64 should not smooth over this point )
G00 Z1.00000 ( retract )

G00 X8.67080 Y47.54550 ( rapid move to begin. )
F300.00000
o7 call [8.6708] [47.5455]
G04 P0 ( dwell for no time -- G64 should not smooth over this point )
F600.00000
o7 call [8.6708] [45.4881]
o7 call [11.2108] [45.4881]
o7 call [11.2108] [48.0281]
o7 call [8.6708] [48.0281]
o7 call [8.6708] [47.6217]
G04 P0 ( dwell for no time -- G64 should not smooth over this point )
G00 Z1.00000 ( retract )

G00 X5.62280 Y47.54550 ( rapid move to begin. )
F300.00000
o7 call [5.6228] [47.5455]
G04 P0 ( dwell for no time -- G64 should not smooth over this point )
F600.00000
o7 call [5.6228] [45.9453]
o7 call [5.6736] [45.4881]
o7 call [8.6708] [45.4881]
o7 call [8.6708] [48.0281]
o7 call [5.6482] [48.0027]
G04 P0 ( dwell for no time -- G64 should not smooth over this point )
G00 Z1.00000 ( retract )

G00 X67.09080 Y45.00550 ( rapid move to begin. )
F300.00000
o7 call [67.0908] [45.0055]
G04 P0 ( dwell for no time -- G64 should not smooth over this point )
F600.00000
o7 call [67.0908] [42.9481]
o7 call [70.1388] [42.9481]
o7 call [70.1388] [45.4881]
o7 call [67.0908] [45.4881]
o7 call [67.0908] [45.0309]
G04 P0 ( dwell for no time -- G64 should not smooth over this point )
G00 Z1.00000 ( retract )

G00 X64.55080 Y45.00550 ( rapid move to begin. )
F300.00000
o7 call [64.5508] [45.0055]
G04 P0 ( dwell for no time -- G64 should not smooth over this point )
F600.00000
o7 call [64.5508] [42.9481]
o7 call [67.0908] [42.9481]
o7 call [67.0908] [45.4881]
o7 call [64.5508] [45.4881]
o7 call [64.5508] [45.0309]
G04 P0 ( dwell for no time -- G64 should not smooth over this point )
G00 Z1.00000 ( retract )

G00 X62.01080 Y45.00550 ( rapid move to begin. )
F300.00000
o7 call [62.0108] [45.0055]
G04 P0 ( dwell for no time -- G64 should not smooth over this point )
F600.00000
o7 call [62.0108] [42.9481]
o7 call [64.5508] [42.9481]
o7 call [64.5508] [45.4881]
o7 call [62.0108] [45.4881]
o7 call [62.0108] [45.0309]
G04 P0 ( dwell for no time -- G64 should not smooth over this point )
G00 Z1.00000 ( retract )

G00 X59.47080 Y45.00550 ( rapid move to begin. )
F300.00000
o7 call [59.4708] [45.0055]
G04 P0 ( dwell for no time -- G64 should not smooth over this point )
F600.00000
o7 call [59.4708] [42.9481]
o7 call [62.0108] [42.9481]
o7 call [62.0108] [45.4881]
o7 call [59.4708] [45.4881]
o7 call [59.4708] [45.0309]
G04 P0 ( dwell for no time -- G64 should not smooth over this point )
G00 Z1.00000 ( retract )

G00 X56.93080 Y45.00550 ( rapid move to begin. )
F300.00000
o7 call [56.9308] [45.0055]
G04 P0 ( dwell for no time -- G64 should not smooth over this point )
F600.00000
o7 call [56.9308] [42.9481]
o7 call [59.4708] [42.9481]
o7 call [59.4708] [45.4881]
o7 call [56.9308] [45.4881]
o7 call [56.9308] [45.0309]
G04 P0 ( dwell for no time -- G64 should not smooth over this point )
G00 Z1.00000 ( retract )

G00 X54.39080 Y45.00550 ( rapid move to begin. )
F300.00000
o7 call [54.3908] [45.0055]
G04 P0 ( dwell for no time -- G64 should not smooth over this point )
F600.00000
o7 call [54.3908] [42.9481]
o7 call [56.9308] [42.9481]
o7 call [56.9308] [45.4881]
o7 call [54.3908] [45.4881]
o7 call [54.3908] [45.0309]
G04 P0 ( dwell for no time -- G64 should not smooth over this point )
G00 Z1.00000 ( retract )

G00 X51.85080 Y45.00550 ( rapid move to begin. )
F300.00000
o7 call [51.8508] [45.0055]
G04 P0 ( dwell for no time -- G64 should not smooth over this point )
F600.00000
o7 call [51.8508] [42.9481]
o7 call [54.3908] [42.9481]
o7 call [54.3908] [45.4881]
o7 call [51.8508] [45.4881]
o7 call [51.8508] [45.0309]
G04 P0 ( dwell for no time -- G64 should not smooth over this point )
G00 Z1.00000 ( retract )

G00 X49.31080 Y45.00550 ( rapid move to begin. )
F300.00000
o7 call [49.3108] [45.0055]
G04 P0 ( dwell for no time -- G64 should not smooth over this point )
F600.00000
o7 call [49.3108] [42.9481]
o7 call [51.8508] [42.9481]
o7 call [51.8508] [45.4881]
o7 call [49.3108] [45.4881]
o7 call [49.3108] [45.0309]
G04 P0 ( dwell for no time -- G64 should not smooth over this point )
G00 Z1.00000 ( retract )

G00 X46.77080 Y45.00550 ( rapid move to begin. )
F300.00000
o7 call [46.7708] [45.0055]
G04 P0 ( dwell for no time -- G64 should not smooth over this point )
F600.00000
o7 call [46.7708] [42.9481]
o7 call [49.3108] [42.9481]
o7 call [49.3108] [45.4881]
o7 call [46.7708] [45.4881]
o7 call [46.7708] [45.0309]
G04 P0 ( dwell for no time -- G64 should not smooth over this point )
G00 Z1.00000 ( retract )

G00 X44.23080 Y45.00550 ( rapid move to begin. )
F300.00000
o7 call [44.2308] [45.0055]
G04 P0 ( dwell for no time -- G64 should not smooth over this point )
F600.00000
o7 call [44.2308] [42.9481]
o7 call [46.7708] [42.9481]
o7 call [46.7708] [45.4881]
o7 call [44.2308] [45.4881]
o7 call [44.2308] [45.0309]
G04 P0 ( dwell for no time -- G64 should not smooth over this point )
G00 Z1.00000 ( retract )

G00 X41.69080 Y45.00550 ( rapid move to begin. )
F300.00000
o7 call [41.6908] [45.0055]
G04 P0 ( dwell for no time -- G64 should not smooth over this point )
F600.00000
o7 call [41.6908] [42.9481]
o7 call [44.2308] [42.9481]
o7 call [44.2308] [45.4881]
o7 call [41.6908] [45.4881]
o7 call [41.6908] [45.0309]
G04 P0 ( dwell for no time -- G64 should not smooth over this point )
G00 Z1.00000 ( retract )

G00 X39.15080 Y45.00550 ( rapid move to begin. )
F300.00000
o7 call [39.1508] [45.0055]
G04 P0 ( dwell for no time -- G64 should not smooth over this point )
F600.00000
o7 call [39.1508] [42.9481]
o7 call [41.6908] [42.9481]
o7 call [41.6908] [45.4881]
o7 call [39.1508] [45.4881]
o7 call [39.1508] [45.0309]
G04 P0 ( dwell for no time -- G64 should not smooth over this point )
G00 Z1.00000 ( retract )

G00 X36.61080 Y45.00550 ( rapid move to begin. )
F300.00000
o7 call [36.6108] [45.0055]
G04 P0 ( dwell for no time -- G64 should not smooth over this point )
F600.00000
o7 call [36.6108] [42.9481]
o7 call [39.1508] [42.9481]
o7 call [39.1508] [45.4881]
o7 call [36.6108] [45.4881]
o7 call [36.6108] [45.0309]
G04 P0 ( dwell for no time -- G64 should not smooth over this point )
G00 Z1.00000 ( retract )

G00 X34.07080 Y45.00550 ( rapid move to begin. )
F300.00000
o7 call [34.0708] [45.0055]
G04 P0 ( dwell for no time -- G64 should not smooth over this point )
F600.00000
o7 call [34.0708] [42.9481]
o7 call [36.6108] [42.9481]
o7 call [36.6108] [45.4881]
o7 call [34.0708] [45.4881]
o7 call [34.0708] [45.0309]
G04 P0 ( dwell for no time -- G64 should not smooth over this point )
G00 Z1.00000 ( retract )

G00 X31.53080 Y45.00550 ( rapid move to begin. )
F300.00000
o7 call [31.5308] [45.0055]
G04 P0 ( dwell for no time -- G64 should not smooth over this point )
F600.00000
o7 call [31.5308] [42.9481]
o7 call [34.0708] [42.9481]
o7 call [34.0708] [45.4881]
o7 call [31.5308] [45.4881]
o7 call [31.5308] [45.0309]
G04 P0 ( dwell for no time -- G64 should not smooth over this point )
G00 Z1.00000 ( retract )

G00 X28.99080 Y45.00550 ( rapid move to begin. )
F300.00000
o7 call [28.9908] [45.0055]
G04 P0 ( dwell for no time -- G64 should not smooth over this point )
F600.00000
o7 call [28.9908] [42.9481]
o7 call [31.5308] [42.9481]
o7 call [31.5308] [45.4881]
o7 call [28.9908] [45.4881]
o7 call [28.9908] [45.0309]
G04 P0 ( dwell for no time -- G64 should not smooth over this point )
G00 Z1.00000 ( retract )

G00 X26.45080 Y45.00550 ( rapid move to begin. )
F300.00000
o7 call [26.4508] [45.0055]
G04 P0 ( dwell for no time -- G64 should not smooth over this point )
F600.00000
o7 call [26.4508] [42.9481]
o7 call [28.9908] [42.9481]
o7 call [28.9908] [45.4881]
o7 call [26.4508] [45.4881]
o7 call [26.4508] [45.0817]
G04 P0 ( dwell for no time -- G64 should not smooth over this point )
G00 Z1.00000 ( retract )

G00 X23.91080 Y45.00550 ( rapid move to begin. )
F300.00000
o7 call [23.9108] [45.0055]
G04 P0 ( dwell for no time -- G64 should not smooth over this point )
F600.00000
o7 call [23.9108] [42.9481]
o7 call [26.4508] [42.9481]
o7 call [26.4508] [45.4881]
o7 call [23.9108] [45.4881]
o7 call [23.9108] [45.0817]
G04 P0 ( dwell for no time -- G64 should not smooth over this point )
G00 Z1.00000 ( retract )

G00 X21.37080 Y45.00550 ( rapid move to begin. )
F300.00000
o7 call [21.3708] [45.0055]
G04 P0 ( dwell for no time -- G64 should not smooth over this point )
F600.00000
o7 call [21.3708] [42.9481]
o7 call [23.9108] [42.9481]
o7 call [23.9108] [45.4881]
o7 call [21.3708] [45.4881]
o7 call [21.3708] [45.0817]
G04 P0 ( dwell for no time -- G64 should not smooth over this point )
G00 Z1.00000 ( retract )

G00 X18.83080 Y45.00550 ( rapid move to begin. )
F300.00000
o7 call [18.8308] [45.0055]
G04 P0 ( dwell for no time -- G64 should not smooth over this point )
F600.00000
o7 call [18.8308] [42.9481]
o7 call [21.3708] [42.9481]
o7 call [21.3708] [45.4881]
o7 call [18.8308] [45.4881]
o7 call [18.8308] [45.0817]
G04 P0 ( dwell for no time -- G64 should not smooth over this point )
G00 Z1.00000 ( retract )

G00 X16.29080 Y45.00550 ( rapid move to begin. )
F300.00000
o7 call [16.2908] [45.0055]
G04 P0 ( dwell for no time -- G64 should not smooth over this point )
F600.00000
o7 call [16.2908] [42.9481]
o7 call [18.8308] [42.9481]
o7 call [18.8308] [45.4881]
o7 call [16.2908] [45.4881]
o7 call [16.2908] [45.0817]
G04 P0 ( dwell for no time -- G64 should not smooth over this point )
G00 Z1.00000 ( retract )

G00 X13.75080 Y45.00550 ( rapid move to begin. )
F300.00000
o7 call [13.7508] [45.0055]
G04 P0 ( dwell for no time -- G64 should not smooth over this point )
F600.00000
o7 call [13.7508] [42.9481]
o7 call [16.2908] [42.9481]
o7 call [16.2908] [45.4881]
o7 call [13.7508] [45.4881]
o7 call [13.7508] [45.0817]
G04 P0 ( dwell for no time -- G64 should not smooth over this point )
G00 Z1.00000 ( retract )

G00 X11.21080 Y45.00550 ( rapid move to begin. )
F300.00000
o7 call [11.2108] [45.0055]
G04 P0 ( dwell for no time -- G64 should not smooth over this point )
F600.00000
o7 call [11.2108] [42.9481]
o7 call [13.7508] [42.9481]
o7 call [13.7508] [45.4881]
o7 call [11.2108] [45.4881]
o7 call [11.2108] [45.0817]
G04 P0 ( dwell for no time -- G64 should not smooth over this point )
G00 Z1.00000 ( retract )

G00 X8.67080 Y45.00550 ( rapid move to begin. )
F300.00000
o7 call [8.6708] [45.0055]
G04 P0 ( dwell for no time -- G64 should not smooth over this point )
F600.00000
o7 call [8.6708] [42.9481]
o7 call [11.2108] [42.9481]
o7 call [11.2108] [45.4881]
o7 call [8.6708] [45.4881]
o7 call [8.6708] [45.0817]
G04 P0 ( dwell for no time -- G64 should not smooth over this point )
G00 Z1.00000 ( retract )

G00 X5.62280 Y45.00550 ( rapid move to begin. )
F300.00000
o7 call [5.6228] [45.0055]
G04 P0 ( dwell for no time -- G64 should not smooth over this point )
F600.00000
o7 call [5.6228] [43.4053]
o7 call [5.6736] [42.9481]
o7 call [8.6708] [42.9481]
o7 call [8.6708] [45.4881]
o7 call [5.6482] [45.4627]
G04 P0 ( dwell for no time -- G64 should not smooth over this point )
G00 Z1.00000 ( retract )

G00 X67.09080 Y42.46550 ( rapid move to begin. )
F300.00000
o7 call [67.0908] [42.4655]
G04 P0 ( dwell for no time -- G64 should not smooth over this point )
F600.00000
o7 call [67.0908] [40.4081]
o7 call [70.1388] [40.4081]
o7 call [70.1388] [42.9481]
o7 call [67.0908] [42.9481]
o7 call [67.0908] [42.4909]
G04 P0 ( dwell for no time -- G64 should not smooth over this point )
G00 Z1.00000 ( retract )

G00 X64.55080 Y42.46550 ( rapid move to begin. )
F300.00000
o7 call [64.5508] [42.4655]
G04 P0 ( dwell for no time -- G64 should not smooth over this point )
F600.00000
o7 call [64.5508] [40.4081]
o7 call [67.0908] [40.4081]
o7 call [67.0908] [42.9481]
o7 call [64.5508] [42.9481]
o7 call [64.5508] [42.4909]
G04 P0 ( dwell for no time -- G64 should not smooth over this point )
G00 Z1.00000 ( retract )

G00 X62.01080 Y42.46550 ( rapid move to begin. )
F300.00000
o7 call [62.0108] [42.4655]
G04 P0 ( dwell for no time -- G64 should not smooth over this point )
F600.00000
o7 call [62.0108] [40.4081]
o7 call [64.5508] [40.4081]
o7 call [64.5508] [42.9481]
o7 call [62.0108] [42.9481]
o7 call [62.0108] [42.4909]
G04 P0 ( dwell for no time -- G64 should not smooth over this point )
G00 Z1.00000 ( retract )

G00 X59.47080 Y42.46550 ( rapid move to begin. )
F300.00000
o7 call [59.4708] [42.4655]
G04 P0 ( dwell for no time -- G64 should not smooth over this point )
F600.00000
o7 call [59.4708] [40.4081]
o7 call [62.0108] [40.4081]
o7 call [62.0108] [42.9481]
o7 call [59.4708] [42.9481]
o7 call [59.4708] [42.4909]
G04 P0 ( dwell for no time -- G64 should not smooth over this point )
G00 Z1.00000 ( retract )

G00 X56.93080 Y42.46550 ( rapid move to begin. )
F300.00000
o7 call [56.9308] [42.4655]
G04 P0 ( dwell for no time -- G64 should not smooth over this point )
F600.00000
o7 call [56.9308] [40.4081]
o7 call [59.4708] [40.4081]
o7 call [59.4708] [42.9481]
o7 call [56.9308] [42.9481]
o7 call [56.9308] [42.4909]
G04 P0 ( dwell for no time -- G64 should not smooth over this point )
G00 Z1.00000 ( retract )

G00 X54.39080 Y42.46550 ( rapid move to begin. )
F300.00000
o7 call [54.3908] [42.4655]
G04 P0 ( dwell for no time -- G64 should not smooth over this point )
F600.00000
o7 call [54.3908] [40.4081]
o7 call [56.9308] [40.4081]
o7 call [56.9308] [42.9481]
o7 call [54.3908] [42.9481]
o7 call [54.3908] [42.4909]
G04 P0 ( dwell for no time -- G64 should not smooth over this point )
G00 Z1.00000 ( retract )

G00 X51.85080 Y42.46550 ( rapid move to begin. )
F300.00000
o7 call [51.8508] [42.4655]
G04 P0 ( dwell for no time -- G64 should not smooth over this point )
F600.00000
o7 call [51.8508] [40.4081]
o7 call [54.3908] [40.4081]
o7 call [54.3908] [42.9481]
o7 call [51.8508] [42.9481]
o7 call [51.8508] [42.4909]
G04 P0 ( dwell for no time -- G64 should not smooth over this point )
G00 Z1.00000 ( retract )

G00 X49.31080 Y42.46550 ( rapid move to begin. )
F300.00000
o7 call [49.3108] [42.4655]
G04 P0 ( dwell for no time -- G64 should not smooth over this point )
F600.00000
o7 call [49.3108] [40.4081]
o7 call [51.8508] [40.4081]
o7 call [51.8508] [42.9481]
o7 call [49.3108] [42.9481]
o7 call [49.3108] [42.4909]
G04 P0 ( dwell for no time -- G64 should not smooth over this point )
G00 Z1.00000 ( retract )

G00 X46.77080 Y42.46550 ( rapid move to begin. )
F300.00000
o7 call [46.7708] [42.4655]
G04 P0 ( dwell for no time -- G64 should not smooth over this point )
F600.00000
o7 call [46.7708] [40.4081]
o7 call [49.3108] [40.4081]
o7 call [49.3108] [42.9481]
o7 call [46.7708] [42.9481]
o7 call [46.7708] [42.4909]
G04 P0 ( dwell for no time -- G64 should not smooth over this point )
G00 Z1.00000 ( retract )

G00 X44.23080 Y42.46550 ( rapid move to begin. )
F300.00000
o7 call [44.2308] [42.4655]
G04 P0 ( dwell for no time -- G64 should not smooth over this point )
F600.00000
o7 call [44.2308] [40.4081]
o7 call [46.7708] [40.4081]
o7 call [46.7708] [42.9481]
o7 call [44.2308] [42.9481]
o7 call [44.2308] [42.4909]
G04 P0 ( dwell for no time -- G64 should not smooth over this point )
G00 Z1.00000 ( retract )

G00 X41.69080 Y42.46550 ( rapid move to begin. )
F300.00000
o7 call [41.6908] [42.4655]
G04 P0 ( dwell for no time -- G64 should not smooth over this point )
F600.00000
o7 call [41.6908] [40.4081]
o7 call [44.2308] [40.4081]
o7 call [44.2308] [42.9481]
o7 call [41.6908] [42.9481]
o7 call [41.6908] [42.4909]
G04 P0 ( dwell for no time -- G64 should not smooth over this point )
G00 Z1.00000 ( retract )

G00 X39.15080 Y42.46550 ( rapid move to begin. )
F300.00000
o7 call [39.1508] [42.4655]
G04 P0 ( dwell for no time -- G64 should not smooth over this point )
F600.00000
o7 call [39.1508] [40.4081]
o7 call [41.6908] [40.4081]
o7 call [41.6908] [42.9481]
o7 call [39.1508] [42.9481]
o7 call [39.1508] [42.4909]
G04 P0 ( dwell for no time -- G64 should not smooth over this point )
G00 Z1.00000 ( retract )

G00 X36.61080 Y42.46550 ( rapid move to begin. )
F300.00000
o7 call [36.6108] [42.4655]
G04 P0 ( dwell for no time -- G64 should not smooth over this point )
F600.00000
o7 call [36.6108] [40.4081]
o7 call [39.1508] [40.4081]
o7 call [39.1508] [42.9481]
o7 call [36.6108] [42.9481]
o7 call [36.6108] [42.4909]
G04 P0 ( dwell for no time -- G64 should not smooth over this point )
G00 Z1.00000 ( retract )

G00 X34.07080 Y42.46550 ( rapid move to begin. )
F300.00000
o7 call [34.0708] [42.4655]
G04 P0 ( dwell for no time -- G64 should not smooth over this point )
F600.00000
o7 call [34.0708] [40.4081]
o7 call [36.6108] [40.4081]
o7 call [36.6108] [42.9481]
o7 call [34.0708] [42.9481]
o7 call [34.0708] [42.4909]
G04 P0 ( dwell for no time -- G64 should not smooth over this point )
G00 Z1.00000 ( retract )

G00 X31.53080 Y42.46550 ( rapid move to begin. )
F300.00000
o7 call [31.5308] [42.4655]
G04 P0 ( dwell for no time -- G64 should not smooth over this point )
F600.00000
o7 call [31.5308] [40.4081]
o7 call [34.0708] [40.4081]
o7 call [34.0708] [42.9481]
o7 call [31.5308] [42.9481]
o7 call [31.5308] [42.4909]
G04 P0 ( dwell for no time -- G64 should not smooth over this point )
G00 Z1.00000 ( retract )

G00 X28.99080 Y42.46550 ( rapid move to begin. )
F300.00000
o7 call [28.9908] [42.4655]
G04 P0 ( dwell for no time -- G64 should not smooth over this point )
F600.00000
o7 call [28.9908] [40.4081]
o7 call [31.5308] [40.4081]
o7 call [31.5308] [42.9481]
o7 call [28.9908] [42.9481]
o7 call [28.9908] [42.4909]
G04 P0 ( dwell for no time -- G64 should not smooth over this point )
G00 Z1.00000 ( retract )

G00 X26.45080 Y42.46550 ( rapid move to begin. )
F300.00000
o7 call [26.4508] [42.4655]
G04 P0 ( dwell for no time -- G64 should not smooth over this point )
F600.00000
o7 call [26.4508] [40.4081]
o7 call [28.9908] [40.4081]
o7 call [28.9908] [42.9481]
o7 call [26.4508] [42.9481]
o7 call [26.4508] [42.4909]
G04 P0 ( dwell for no time -- G64 should not smooth over this point )
G00 Z1.00000 ( retract )

G00 X23.91080 Y42.46550 ( rapid move to begin. )
F300.00000
o7 call [23.9108] [42.4655]
G04 P0 ( dwell for no time -- G64 should not smooth over this point )
F600.00000
o7 call [23.9108] [40.4081]
o7 call [26.4508] [40.4081]
o7 call [26.4508] [42.9481]
o7 call [23.9108] [42.9481]
o7 call [23.9108] [42.5417]
G04 P0 ( dwell for no time -- G64 should not smooth over this point )
G00 Z1.00000 ( retract )

G00 X21.37080 Y42.46550 ( rapid move to begin. )
F300.00000
o7 call [21.3708] [42.4655]
G04 P0 ( dwell for no time -- G64 should not smooth over this point )
F600.00000
o7 call [21.3708] [40.4081]
o7 call [23.9108] [40.4081]
o7 call [23.9108] [42.9481]
o7 call [21.3708] [42.9481]
o7 call [21.3708] [42.5417]
G04 P0 ( dwell for no time -- G64 should not smooth over this point )
G00 Z1.00000 ( retract )

G00 X18.83080 Y42.46550 ( rapid move to begin. )
F300.00000
o7 call [18.8308] [42.4655]
G04 P0 ( dwell for no time -- G64 should not smooth over this point )
F600.00000
o7 call [18.8308] [40.4081]
o7 call [21.3708] [40.4081]
o7 call [21.3708] [42.9481]
o7 call [18.8308] [42.9481]
o7 call [18.8308] [42.5417]
G04 P0 ( dwell for no time -- G64 should not smooth over this point )
G00 Z1.00000 ( retract )

G00 X16.29080 Y42.46550 ( rapid move to begin. )
F300.00000
o7 call [16.2908] [42.4655]
G04 P0 ( dwell for no time -- G64 should not smooth over this point )
F600.00000
o7 call [16.2908] [40.4081]
o7 call [18.8308] [40.4081]
o7 call [18.8308] [42.9481]
o7 call [16.2908] [42.9481]
o7 call [16.2908] [42.5417]
G04 P0 ( dwell for no time -- G64 should not smooth over this point )
G00 Z1.00000 ( retract )

G00 X13.75080 Y42.46550 ( rapid move to begin. )
F300.00000
o7 call [13.7508] [42.4655]
G04 P0 ( dwell for no time -- G64 should not smooth over this point )
F600.00000
o7 call [13.7508] [40.4081]
o7 call [16.2908] [40.4081]
o7 call [16.2908] [42.9481]
o7 call [13.7508] [42.9481]
o7 call [13.7508] [42.5417]
G04 P0 ( dwell for no time -- G64 should not smooth over this point )
G00 Z1.00000 ( retract )

G00 X11.21080 Y42.46550 ( rapid move to begin. )
F300.00000
o7 call [11.2108] [42.4655]
G04 P0 ( dwell for no time -- G64 should not smooth over this point )
F600.00000
o7 call [11.2108] [40.4081]
o7 call [13.7508] [40.4081]
o7 call [13.7508] [42.9481]
o7 call [11.2108] [42.9481]
o7 call [11.2108] [42.5417]
G04 P0 ( dwell for no time -- G64 should not smooth over this point )
G00 Z1.00000 ( retract )

G00 X8.67080 Y42.46550 ( rapid move to begin. )
F300.00000
o7 call [8.6708] [42.4655]
G04 P0 ( dwell for no time -- G64 should not smooth over this point )
F600.00000
o7 call [8.6708] [40.4081]
o7 call [11.2108] [40.4081]
o7 call [11.2108] [42.9481]
o7 call [8.6708] [42.9481]
o7 call [8.6708] [42.5417]
G04 P0 ( dwell for no time -- G64 should not smooth over this point )
G00 Z1.00000 ( retract )

G00 X5.62280 Y42.46550 ( rapid move to begin. )
F300.00000
o7 call [5.6228] [42.4655]
G04 P0 ( dwell for no time -- G64 should not smooth over this point )
F600.00000
o7 call [5.6482] [40.4843]
o7 call [5.8514] [40.0779]
o7 call [6.1054] [39.9255]
o7 call [8.112] [39.9001]
o7 call [8.6454] [40.3827]
o7 call [8.6708] [42.9481]
o7 call [5.6482] [42.9227]
G04 P0 ( dwell for no time -- G64 should not smooth over this point )
G00 Z1.00000 ( retract )

G00 X67.09080 Y39.92550 ( rapid move to begin. )
F300.00000
o7 call [67.0908] [39.9255]
G04 P0 ( dwell for no time -- G64 should not smooth over this point )
F600.00000
o7 call [67.0908] [37.8681]
o7 call [70.1388] [37.8681]
o7 call [70.1388] [40.4081]
o7 call [67.0908] [40.4081]
o7 call [67.0908] [39.9509]
G04 P0 ( dwell for no time -- G64 should not smooth over this point )
G00 Z1.00000 ( retract )

G00 X64.55080 Y39.92550 ( rapid move to begin. )
F300.00000
o7 call [64.5508] [39.9255]
G04 P0 ( dwell for no time -- G64 should not smooth over this point )
F600.00000
o7 call [64.5508] [37.8681]
o7 call [67.0908] [37.8681]
o7 call [67.0908] [40.4081]
o7 call [64.5508] [40.4081]
o7 call [64.5508] [39.9509]
G04 P0 ( dwell for no time -- G64 should not smooth over this point )
G00 Z1.00000 ( retract )

G00 X62.01080 Y39.92550 ( rapid move to begin. )
F300.00000
o7 call [62.0108] [39.9255]
G04 P0 ( dwell for no time -- G64 should not smooth over this point )
F600.00000
o7 call [62.0108] [37.8681]
o7 call [64.5508] [37.8681]
o7 call [64.5508] [40.4081]
o7 call [62.0108] [40.4081]
o7 call [62.0108] [39.9509]
G04 P0 ( dwell for no time -- G64 should not smooth over this point )
G00 Z1.00000 ( retract )

G00 X59.47080 Y39.92550 ( rapid move to begin. )
F300.00000
o7 call [59.4708] [39.9255]
G04 P0 ( dwell for no time -- G64 should not smooth over this point )
F600.00000
o7 call [59.4708] [37.8681]
o7 call [62.0108] [37.8681]
o7 call [62.0108] [40.4081]
o7 call [59.4708] [40.4081]
o7 call [59.4708] [39.9509]
G04 P0 ( dwell for no time -- G64 should not smooth over this point )
G00 Z1.00000 ( retract )

G00 X56.93080 Y39.92550 ( rapid move to begin. )
F300.00000
o7 call [56.9308] [39.9255]
G04 P0 ( dwell for no time -- G64 should not smooth over this point )
F600.00000
o7 call [56.9308] [37.8681]
o7 call [59.4708] [37.8681]
o7 call [59.4708] [40.4081]
o7 call [56.9308] [40.4081]
o7 call [56.9308] [39.9509]
G04 P0 ( dwell for no time -- G64 should not smooth over this point )
G00 Z1.00000 ( retract )

G00 X54.39080 Y39.92550 ( rapid move to begin. )
F300.00000
o7 call [54.3908] [39.9255]
G04 P0 ( dwell for no time -- G64 should not smooth over this point )
F600.00000
o7 call [54.3908] [37.8681]
o7 call [56.9308] [37.8681]
o7 call [56.9308] [40.4081]
o7 call [54.3908] [40.4081]
o7 call [54.3908] [39.9509]
G04 P0 ( dwell for no time -- G64 should not smooth over this point )
G00 Z1.00000 ( retract )

G00 X51.85080 Y39.92550 ( rapid move to begin. )
F300.00000
o7 call [51.8508] [39.9255]
G04 P0 ( dwell for no time -- G64 should not smooth over this point )
F600.00000
o7 call [51.8508] [37.8681]
o7 call [54.3908] [37.8681]
o7 call [54.3908] [40.4081]
o7 call [51.8508] [40.4081]
o7 call [51.8508] [39.9509]
G04 P0 ( dwell for no time -- G64 should not smooth over this point )
G00 Z1.00000 ( retract )

G00 X49.31080 Y39.92550 ( rapid move to begin. )
F300.00000
o7 call [49.3108] [39.9255]
G04 P0 ( dwell for no time -- G64 should not smooth over this point )
F600.00000
o7 call [49.3108] [37.8681]
o7 call [51.8508] [37.8681]
o7 call [51.8508] [40.4081]
o7 call [49.3108] [40.4081]
o7 call [49.3108] [39.9509]
G04 P0 ( dwell for no time -- G64 should not smooth over this point )
G00 Z1.00000 ( retract )

G00 X46.77080 Y39.92550 ( rapid move to begin. )
F300.00000
o7 call [46.7708] [39.9255]
G04 P0 ( dwell for no time -- G64 should not smooth over this point )
F600.00000
o7 call [46.7708] [37.8681]
o7 call [49.3108] [37.8681]
o7 call [49.3108] [40.4081]
o7 call [46.7708] [40.4081]
o7 call [46.7708] [39.9509]
G04 P0 ( dwell for no time -- G64 should not smooth over this point )
G00 Z1.00000 ( retract )

G00 X44.23080 Y39.92550 ( rapid move to begin. )
F300.00000
o7 call [44.2308] [39.9255]
G04 P0 ( dwell for no time -- G64 should not smooth over this point )
F600.00000
o7 call [44.2308] [37.8681]
o7 call [46.7708] [37.8681]
o7 call [46.7708] [40.4081]
o7 call [44.2308] [40.4081]
o7 call [44.2308] [39.9509]
G04 P0 ( dwell for no time -- G64 should not smooth over this point )
G00 Z1.00000 ( retract )

G00 X41.69080 Y39.92550 ( rapid move to begin. )
F300.00000
o7 call [41.6908] [39.9255]
G04 P0 ( dwell for no time -- G64 should not smooth over this point )
F600.00000
o7 call [41.6908] [37.8681]
o7 call [44.2308] [37.8681]
o7 call [44.2308] [40.4081]
o7 call [41.6908] [40.4081]
o7 call [41.6908] [39.9509]
G04 P0 ( dwell for no time -- G64 should not smooth over this point )
G00 Z1.00000 ( retract )

G00 X39.15080 Y39.92550 ( rapid move to begin. )
F300.00000
o7 call [39.1508] [39.9255]
G04 P0 ( dwell for no time -- G64 should not smooth over this point )
F600.00000
o7 call [39.1508] [37.8681]
o7 call [41.6908] [37.8681]
o7 call [41.6908] [40.4081]
o7 call [39.1508] [40.4081]
o7 call [39.1508] [39.9509]
G04 P0 ( dwell for no time -- G64 should not smooth over this point )
G00 Z1.00000 ( retract )

G00 X36.61080 Y39.92550 ( rapid move to begin. )
F300.00000
o7 call [36.6108] [39.9255]
G04 P0 ( dwell for no time -- G64 should not smooth over this point )
F600.00000
o7 call [36.6108] [37.8681]
o7 call [39.1508] [37.8681]
o7 call [39.1508] [40.4081]
o7 call [36.6108] [40.4081]
o7 call [36.6108] [39.9509]
G04 P0 ( dwell for no time -- G64 should not smooth over this point )
G00 Z1.00000 ( retract )

G00 X34.07080 Y39.92550 ( rapid move to begin. )
F300.00000
o7 call [34.0708] [39.9255]
G04 P0 ( dwell for no time -- G64 should not smooth over this point )
F600.00000
o7 call [34.0708] [37.8681]
o7 call [36.6108] [37.8681]
o7 call [36.6108] [40.4081]
o7 call [34.0708] [40.4081]
o7 call [34.0708] [39.9509]
G04 P0 ( dwell for no time -- G64 should not smooth over this point )
G00 Z1.00000 ( retract )

G00 X31.53080 Y39.92550 ( rapid move to begin. )
F300.00000
o7 call [31.5308] [39.9255]
G04 P0 ( dwell for no time -- G64 should not smooth over this point )
F600.00000
o7 call [31.5308] [37.8681]
o7 call [34.0708] [37.8681]
o7 call [34.0708] [40.4081]
o7 call [31.5308] [40.4081]
o7 call [31.5308] [39.9509]
G04 P0 ( dwell for no time -- G64 should not smooth over this point )
G00 Z1.00000 ( retract )

G00 X28.99080 Y39.92550 ( rapid move to begin. )
F300.00000
o7 call [28.9908] [39.9255]
G04 P0 ( dwell for no time -- G64 should not smooth over this point )
F600.00000
o7 call [28.9908] [37.8681]
o7 call [31.5308] [37.8681]
o7 call [31.5308] [40.4081]
o7 call [28.9908] [40.4081]
o7 call [28.9908] [39.9509]
G04 P0 ( dwell for no time -- G64 should not smooth over this point )
G00 Z1.00000 ( retract )

G00 X26.45080 Y39.92550 ( rapid move to begin. )
F300.00000
o7 call [26.4508] [39.9255]
G04 P0 ( dwell for no time -- G64 should not smooth over this point )
F600.00000
o7 call [26.4508] [37.8681]
o7 call [28.9908] [37.8681]
o7 call [28.9908] [40.4081]
o7 call [26.4508] [40.4081]
o7 call [26.4508] [39.9509]
G04 P0 ( dwell for no time -- G64 should not smooth over this point )
G00 Z1.00000 ( retract )

G00 X23.91080 Y39.92550 ( rapid move to begin. )
F300.00000
o7 call [23.9108] [39.9255]
G04 P0 ( dwell for no time -- G64 should not smooth over this point )
F600.00000
o7 call [23.9108] [37.8681]
o7 call [26.4508] [37.8681]
o7 call [26.4508] [40.4081]
o7 call [23.9108] [40.4081]
o7 call [23.9108] [39.9509]
G04 P0 ( dwell for no time -- G64 should not smooth over this point )
G00 Z1.00000 ( retract )

G00 X21.37080 Y39.92550 ( rapid move to begin. )
F300.00000
o7 call [21.3708] [39.9255]
G04 P0 ( dwell for no time -- G64 should not smooth over this point )
F600.00000
o7 call [21.3708] [37.8681]
o7 call [23.9108] [37.8681]
o7 call [23.9108] [40.4081]
o7 call [21.3708] [40.4081]
o7 call [21.3708] [40.0017]
G04 P0 ( dwell for no time -- G64 should not smooth over this point )
G00 Z1.00000 ( retract )

G00 X18.83080 Y39.92550 ( rapid move to begin. )
F300.00000
o7 call [18.8308] [39.9255]
G04 P0 ( dwell for no time -- G64 should not smooth over this point )
F600.00000
o7 call [18.8308] [37.8681]
o7 call [21.3708] [37.8681]
o7 call [21.3708] [40.4081]
o7 call [18.8308] [40.4081]
o7 call [18.8308] [40.0017]
G04 P0 ( dwell for no time -- G64 should not smooth over this point )
G00 Z1.00000 ( retract )

G00 X16.29080 Y39.92550 ( rapid move to begin. )
F300.00000
o7 call [16.2908] [39.9255]
G04 P0 ( dwell for no time -- G64 should not smooth over this point )
F600.00000
o7 call [16.2908] [37.8681]
o7 call [18.8308] [37.8681]
o7 call [18.8308] [40.4081]
o7 call [16.2908] [40.4081]
o7 call [16.2908] [40.0017]
G04 P0 ( dwell for no time -- G64 should not smooth over this point )
G00 Z1.00000 ( retract )

G00 X13.75080 Y39.92550 ( rapid move to begin. )
F300.00000
o7 call [13.7508] [39.9255]
G04 P0 ( dwell for no time -- G64 should not smooth over this point )
F600.00000
o7 call [13.7508] [37.8681]
o7 call [16.2908] [37.8681]
o7 call [16.2908] [40.4081]
o7 call [13.7508] [40.4081]
o7 call [13.7508] [40.0017]
G04 P0 ( dwell for no time -- G64 should not smooth over this point )
G00 Z1.00000 ( retract )

G00 X11.21080 Y39.92550 ( rapid move to begin. )
F300.00000
o7 call [11.2108] [39.9255]
G04 P0 ( dwell for no time -- G64 should not smooth over this point )
F600.00000
o7 call [11.2108] [37.8681]
o7 call [13.7508] [37.8681]
o7 call [13.7508] [40.4081]
o7 call [11.2108] [40.4081]
o7 call [11.2108] [40.0017]
G04 P0 ( dwell for no time -- G64 should not smooth over this point )
G00 Z1.00000 ( retract )

G00 X8.21360 Y39.92550 ( rapid move to begin. )
F300.00000
o7 call [8.2136] [39.9255]
G04 P0 ( dwell for no time -- G64 should not smooth over this point )
F600.00000
o7 call [8.1628] [39.9001]
o7 call [8.1882] [37.8935]
o7 call [11.2108] [37.8681]
o7 call [11.2108] [40.4081]
o7 call [8.6708] [40.4081]
o7 call [8.2136] [39.9509]
G04 P0 ( dwell for no time -- G64 should not smooth over this point )
G00 Z1.00000 ( retract )

G00 X67.09080 Y37.38550 ( rapid move to begin. )
F300.00000
o7 call [67.0908] [37.3855]
G04 P0 ( dwell for no time -- G64 should not smooth over this point )
F600.00000
o7 call [67.0908] [35.3281]
o7 call [70.1388] [35.3281]
o7 call [70.1388] [37.8681]
o7 call [67.0908] [37.8681]
o7 call [67.0908] [37.4109]
G04 P0 ( dwell for no time -- G64 should not smooth over this point )
G00 Z1.00000 ( retract )

G00 X64.55080 Y37.38550 ( rapid move to begin. )
F300.00000
o7 call [64.5508] [37.3855]
G04 P0 ( dwell for no time -- G64 should not smooth over this point )
F600.00000
o7 call [64.5508] [35.3281]
o7 call [67.0908] [35.3281]
o7 call [67.0908] [37.8681]
o7 call [64.5508] [37.8681]
o7 call [64.5508] [37.4109]
G04 P0 ( dwell for no time -- G64 should not smooth over this point )
G00 Z1.00000 ( retract )

G00 X62.01080 Y37.38550 ( rapid move to begin. )
F300.00000
o7 call [62.0108] [37.3855]
G04 P0 ( dwell for no time -- G64 should not smooth over this point )
F600.00000
o7 call [62.0108] [35.3281]
o7 call [64.5508] [35.3281]
o7 call [64.5508] [37.8681]
o7 call [62.0108] [37.8681]
o7 call [62.0108] [37.4109]
G04 P0 ( dwell for no time -- G64 should not smooth over this point )
G00 Z1.00000 ( retract )

G00 X59.47080 Y37.38550 ( rapid move to begin. )
F300.00000
o7 call [59.4708] [37.3855]
G04 P0 ( dwell for no time -- G64 should not smooth over this point )
F600.00000
o7 call [59.4708] [35.3281]
o7 call [62.0108] [35.3281]
o7 call [62.0108] [37.8681]
o7 call [59.4708] [37.8681]
o7 call [59.4708] [37.4109]
G04 P0 ( dwell for no time -- G64 should not smooth over this point )
G00 Z1.00000 ( retract )

G00 X56.93080 Y37.38550 ( rapid move to begin. )
F300.00000
o7 call [56.9308] [37.3855]
G04 P0 ( dwell for no time -- G64 should not smooth over this point )
F600.00000
o7 call [56.9308] [35.3281]
o7 call [59.4708] [35.3281]
o7 call [59.4708] [37.8681]
o7 call [56.9308] [37.8681]
o7 call [56.9308] [37.4109]
G04 P0 ( dwell for no time -- G64 should not smooth over this point )
G00 Z1.00000 ( retract )

G00 X54.39080 Y37.38550 ( rapid move to begin. )
F300.00000
o7 call [54.3908] [37.3855]
G04 P0 ( dwell for no time -- G64 should not smooth over this point )
F600.00000
o7 call [54.3908] [35.3281]
o7 call [56.9308] [35.3281]
o7 call [56.9308] [37.8681]
o7 call [54.3908] [37.8681]
o7 call [54.3908] [37.4109]
G04 P0 ( dwell for no time -- G64 should not smooth over this point )
G00 Z1.00000 ( retract )

G00 X51.85080 Y37.38550 ( rapid move to begin. )
F300.00000
o7 call [51.8508] [37.3855]
G04 P0 ( dwell for no time -- G64 should not smooth over this point )
F600.00000
o7 call [51.8508] [35.3281]
o7 call [54.3908] [35.3281]
o7 call [54.3908] [37.8681]
o7 call [51.8508] [37.8681]
o7 call [51.8508] [37.4109]
G04 P0 ( dwell for no time -- G64 should not smooth over this point )
G00 Z1.00000 ( retract )

G00 X49.31080 Y37.38550 ( rapid move to begin. )
F300.00000
o7 call [49.3108] [37.3855]
G04 P0 ( dwell for no time -- G64 should not smooth over this point )
F600.00000
o7 call [49.3108] [35.3281]
o7 call [51.8508] [35.3281]
o7 call [51.8508] [37.8681]
o7 call [49.3108] [37.8681]
o7 call [49.3108] [37.4109]
G04 P0 ( dwell for no time -- G64 should not smooth over this point )
G00 Z1.00000 ( retract )

G00 X46.77080 Y37.38550 ( rapid move to begin. )
F300.00000
o7 call [46.7708] [37.3855]
G04 P0 ( dwell for no time -- G64 should not smooth over this point )
F600.00000
o7 call [46.7708] [35.3281]
o7 call [49.3108] [35.3281]
o7 call [49.3108] [37.8681]
o7 call [46.7708] [37.8681]
o7 call [46.7708] [37.4109]
G04 P0 ( dwell for no time -- G64 should not smooth over this point )
G00 Z1.00000 ( retract )

G00 X44.23080 Y37.38550 ( rapid move to begin. )
F300.00000
o7 call [44.2308] [37.3855]
G04 P0 ( dwell for no time -- G64 should not smooth over this point )
F600.00000
o7 call [44.2308] [35.3281]
o7 call [46.7708] [35.3281]
o7 call [46.7708] [37.8681]
o7 call [44.2308] [37.8681]
o7 call [44.2308] [37.4109]
G04 P0 ( dwell for no time -- G64 should not smooth over this point )
G00 Z1.00000 ( retract )

G00 X41.69080 Y37.38550 ( rapid move to begin. )
F300.00000
o7 call [41.6908] [37.3855]
G04 P0 ( dwell for no time -- G64 should not smooth over this point )
F600.00000
o7 call [41.6908] [35.3281]
o7 call [44.2308] [35.3281]
o7 call [44.2308] [37.8681]
o7 call [41.6908] [37.8681]
o7 call [41.6908] [37.4109]
G04 P0 ( dwell for no time -- G64 should not smooth over this point )
G00 Z1.00000 ( retract )

G00 X39.15080 Y37.38550 ( rapid move to begin. )
F300.00000
o7 call [39.1508] [37.3855]
G04 P0 ( dwell for no time -- G64 should not smooth over this point )
F600.00000
o7 call [39.1508] [35.3281]
o7 call [41.6908] [35.3281]
o7 call [41.6908] [37.8681]
o7 call [39.1508] [37.8681]
o7 call [39.1508] [37.4109]
G04 P0 ( dwell for no time -- G64 should not smooth over this point )
G00 Z1.00000 ( retract )

G00 X36.61080 Y37.38550 ( rapid move to begin. )
F300.00000
o7 call [36.6108] [37.3855]
G04 P0 ( dwell for no time -- G64 should not smooth over this point )
F600.00000
o7 call [36.6108] [35.3281]
o7 call [39.1508] [35.3281]
o7 call [39.1508] [37.8681]
o7 call [36.6108] [37.8681]
o7 call [36.6108] [37.4109]
G04 P0 ( dwell for no time -- G64 should not smooth over this point )
G00 Z1.00000 ( retract )

G00 X34.07080 Y37.38550 ( rapid move to begin. )
F300.00000
o7 call [34.0708] [37.3855]
G04 P0 ( dwell for no time -- G64 should not smooth over this point )
F600.00000
o7 call [34.0708] [35.3281]
o7 call [36.6108] [35.3281]
o7 call [36.6108] [37.8681]
o7 call [34.0708] [37.8681]
o7 call [34.0708] [37.4109]
G04 P0 ( dwell for no time -- G64 should not smooth over this point )
G00 Z1.00000 ( retract )

G00 X31.53080 Y37.38550 ( rapid move to begin. )
F300.00000
o7 call [31.5308] [37.3855]
G04 P0 ( dwell for no time -- G64 should not smooth over this point )
F600.00000
o7 call [31.5308] [35.3281]
o7 call [34.0708] [35.3281]
o7 call [34.0708] [37.8681]
o7 call [31.5308] [37.8681]
o7 call [31.5308] [37.4109]
G04 P0 ( dwell for no time -- G64 should not smooth over this point )
G00 Z1.00000 ( retract )

G00 X28.99080 Y37.38550 ( rapid move to begin. )
F300.00000
o7 call [28.9908] [37.3855]
G04 P0 ( dwell for no time -- G64 should not smooth over this point )
F600.00000
o7 call [28.9908] [35.3281]
o7 call [31.5308] [35.3281]
o7 call [31.5308] [37.8681]
o7 call [28.9908] [37.8681]
o7 call [28.9908] [37.4109]
G04 P0 ( dwell for no time -- G64 should not smooth over this point )
G00 Z1.00000 ( retract )

G00 X26.45080 Y37.38550 ( rapid move to begin. )
F300.00000
o7 call [26.4508] [37.3855]
G04 P0 ( dwell for no time -- G64 should not smooth over this point )
F600.00000
o7 call [26.4508] [35.3281]
o7 call [28.9908] [35.3281]
o7 call [28.9908] [37.8681]
o7 call [26.4508] [37.8681]
o7 call [26.4508] [37.4109]
G04 P0 ( dwell for no time -- G64 should not smooth over this point )
G00 Z1.00000 ( retract )

G00 X23.91080 Y37.38550 ( rapid move to begin. )
F300.00000
o7 call [23.9108] [37.3855]
G04 P0 ( dwell for no time -- G64 should not smooth over this point )
F600.00000
o7 call [23.9108] [35.3281]
o7 call [26.4508] [35.3281]
o7 call [26.4508] [37.8681]
o7 call [23.9108] [37.8681]
o7 call [23.9108] [37.4109]
G04 P0 ( dwell for no time -- G64 should not smooth over this point )
G00 Z1.00000 ( retract )

G00 X21.37080 Y37.38550 ( rapid move to begin. )
F300.00000
o7 call [21.3708] [37.3855]
G04 P0 ( dwell for no time -- G64 should not smooth over this point )
F600.00000
o7 call [21.3708] [35.3281]
o7 call [23.9108] [35.3281]
o7 call [23.9108] [37.8681]
o7 call [21.3708] [37.8681]
o7 call [21.3708] [37.4617]
G04 P0 ( dwell for no time -- G64 should not smooth over this point )
G00 Z1.00000 ( retract )

G00 X18.83080 Y37.38550 ( rapid move to begin. )
F300.00000
o7 call [18.8308] [37.3855]
G04 P0 ( dwell for no time -- G64 should not smooth over this point )
F600.00000
o7 call [18.8308] [35.3281]
o7 call [21.3708] [35.3281]
o7 call [21.3708] [37.8681]
o7 call [18.8308] [37.8681]
o7 call [18.8308] [37.4617]
G04 P0 ( dwell for no time -- G64 should not smooth over this point )
G00 Z1.00000 ( retract )

G00 X16.29080 Y37.38550 ( rapid move to begin. )
F300.00000
o7 call [16.2908] [37.3855]
G04 P0 ( dwell for no time -- G64 should not smooth over this point )
F600.00000
o7 call [16.2908] [35.3281]
o7 call [18.8308] [35.3281]
o7 call [18.8308] [37.8681]
o7 call [16.2908] [37.8681]
o7 call [16.2908] [37.4617]
G04 P0 ( dwell for no time -- G64 should not smooth over this point )
G00 Z1.00000 ( retract )

G00 X13.75080 Y37.38550 ( rapid move to begin. )
F300.00000
o7 call [13.7508] [37.3855]
G04 P0 ( dwell for no time -- G64 should not smooth over this point )
F600.00000
o7 call [13.7508] [35.3281]
o7 call [16.2908] [35.3281]
o7 call [16.2908] [37.8681]
o7 call [13.7508] [37.8681]
o7 call [13.7508] [37.4617]
G04 P0 ( dwell for no time -- G64 should not smooth over this point )
G00 Z1.00000 ( retract )

G00 X11.21080 Y37.38550 ( rapid move to begin. )
F300.00000
o7 call [11.2108] [37.3855]
G04 P0 ( dwell for no time -- G64 should not smooth over this point )
F600.00000
o7 call [11.2108] [35.3281]
o7 call [13.7508] [35.3281]
o7 call [13.7508] [37.8681]
o7 call [11.2108] [37.8681]
o7 call [11.2108] [37.4617]
G04 P0 ( dwell for no time -- G64 should not smooth over this point )
G00 Z1.00000 ( retract )

G00 X8.16280 Y37.38550 ( rapid move to begin. )
F300.00000
o7 call [8.1628] [37.3855]
G04 P0 ( dwell for no time -- G64 should not smooth over this point )
F600.00000
o7 call [8.1628] [35.7853]
o7 call [8.2136] [35.3281]
o7 call [11.2108] [35.3281]
o7 call [11.2108] [37.8681]
o7 call [8.1882] [37.8427]
o7 call [8.1628] [37.4617]
G04 P0 ( dwell for no time -- G64 should not smooth over this point )
G00 Z1.00000 ( retract )

G00 X67.09080 Y34.84550 ( rapid move to begin. )
F300.00000
o7 call [67.0908] [34.8455]
G04 P0 ( dwell for no time -- G64 should not smooth over this point )
F600.00000
o7 call [67.0908] [32.7881]
o7 call [70.1388] [32.7881]
o7 call [70.1388] [35.3281]
o7 call [67.0908] [35.3281]
o7 call [67.0908] [34.8709]
G04 P0 ( dwell for no time -- G64 should not smooth over this point )
G00 Z1.00000 ( retract )

G00 X64.55080 Y34.84550 ( rapid move to begin. )
F300.00000
o7 call [64.5508] [34.8455]
G04 P0 ( dwell for no time -- G64 should not smooth over this point )
F600.00000
o7 call [64.5508] [32.7881]
o7 call [67.0908] [32.7881]
o7 call [67.0908] [35.3281]
o7 call [64.5508] [35.3281]
o7 call [64.5508] [34.8709]
G04 P0 ( dwell for no time -- G64 should not smooth over this point )
G00 Z1.00000 ( retract )

G00 X62.01080 Y34.84550 ( rapid move to begin. )
F300.00000
o7 call [62.0108] [34.8455]
G04 P0 ( dwell for no time -- G64 should not smooth over this point )
F600.00000
o7 call [62.0108] [32.7881]
o7 call [64.5508] [32.7881]
o7 call [64.5508] [35.3281]
o7 call [62.0108] [35.3281]
o7 call [62.0108] [34.8709]
G04 P0 ( dwell for no time -- G64 should not smooth over this point )
G00 Z1.00000 ( retract )

G00 X59.47080 Y34.84550 ( rapid move to begin. )
F300.00000
o7 call [59.4708] [34.8455]
G04 P0 ( dwell for no time -- G64 should not smooth over this point )
F600.00000
o7 call [59.4708] [32.7881]
o7 call [62.0108] [32.7881]
o7 call [62.0108] [35.3281]
o7 call [59.4708] [35.3281]
o7 call [59.4708] [34.8709]
G04 P0 ( dwell for no time -- G64 should not smooth over this point )
G00 Z1.00000 ( retract )

G00 X56.93080 Y34.84550 ( rapid move to begin. )
F300.00000
o7 call [56.9308] [34.8455]
G04 P0 ( dwell for no time -- G64 should not smooth over this point )
F600.00000
o7 call [56.9308] [32.7881]
o7 call [59.4708] [32.7881]
o7 call [59.4708] [35.3281]
o7 call [56.9308] [35.3281]
o7 call [56.9308] [34.8709]
G04 P0 ( dwell for no time -- G64 should not smooth over this point )
G00 Z1.00000 ( retract )

G00 X54.39080 Y34.84550 ( rapid move to begin. )
F300.00000
o7 call [54.3908] [34.8455]
G04 P0 ( dwell for no time -- G64 should not smooth over this point )
F600.00000
o7 call [54.3908] [32.7881]
o7 call [56.9308] [32.7881]
o7 call [56.9308] [35.3281]
o7 call [54.3908] [35.3281]
o7 call [54.3908] [34.8709]
G04 P0 ( dwell for no time -- G64 should not smooth over this point )
G00 Z1.00000 ( retract )

G00 X51.85080 Y34.84550 ( rapid move to begin. )
F300.00000
o7 call [51.8508] [34.8455]
G04 P0 ( dwell for no time -- G64 should not smooth over this point )
F600.00000
o7 call [51.8508] [32.7881]
o7 call [54.3908] [32.7881]
o7 call [54.3908] [35.3281]
o7 call [51.8508] [35.3281]
o7 call [51.8508] [34.8709]
G04 P0 ( dwell for no time -- G64 should not smooth over this point )
G00 Z1.00000 ( retract )

G00 X49.31080 Y34.84550 ( rapid move to begin. )
F300.00000
o7 call [49.3108] [34.8455]
G04 P0 ( dwell for no time -- G64 should not smooth over this point )
F600.00000
o7 call [49.3108] [32.7881]
o7 call [51.8508] [32.7881]
o7 call [51.8508] [35.3281]
o7 call [49.3108] [35.3281]
o7 call [49.3108] [34.8709]
G04 P0 ( dwell for no time -- G64 should not smooth over this point )
G00 Z1.00000 ( retract )

G00 X46.77080 Y34.84550 ( rapid move to begin. )
F300.00000
o7 call [46.7708] [34.8455]
G04 P0 ( dwell for no time -- G64 should not smooth over this point )
F600.00000
o7 call [46.7708] [32.7881]
o7 call [49.3108] [32.7881]
o7 call [49.3108] [35.3281]
o7 call [46.7708] [35.3281]
o7 call [46.7708] [34.8709]
G04 P0 ( dwell for no time -- G64 should not smooth over this point )
G00 Z1.00000 ( retract )

G00 X44.23080 Y34.84550 ( rapid move to begin. )
F300.00000
o7 call [44.2308] [34.8455]
G04 P0 ( dwell for no time -- G64 should not smooth over this point )
F600.00000
o7 call [44.2308] [32.7881]
o7 call [46.7708] [32.7881]
o7 call [46.7708] [35.3281]
o7 call [44.2308] [35.3281]
o7 call [44.2308] [34.8709]
G04 P0 ( dwell for no time -- G64 should not smooth over this point )
G00 Z1.00000 ( retract )

G00 X41.69080 Y34.84550 ( rapid move to begin. )
F300.00000
o7 call [41.6908] [34.8455]
G04 P0 ( dwell for no time -- G64 should not smooth over this point )
F600.00000
o7 call [41.6908] [32.7881]
o7 call [44.2308] [32.7881]
o7 call [44.2308] [35.3281]
o7 call [41.6908] [35.3281]
o7 call [41.6908] [34.8709]
G04 P0 ( dwell for no time -- G64 should not smooth over this point )
G00 Z1.00000 ( retract )

G00 X39.15080 Y34.84550 ( rapid move to begin. )
F300.00000
o7 call [39.1508] [34.8455]
G04 P0 ( dwell for no time -- G64 should not smooth over this point )
F600.00000
o7 call [39.1508] [32.7881]
o7 call [41.6908] [32.7881]
o7 call [41.6908] [35.3281]
o7 call [39.1508] [35.3281]
o7 call [39.1508] [34.8709]
G04 P0 ( dwell for no time -- G64 should not smooth over this point )
G00 Z1.00000 ( retract )

G00 X36.61080 Y34.84550 ( rapid move to begin. )
F300.00000
o7 call [36.6108] [34.8455]
G04 P0 ( dwell for no time -- G64 should not smooth over this point )
F600.00000
o7 call [36.6108] [32.7881]
o7 call [39.1508] [32.7881]
o7 call [39.1508] [35.3281]
o7 call [36.6108] [35.3281]
o7 call [36.6108] [34.8709]
G04 P0 ( dwell for no time -- G64 should not smooth over this point )
G00 Z1.00000 ( retract )

G00 X34.07080 Y34.84550 ( rapid move to begin. )
F300.00000
o7 call [34.0708] [34.8455]
G04 P0 ( dwell for no time -- G64 should not smooth over this point )
F600.00000
o7 call [34.0708] [32.7881]
o7 call [36.6108] [32.7881]
o7 call [36.6108] [35.3281]
o7 call [34.0708] [35.3281]
o7 call [34.0708] [34.8709]
G04 P0 ( dwell for no time -- G64 should not smooth over this point )
G00 Z1.00000 ( retract )

G00 X31.53080 Y34.84550 ( rapid move to begin. )
F300.00000
o7 call [31.5308] [34.8455]
G04 P0 ( dwell for no time -- G64 should not smooth over this point )
F600.00000
o7 call [31.5308] [32.7881]
o7 call [34.0708] [32.7881]
o7 call [34.0708] [35.3281]
o7 call [31.5308] [35.3281]
o7 call [31.5308] [34.8709]
G04 P0 ( dwell for no time -- G64 should not smooth over this point )
G00 Z1.00000 ( retract )

G00 X28.99080 Y34.84550 ( rapid move to begin. )
F300.00000
o7 call [28.9908] [34.8455]
G04 P0 ( dwell for no time -- G64 should not smooth over this point )
F600.00000
o7 call [28.9908] [32.7881]
o7 call [31.5308] [32.7881]
o7 call [31.5308] [35.3281]
o7 call [28.9908] [35.3281]
o7 call [28.9908] [34.8709]
G04 P0 ( dwell for no time -- G64 should not smooth over this point )
G00 Z1.00000 ( retract )

G00 X26.45080 Y34.84550 ( rapid move to begin. )
F300.00000
o7 call [26.4508] [34.8455]
G04 P0 ( dwell for no time -- G64 should not smooth over this point )
F600.00000
o7 call [26.4508] [32.7881]
o7 call [28.9908] [32.7881]
o7 call [28.9908] [35.3281]
o7 call [26.4508] [35.3281]
o7 call [26.4508] [34.8709]
G04 P0 ( dwell for no time -- G64 should not smooth over this point )
G00 Z1.00000 ( retract )

G00 X23.91080 Y34.84550 ( rapid move to begin. )
F300.00000
o7 call [23.9108] [34.8455]
G04 P0 ( dwell for no time -- G64 should not smooth over this point )
F600.00000
o7 call [23.9108] [32.7881]
o7 call [26.4508] [32.7881]
o7 call [26.4508] [35.3281]
o7 call [23.9108] [35.3281]
o7 call [23.9108] [34.8709]
G04 P0 ( dwell for no time -- G64 should not smooth over this point )
G00 Z1.00000 ( retract )

G00 X21.37080 Y34.84550 ( rapid move to begin. )
F300.00000
o7 call [21.3708] [34.8455]
G04 P0 ( dwell for no time -- G64 should not smooth over this point )
F600.00000
o7 call [21.3708] [32.7881]
o7 call [23.9108] [32.7881]
o7 call [23.9108] [35.3281]
o7 call [21.3708] [35.3281]
o7 call [21.3708] [34.8709]
G04 P0 ( dwell for no time -- G64 should not smooth over this point )
G00 Z1.00000 ( retract )

G00 X18.83080 Y34.84550 ( rapid move to begin. )
F300.00000
o7 call [18.8308] [34.8455]
G04 P0 ( dwell for no time -- G64 should not smooth over this point )
F600.00000
o7 call [18.8308] [32.7881]
o7 call [21.3708] [32.7881]
o7 call [21.3708] [35.3281]
o7 call [18.8308] [35.3281]
o7 call [18.8308] [34.9217]
G04 P0 ( dwell for no time -- G64 should not smooth over this point )
G00 Z1.00000 ( retract )

G00 X16.29080 Y34.84550 ( rapid move to begin. )
F300.00000
o7 call [16.2908] [34.8455]
G04 P0 ( dwell for no time -- G64 should not smooth over this point )
F600.00000
o7 call [16.2908] [32.7881]
o7 call [18.8308] [32.7881]
o7 call [18.8308] [35.3281]
o7 call [16.2908] [35.3281]
o7 call [16.2908] [34.9217]
G04 P0 ( dwell for no time -- G64 should not smooth over this point )
G00 Z1.00000 ( retract )

G00 X13.75080 Y34.84550 ( rapid move to begin. )
F300.00000
o7 call [13.7508] [34.8455]
G04 P0 ( dwell for no time -- G64 should not smooth over this point )
F600.00000
o7 call [13.7508] [32.7881]
o7 call [16.2908] [32.7881]
o7 call [16.2908] [35.3281]
o7 call [13.7508] [35.3281]
o7 call [13.7508] [34.9217]
G04 P0 ( dwell for no time -- G64 should not smooth over this point )
G00 Z1.00000 ( retract )

G00 X11.21080 Y34.84550 ( rapid move to begin. )
F300.00000
o7 call [11.2108] [34.8455]
G04 P0 ( dwell for no time -- G64 should not smooth over this point )
F600.00000
o7 call [11.2108] [32.7881]
o7 call [13.7508] [32.7881]
o7 call [13.7508] [35.3281]
o7 call [11.2108] [35.3281]
o7 call [11.2108] [34.9217]
G04 P0 ( dwell for no time -- G64 should not smooth over this point )
G00 Z1.00000 ( retract )

G00 X8.16280 Y34.84550 ( rapid move to begin. )
F300.00000
o7 call [8.1628] [34.8455]
G04 P0 ( dwell for no time -- G64 should not smooth over this point )
F600.00000
o7 call [8.1882] [34.4899]
o7 call [8.2898] [34.3883]
o7 call [8.4168] [34.1089]
o7 call [8.5438] [33.4231]
o7 call [8.5692] [33.0421]
o7 call [8.6454] [32.8135]
o7 call [11.2108] [32.7881]
o7 call [11.2108] [35.3281]
o7 call [8.1882] [35.3027]
o7 call [8.1628] [34.9217]
G04 P0 ( dwell for no time -- G64 should not smooth over this point )
G00 Z1.00000 ( retract )

G00 X5.87680 Y33.55010 ( rapid move to begin. )
F300.00000
o7 call [5.8768] [33.5501]
G04 P0 ( dwell for no time -- G64 should not smooth over this point )
F600.00000
o7 call [5.8768] [31.5435]
o7 call [8.4422] [31.5181]
o7 call [8.5184] [31.8483]
o7 call [8.5946] [32.5849]
o7 call [8.6454] [32.7373]
o7 call [8.5692] [33.0675]
o7 call [8.493] [33.8041]
o7 call [8.4168] [34.1343]
o7 call [8.1374] [34.5661]
o7 call [5.9276] [34.5407]
o7 call [5.8768] [34.4899]
o7 call [5.8768] [33.6771]
G04 P0 ( dwell for no time -- G64 should not smooth over this point )
G00 Z1.00000 ( retract )

G00 X2.85420 Y33.55010 ( rapid move to begin. )
F300.00000
o7 call [2.8542] [33.5501]
G04 P0 ( dwell for no time -- G64 should not smooth over this point )
F600.00000
o7 call [2.8542] [31.7467]
o7 call [2.9304] [31.5181]
o7 call [5.8768] [31.5181]
o7 call [5.8514] [34.5407]
o7 call [3.4638] [34.5407]
o7 call [3.0574] [34.3375]
o7 call [2.905] [34.0835]
o7 call [2.8542] [33.7279]
G04 P0 ( dwell for no time -- G64 should not smooth over this point )
G00 Z1.00000 ( retract )

G00 X67.09080 Y32.30550 ( rapid move to begin. )
F300.00000
o7 call [67.0908] [32.3055]
G04 P0 ( dwell for no time -- G64 should not smooth over this point )
F600.00000
o7 call [67.0908] [30.2481]
o7 call [70.1388] [30.2481]
o7 call [70.1388] [32.7881]
o7 call [67.0908] [32.7881]
o7 call [67.0908] [32.3309]
G04 P0 ( dwell for no time -- G64 should not smooth over this point )
G00 Z1.00000 ( retract )

G00 X64.55080 Y32.30550 ( rapid move to begin. )
F300.00000
o7 call [64.5508] [32.3055]
G04 P0 ( dwell for no time -- G64 should not smooth over this point )
F600.00000
o7 call [64.5508] [30.2481]
o7 call [67.0908] [30.2481]
o7 call [67.0908] [32.7881]
o7 call [64.5508] [32.7881]
o7 call [64.5508] [32.3309]
G04 P0 ( dwell for no time -- G64 should not smooth over this point )
G00 Z1.00000 ( retract )

G00 X62.01080 Y32.30550 ( rapid move to begin. )
F300.00000
o7 call [62.0108] [32.3055]
G04 P0 ( dwell for no time -- G64 should not smooth over this point )
F600.00000
o7 call [62.0108] [30.2481]
o7 call [64.5508] [30.2481]
o7 call [64.5508] [32.7881]
o7 call [62.0108] [32.7881]
o7 call [62.0108] [32.3309]
G04 P0 ( dwell for no time -- G64 should not smooth over this point )
G00 Z1.00000 ( retract )

G00 X59.47080 Y32.30550 ( rapid move to begin. )
F300.00000
o7 call [59.4708] [32.3055]
G04 P0 ( dwell for no time -- G64 should not smooth over this point )
F600.00000
o7 call [59.4708] [30.2481]
o7 call [62.0108] [30.2481]
o7 call [62.0108] [32.7881]
o7 call [59.4708] [32.7881]
o7 call [59.4708] [32.3309]
G04 P0 ( dwell for no time -- G64 should not smooth over this point )
G00 Z1.00000 ( retract )

G00 X56.93080 Y32.30550 ( rapid move to begin. )
F300.00000
o7 call [56.9308] [32.3055]
G04 P0 ( dwell for no time -- G64 should not smooth over this point )
F600.00000
o7 call [56.9308] [30.2481]
o7 call [59.4708] [30.2481]
o7 call [59.4708] [32.7881]
o7 call [56.9308] [32.7881]
o7 call [56.9308] [32.3309]
G04 P0 ( dwell for no time -- G64 should not smooth over this point )
G00 Z1.00000 ( retract )

G00 X54.39080 Y32.30550 ( rapid move to begin. )
F300.00000
o7 call [54.3908] [32.3055]
G04 P0 ( dwell for no time -- G64 should not smooth over this point )
F600.00000
o7 call [54.3908] [30.2481]
o7 call [56.9308] [30.2481]
o7 call [56.9308] [32.7881]
o7 call [54.3908] [32.7881]
o7 call [54.3908] [32.3309]
G04 P0 ( dwell for no time -- G64 should not smooth over this point )
G00 Z1.00000 ( retract )

G00 X51.85080 Y32.30550 ( rapid move to begin. )
F300.00000
o7 call [51.8508] [32.3055]
G04 P0 ( dwell for no time -- G64 should not smooth over this point )
F600.00000
o7 call [51.8508] [30.2481]
o7 call [54.3908] [30.2481]
o7 call [54.3908] [32.7881]
o7 call [51.8508] [32.7881]
o7 call [51.8508] [32.3309]
G04 P0 ( dwell for no time -- G64 should not smooth over this point )
G00 Z1.00000 ( retract )

G00 X49.31080 Y32.30550 ( rapid move to begin. )
F300.00000
o7 call [49.3108] [32.3055]
G04 P0 ( dwell for no time -- G64 should not smooth over this point )
F600.00000
o7 call [49.3108] [30.2481]
o7 call [51.8508] [30.2481]
o7 call [51.8508] [32.7881]
o7 call [49.3108] [32.7881]
o7 call [49.3108] [32.3309]
G04 P0 ( dwell for no time -- G64 should not smooth over this point )
G00 Z1.00000 ( retract )

G00 X46.77080 Y32.30550 ( rapid move to begin. )
F300.00000
o7 call [46.7708] [32.3055]
G04 P0 ( dwell for no time -- G64 should not smooth over this point )
F600.00000
o7 call [46.7708] [30.2481]
o7 call [49.3108] [30.2481]
o7 call [49.3108] [32.7881]
o7 call [46.7708] [32.7881]
o7 call [46.7708] [32.3309]
G04 P0 ( dwell for no time -- G64 should not smooth over this point )
G00 Z1.00000 ( retract )

G00 X44.23080 Y32.30550 ( rapid move to begin. )
F300.00000
o7 call [44.2308] [32.3055]
G04 P0 ( dwell for no time -- G64 should not smooth over this point )
F600.00000
o7 call [44.2308] [30.2481]
o7 call [46.7708] [30.2481]
o7 call [46.7708] [32.7881]
o7 call [44.2308] [32.7881]
o7 call [44.2308] [32.3309]
G04 P0 ( dwell for no time -- G64 should not smooth over this point )
G00 Z1.00000 ( retract )

G00 X41.69080 Y32.30550 ( rapid move to begin. )
F300.00000
o7 call [41.6908] [32.3055]
G04 P0 ( dwell for no time -- G64 should not smooth over this point )
F600.00000
o7 call [41.6908] [30.2481]
o7 call [44.2308] [30.2481]
o7 call [44.2308] [32.7881]
o7 call [41.6908] [32.7881]
o7 call [41.6908] [32.3309]
G04 P0 ( dwell for no time -- G64 should not smooth over this point )
G00 Z1.00000 ( retract )

G00 X39.15080 Y32.30550 ( rapid move to begin. )
F300.00000
o7 call [39.1508] [32.3055]
G04 P0 ( dwell for no time -- G64 should not smooth over this point )
F600.00000
o7 call [39.1508] [30.2481]
o7 call [41.6908] [30.2481]
o7 call [41.6908] [32.7881]
o7 call [39.1508] [32.7881]
o7 call [39.1508] [32.3309]
G04 P0 ( dwell for no time -- G64 should not smooth over this point )
G00 Z1.00000 ( retract )

G00 X36.61080 Y32.30550 ( rapid move to begin. )
F300.00000
o7 call [36.6108] [32.3055]
G04 P0 ( dwell for no time -- G64 should not smooth over this point )
F600.00000
o7 call [36.6108] [30.2481]
o7 call [39.1508] [30.2481]
o7 call [39.1508] [32.7881]
o7 call [36.6108] [32.7881]
o7 call [36.6108] [32.3309]
G04 P0 ( dwell for no time -- G64 should not smooth over this point )
G00 Z1.00000 ( retract )

G00 X34.07080 Y32.30550 ( rapid move to begin. )
F300.00000
o7 call [34.0708] [32.3055]
G04 P0 ( dwell for no time -- G64 should not smooth over this point )
F600.00000
o7 call [34.0708] [30.2481]
o7 call [36.6108] [30.2481]
o7 call [36.6108] [32.7881]
o7 call [34.0708] [32.7881]
o7 call [34.0708] [32.3309]
G04 P0 ( dwell for no time -- G64 should not smooth over this point )
G00 Z1.00000 ( retract )

G00 X31.53080 Y32.30550 ( rapid move to begin. )
F300.00000
o7 call [31.5308] [32.3055]
G04 P0 ( dwell for no time -- G64 should not smooth over this point )
F600.00000
o7 call [31.5308] [30.2481]
o7 call [34.0708] [30.2481]
o7 call [34.0708] [32.7881]
o7 call [31.5308] [32.7881]
o7 call [31.5308] [32.3309]
G04 P0 ( dwell for no time -- G64 should not smooth over this point )
G00 Z1.00000 ( retract )

G00 X28.99080 Y32.30550 ( rapid move to begin. )
F300.00000
o7 call [28.9908] [32.3055]
G04 P0 ( dwell for no time -- G64 should not smooth over this point )
F600.00000
o7 call [28.9908] [30.2481]
o7 call [31.5308] [30.2481]
o7 call [31.5308] [32.7881]
o7 call [28.9908] [32.7881]
o7 call [28.9908] [32.3309]
G04 P0 ( dwell for no time -- G64 should not smooth over this point )
G00 Z1.00000 ( retract )

G00 X26.45080 Y32.30550 ( rapid move to begin. )
F300.00000
o7 call [26.4508] [32.3055]
G04 P0 ( dwell for no time -- G64 should not smooth over this point )
F600.00000
o7 call [26.4508] [30.2481]
o7 call [28.9908] [30.2481]
o7 call [28.9908] [32.7881]
o7 call [26.4508] [32.7881]
o7 call [26.4508] [32.3309]
G04 P0 ( dwell for no time -- G64 should not smooth over this point )
G00 Z1.00000 ( retract )

G00 X23.91080 Y32.30550 ( rapid move to begin. )
F300.00000
o7 call [23.9108] [32.3055]
G04 P0 ( dwell for no time -- G64 should not smooth over this point )
F600.00000
o7 call [23.9108] [30.2481]
o7 call [26.4508] [30.2481]
o7 call [26.4508] [32.7881]
o7 call [23.9108] [32.7881]
o7 call [23.9108] [32.3309]
G04 P0 ( dwell for no time -- G64 should not smooth over this point )
G00 Z1.00000 ( retract )

G00 X21.37080 Y32.30550 ( rapid move to begin. )
F300.00000
o7 call [21.3708] [32.3055]
G04 P0 ( dwell for no time -- G64 should not smooth over this point )
F600.00000
o7 call [21.3708] [30.2481]
o7 call [23.9108] [30.2481]
o7 call [23.9108] [32.7881]
o7 call [21.3708] [32.7881]
o7 call [21.3708] [32.3309]
G04 P0 ( dwell for no time -- G64 should not smooth over this point )
G00 Z1.00000 ( retract )

G00 X18.83080 Y32.30550 ( rapid move to begin. )
F300.00000
o7 call [18.8308] [32.3055]
G04 P0 ( dwell for no time -- G64 should not smooth over this point )
F600.00000
o7 call [18.8308] [30.2481]
o7 call [21.3708] [30.2481]
o7 call [21.3708] [32.7881]
o7 call [18.8308] [32.7881]
o7 call [18.8308] [32.3817]
G04 P0 ( dwell for no time -- G64 should not smooth over this point )
G00 Z1.00000 ( retract )

G00 X16.29080 Y32.30550 ( rapid move to begin. )
F300.00000
o7 call [16.2908] [32.3055]
G04 P0 ( dwell for no time -- G64 should not smooth over this point )
F600.00000
o7 call [16.2908] [30.2481]
o7 call [18.8308] [30.2481]
o7 call [18.8308] [32.7881]
o7 call [16.2908] [32.7881]
o7 call [16.2908] [32.3817]
G04 P0 ( dwell for no time -- G64 should not smooth over this point )
G00 Z1.00000 ( retract )

G00 X13.75080 Y32.30550 ( rapid move to begin. )
F300.00000
o7 call [13.7508] [32.3055]
G04 P0 ( dwell for no time -- G64 should not smooth over this point )
F600.00000
o7 call [13.7508] [30.2481]
o7 call [16.2908] [30.2481]
o7 call [16.2908] [32.7881]
o7 call [13.7508] [32.7881]
o7 call [13.7508] [32.3817]
G04 P0 ( dwell for no time -- G64 should not smooth over this point )
G00 Z1.00000 ( retract )

G00 X11.21080 Y32.30550 ( rapid move to begin. )
F300.00000
o7 call [11.2108] [32.3055]
G04 P0 ( dwell for no time -- G64 should not smooth over this point )
F600.00000
o7 call [11.2108] [30.2481]
o7 call [13.7508] [30.2481]
o7 call [13.7508] [32.7881]
o7 call [11.2108] [32.7881]
o7 call [11.2108] [32.3817]
G04 P0 ( dwell for no time -- G64 should not smooth over this point )
G00 Z1.00000 ( retract )

G00 X8.54380 Y32.30550 ( rapid move to begin. )
F300.00000
o7 call [8.5438] [32.3055]
G04 P0 ( dwell for no time -- G64 should not smooth over this point )
F600.00000
o7 call [8.4676] [31.5943]
o7 call [8.62] [30.2735]
o7 call [10.2202] [30.2481]
o7 call [11.2108] [30.2735]
o7 call [11.1854] [32.7881]
o7 call [8.6454] [32.7881]
G04 P0 ( dwell for no time -- G64 should not smooth over this point )
G00 Z1.00000 ( retract )

G00 X5.87680 Y31.01010 ( rapid move to begin. )
F300.00000
o7 call [5.8768] [31.0101]
G04 P0 ( dwell for no time -- G64 should not smooth over this point )
F600.00000
o7 call [5.8768] [29.0035]
o7 call [8.4422] [28.9781]
o7 call [8.5184] [29.3083]
o7 call [8.5946] [30.0449]
o7 call [8.6454] [30.1973]
o7 call [8.4422] [31.5181]
o7 call [5.9022] [31.5181]
o7 call [5.8768] [31.1371]
G04 P0 ( dwell for no time -- G64 should not smooth over this point )
G00 Z1.00000 ( retract )

G00 X2.85420 Y31.01010 ( rapid move to begin. )
F300.00000
o7 call [2.8542] [31.0101]
G04 P0 ( dwell for no time -- G64 should not smooth over this point )
F600.00000
o7 call [2.8542] [29.2067]
o7 call [2.9304] [28.9781]
o7 call [5.8768] [28.9781]
o7 call [5.8768] [31.5181]
o7 call [2.9304] [31.5181]
o7 call [2.8796] [31.4673]
G04 P0 ( dwell for no time -- G64 should not smooth over this point )
G00 Z1.00000 ( retract )

G00 X67.09080 Y29.76550 ( rapid move to begin. )
F300.00000
o7 call [67.0908] [29.7655]
G04 P0 ( dwell for no time -- G64 should not smooth over this point )
F600.00000
o7 call [67.0908] [27.7081]
o7 call [70.1388] [27.7081]
o7 call [70.1388] [30.2481]
o7 call [67.0908] [30.2481]
o7 call [67.0908] [29.7909]
G04 P0 ( dwell for no time -- G64 should not smooth over this point )
G00 Z1.00000 ( retract )

G00 X64.55080 Y29.76550 ( rapid move to begin. )
F300.00000
o7 call [64.5508] [29.7655]
G04 P0 ( dwell for no time -- G64 should not smooth over this point )
F600.00000
o7 call [64.5508] [27.7081]
o7 call [67.0908] [27.7081]
o7 call [67.0908] [30.2481]
o7 call [64.5508] [30.2481]
o7 call [64.5508] [29.7909]
G04 P0 ( dwell for no time -- G64 should not smooth over this point )
G00 Z1.00000 ( retract )

G00 X62.01080 Y29.76550 ( rapid move to begin. )
F300.00000
o7 call [62.0108] [29.7655]
G04 P0 ( dwell for no time -- G64 should not smooth over this point )
F600.00000
o7 call [62.0108] [27.7081]
o7 call [64.5508] [27.7081]
o7 call [64.5508] [30.2481]
o7 call [62.0108] [30.2481]
o7 call [62.0108] [29.7909]
G04 P0 ( dwell for no time -- G64 should not smooth over this point )
G00 Z1.00000 ( retract )

G00 X59.47080 Y29.76550 ( rapid move to begin. )
F300.00000
o7 call [59.4708] [29.7655]
G04 P0 ( dwell for no time -- G64 should not smooth over this point )
F600.00000
o7 call [59.4708] [27.7081]
o7 call [62.0108] [27.7081]
o7 call [62.0108] [30.2481]
o7 call [59.4708] [30.2481]
o7 call [59.4708] [29.7909]
G04 P0 ( dwell for no time -- G64 should not smooth over this point )
G00 Z1.00000 ( retract )

G00 X56.93080 Y29.76550 ( rapid move to begin. )
F300.00000
o7 call [56.9308] [29.7655]
G04 P0 ( dwell for no time -- G64 should not smooth over this point )
F600.00000
o7 call [56.9308] [27.7081]
o7 call [59.4708] [27.7081]
o7 call [59.4708] [30.2481]
o7 call [56.9308] [30.2481]
o7 call [56.9308] [29.7909]
G04 P0 ( dwell for no time -- G64 should not smooth over this point )
G00 Z1.00000 ( retract )

G00 X54.39080 Y29.76550 ( rapid move to begin. )
F300.00000
o7 call [54.3908] [29.7655]
G04 P0 ( dwell for no time -- G64 should not smooth over this point )
F600.00000
o7 call [54.3908] [27.7081]
o7 call [56.9308] [27.7081]
o7 call [56.9308] [30.2481]
