( pcb2gcode 1.2.1 )

( This file uses 1 drill bit sizes. )
( Bit sizes: [1.016mm] )

      
G94       (Inches per minute feed rate.)
G20       (Units == INCHES.)
G90       (Absolute coordinates.)
S20000     (RPM spindle speed.)

G00 Z1.18110 (Retract)
T1
M5      (Spindle stop.)
(MSG, Change tool bit to drill size 1.01600 mm)
M6      (Tool change.)
M0      (Temporary machine stop.)
M3      (Spindle on clockwise.)

G81 R0.07874 Z-0.06299 F7.87402 X1.80000 Y0.50000
X1.90000 Y0.50000
X2.00000 Y0.50000
X2.10000 Y0.50000
X2.10000 Y0.40000
X2.00000 Y0.40000
X1.90000 Y0.40000
X1.80000 Y0.40000
X1.80000 Y0.30000
X1.90000 Y0.30000
X2.00000 Y0.30000
X2.10000 Y0.30000
X2.20000 Y0.30000
X2.20000 Y0.40000
X2.20000 Y0.50000
X2.30000 Y0.50000
X2.40000 Y0.50000
X2.40000 Y0.40000
X2.30000 Y0.40000
X2.30000 Y0.30000
X2.40000 Y0.30000
X2.50000 Y0.30000
X2.60000 Y0.30000
X2.60000 Y0.40000
X2.50000 Y0.40000
X2.50000 Y0.50000
X2.60000 Y0.50000
X2.60000 Y0.60000
X2.60000 Y0.70000
X2.60000 Y0.80000
X2.60000 Y0.90000
X2.60000 Y1.00000
X2.50000 Y1.00000
X2.50000 Y0.90000
X2.50000 Y0.80000
X2.50000 Y0.70000
X2.50000 Y0.60000
X2.40000 Y0.60000
X2.30000 Y0.60000
X2.30000 Y0.70000
X2.40000 Y0.70000
X2.40000 Y0.80000
X2.40000 Y0.90000
X2.40000 Y1.00000
X2.50000 Y1.10000
X2.60000 Y1.10000
X2.60000 Y1.20000
X2.50000 Y1.20000
X2.60000 Y1.30000
X2.60000 Y1.40000
X2.60000 Y1.50000
X2.60000 Y1.60000
X2.60000 Y1.70000
X2.60000 Y1.80000
X2.60000 Y1.90000
X2.50000 Y1.90000
X2.50000 Y1.80000
X2.50000 Y1.70000
X2.50000 Y1.60000
X2.50000 Y1.50000
X2.50000 Y1.40000
X2.50000 Y1.30000
X2.40000 Y1.40000
X2.40000 Y1.50000
X2.40000 Y1.60000
X2.40000 Y1.70000
X2.40000 Y1.80000
X2.40000 Y1.90000
X2.30000 Y1.90000
X2.30000 Y1.80000
X2.30000 Y1.70000
X2.30000 Y1.60000
X2.30000 Y1.50000
X2.30000 Y1.40000
X2.40000 Y1.30000
X2.30000 Y1.30000
X2.20000 Y1.30000
X2.20000 Y1.40000
X2.20000 Y1.50000
X2.20000 Y1.60000
X2.20000 Y1.70000
X2.20000 Y1.80000
X2.20000 Y1.90000
X2.10000 Y1.80000
X2.10000 Y1.70000
X2.10000 Y1.60000
X2.10000 Y1.50000
X2.10000 Y1.40000
X2.10000 Y1.30000
X2.00000 Y1.30000
X1.90000 Y1.30000
X1.80000 Y1.30000
X1.80000 Y1.20000
X1.90000 Y1.20000
X2.00000 Y1.20000
X2.10000 Y1.20000
X2.10000 Y1.10000
X2.00000 Y1.10000
X1.90000 Y1.10000
X1.80000 Y1.10000
X1.80000 Y1.00000
X1.90000 Y1.00000
X2.00000 Y1.00000
X2.10000 Y1.00000
X2.20000 Y1.10000
X2.20000 Y1.20000
X2.30000 Y1.20000
X2.40000 Y1.20000
X2.40000 Y1.10000
X2.30000 Y1.10000
X2.30000 Y1.00000
X2.30000 Y0.90000
X2.30000 Y0.80000
X2.20000 Y1.00000
X2.20000 Y0.90000
X2.20000 Y0.80000
X2.20000 Y0.70000
X2.20000 Y0.60000
X2.10000 Y0.60000
X2.00000 Y0.60000
X1.90000 Y0.60000
X1.80000 Y0.60000
X1.80000 Y0.70000
X1.90000 Y0.70000
X2.00000 Y0.70000
X2.10000 Y0.70000
X2.10000 Y0.80000
X2.10000 Y0.90000
X2.00000 Y0.90000
X2.00000 Y0.80000
X1.90000 Y0.80000
X1.90000 Y0.90000
X1.80000 Y0.90000
X1.80000 Y0.80000
X1.70000 Y0.70000
X1.70000 Y0.80000
X1.70000 Y0.90000
X1.70000 Y1.00000
X1.60000 Y1.00000
X1.60000 Y0.90000
X1.60000 Y0.80000
X1.60000 Y0.70000
X1.60000 Y0.60000
X1.70000 Y0.60000
X1.60000 Y0.50000
X1.70000 Y0.50000
X1.70000 Y0.40000
X1.60000 Y0.40000
X1.60000 Y0.30000
X1.70000 Y0.30000
X1.64000 Y0.15000
X1.54000 Y0.15000
X1.44000 Y0.15000
X1.34000 Y0.15000
X1.24000 Y0.15000
X1.14000 Y0.15000
X1.04000 Y0.15000
X0.94000 Y0.15000
X0.90000 Y0.30000
X1.00000 Y0.30000
X1.10000 Y0.30000
X1.20000 Y0.30000
X1.30000 Y0.30000
X1.40000 Y0.30000
X1.50000 Y0.30000
X1.50000 Y0.40000
X1.50000 Y0.50000
X1.50000 Y0.60000
X1.40000 Y0.60000
X1.30000 Y0.60000
X1.20000 Y0.60000
X1.10000 Y0.60000
X1.00000 Y0.60000
X0.90000 Y0.60000
X0.80000 Y0.60000
X0.80000 Y0.70000
X0.90000 Y0.70000
X1.00000 Y0.70000
X1.10000 Y0.70000
X1.20000 Y0.70000
X1.30000 Y0.70000
X1.40000 Y0.70000
X1.50000 Y0.70000
X1.50000 Y0.80000
X1.50000 Y0.90000
X1.50000 Y1.00000
X1.40000 Y1.00000
X1.40000 Y0.90000
X1.40000 Y0.80000
X1.30000 Y0.80000
X1.30000 Y0.90000
X1.30000 Y1.00000
X1.20000 Y1.00000
X1.20000 Y0.90000
X1.20000 Y0.80000
X1.10000 Y0.80000
X1.10000 Y0.90000
X1.10000 Y1.00000
X1.00000 Y1.00000
X1.00000 Y0.90000
X1.00000 Y0.80000
X0.90000 Y0.80000
X0.90000 Y0.90000
X0.90000 Y1.00000
X0.80000 Y0.80000
X0.80000 Y0.90000
X0.80000 Y1.00000
X0.80000 Y1.10000
X0.90000 Y1.10000
X1.00000 Y1.10000
X1.10000 Y1.10000
X1.20000 Y1.10000
X1.30000 Y1.10000
X1.40000 Y1.10000
X1.50000 Y1.10000
X1.50000 Y1.20000
X1.40000 Y1.20000
X1.30000 Y1.20000
X1.20000 Y1.20000
X1.10000 Y1.20000
X1.00000 Y1.20000
X0.90000 Y1.20000
X0.80000 Y1.20000
X0.80000 Y1.30000
X0.90000 Y1.30000
X1.00000 Y1.30000
X1.10000 Y1.30000
X1.20000 Y1.30000
X1.30000 Y1.30000
X1.40000 Y1.30000
X1.40000 Y1.40000
X1.30000 Y1.40000
X1.30000 Y1.50000
X1.20000 Y1.40000
X1.10000 Y1.40000
X1.00000 Y1.40000
X0.90000 Y1.40000
X0.80000 Y1.40000
X0.80000 Y1.50000
X0.80000 Y1.60000
X0.80000 Y1.70000
X0.80000 Y1.80000
X0.80000 Y1.90000
X0.90000 Y1.90000
X0.90000 Y1.80000
X0.90000 Y1.70000
X0.90000 Y1.60000
X0.90000 Y1.50000
X1.00000 Y1.50000
X1.00000 Y1.60000
X1.00000 Y1.70000
X1.00000 Y1.80000
X1.00000 Y1.90000
X1.10000 Y1.90000
X1.10000 Y1.80000
X1.10000 Y1.70000
X1.10000 Y1.60000
X1.10000 Y1.50000
X1.20000 Y1.50000
X1.20000 Y1.60000
X1.20000 Y1.70000
X1.20000 Y1.80000
X1.20000 Y1.90000
X1.30000 Y1.90000
X1.30000 Y1.80000
X1.30000 Y1.70000
X1.30000 Y1.60000
X1.40000 Y1.50000
X1.40000 Y1.60000
X1.40000 Y1.70000
X1.40000 Y1.80000
X1.40000 Y1.90000
X1.50000 Y1.90000
X1.50000 Y1.80000
X1.50000 Y1.70000
X1.50000 Y1.60000
X1.50000 Y1.50000
X1.50000 Y1.40000
X1.50000 Y1.30000
X1.60000 Y1.10000
X1.70000 Y1.10000
X1.70000 Y1.20000
X1.60000 Y1.20000
X1.60000 Y1.30000
X1.70000 Y1.30000
X1.70000 Y1.40000
X1.60000 Y1.40000
X1.60000 Y1.50000
X1.60000 Y1.60000
X1.60000 Y1.70000
X1.60000 Y1.80000
X1.60000 Y1.90000
X1.70000 Y1.90000
X1.70000 Y1.80000
X1.70000 Y1.70000
X1.70000 Y1.60000
X1.70000 Y1.50000
X1.80000 Y1.40000
X1.80000 Y1.50000
X1.80000 Y1.60000
X1.80000 Y1.70000
X1.80000 Y1.80000
X1.80000 Y1.90000
X1.90000 Y1.90000
X1.90000 Y1.80000
X1.90000 Y1.70000
X1.90000 Y1.60000
X1.90000 Y1.50000
X1.90000 Y1.40000
X2.00000 Y1.40000
X2.00000 Y1.50000
X2.00000 Y1.60000
X2.00000 Y1.70000
X2.00000 Y1.80000
X2.00000 Y1.90000
X2.10000 Y1.90000
X2.00000 Y2.05000
X1.90000 Y2.05000
X1.80000 Y2.05000
X1.70000 Y2.05000
X1.60000 Y2.05000
X1.50000 Y2.05000
X1.40000 Y2.05000
X1.30000 Y2.05000
X1.20000 Y2.05000
X1.10000 Y2.05000
X0.94000 Y2.05000
X0.84000 Y2.05000
X0.74000 Y2.05000
X0.64000 Y2.05000
X0.54000 Y2.05000
X0.44000 Y2.05000
X0.34000 Y2.05000
X0.24000 Y2.05000
X0.30000 Y1.90000
X0.30000 Y1.80000
X0.30000 Y1.70000
X0.30000 Y1.60000
X0.30000 Y1.50000
X0.30000 Y1.40000
X0.40000 Y1.40000
X0.40000 Y1.50000
X0.40000 Y1.60000
X0.40000 Y1.70000
X0.40000 Y1.80000
X0.40000 Y1.90000
X0.50000 Y1.90000
X0.50000 Y1.80000
X0.50000 Y1.70000
X0.50000 Y1.60000
X0.50000 Y1.50000
X0.50000 Y1.40000
X0.60000 Y1.40000
X0.60000 Y1.50000
X0.60000 Y1.60000
X0.60000 Y1.70000
X0.60000 Y1.80000
X0.60000 Y1.90000
X0.70000 Y1.90000
X0.70000 Y1.80000
X0.70000 Y1.70000
X0.70000 Y1.60000
X0.70000 Y1.50000
X0.70000 Y1.40000
X0.70000 Y1.30000
X0.60000 Y1.30000
X0.50000 Y1.30000
X0.40000 Y1.30000
X0.40000 Y1.20000
X0.50000 Y1.20000
X0.60000 Y1.20000
X0.70000 Y1.20000
X0.70000 Y1.10000
X0.60000 Y1.10000
X0.50000 Y1.10000
X0.40000 Y1.10000
X0.24000 Y1.15000
X0.24000 Y1.25000
X0.14000 Y1.25000
X0.14000 Y1.15000
X0.14000 Y1.05000
X0.24000 Y1.05000
X0.30000 Y0.90000
X0.30000 Y0.80000
X0.40000 Y0.80000
X0.40000 Y0.90000
X0.40000 Y1.00000
X0.50000 Y1.00000
X0.50000 Y0.90000
X0.50000 Y0.80000
X0.60000 Y0.80000
X0.60000 Y0.90000
X0.60000 Y1.00000
X0.70000 Y1.00000
X0.70000 Y0.90000
X0.70000 Y0.80000
X0.70000 Y0.70000
X0.60000 Y0.70000
X0.50000 Y0.70000
X0.40000 Y0.70000
X0.30000 Y0.70000
X0.30000 Y0.60000
X0.40000 Y0.60000
X0.50000 Y0.60000
X0.60000 Y0.60000
X0.70000 Y0.60000
X0.80000 Y0.50000
X0.90000 Y0.50000
X1.00000 Y0.50000
X1.10000 Y0.50000
X1.20000 Y0.50000
X1.30000 Y0.50000
X1.40000 Y0.50000
X1.40000 Y0.40000
X1.30000 Y0.40000
X1.20000 Y0.40000
X1.10000 Y0.40000
X1.00000 Y0.40000
X0.90000 Y0.40000
X0.80000 Y0.40000
X0.80000 Y0.30000
X0.74000 Y0.15000
X0.64000 Y0.15000
X0.54000 Y0.15000
X0.44000 Y0.15000
X0.34000 Y0.15000
X0.24000 Y0.15000
X0.30000 Y0.30000
X0.40000 Y0.30000
X0.50000 Y0.30000
X0.60000 Y0.30000
X0.70000 Y0.30000
X0.70000 Y0.40000
X0.70000 Y0.50000
X0.60000 Y0.50000
X0.60000 Y0.40000
X0.50000 Y0.40000
X0.40000 Y0.40000
X0.30000 Y0.40000
X0.50000 Y0.50000
X0.40000 Y0.50000
X0.30000 Y0.50000

G00 Z1.18110 (All done -- retract)


M5      (Spindle off.)
M9      (Coolant off.)
M2      (Program end.)

