( pcb2gcode 1.2.1 )

( This file uses only one drill bit. Forced by 'onedrill' option )

      
G94       (Millimeters per minute feed rate.)
G21       (Units == Millimeters.)
G90       (Absolute coordinates.)
S20000     (RPM spindle speed.)

G00 Z30.00000 (Retract)
T1
M5      (Spindle stop.)
(MSG, Change tool bit to drill size 1.01600 mm)
M6      (Tool change.)
M0      (Temporary machine stop.)
M3      (Spindle on clockwise.)

G81 R1.00000 Z-1.60000 F1000.00000 X46.77080 Y13.75080
X49.31080 Y13.75080
X51.85080 Y13.75080
X54.39080 Y13.75080
X54.39080 Y11.21080
X51.85080 Y11.21080
X49.31080 Y11.21080
X46.77080 Y11.21080
X46.77080 Y8.67080
X49.31080 Y8.67080
X51.85080 Y8.67080
X54.39080 Y8.67080
X56.93080 Y8.67080
X56.93080 Y11.21080
X56.93080 Y13.75080
X59.47080 Y13.75080
X62.01080 Y13.75080
X62.01080 Y11.21080
X59.47080 Y11.21080
X59.47080 Y8.67080
X62.01080 Y8.67080
X64.55080 Y8.67080
X67.09080 Y8.67080
X67.09080 Y11.21080
X64.55080 Y11.21080
X64.55080 Y13.75080
X67.09080 Y13.75080
X67.09080 Y16.29080
X67.09080 Y18.83080
X67.09080 Y21.37080
X67.09080 Y23.91080
X67.09080 Y26.45080
X64.55080 Y26.45080
X64.55080 Y23.91080
X64.55080 Y21.37080
X64.55080 Y18.83080
X64.55080 Y16.29080
X62.01080 Y16.29080
X59.47080 Y16.29080
X59.47080 Y18.83080
X62.01080 Y18.83080
X62.01080 Y21.37080
X62.01080 Y23.91080
X62.01080 Y26.45080
X64.55080 Y28.99080
X67.09080 Y28.99080
X67.09080 Y31.53080
X64.55080 Y31.53080
X67.09080 Y34.07080
X67.09080 Y36.61080
X67.09080 Y39.15080
X67.09080 Y41.69080
X67.09080 Y44.23080
X67.09080 Y46.77080
X67.09080 Y49.31080
X64.55080 Y49.31080
X64.55080 Y46.77080
X64.55080 Y44.23080
X64.55080 Y41.69080
X64.55080 Y39.15080
X64.55080 Y36.61080
X64.55080 Y34.07080
X62.01080 Y36.61080
X62.01080 Y39.15080
X62.01080 Y41.69080
X62.01080 Y44.23080
X62.01080 Y46.77080
X62.01080 Y49.31080
X59.47080 Y49.31080
X59.47080 Y46.77080
X59.47080 Y44.23080
X59.47080 Y41.69080
X59.47080 Y39.15080
X59.47080 Y36.61080
X62.01080 Y34.07080
X59.47080 Y34.07080
X56.93080 Y34.07080
X56.93080 Y36.61080
X56.93080 Y39.15080
X56.93080 Y41.69080
X56.93080 Y44.23080
X56.93080 Y46.77080
X56.93080 Y49.31080
X54.39080 Y46.77080
X54.39080 Y44.23080
X54.39080 Y41.69080
X54.39080 Y39.15080
X54.39080 Y36.61080
X54.39080 Y34.07080
X51.85080 Y34.07080
X49.31080 Y34.07080
X46.77080 Y34.07080
X46.77080 Y31.53080
X49.31080 Y31.53080
X51.85080 Y31.53080
X54.39080 Y31.53080
X54.39080 Y28.99080
X51.85080 Y28.99080
X49.31080 Y28.99080
X46.77080 Y28.99080
X46.77080 Y26.45080
X49.31080 Y26.45080
X51.85080 Y26.45080
X54.39080 Y26.45080
X56.93080 Y28.99080
X56.93080 Y31.53080
X59.47080 Y31.53080
X62.01080 Y31.53080
X62.01080 Y28.99080
X59.47080 Y28.99080
X59.47080 Y26.45080
X59.47080 Y23.91080
X59.47080 Y21.37080
X56.93080 Y26.45080
X56.93080 Y23.91080
X56.93080 Y21.37080
X56.93080 Y18.83080
X56.93080 Y16.29080
X54.39080 Y16.29080
X51.85080 Y16.29080
X49.31080 Y16.29080
X46.77080 Y16.29080
X46.77080 Y18.83080
X49.31080 Y18.83080
X51.85080 Y18.83080
X54.39080 Y18.83080
X54.39080 Y21.37080
X54.39080 Y23.91080
X51.85080 Y23.91080
X51.85080 Y21.37080
X49.31080 Y21.37080
X49.31080 Y23.91080
X46.77080 Y23.91080
X46.77080 Y21.37080
X44.23080 Y18.83080
X44.23080 Y21.37080
X44.23080 Y23.91080
X44.23080 Y26.45080
X41.69080 Y26.45080
X41.69080 Y23.91080
X41.69080 Y21.37080
X41.69080 Y18.83080
X41.69080 Y16.29080
X44.23080 Y16.29080
X41.69080 Y13.75080
X44.23080 Y13.75080
X44.23080 Y11.21080
X41.69080 Y11.21080
X41.69080 Y8.67080
X44.23080 Y8.67080
X42.70680 Y4.86080
X40.16680 Y4.86080
X37.62680 Y4.86080
X35.08680 Y4.86080
X32.54680 Y4.86080
X30.00680 Y4.86080
X27.46680 Y4.86080
X24.92680 Y4.86080
X23.91080 Y8.67080
X26.45080 Y8.67080
X28.99080 Y8.67080
X31.53080 Y8.67080
X34.07080 Y8.67080
X36.61080 Y8.67080
X39.15080 Y8.67080
X39.15080 Y11.21080
X39.15080 Y13.75080
X39.15080 Y16.29080
X36.61080 Y16.29080
X34.07080 Y16.29080
X31.53080 Y16.29080
X28.99080 Y16.29080
X26.45080 Y16.29080
X23.91080 Y16.29080
X21.37080 Y16.29080
X21.37080 Y18.83080
X23.91080 Y18.83080
X26.45080 Y18.83080
X28.99080 Y18.83080
X31.53080 Y18.83080
X34.07080 Y18.83080
X36.61080 Y18.83080
X39.15080 Y18.83080
X39.15080 Y21.37080
X39.15080 Y23.91080
X39.15080 Y26.45080
X36.61080 Y26.45080
X36.61080 Y23.91080
X36.61080 Y21.37080
X34.07080 Y21.37080
X34.07080 Y23.91080
X34.07080 Y26.45080
X31.53080 Y26.45080
X31.53080 Y23.91080
X31.53080 Y21.37080
X28.99080 Y21.37080
X28.99080 Y23.91080
X28.99080 Y26.45080
X26.45080 Y26.45080
X26.45080 Y23.91080
X26.45080 Y21.37080
X23.91080 Y21.37080
X23.91080 Y23.91080
X23.91080 Y26.45080
X21.37080 Y21.37080
X21.37080 Y23.91080
X21.37080 Y26.45080
X21.37080 Y28.99080
X23.91080 Y28.99080
X26.45080 Y28.99080
X28.99080 Y28.99080
X31.53080 Y28.99080
X34.07080 Y28.99080
X36.61080 Y28.99080
X39.15080 Y28.99080
X39.15080 Y31.53080
X36.61080 Y31.53080
X34.07080 Y31.53080
X31.53080 Y31.53080
X28.99080 Y31.53080
X26.45080 Y31.53080
X23.91080 Y31.53080
X21.37080 Y31.53080
X21.37080 Y34.07080
X23.91080 Y34.07080
X26.45080 Y34.07080
X28.99080 Y34.07080
X31.53080 Y34.07080
X34.07080 Y34.07080
X36.61080 Y34.07080
X36.61080 Y36.61080
X34.07080 Y36.61080
X34.07080 Y39.15080
X31.53080 Y36.61080
X28.99080 Y36.61080
X26.45080 Y36.61080
X23.91080 Y36.61080
X21.37080 Y36.61080
X21.37080 Y39.15080
X21.37080 Y41.69080
X21.37080 Y44.23080
X21.37080 Y46.77080
X21.37080 Y49.31080
X23.91080 Y49.31080
X23.91080 Y46.77080
X23.91080 Y44.23080
X23.91080 Y41.69080
X23.91080 Y39.15080
X26.45080 Y39.15080
X26.45080 Y41.69080
X26.45080 Y44.23080
X26.45080 Y46.77080
X26.45080 Y49.31080
X28.99080 Y49.31080
X28.99080 Y46.77080
X28.99080 Y44.23080
X28.99080 Y41.69080
X28.99080 Y39.15080
X31.53080 Y39.15080
X31.53080 Y41.69080
X31.53080 Y44.23080
X31.53080 Y46.77080
X31.53080 Y49.31080
X34.07080 Y49.31080
X34.07080 Y46.77080
X34.07080 Y44.23080
X34.07080 Y41.69080
X36.61080 Y39.15080
X36.61080 Y41.69080
X36.61080 Y44.23080
X36.61080 Y46.77080
X36.61080 Y49.31080
X39.15080 Y49.31080
X39.15080 Y46.77080
X39.15080 Y44.23080
X39.15080 Y41.69080
X39.15080 Y39.15080
X39.15080 Y36.61080
X39.15080 Y34.07080
X41.69080 Y28.99080
X44.23080 Y28.99080
X44.23080 Y31.53080
X41.69080 Y31.53080
X41.69080 Y34.07080
X44.23080 Y34.07080
X44.23080 Y36.61080
X41.69080 Y36.61080
X41.69080 Y39.15080
X41.69080 Y41.69080
X41.69080 Y44.23080
X41.69080 Y46.77080
X41.69080 Y49.31080
X44.23080 Y49.31080
X44.23080 Y46.77080
X44.23080 Y44.23080
X44.23080 Y41.69080
X44.23080 Y39.15080
X46.77080 Y36.61080
X46.77080 Y39.15080
X46.77080 Y41.69080
X46.77080 Y44.23080
X46.77080 Y46.77080
X46.77080 Y49.31080
X49.31080 Y49.31080
X49.31080 Y46.77080
X49.31080 Y44.23080
X49.31080 Y41.69080
X49.31080 Y39.15080
X49.31080 Y36.61080
X51.85080 Y36.61080
X51.85080 Y39.15080
X51.85080 Y41.69080
X51.85080 Y44.23080
X51.85080 Y46.77080
X51.85080 Y49.31080
X54.39080 Y49.31080
X51.85080 Y53.12080
X49.31080 Y53.12080
X46.77080 Y53.12080
X44.23080 Y53.12080
X41.69080 Y53.12080
X39.15080 Y53.12080
X36.61080 Y53.12080
X34.07080 Y53.12080
X31.53080 Y53.12080
X28.99080 Y53.12080
X24.92680 Y53.12080
X22.38680 Y53.12080
X19.84680 Y53.12080
X17.30680 Y53.12080
X14.76680 Y53.12080
X12.22680 Y53.12080
X9.68680 Y53.12080
X7.14680 Y53.12080
X8.67080 Y49.31080
X8.67080 Y46.77080
X8.67080 Y44.23080
X8.67080 Y41.69080
X8.67080 Y39.15080
X8.67080 Y36.61080
X11.21080 Y36.61080
X11.21080 Y39.15080
X11.21080 Y41.69080
X11.21080 Y44.23080
X11.21080 Y46.77080
X11.21080 Y49.31080
X13.75080 Y49.31080
X13.75080 Y46.77080
X13.75080 Y44.23080
X13.75080 Y41.69080
X13.75080 Y39.15080
X13.75080 Y36.61080
X16.29080 Y36.61080
X16.29080 Y39.15080
X16.29080 Y41.69080
X16.29080 Y44.23080
X16.29080 Y46.77080
X16.29080 Y49.31080
X18.83080 Y49.31080
X18.83080 Y46.77080
X18.83080 Y44.23080
X18.83080 Y41.69080
X18.83080 Y39.15080
X18.83080 Y36.61080
X18.83080 Y34.07080
X16.29080 Y34.07080
X13.75080 Y34.07080
X11.21080 Y34.07080
X11.21080 Y31.53080
X13.75080 Y31.53080
X16.29080 Y31.53080
X18.83080 Y31.53080
X18.83080 Y28.99080
X16.29080 Y28.99080
X13.75080 Y28.99080
X11.21080 Y28.99080
X7.14680 Y30.26080
X7.14680 Y32.80080
X4.60680 Y32.80080
X4.60680 Y30.26080
X4.60680 Y27.72080
X7.14680 Y27.72080
X8.67080 Y23.91080
X8.67080 Y21.37080
X11.21080 Y21.37080
X11.21080 Y23.91080
X11.21080 Y26.45080
X13.75080 Y26.45080
X13.75080 Y23.91080
X13.75080 Y21.37080
X16.29080 Y21.37080
X16.29080 Y23.91080
X16.29080 Y26.45080
X18.83080 Y26.45080
X18.83080 Y23.91080
X18.83080 Y21.37080
X18.83080 Y18.83080
X16.29080 Y18.83080
X13.75080 Y18.83080
X11.21080 Y18.83080
X8.67080 Y18.83080
X8.67080 Y16.29080
X11.21080 Y16.29080
X13.75080 Y16.29080
X16.29080 Y16.29080
X18.83080 Y16.29080
X21.37080 Y13.75080
X23.91080 Y13.75080
X26.45080 Y13.75080
X28.99080 Y13.75080
X31.53080 Y13.75080
X34.07080 Y13.75080
X36.61080 Y13.75080
X36.61080 Y11.21080
X34.07080 Y11.21080
X31.53080 Y11.21080
X28.99080 Y11.21080
X26.45080 Y11.21080
X23.91080 Y11.21080
X21.37080 Y11.21080
X21.37080 Y8.67080
X19.84680 Y4.86080
X17.30680 Y4.86080
X14.76680 Y4.86080
X12.22680 Y4.86080
X9.68680 Y4.86080
X7.14680 Y4.86080
X8.67080 Y8.67080
X11.21080 Y8.67080
X13.75080 Y8.67080
X16.29080 Y8.67080
X18.83080 Y8.67080
X18.83080 Y11.21080
X18.83080 Y13.75080
X16.29080 Y13.75080
X16.29080 Y11.21080
X13.75080 Y11.21080
X11.21080 Y11.21080
X8.67080 Y11.21080
X13.75080 Y13.75080
X11.21080 Y13.75080
X8.67080 Y13.75080

G00 Z30.00000 (All done -- retract)


M5      (Spindle off.)
M9      (Coolant off.)
M2      (Program end.)

