( pcb2gcode 1.2.1 )
( Software-independent Gcode )
      

G94 ( Millimeters per minute feed rate. )
G21 ( Units == Millimeters. )

G90 ( Absolute coordinates. )
S10000 ( RPM spindle speed. )
G64 P0.05080 ( set maximum deviation from commanded toolpath )
F600.00000 ( Feedrate. )

F600.00000 ( Feedrate. )
M3 ( Spindle on clockwise. )
G04 P0 ( dwell for no time -- G64 should not smooth over this point )
G00 Z1.00000 ( retract )

G00 X66.93840 Y55.34330 ( rapid move to begin. )
F300.00000
G01 Z-0.03000
G04 P0 ( dwell for no time -- G64 should not smooth over this point )
F600.00000
X66.93840 Y55.34330
X67.75120 Y54.55590
X68.33540 Y53.92090
X68.33540 Y42.54170
X70.87540 Y40.00170
X70.87540 Y7.79450
X68.33540 Y5.25450
X68.33540 Y2.71450
X68.23380 Y2.61290
X3.03200 Y2.58750
X2.85420 Y2.71450
X2.85420 Y55.24170
X2.95580 Y55.34330
X66.93840 Y55.36870
G04 P0 ( dwell for no time -- G64 should not smooth over this point )
G00 Z1.00000 ( retract )

G00 X22.36140 Y54.37810 ( rapid move to begin. )
F300.00000
G01 Z-0.03000
G04 P0 ( dwell for no time -- G64 should not smooth over this point )
F600.00000
X22.36140 Y54.37810
X22.51380 Y54.14950
X22.64080 Y54.07330
X22.61540 Y52.16830
X22.48840 Y52.09210
X22.25980 Y51.71110
X21.90420 Y51.45710
X21.24380 Y51.35550
X20.91360 Y51.43170
X20.43100 Y51.76190
X20.20240 Y52.14290
X20.15160 Y52.49850
X20.05000 Y52.70170
X19.94840 Y52.70170
X19.84680 Y52.60010
X19.74520 Y52.39690
X19.59280 Y52.39690
X19.59280 Y53.87010
X19.77060 Y53.84470
X19.82140 Y53.69230
X19.92300 Y53.59070
X20.07540 Y53.59070
X20.12620 Y53.64150
X20.17700 Y53.99710
X20.45640 Y54.53050
X20.93900 Y54.86070
X21.29460 Y54.91150
X21.80260 Y54.86070
X22.28520 Y54.53050
X22.36140 Y54.40350
G04 P0 ( dwell for no time -- G64 should not smooth over this point )
G00 Z1.00000 ( retract )

G00 X24.90140 Y54.37810 ( rapid move to begin. )
F300.00000
G01 Z-0.03000
G04 P0 ( dwell for no time -- G64 should not smooth over this point )
F600.00000
X24.90140 Y54.37810
X25.05380 Y54.14950
X25.18080 Y54.07330
X25.15540 Y52.16830
X25.02840 Y52.09210
X24.79980 Y51.71110
X24.44420 Y51.45710
X23.78380 Y51.35550
X23.45360 Y51.43170
X22.97100 Y51.76190
X22.64080 Y52.24450
X22.64080 Y54.07330
X22.84400 Y54.27650
X22.99640 Y54.53050
X23.47900 Y54.86070
X23.83460 Y54.91150
X24.34260 Y54.86070
X24.82520 Y54.53050
X24.90140 Y54.40350
G04 P0 ( dwell for no time -- G64 should not smooth over this point )
G00 Z1.00000 ( retract )

G00 X27.44140 Y54.37810 ( rapid move to begin. )
F300.00000
G01 Z-0.03000
G04 P0 ( dwell for no time -- G64 should not smooth over this point )
F600.00000
X27.44140 Y54.37810
X27.59380 Y54.14950
X27.72080 Y54.07330
X27.69540 Y52.16830
X27.56840 Y52.09210
X27.33980 Y51.71110
X26.98420 Y51.45710
X26.32380 Y51.35550
X25.99360 Y51.43170
X25.51100 Y51.76190
X25.18080 Y52.24450
X25.18080 Y54.07330
X25.38400 Y54.27650
X25.53640 Y54.53050
X26.01900 Y54.86070
X26.37460 Y54.91150
X26.88260 Y54.86070
X27.36520 Y54.53050
X27.44140 Y54.40350
G04 P0 ( dwell for no time -- G64 should not smooth over this point )
G00 Z1.00000 ( retract )

G00 X29.98140 Y54.37810 ( rapid move to begin. )
F300.00000
G01 Z-0.03000
G04 P0 ( dwell for no time -- G64 should not smooth over this point )
F600.00000
X29.98140 Y54.37810
X30.13380 Y54.14950
X30.26080 Y54.07330
X30.23540 Y52.16830
X30.10840 Y52.09210
X29.87980 Y51.71110
X29.52420 Y51.45710
X28.86380 Y51.35550
X28.53360 Y51.43170
X28.05100 Y51.76190
X27.72080 Y52.24450
X27.72080 Y54.07330
X27.92400 Y54.27650
X28.07640 Y54.53050
X28.55900 Y54.86070
X28.91460 Y54.91150
X29.42260 Y54.86070
X29.90520 Y54.53050
X29.98140 Y54.40350
G04 P0 ( dwell for no time -- G64 should not smooth over this point )
G00 Z1.00000 ( retract )

G00 X32.52140 Y54.37810 ( rapid move to begin. )
F300.00000
G01 Z-0.03000
G04 P0 ( dwell for no time -- G64 should not smooth over this point )
F600.00000
X32.52140 Y54.37810
X32.67380 Y54.14950
X32.80080 Y54.07330
X32.77540 Y52.16830
X32.64840 Y52.09210
X32.41980 Y51.71110
X32.06420 Y51.45710
X31.40380 Y51.35550
X31.07360 Y51.43170
X30.59100 Y51.76190
X30.26080 Y52.24450
X30.26080 Y54.07330
X30.46400 Y54.27650
X30.61640 Y54.53050
X31.09900 Y54.86070
X31.45460 Y54.91150
X31.96260 Y54.86070
X32.44520 Y54.53050
X32.52140 Y54.40350
G04 P0 ( dwell for no time -- G64 should not smooth over this point )
G00 Z1.00000 ( retract )

G00 X35.06140 Y54.37810 ( rapid move to begin. )
F300.00000
G01 Z-0.03000
G04 P0 ( dwell for no time -- G64 should not smooth over this point )
F600.00000
X35.06140 Y54.37810
X35.21380 Y54.14950
X35.34080 Y54.07330
X35.31540 Y52.16830
X35.18840 Y52.09210
X34.95980 Y51.71110
X34.60420 Y51.45710
X33.94380 Y51.35550
X33.61360 Y51.43170
X33.13100 Y51.76190
X32.80080 Y52.24450
X32.80080 Y54.07330
X33.00400 Y54.27650
X33.15640 Y54.53050
X33.63900 Y54.86070
X33.99460 Y54.91150
X34.50260 Y54.86070
X34.98520 Y54.53050
X35.06140 Y54.40350
G04 P0 ( dwell for no time -- G64 should not smooth over this point )
G00 Z1.00000 ( retract )

G00 X37.60140 Y54.37810 ( rapid move to begin. )
F300.00000
G01 Z-0.03000
G04 P0 ( dwell for no time -- G64 should not smooth over this point )
F600.00000
X37.60140 Y54.37810
X37.75380 Y54.14950
X37.88080 Y54.07330
X37.85540 Y52.16830
X37.72840 Y52.09210
X37.49980 Y51.71110
X37.14420 Y51.45710
X36.48380 Y51.35550
X36.15360 Y51.43170
X35.67100 Y51.76190
X35.34080 Y52.24450
X35.34080 Y54.07330
X35.54400 Y54.27650
X35.69640 Y54.53050
X36.17900 Y54.86070
X36.53460 Y54.91150
X37.04260 Y54.86070
X37.52520 Y54.53050
X37.60140 Y54.40350
G04 P0 ( dwell for no time -- G64 should not smooth over this point )
G00 Z1.00000 ( retract )

G00 X40.14140 Y54.37810 ( rapid move to begin. )
F300.00000
G01 Z-0.03000
G04 P0 ( dwell for no time -- G64 should not smooth over this point )
F600.00000
X40.14140 Y54.37810
X40.29380 Y54.14950
X40.42080 Y54.07330
X40.39540 Y52.16830
X40.26840 Y52.09210
X40.03980 Y51.71110
X39.68420 Y51.45710
X39.02380 Y51.35550
X38.69360 Y51.43170
X38.21100 Y51.76190
X37.88080 Y52.24450
X37.88080 Y54.07330
X38.08400 Y54.27650
X38.23640 Y54.53050
X38.71900 Y54.86070
X39.07460 Y54.91150
X39.58260 Y54.86070
X40.06520 Y54.53050
X40.14140 Y54.40350
G04 P0 ( dwell for no time -- G64 should not smooth over this point )
G00 Z1.00000 ( retract )

G00 X42.68140 Y54.37810 ( rapid move to begin. )
F300.00000
G01 Z-0.03000
G04 P0 ( dwell for no time -- G64 should not smooth over this point )
F600.00000
X42.68140 Y54.37810
X42.83380 Y54.14950
X42.96080 Y54.07330
X42.93540 Y52.16830
X42.80840 Y52.09210
X42.57980 Y51.71110
X42.22420 Y51.45710
X41.56380 Y51.35550
X41.23360 Y51.43170
X40.75100 Y51.76190
X40.42080 Y52.24450
X40.42080 Y54.07330
X40.62400 Y54.27650
X40.77640 Y54.53050
X41.25900 Y54.86070
X41.61460 Y54.91150
X42.12260 Y54.86070
X42.60520 Y54.53050
X42.68140 Y54.40350
G04 P0 ( dwell for no time -- G64 should not smooth over this point )
G00 Z1.00000 ( retract )

G00 X45.22140 Y54.37810 ( rapid move to begin. )
F300.00000
G01 Z-0.03000
G04 P0 ( dwell for no time -- G64 should not smooth over this point )
F600.00000
X45.22140 Y54.37810
X45.37380 Y54.14950
X45.45000 Y53.81930
X45.47540 Y52.62550
X45.42460 Y52.26990
X45.14520 Y51.73650
X44.66260 Y51.40630
X44.30700 Y51.35550
X43.79900 Y51.40630
X43.31640 Y51.73650
X43.16400 Y51.99050
X42.96080 Y52.19370
X42.96080 Y54.02250
X43.29100 Y54.50510
X43.77360 Y54.83530
X44.10380 Y54.91150
X44.76420 Y54.80990
X45.11980 Y54.55590
X45.22140 Y54.40350
G04 P0 ( dwell for no time -- G64 should not smooth over this point )
G00 Z1.00000 ( retract )

G00 X49.28540 Y54.37810 ( rapid move to begin. )
F300.00000
G01 Z-0.03000
G04 P0 ( dwell for no time -- G64 should not smooth over this point )
F600.00000
X49.28540 Y54.37810
X49.43780 Y54.14950
X49.56480 Y54.07330
X49.53940 Y52.16830
X49.41240 Y52.09210
X49.18380 Y51.71110
X48.82820 Y51.45710
X48.16780 Y51.35550
X47.83760 Y51.43170
X47.35500 Y51.76190
X47.12640 Y52.14290
X47.05020 Y52.47310
X47.02480 Y53.66690
X47.10100 Y53.99710
X47.38040 Y54.53050
X47.86300 Y54.86070
X48.21860 Y54.91150
X48.72660 Y54.86070
X49.20920 Y54.53050
X49.28540 Y54.40350
G04 P0 ( dwell for no time -- G64 should not smooth over this point )
G00 Z1.00000 ( retract )

G00 X51.82540 Y54.37810 ( rapid move to begin. )
F300.00000
G01 Z-0.03000
G04 P0 ( dwell for no time -- G64 should not smooth over this point )
F600.00000
X51.82540 Y54.37810
X51.97780 Y54.14950
X52.10480 Y54.07330
X52.07940 Y52.16830
X51.95240 Y52.09210
X51.72380 Y51.71110
X51.36820 Y51.45710
X50.70780 Y51.35550
X50.37760 Y51.43170
X49.89500 Y51.76190
X49.56480 Y52.24450
X49.56480 Y54.07330
X49.76800 Y54.27650
X49.92040 Y54.53050
X50.40300 Y54.86070
X50.75860 Y54.91150
X51.26660 Y54.86070
X51.74920 Y54.53050
X51.82540 Y54.40350
G04 P0 ( dwell for no time -- G64 should not smooth over this point )
G00 Z1.00000 ( retract )

G00 X54.36540 Y54.37810 ( rapid move to begin. )
F300.00000
G01 Z-0.03000
G04 P0 ( dwell for no time -- G64 should not smooth over this point )
F600.00000
X54.36540 Y54.37810
X54.51780 Y54.14950
X54.64480 Y54.07330
X54.61940 Y52.16830
X54.49240 Y52.09210
X54.26380 Y51.71110
X53.90820 Y51.45710
X53.24780 Y51.35550
X52.91760 Y51.43170
X52.43500 Y51.76190
X52.10480 Y52.24450
X52.10480 Y54.07330
X52.30800 Y54.27650
X52.46040 Y54.53050
X52.94300 Y54.86070
X53.29860 Y54.91150
X53.80660 Y54.86070
X54.28920 Y54.53050
X54.36540 Y54.40350
G04 P0 ( dwell for no time -- G64 should not smooth over this point )
G00 Z1.00000 ( retract )

G00 X56.90540 Y54.37810 ( rapid move to begin. )
F300.00000
G01 Z-0.03000
G04 P0 ( dwell for no time -- G64 should not smooth over this point )
F600.00000
X56.90540 Y54.37810
X57.05780 Y54.14950
X57.18480 Y54.07330
X57.15940 Y52.16830
X57.03240 Y52.09210
X56.80380 Y51.71110
X56.44820 Y51.45710
X55.78780 Y51.35550
X55.45760 Y51.43170
X54.97500 Y51.76190
X54.64480 Y52.24450
X54.64480 Y54.07330
X54.84800 Y54.27650
X55.00040 Y54.53050
X55.48300 Y54.86070
X55.83860 Y54.91150
X56.34660 Y54.86070
X56.82920 Y54.53050
X56.90540 Y54.40350
G04 P0 ( dwell for no time -- G64 should not smooth over this point )
G00 Z1.00000 ( retract )

G00 X59.44540 Y54.37810 ( rapid move to begin. )
F300.00000
G01 Z-0.03000
G04 P0 ( dwell for no time -- G64 should not smooth over this point )
F600.00000
X59.44540 Y54.37810
X59.59780 Y54.14950
X59.72480 Y54.07330
X59.69940 Y52.16830
X59.57240 Y52.09210
X59.34380 Y51.71110
X58.98820 Y51.45710
X58.32780 Y51.35550
X57.99760 Y51.43170
X57.51500 Y51.76190
X57.18480 Y52.24450
X57.18480 Y54.07330
X57.38800 Y54.27650
X57.54040 Y54.53050
X58.02300 Y54.86070
X58.37860 Y54.91150
X58.88660 Y54.86070
X59.36920 Y54.53050
X59.44540 Y54.40350
G04 P0 ( dwell for no time -- G64 should not smooth over this point )
G00 Z1.00000 ( retract )

G00 X61.98540 Y54.37810 ( rapid move to begin. )
F300.00000
G01 Z-0.03000
G04 P0 ( dwell for no time -- G64 should not smooth over this point )
F600.00000
X61.98540 Y54.37810
X62.13780 Y54.14950
X62.26480 Y54.07330
X62.23940 Y52.16830
X62.11240 Y52.09210
X61.88380 Y51.71110
X61.52820 Y51.45710
X60.86780 Y51.35550
X60.53760 Y51.43170
X60.05500 Y51.76190
X59.72480 Y52.24450
X59.72480 Y54.07330
X59.92800 Y54.27650
X60.08040 Y54.53050
X60.56300 Y54.86070
X60.91860 Y54.91150
X61.42660 Y54.86070
X61.90920 Y54.53050
X61.98540 Y54.40350
G04 P0 ( dwell for no time -- G64 should not smooth over this point )
G00 Z1.00000 ( retract )

G00 X64.52540 Y54.37810 ( rapid move to begin. )
F300.00000
G01 Z-0.03000
G04 P0 ( dwell for no time -- G64 should not smooth over this point )
F600.00000
X64.52540 Y54.37810
X64.67780 Y54.14950
X64.80480 Y54.07330
X64.77940 Y52.16830
X64.65240 Y52.09210
X64.42380 Y51.71110
X64.06820 Y51.45710
X63.40780 Y51.35550
X63.07760 Y51.43170
X62.59500 Y51.76190
X62.26480 Y52.24450
X62.26480 Y54.07330
X62.46800 Y54.27650
X62.62040 Y54.53050
X63.10300 Y54.86070
X63.45860 Y54.91150
X63.96660 Y54.86070
X64.44920 Y54.53050
X64.52540 Y54.40350
G04 P0 ( dwell for no time -- G64 should not smooth over this point )
G00 Z1.00000 ( retract )

G00 X67.06540 Y54.37810 ( rapid move to begin. )
F300.00000
G01 Z-0.03000
G04 P0 ( dwell for no time -- G64 should not smooth over this point )
F600.00000
X67.06540 Y54.37810
X67.21780 Y54.14950
X67.29400 Y53.81930
X67.31940 Y52.62550
X67.26860 Y52.26990
X66.98920 Y51.73650
X66.50660 Y51.40630
X66.15100 Y51.35550
X65.64300 Y51.40630
X65.16040 Y51.73650
X65.00800 Y51.99050
X64.80480 Y52.19370
X64.80480 Y54.02250
X65.13500 Y54.50510
X65.61760 Y54.83530
X65.94780 Y54.91150
X66.60820 Y54.80990
X66.96380 Y54.55590
X67.06540 Y54.40350
G04 P0 ( dwell for no time -- G64 should not smooth over this point )
G00 Z1.00000 ( retract )

G00 X8.67080 Y47.54550 ( rapid move to begin. )
F300.00000
G01 Z-0.03000
G04 P0 ( dwell for no time -- G64 should not smooth over this point )
F600.00000
X8.67080 Y47.54550
X8.67080 Y45.48810
X5.62280 Y45.48810
X5.59740 Y46.47870
X5.64820 Y46.63110
X5.59740 Y47.39310
X5.62280 Y48.07890
X5.82600 Y48.38370
X6.08000 Y48.53610
X7.07060 Y48.56150
X7.22300 Y48.51070
X7.98500 Y48.56150
X8.67080 Y48.53610
X8.67080 Y47.72330
G04 P0 ( dwell for no time -- G64 should not smooth over this point )
G00 Z1.00000 ( retract )

G00 X11.21080 Y47.54550 ( rapid move to begin. )
F300.00000
G01 Z-0.03000
G04 P0 ( dwell for no time -- G64 should not smooth over this point )
F600.00000
X11.21080 Y47.54550
X11.21080 Y45.48810
X8.67080 Y45.48810
X8.67080 Y48.53610
X9.45820 Y48.56150
X9.81380 Y48.51070
X10.57580 Y48.56150
X11.21080 Y48.53610
X11.21080 Y47.72330
G04 P0 ( dwell for no time -- G64 should not smooth over this point )
G00 Z1.00000 ( retract )

G00 X13.75080 Y47.54550 ( rapid move to begin. )
F300.00000
G01 Z-0.03000
G04 P0 ( dwell for no time -- G64 should not smooth over this point )
F600.00000
X13.75080 Y47.54550
X13.75080 Y45.48810
X11.21080 Y45.48810
X11.21080 Y48.53610
X11.99820 Y48.56150
X12.35380 Y48.51070
X13.11580 Y48.56150
X13.75080 Y48.53610
X13.75080 Y47.62170
G04 P0 ( dwell for no time -- G64 should not smooth over this point )
G00 Z1.00000 ( retract )

G00 X16.29080 Y47.54550 ( rapid move to begin. )
F300.00000
G01 Z-0.03000
G04 P0 ( dwell for no time -- G64 should not smooth over this point )
F600.00000
X16.29080 Y47.54550
X16.29080 Y45.48810
X13.75080 Y45.48810
X13.75080 Y48.53610
X14.53820 Y48.56150
X14.89380 Y48.51070
X15.65580 Y48.56150
X16.29080 Y48.53610
X16.29080 Y47.62170
G04 P0 ( dwell for no time -- G64 should not smooth over this point )
G00 Z1.00000 ( retract )

G00 X18.83080 Y47.54550 ( rapid move to begin. )
F300.00000
G01 Z-0.03000
G04 P0 ( dwell for no time -- G64 should not smooth over this point )
F600.00000
X18.83080 Y47.54550
X18.83080 Y45.48810
X16.29080 Y45.48810
X16.29080 Y48.53610
X17.07820 Y48.56150
X17.43380 Y48.51070
X18.19580 Y48.56150
X18.83080 Y48.53610
X18.83080 Y47.62170
G04 P0 ( dwell for no time -- G64 should not smooth over this point )
G00 Z1.00000 ( retract )

G00 X21.37080 Y47.54550 ( rapid move to begin. )
F300.00000
G01 Z-0.03000
G04 P0 ( dwell for no time -- G64 should not smooth over this point )
F600.00000
X21.37080 Y47.54550
X21.37080 Y45.48810
X18.83080 Y45.48810
X18.83080 Y48.53610
X19.61820 Y48.56150
X19.97380 Y48.51070
X20.73580 Y48.56150
X21.37080 Y48.53610
X21.37080 Y47.62170
G04 P0 ( dwell for no time -- G64 should not smooth over this point )
G00 Z1.00000 ( retract )

G00 X23.91080 Y47.54550 ( rapid move to begin. )
F300.00000
G01 Z-0.03000
G04 P0 ( dwell for no time -- G64 should not smooth over this point )
F600.00000
X23.91080 Y47.54550
X23.91080 Y45.48810
X21.37080 Y45.48810
X21.37080 Y48.53610
X22.15820 Y48.56150
X22.51380 Y48.51070
X23.27580 Y48.56150
X23.91080 Y48.53610
X23.91080 Y47.62170
G04 P0 ( dwell for no time -- G64 should not smooth over this point )
G00 Z1.00000 ( retract )

G00 X26.45080 Y47.54550 ( rapid move to begin. )
F300.00000
G01 Z-0.03000
G04 P0 ( dwell for no time -- G64 should not smooth over this point )
F600.00000
X26.45080 Y47.54550
X26.45080 Y45.48810
X23.91080 Y45.48810
X23.91080 Y48.53610
X24.69820 Y48.56150
X25.05380 Y48.51070
X25.81580 Y48.56150
X26.45080 Y48.53610
X26.45080 Y47.62170
G04 P0 ( dwell for no time -- G64 should not smooth over this point )
G00 Z1.00000 ( retract )

G00 X28.99080 Y47.54550 ( rapid move to begin. )
F300.00000
G01 Z-0.03000
G04 P0 ( dwell for no time -- G64 should not smooth over this point )
F600.00000
X28.99080 Y47.54550
X28.99080 Y45.48810
X26.45080 Y45.48810
X26.45080 Y48.53610
X27.23820 Y48.56150
X27.59380 Y48.51070
X28.35580 Y48.56150
X28.99080 Y48.53610
X28.99080 Y47.57090
G04 P0 ( dwell for no time -- G64 should not smooth over this point )
G00 Z1.00000 ( retract )

G00 X31.53080 Y47.54550 ( rapid move to begin. )
F300.00000
G01 Z-0.03000
G04 P0 ( dwell for no time -- G64 should not smooth over this point )
F600.00000
X31.53080 Y47.54550
X31.53080 Y45.48810
X28.99080 Y45.48810
X28.99080 Y48.53610
X29.77820 Y48.56150
X30.13380 Y48.51070
X30.89580 Y48.56150
X31.53080 Y48.53610
X31.53080 Y47.57090
G04 P0 ( dwell for no time -- G64 should not smooth over this point )
G00 Z1.00000 ( retract )

G00 X34.07080 Y47.54550 ( rapid move to begin. )
F300.00000
G01 Z-0.03000
G04 P0 ( dwell for no time -- G64 should not smooth over this point )
F600.00000
X34.07080 Y47.54550
X34.07080 Y45.48810
X31.53080 Y45.48810
X31.53080 Y48.53610
X32.31820 Y48.56150
X32.67380 Y48.51070
X33.43580 Y48.56150
X34.07080 Y48.53610
X34.07080 Y47.57090
G04 P0 ( dwell for no time -- G64 should not smooth over this point )
G00 Z1.00000 ( retract )

G00 X36.61080 Y47.54550 ( rapid move to begin. )
F300.00000
G01 Z-0.03000
G04 P0 ( dwell for no time -- G64 should not smooth over this point )
F600.00000
X36.61080 Y47.54550
X36.61080 Y45.48810
X34.07080 Y45.48810
X34.07080 Y48.53610
X34.85820 Y48.56150
X35.21380 Y48.51070
X35.97580 Y48.56150
X36.61080 Y48.53610
X36.61080 Y47.57090
G04 P0 ( dwell for no time -- G64 should not smooth over this point )
G00 Z1.00000 ( retract )

G00 X39.15080 Y47.54550 ( rapid move to begin. )
F300.00000
G01 Z-0.03000
G04 P0 ( dwell for no time -- G64 should not smooth over this point )
F600.00000
X39.15080 Y47.54550
X39.15080 Y45.48810
X36.61080 Y45.48810
X36.61080 Y48.53610
X37.39820 Y48.56150
X37.75380 Y48.51070
X38.51580 Y48.56150
X39.15080 Y48.53610
X39.15080 Y47.57090
G04 P0 ( dwell for no time -- G64 should not smooth over this point )
G00 Z1.00000 ( retract )

G00 X41.69080 Y47.54550 ( rapid move to begin. )
F300.00000
G01 Z-0.03000
G04 P0 ( dwell for no time -- G64 should not smooth over this point )
F600.00000
X41.69080 Y47.54550
X41.69080 Y45.48810
X39.15080 Y45.48810
X39.15080 Y48.53610
X39.93820 Y48.56150
X40.29380 Y48.51070
X41.05580 Y48.56150
X41.69080 Y48.53610
X41.69080 Y47.57090
G04 P0 ( dwell for no time -- G64 should not smooth over this point )
G00 Z1.00000 ( retract )

G00 X44.23080 Y47.54550 ( rapid move to begin. )
F300.00000
G01 Z-0.03000
G04 P0 ( dwell for no time -- G64 should not smooth over this point )
F600.00000
X44.23080 Y47.54550
X44.23080 Y45.48810
X41.69080 Y45.48810
X41.69080 Y48.53610
X42.47820 Y48.56150
X42.83380 Y48.51070
X43.59580 Y48.56150
X44.23080 Y48.53610
X44.23080 Y47.57090
G04 P0 ( dwell for no time -- G64 should not smooth over this point )
G00 Z1.00000 ( retract )

G00 X46.77080 Y47.54550 ( rapid move to begin. )
F300.00000
G01 Z-0.03000
G04 P0 ( dwell for no time -- G64 should not smooth over this point )
F600.00000
X46.77080 Y47.54550
X46.77080 Y45.48810
X44.23080 Y45.48810
X44.23080 Y48.53610
X45.01820 Y48.56150
X45.37380 Y48.51070
X46.13580 Y48.56150
X46.77080 Y48.53610
X46.77080 Y47.57090
G04 P0 ( dwell for no time -- G64 should not smooth over this point )
G00 Z1.00000 ( retract )

G00 X49.31080 Y47.54550 ( rapid move to begin. )
F300.00000
G01 Z-0.03000
G04 P0 ( dwell for no time -- G64 should not smooth over this point )
F600.00000
X49.31080 Y47.54550
X49.31080 Y45.48810
X46.77080 Y45.48810
X46.77080 Y48.53610
X47.55820 Y48.56150
X47.91380 Y48.51070
X48.67580 Y48.56150
X49.31080 Y48.53610
X49.31080 Y47.57090
G04 P0 ( dwell for no time -- G64 should not smooth over this point )
G00 Z1.00000 ( retract )

G00 X51.85080 Y47.54550 ( rapid move to begin. )
F300.00000
G01 Z-0.03000
G04 P0 ( dwell for no time -- G64 should not smooth over this point )
F600.00000
X51.85080 Y47.54550
X51.85080 Y45.48810
X49.31080 Y45.48810
X49.31080 Y48.53610
X50.09820 Y48.56150
X50.45380 Y48.51070
X51.21580 Y48.56150
X51.85080 Y48.53610
X51.85080 Y47.57090
G04 P0 ( dwell for no time -- G64 should not smooth over this point )
G00 Z1.00000 ( retract )

G00 X54.39080 Y47.54550 ( rapid move to begin. )
F300.00000
G01 Z-0.03000
G04 P0 ( dwell for no time -- G64 should not smooth over this point )
F600.00000
X54.39080 Y47.54550
X54.39080 Y45.48810
X51.85080 Y45.48810
X51.85080 Y48.53610
X52.63820 Y48.56150
X52.99380 Y48.51070
X53.75580 Y48.56150
X54.39080 Y48.53610
X54.39080 Y47.57090
G04 P0 ( dwell for no time -- G64 should not smooth over this point )
G00 Z1.00000 ( retract )

G00 X56.93080 Y47.54550 ( rapid move to begin. )
F300.00000
G01 Z-0.03000
G04 P0 ( dwell for no time -- G64 should not smooth over this point )
F600.00000
X56.93080 Y47.54550
X56.93080 Y45.48810
X54.39080 Y45.48810
X54.39080 Y48.53610
X55.17820 Y48.56150
X55.53380 Y48.51070
X56.29580 Y48.56150
X56.93080 Y48.53610
X56.93080 Y47.57090
G04 P0 ( dwell for no time -- G64 should not smooth over this point )
G00 Z1.00000 ( retract )

G00 X59.47080 Y47.54550 ( rapid move to begin. )
F300.00000
G01 Z-0.03000
G04 P0 ( dwell for no time -- G64 should not smooth over this point )
F600.00000
X59.47080 Y47.54550
X59.47080 Y45.48810
X56.93080 Y45.48810
X56.93080 Y48.53610
X57.71820 Y48.56150
X58.07380 Y48.51070
X58.83580 Y48.56150
X59.47080 Y48.53610
X59.47080 Y47.57090
G04 P0 ( dwell for no time -- G64 should not smooth over this point )
G00 Z1.00000 ( retract )

G00 X62.01080 Y47.54550 ( rapid move to begin. )
F300.00000
G01 Z-0.03000
G04 P0 ( dwell for no time -- G64 should not smooth over this point )
F600.00000
X62.01080 Y47.54550
X62.01080 Y45.48810
X59.47080 Y45.48810
X59.47080 Y48.53610
X60.25820 Y48.56150
X60.61380 Y48.51070
X61.37580 Y48.56150
X62.01080 Y48.53610
X62.01080 Y47.57090
G04 P0 ( dwell for no time -- G64 should not smooth over this point )
G00 Z1.00000 ( retract )

G00 X65.05880 Y47.54550 ( rapid move to begin. )
F300.00000
G01 Z-0.03000
G04 P0 ( dwell for no time -- G64 should not smooth over this point )
F600.00000
X65.05880 Y47.54550
X65.00800 Y46.60570
X65.05880 Y46.45330
X65.05880 Y45.64050
X65.00800 Y45.48810
X62.01080 Y45.48810
X62.01080 Y48.53610
X62.79820 Y48.56150
X63.15380 Y48.51070
X64.32220 Y48.56150
X64.65240 Y48.48530
X64.88100 Y48.30750
X65.03340 Y48.05350
X65.05880 Y47.57090
G04 P0 ( dwell for no time -- G64 should not smooth over this point )
G00 Z1.00000 ( retract )

G00 X8.67080 Y45.00550 ( rapid move to begin. )
F300.00000
G01 Z-0.03000
G04 P0 ( dwell for no time -- G64 should not smooth over this point )
F600.00000
X8.67080 Y45.00550
X8.67080 Y42.94810
X5.62280 Y42.94810
X5.59740 Y43.93870
X5.64820 Y44.09110
X5.59740 Y44.85310
X5.62280 Y45.48810
X8.67080 Y45.48810
X8.67080 Y45.08170
G04 P0 ( dwell for no time -- G64 should not smooth over this point )
G00 Z1.00000 ( retract )

G00 X11.21080 Y45.00550 ( rapid move to begin. )
F300.00000
G01 Z-0.03000
G04 P0 ( dwell for no time -- G64 should not smooth over this point )
F600.00000
X11.21080 Y45.00550
X11.21080 Y42.94810
X8.67080 Y42.94810
X8.67080 Y45.48810
X11.21080 Y45.48810
X11.21080 Y45.08170
G04 P0 ( dwell for no time -- G64 should not smooth over this point )
G00 Z1.00000 ( retract )

G00 X13.75080 Y45.00550 ( rapid move to begin. )
F300.00000
G01 Z-0.03000
G04 P0 ( dwell for no time -- G64 should not smooth over this point )
F600.00000
X13.75080 Y45.00550
X13.75080 Y42.94810
X11.21080 Y42.94810
X11.21080 Y45.48810
X13.75080 Y45.48810
X13.75080 Y45.08170
G04 P0 ( dwell for no time -- G64 should not smooth over this point )
G00 Z1.00000 ( retract )

G00 X16.29080 Y45.00550 ( rapid move to begin. )
F300.00000
G01 Z-0.03000
G04 P0 ( dwell for no time -- G64 should not smooth over this point )
F600.00000
X16.29080 Y45.00550
X16.29080 Y42.94810
X13.75080 Y42.94810
X13.75080 Y45.48810
X16.29080 Y45.48810
X16.29080 Y45.08170
G04 P0 ( dwell for no time -- G64 should not smooth over this point )
G00 Z1.00000 ( retract )

G00 X18.83080 Y45.00550 ( rapid move to begin. )
F300.00000
G01 Z-0.03000
G04 P0 ( dwell for no time -- G64 should not smooth over this point )
F600.00000
X18.83080 Y45.00550
X18.83080 Y42.94810
X16.29080 Y42.94810
X16.29080 Y45.48810
X18.83080 Y45.48810
X18.83080 Y45.08170
G04 P0 ( dwell for no time -- G64 should not smooth over this point )
G00 Z1.00000 ( retract )

G00 X21.37080 Y45.00550 ( rapid move to begin. )
F300.00000
G01 Z-0.03000
G04 P0 ( dwell for no time -- G64 should not smooth over this point )
F600.00000
X21.37080 Y45.00550
X21.37080 Y42.94810
X18.83080 Y42.94810
X18.83080 Y45.48810
X21.37080 Y45.48810
X21.37080 Y45.08170
G04 P0 ( dwell for no time -- G64 should not smooth over this point )
G00 Z1.00000 ( retract )

G00 X23.91080 Y45.00550 ( rapid move to begin. )
F300.00000
G01 Z-0.03000
G04 P0 ( dwell for no time -- G64 should not smooth over this point )
F600.00000
X23.91080 Y45.00550
X23.91080 Y42.94810
X21.37080 Y42.94810
X21.37080 Y45.48810
X23.91080 Y45.48810
X23.91080 Y45.08170
G04 P0 ( dwell for no time -- G64 should not smooth over this point )
G00 Z1.00000 ( retract )

G00 X26.45080 Y45.00550 ( rapid move to begin. )
F300.00000
G01 Z-0.03000
G04 P0 ( dwell for no time -- G64 should not smooth over this point )
F600.00000
X26.45080 Y45.00550
X26.45080 Y42.94810
X23.91080 Y42.94810
X23.91080 Y45.48810
X26.45080 Y45.48810
X26.45080 Y45.08170
G04 P0 ( dwell for no time -- G64 should not smooth over this point )
G00 Z1.00000 ( retract )

G00 X28.99080 Y45.00550 ( rapid move to begin. )
F300.00000
G01 Z-0.03000
G04 P0 ( dwell for no time -- G64 should not smooth over this point )
F600.00000
X28.99080 Y45.00550
X28.99080 Y42.94810
X26.45080 Y42.94810
X26.45080 Y45.48810
X28.99080 Y45.48810
X28.99080 Y45.03090
G04 P0 ( dwell for no time -- G64 should not smooth over this point )
G00 Z1.00000 ( retract )

G00 X31.53080 Y45.00550 ( rapid move to begin. )
F300.00000
G01 Z-0.03000
G04 P0 ( dwell for no time -- G64 should not smooth over this point )
F600.00000
X31.53080 Y45.00550
X31.53080 Y42.94810
X28.99080 Y42.94810
X28.99080 Y45.48810
X31.53080 Y45.48810
X31.53080 Y45.03090
G04 P0 ( dwell for no time -- G64 should not smooth over this point )
G00 Z1.00000 ( retract )

G00 X34.07080 Y45.00550 ( rapid move to begin. )
F300.00000
G01 Z-0.03000
G04 P0 ( dwell for no time -- G64 should not smooth over this point )
F600.00000
X34.07080 Y45.00550
X34.07080 Y42.94810
X31.53080 Y42.94810
X31.53080 Y45.48810
X34.07080 Y45.48810
X34.07080 Y45.03090
G04 P0 ( dwell for no time -- G64 should not smooth over this point )
G00 Z1.00000 ( retract )

G00 X36.61080 Y45.00550 ( rapid move to begin. )
F300.00000
G01 Z-0.03000
G04 P0 ( dwell for no time -- G64 should not smooth over this point )
F600.00000
X36.61080 Y45.00550
X36.61080 Y42.94810
X34.07080 Y42.94810
X34.07080 Y45.48810
X36.61080 Y45.48810
X36.61080 Y45.03090
G04 P0 ( dwell for no time -- G64 should not smooth over this point )
G00 Z1.00000 ( retract )

G00 X39.15080 Y45.00550 ( rapid move to begin. )
F300.00000
G01 Z-0.03000
G04 P0 ( dwell for no time -- G64 should not smooth over this point )
F600.00000
X39.15080 Y45.00550
X39.15080 Y42.94810
X36.61080 Y42.94810
X36.61080 Y45.48810
X39.15080 Y45.48810
X39.15080 Y45.03090
G04 P0 ( dwell for no time -- G64 should not smooth over this point )
G00 Z1.00000 ( retract )

G00 X41.69080 Y45.00550 ( rapid move to begin. )
F300.00000
G01 Z-0.03000
G04 P0 ( dwell for no time -- G64 should not smooth over this point )
F600.00000
X41.69080 Y45.00550
X41.69080 Y42.94810
X39.15080 Y42.94810
X39.15080 Y45.48810
X41.69080 Y45.48810
X41.69080 Y45.03090
G04 P0 ( dwell for no time -- G64 should not smooth over this point )
G00 Z1.00000 ( retract )

G00 X44.23080 Y45.00550 ( rapid move to begin. )
F300.00000
G01 Z-0.03000
G04 P0 ( dwell for no time -- G64 should not smooth over this point )
F600.00000
X44.23080 Y45.00550
X44.23080 Y42.94810
X41.69080 Y42.94810
X41.69080 Y45.48810
X44.23080 Y45.48810
X44.23080 Y45.03090
G04 P0 ( dwell for no time -- G64 should not smooth over this point )
G00 Z1.00000 ( retract )

G00 X46.77080 Y45.00550 ( rapid move to begin. )
F300.00000
G01 Z-0.03000
G04 P0 ( dwell for no time -- G64 should not smooth over this point )
F600.00000
X46.77080 Y45.00550
X46.77080 Y42.94810
X44.23080 Y42.94810
X44.23080 Y45.48810
X46.77080 Y45.48810
X46.77080 Y45.03090
G04 P0 ( dwell for no time -- G64 should not smooth over this point )
G00 Z1.00000 ( retract )

G00 X49.31080 Y45.00550 ( rapid move to begin. )
F300.00000
G01 Z-0.03000
G04 P0 ( dwell for no time -- G64 should not smooth over this point )
F600.00000
X49.31080 Y45.00550
X49.31080 Y42.94810
X46.77080 Y42.94810
X46.77080 Y45.48810
X49.31080 Y45.48810
X49.31080 Y45.03090
G04 P0 ( dwell for no time -- G64 should not smooth over this point )
G00 Z1.00000 ( retract )

G00 X51.85080 Y45.00550 ( rapid move to begin. )
F300.00000
G01 Z-0.03000
G04 P0 ( dwell for no time -- G64 should not smooth over this point )
F600.00000
X51.85080 Y45.00550
X51.85080 Y42.94810
X49.31080 Y42.94810
X49.31080 Y45.48810
X51.85080 Y45.48810
X51.85080 Y45.03090
G04 P0 ( dwell for no time -- G64 should not smooth over this point )
G00 Z1.00000 ( retract )

G00 X54.39080 Y45.00550 ( rapid move to begin. )
F300.00000
G01 Z-0.03000
G04 P0 ( dwell for no time -- G64 should not smooth over this point )
F600.00000
X54.39080 Y45.00550
X54.39080 Y42.94810
X51.85080 Y42.94810
X51.85080 Y45.48810
X54.39080 Y45.48810
X54.39080 Y45.03090
G04 P0 ( dwell for no time -- G64 should not smooth over this point )
G00 Z1.00000 ( retract )

G00 X56.93080 Y45.00550 ( rapid move to begin. )
F300.00000
G01 Z-0.03000
G04 P0 ( dwell for no time -- G64 should not smooth over this point )
F600.00000
X56.93080 Y45.00550
X56.93080 Y42.94810
X54.39080 Y42.94810
X54.39080 Y45.48810
X56.93080 Y45.48810
X56.93080 Y45.03090
G04 P0 ( dwell for no time -- G64 should not smooth over this point )
G00 Z1.00000 ( retract )

G00 X59.47080 Y45.00550 ( rapid move to begin. )
F300.00000
G01 Z-0.03000
G04 P0 ( dwell for no time -- G64 should not smooth over this point )
F600.00000
X59.47080 Y45.00550
X59.47080 Y42.94810
X56.93080 Y42.94810
X56.93080 Y45.48810
X59.47080 Y45.48810
X59.47080 Y45.03090
G04 P0 ( dwell for no time -- G64 should not smooth over this point )
G00 Z1.00000 ( retract )

G00 X62.01080 Y45.00550 ( rapid move to begin. )
F300.00000
G01 Z-0.03000
G04 P0 ( dwell for no time -- G64 should not smooth over this point )
F600.00000
X62.01080 Y45.00550
X62.01080 Y42.94810
X59.47080 Y42.94810
X59.47080 Y45.48810
X62.01080 Y45.48810
X62.01080 Y45.03090
G04 P0 ( dwell for no time -- G64 should not smooth over this point )
G00 Z1.00000 ( retract )

G00 X65.05880 Y45.00550 ( rapid move to begin. )
F300.00000
G01 Z-0.03000
G04 P0 ( dwell for no time -- G64 should not smooth over this point )
F600.00000
X65.05880 Y45.00550
X65.00800 Y44.06570
X65.05880 Y43.91330
X65.05880 Y43.10050
X65.00800 Y42.94810
X62.01080 Y42.94810
X62.01080 Y45.48810
X65.03340 Y45.46270
X65.05880 Y45.03090
G04 P0 ( dwell for no time -- G64 should not smooth over this point )
G00 Z1.00000 ( retract )

G00 X8.67080 Y42.46550 ( rapid move to begin. )
F300.00000
G01 Z-0.03000
G04 P0 ( dwell for no time -- G64 should not smooth over this point )
F600.00000
X8.67080 Y42.46550
X8.67080 Y40.40810
X5.62280 Y40.40810
X5.59740 Y41.39870
X5.64820 Y41.55110
X5.59740 Y42.31310
X5.62280 Y42.94810
X8.67080 Y42.94810
X8.67080 Y42.54170
G04 P0 ( dwell for no time -- G64 should not smooth over this point )
G00 Z1.00000 ( retract )

G00 X11.21080 Y42.46550 ( rapid move to begin. )
F300.00000
G01 Z-0.03000
G04 P0 ( dwell for no time -- G64 should not smooth over this point )
F600.00000
X11.21080 Y42.46550
X11.21080 Y40.40810
X8.67080 Y40.40810
X8.67080 Y42.94810
X11.21080 Y42.94810
X11.21080 Y42.54170
G04 P0 ( dwell for no time -- G64 should not smooth over this point )
G00 Z1.00000 ( retract )

G00 X13.75080 Y42.46550 ( rapid move to begin. )
F300.00000
G01 Z-0.03000
G04 P0 ( dwell for no time -- G64 should not smooth over this point )
F600.00000
X13.75080 Y42.46550
X13.75080 Y40.40810
X11.21080 Y40.40810
X11.21080 Y42.94810
X13.75080 Y42.94810
X13.75080 Y42.54170
G04 P0 ( dwell for no time -- G64 should not smooth over this point )
G00 Z1.00000 ( retract )

G00 X16.29080 Y42.46550 ( rapid move to begin. )
F300.00000
G01 Z-0.03000
G04 P0 ( dwell for no time -- G64 should not smooth over this point )
F600.00000
X16.29080 Y42.46550
X16.29080 Y40.40810
X13.75080 Y40.40810
X13.75080 Y42.94810
X16.29080 Y42.94810
X16.29080 Y42.54170
G04 P0 ( dwell for no time -- G64 should not smooth over this point )
G00 Z1.00000 ( retract )

G00 X18.83080 Y42.46550 ( rapid move to begin. )
F300.00000
G01 Z-0.03000
G04 P0 ( dwell for no time -- G64 should not smooth over this point )
F600.00000
X18.83080 Y42.46550
X18.83080 Y40.40810
X16.29080 Y40.40810
X16.29080 Y42.94810
X18.83080 Y42.94810
X18.83080 Y42.54170
G04 P0 ( dwell for no time -- G64 should not smooth over this point )
G00 Z1.00000 ( retract )

G00 X21.37080 Y42.46550 ( rapid move to begin. )
F300.00000
G01 Z-0.03000
G04 P0 ( dwell for no time -- G64 should not smooth over this point )
F600.00000
X21.37080 Y42.46550
X21.37080 Y40.40810
X18.83080 Y40.40810
X18.83080 Y42.94810
X21.37080 Y42.94810
X21.37080 Y42.54170
G04 P0 ( dwell for no time -- G64 should not smooth over this point )
G00 Z1.00000 ( retract )

G00 X23.91080 Y42.46550 ( rapid move to begin. )
F300.00000
G01 Z-0.03000
G04 P0 ( dwell for no time -- G64 should not smooth over this point )
F600.00000
X23.91080 Y42.46550
X23.91080 Y40.40810
X21.37080 Y40.40810
X21.37080 Y42.94810
X23.91080 Y42.94810
X23.91080 Y42.54170
G04 P0 ( dwell for no time -- G64 should not smooth over this point )
G00 Z1.00000 ( retract )

G00 X26.45080 Y42.46550 ( rapid move to begin. )
F300.00000
G01 Z-0.03000
G04 P0 ( dwell for no time -- G64 should not smooth over this point )
F600.00000
X26.45080 Y42.46550
X26.45080 Y40.40810
X23.91080 Y40.40810
X23.91080 Y42.94810
X26.45080 Y42.94810
X26.45080 Y42.49090
G04 P0 ( dwell for no time -- G64 should not smooth over this point )
G00 Z1.00000 ( retract )

G00 X28.99080 Y42.46550 ( rapid move to begin. )
F300.00000
G01 Z-0.03000
G04 P0 ( dwell for no time -- G64 should not smooth over this point )
F600.00000
X28.99080 Y42.46550
X28.99080 Y40.40810
X26.45080 Y40.40810
X26.45080 Y42.94810
X28.99080 Y42.94810
X28.99080 Y42.49090
G04 P0 ( dwell for no time -- G64 should not smooth over this point )
G00 Z1.00000 ( retract )

G00 X31.53080 Y42.46550 ( rapid move to begin. )
F300.00000
G01 Z-0.03000
G04 P0 ( dwell for no time -- G64 should not smooth over this point )
F600.00000
X31.53080 Y42.46550
X31.53080 Y40.40810
X28.99080 Y40.40810
X28.99080 Y42.94810
X31.53080 Y42.94810
X31.53080 Y42.49090
G04 P0 ( dwell for no time -- G64 should not smooth over this point )
G00 Z1.00000 ( retract )

G00 X34.07080 Y42.46550 ( rapid move to begin. )
F300.00000
G01 Z-0.03000
G04 P0 ( dwell for no time -- G64 should not smooth over this point )
F600.00000
X34.07080 Y42.46550
X34.07080 Y40.40810
X31.53080 Y40.40810
X31.53080 Y42.94810
X34.07080 Y42.94810
X34.07080 Y42.49090
G04 P0 ( dwell for no time -- G64 should not smooth over this point )
G00 Z1.00000 ( retract )

G00 X36.61080 Y42.46550 ( rapid move to begin. )
F300.00000
G01 Z-0.03000
G04 P0 ( dwell for no time -- G64 should not smooth over this point )
F600.00000
X36.61080 Y42.46550
X36.61080 Y40.40810
X34.07080 Y40.40810
X34.07080 Y42.94810
X36.61080 Y42.94810
X36.61080 Y42.49090
G04 P0 ( dwell for no time -- G64 should not smooth over this point )
G00 Z1.00000 ( retract )

G00 X39.15080 Y42.46550 ( rapid move to begin. )
F300.00000
G01 Z-0.03000
G04 P0 ( dwell for no time -- G64 should not smooth over this point )
F600.00000
X39.15080 Y42.46550
X39.15080 Y40.40810
X36.61080 Y40.40810
X36.61080 Y42.94810
X39.15080 Y42.94810
X39.15080 Y42.49090
G04 P0 ( dwell for no time -- G64 should not smooth over this point )
G00 Z1.00000 ( retract )

G00 X41.69080 Y42.46550 ( rapid move to begin. )
F300.00000
G01 Z-0.03000
G04 P0 ( dwell for no time -- G64 should not smooth over this point )
F600.00000
X41.69080 Y42.46550
X41.69080 Y40.40810
X39.15080 Y40.40810
X39.15080 Y42.94810
X41.69080 Y42.94810
X41.69080 Y42.49090
G04 P0 ( dwell for no time -- G64 should not smooth over this point )
G00 Z1.00000 ( retract )

G00 X44.23080 Y42.46550 ( rapid move to begin. )
F300.00000
G01 Z-0.03000
G04 P0 ( dwell for no time -- G64 should not smooth over this point )
F600.00000
X44.23080 Y42.46550
X44.23080 Y40.40810
X41.69080 Y40.40810
X41.69080 Y42.94810
X44.23080 Y42.94810
X44.23080 Y42.49090
G04 P0 ( dwell for no time -- G64 should not smooth over this point )
G00 Z1.00000 ( retract )

G00 X46.77080 Y42.46550 ( rapid move to begin. )
F300.00000
G01 Z-0.03000
G04 P0 ( dwell for no time -- G64 should not smooth over this point )
F600.00000
X46.77080 Y42.46550
X46.77080 Y40.40810
X44.23080 Y40.40810
X44.23080 Y42.94810
X46.77080 Y42.94810
X46.77080 Y42.49090
G04 P0 ( dwell for no time -- G64 should not smooth over this point )
G00 Z1.00000 ( retract )

G00 X49.31080 Y42.46550 ( rapid move to begin. )
F300.00000
G01 Z-0.03000
G04 P0 ( dwell for no time -- G64 should not smooth over this point )
F600.00000
X49.31080 Y42.46550
X49.31080 Y40.40810
X46.77080 Y40.40810
X46.77080 Y42.94810
X49.31080 Y42.94810
X49.31080 Y42.49090
G04 P0 ( dwell for no time -- G64 should not smooth over this point )
G00 Z1.00000 ( retract )

G00 X51.85080 Y42.46550 ( rapid move to begin. )
F300.00000
G01 Z-0.03000
G04 P0 ( dwell for no time -- G64 should not smooth over this point )
F600.00000
X51.85080 Y42.46550
X51.85080 Y40.40810
X49.31080 Y40.40810
X49.31080 Y42.94810
X51.85080 Y42.94810
X51.85080 Y42.49090
G04 P0 ( dwell for no time -- G64 should not smooth over this point )
G00 Z1.00000 ( retract )

G00 X54.39080 Y42.46550 ( rapid move to begin. )
F300.00000
G01 Z-0.03000
G04 P0 ( dwell for no time -- G64 should not smooth over this point )
F600.00000
X54.39080 Y42.46550
X54.39080 Y40.40810
X51.85080 Y40.40810
X51.85080 Y42.94810
X54.39080 Y42.94810
X54.39080 Y42.49090
G04 P0 ( dwell for no time -- G64 should not smooth over this point )
G00 Z1.00000 ( retract )

G00 X56.93080 Y42.46550 ( rapid move to begin. )
F300.00000
G01 Z-0.03000
G04 P0 ( dwell for no time -- G64 should not smooth over this point )
F600.00000
X56.93080 Y42.46550
X56.93080 Y40.40810
X54.39080 Y40.40810
X54.39080 Y42.94810
X56.93080 Y42.94810
X56.93080 Y42.49090
G04 P0 ( dwell for no time -- G64 should not smooth over this point )
G00 Z1.00000 ( retract )

G00 X59.47080 Y42.46550 ( rapid move to begin. )
F300.00000
G01 Z-0.03000
G04 P0 ( dwell for no time -- G64 should not smooth over this point )
F600.00000
X59.47080 Y42.46550
X59.47080 Y40.40810
X56.93080 Y40.40810
X56.93080 Y42.94810
X59.47080 Y42.94810
X59.47080 Y42.49090
G04 P0 ( dwell for no time -- G64 should not smooth over this point )
G00 Z1.00000 ( retract )

G00 X62.01080 Y42.46550 ( rapid move to begin. )
F300.00000
G01 Z-0.03000
G04 P0 ( dwell for no time -- G64 should not smooth over this point )
F600.00000
X62.01080 Y42.46550
X62.01080 Y40.40810
X59.47080 Y40.40810
X59.47080 Y42.94810
X62.01080 Y42.94810
X62.01080 Y42.49090
G04 P0 ( dwell for no time -- G64 should not smooth over this point )
G00 Z1.00000 ( retract )

G00 X65.05880 Y42.46550 ( rapid move to begin. )
F300.00000
G01 Z-0.03000
G04 P0 ( dwell for no time -- G64 should not smooth over this point )
F600.00000
X65.05880 Y42.46550
X65.00800 Y41.52570
X65.05880 Y41.37330
X65.05880 Y40.56050
X65.00800 Y40.40810
X62.01080 Y40.40810
X62.01080 Y42.94810
X65.03340 Y42.92270
X65.05880 Y42.49090
G04 P0 ( dwell for no time -- G64 should not smooth over this point )
G00 Z1.00000 ( retract )

G00 X8.67080 Y39.92550 ( rapid move to begin. )
F300.00000
G01 Z-0.03000
G04 P0 ( dwell for no time -- G64 should not smooth over this point )
F600.00000
X8.67080 Y39.92550
X8.67080 Y37.86810
X5.62280 Y37.86810
X5.59740 Y38.85870
X5.64820 Y39.01110
X5.59740 Y39.77310
X5.62280 Y40.40810
X8.67080 Y40.40810
X8.67080 Y40.00170
G04 P0 ( dwell for no time -- G64 should not smooth over this point )
G00 Z1.00000 ( retract )

G00 X11.21080 Y39.92550 ( rapid move to begin. )
F300.00000
G01 Z-0.03000
G04 P0 ( dwell for no time -- G64 should not smooth over this point )
F600.00000
X11.21080 Y39.92550
X11.21080 Y37.86810
X8.67080 Y37.86810
X8.67080 Y40.40810
X11.21080 Y40.40810
X11.21080 Y40.00170
G04 P0 ( dwell for no time -- G64 should not smooth over this point )
G00 Z1.00000 ( retract )

G00 X13.75080 Y39.92550 ( rapid move to begin. )
F300.00000
G01 Z-0.03000
G04 P0 ( dwell for no time -- G64 should not smooth over this point )
F600.00000
X13.75080 Y39.92550
X13.75080 Y37.86810
X11.21080 Y37.86810
X11.21080 Y40.40810
X13.75080 Y40.40810
X13.75080 Y40.00170
G04 P0 ( dwell for no time -- G64 should not smooth over this point )
G00 Z1.00000 ( retract )

G00 X16.29080 Y39.92550 ( rapid move to begin. )
F300.00000
G01 Z-0.03000
G04 P0 ( dwell for no time -- G64 should not smooth over this point )
F600.00000
X16.29080 Y39.92550
X16.29080 Y37.86810
X13.75080 Y37.86810
X13.75080 Y40.40810
X16.29080 Y40.40810
X16.29080 Y40.00170
G04 P0 ( dwell for no time -- G64 should not smooth over this point )
G00 Z1.00000 ( retract )

G00 X18.83080 Y39.92550 ( rapid move to begin. )
F300.00000
G01 Z-0.03000
G04 P0 ( dwell for no time -- G64 should not smooth over this point )
F600.00000
X18.83080 Y39.92550
X18.83080 Y37.86810
X16.29080 Y37.86810
X16.29080 Y40.40810
X18.83080 Y40.40810
X18.83080 Y40.00170
G04 P0 ( dwell for no time -- G64 should not smooth over this point )
G00 Z1.00000 ( retract )

G00 X21.37080 Y39.92550 ( rapid move to begin. )
F300.00000
G01 Z-0.03000
G04 P0 ( dwell for no time -- G64 should not smooth over this point )
F600.00000
X21.37080 Y39.92550
X21.37080 Y37.86810
X18.83080 Y37.86810
X18.83080 Y40.40810
X21.37080 Y40.40810
X21.37080 Y40.00170
G04 P0 ( dwell for no time -- G64 should not smooth over this point )
G00 Z1.00000 ( retract )

G00 X23.91080 Y39.92550 ( rapid move to begin. )
F300.00000
G01 Z-0.03000
G04 P0 ( dwell for no time -- G64 should not smooth over this point )
F600.00000
X23.91080 Y39.92550
X23.91080 Y37.86810
X21.37080 Y37.86810
X21.37080 Y40.40810
X23.91080 Y40.40810
X23.91080 Y39.95090
G04 P0 ( dwell for no time -- G64 should not smooth over this point )
G00 Z1.00000 ( retract )

G00 X26.45080 Y39.92550 ( rapid move to begin. )
F300.00000
G01 Z-0.03000
G04 P0 ( dwell for no time -- G64 should not smooth over this point )
F600.00000
X26.45080 Y39.92550
X26.45080 Y37.86810
X23.91080 Y37.86810
X23.91080 Y40.40810
X26.45080 Y40.40810
X26.45080 Y39.95090
G04 P0 ( dwell for no time -- G64 should not smooth over this point )
G00 Z1.00000 ( retract )

G00 X28.99080 Y39.92550 ( rapid move to begin. )
F300.00000
G01 Z-0.03000
G04 P0 ( dwell for no time -- G64 should not smooth over this point )
F600.00000
X28.99080 Y39.92550
X28.99080 Y37.86810
X26.45080 Y37.86810
X26.45080 Y40.40810
X28.99080 Y40.40810
X28.99080 Y39.95090
G04 P0 ( dwell for no time -- G64 should not smooth over this point )
G00 Z1.00000 ( retract )

G00 X31.53080 Y39.92550 ( rapid move to begin. )
F300.00000
G01 Z-0.03000
G04 P0 ( dwell for no time -- G64 should not smooth over this point )
F600.00000
X31.53080 Y39.92550
X31.53080 Y37.86810
X28.99080 Y37.86810
X28.99080 Y40.40810
X31.53080 Y40.40810
X31.53080 Y39.95090
G04 P0 ( dwell for no time -- G64 should not smooth over this point )
G00 Z1.00000 ( retract )

G00 X34.07080 Y39.92550 ( rapid move to begin. )
F300.00000
G01 Z-0.03000
G04 P0 ( dwell for no time -- G64 should not smooth over this point )
F600.00000
X34.07080 Y39.92550
X34.07080 Y37.86810
X31.53080 Y37.86810
X31.53080 Y40.40810
X34.07080 Y40.40810
X34.07080 Y39.95090
G04 P0 ( dwell for no time -- G64 should not smooth over this point )
G00 Z1.00000 ( retract )

G00 X36.61080 Y39.92550 ( rapid move to begin. )
F300.00000
G01 Z-0.03000
G04 P0 ( dwell for no time -- G64 should not smooth over this point )
F600.00000
X36.61080 Y39.92550
X36.61080 Y37.86810
X34.07080 Y37.86810
X34.07080 Y40.40810
X36.61080 Y40.40810
X36.61080 Y39.95090
G04 P0 ( dwell for no time -- G64 should not smooth over this point )
G00 Z1.00000 ( retract )

G00 X39.15080 Y39.92550 ( rapid move to begin. )
F300.00000
G01 Z-0.03000
G04 P0 ( dwell for no time -- G64 should not smooth over this point )
F600.00000
X39.15080 Y39.92550
X39.15080 Y37.86810
X36.61080 Y37.86810
X36.61080 Y40.40810
X39.15080 Y40.40810
X39.15080 Y39.95090
G04 P0 ( dwell for no time -- G64 should not smooth over this point )
G00 Z1.00000 ( retract )

G00 X41.69080 Y39.92550 ( rapid move to begin. )
F300.00000
G01 Z-0.03000
G04 P0 ( dwell for no time -- G64 should not smooth over this point )
F600.00000
X41.69080 Y39.92550
X41.69080 Y37.86810
X39.15080 Y37.86810
X39.15080 Y40.40810
X41.69080 Y40.40810
X41.69080 Y39.95090
G04 P0 ( dwell for no time -- G64 should not smooth over this point )
G00 Z1.00000 ( retract )

G00 X44.23080 Y39.92550 ( rapid move to begin. )
F300.00000
G01 Z-0.03000
G04 P0 ( dwell for no time -- G64 should not smooth over this point )
F600.00000
X44.23080 Y39.92550
X44.23080 Y37.86810
X41.69080 Y37.86810
X41.69080 Y40.40810
X44.23080 Y40.40810
X44.23080 Y39.95090
G04 P0 ( dwell for no time -- G64 should not smooth over this point )
G00 Z1.00000 ( retract )

G00 X46.77080 Y39.92550 ( rapid move to begin. )
F300.00000
G01 Z-0.03000
G04 P0 ( dwell for no time -- G64 should not smooth over this point )
F600.00000
X46.77080 Y39.92550
X46.77080 Y37.86810
X44.23080 Y37.86810
X44.23080 Y40.40810
X46.77080 Y40.40810
X46.77080 Y39.95090
G04 P0 ( dwell for no time -- G64 should not smooth over this point )
G00 Z1.00000 ( retract )

G00 X49.31080 Y39.92550 ( rapid move to begin. )
F300.00000
G01 Z-0.03000
G04 P0 ( dwell for no time -- G64 should not smooth over this point )
F600.00000
X49.31080 Y39.92550
X49.31080 Y37.86810
X46.77080 Y37.86810
X46.77080 Y40.40810
X49.31080 Y40.40810
X49.31080 Y39.95090
G04 P0 ( dwell for no time -- G64 should not smooth over this point )
G00 Z1.00000 ( retract )

G00 X51.85080 Y39.92550 ( rapid move to begin. )
F300.00000
G01 Z-0.03000
G04 P0 ( dwell for no time -- G64 should not smooth over this point )
F600.00000
X51.85080 Y39.92550
X51.85080 Y37.86810
X49.31080 Y37.86810
X49.31080 Y40.40810
X51.85080 Y40.40810
X51.85080 Y39.95090
G04 P0 ( dwell for no time -- G64 should not smooth over this point )
G00 Z1.00000 ( retract )

G00 X54.39080 Y39.92550 ( rapid move to begin. )
F300.00000
G01 Z-0.03000
G04 P0 ( dwell for no time -- G64 should not smooth over this point )
F600.00000
X54.39080 Y39.92550
X54.39080 Y37.86810
X51.85080 Y37.86810
X51.85080 Y40.40810
X54.39080 Y40.40810
X54.39080 Y39.95090
G04 P0 ( dwell for no time -- G64 should not smooth over this point )
G00 Z1.00000 ( retract )

G00 X56.93080 Y39.92550 ( rapid move to begin. )
F300.00000
G01 Z-0.03000
G04 P0 ( dwell for no time -- G64 should not smooth over this point )
F600.00000
X56.93080 Y39.92550
X56.93080 Y37.86810
X54.39080 Y37.86810
X54.39080 Y40.40810
X56.93080 Y40.40810
X56.93080 Y39.95090
G04 P0 ( dwell for no time -- G64 should not smooth over this point )
G00 Z1.00000 ( retract )

G00 X59.47080 Y39.92550 ( rapid move to begin. )
F300.00000
G01 Z-0.03000
G04 P0 ( dwell for no time -- G64 should not smooth over this point )
F600.00000
X59.47080 Y39.92550
X59.47080 Y37.86810
X56.93080 Y37.86810
X56.93080 Y40.40810
X59.47080 Y40.40810
X59.47080 Y39.95090
G04 P0 ( dwell for no time -- G64 should not smooth over this point )
G00 Z1.00000 ( retract )

G00 X62.01080 Y39.92550 ( rapid move to begin. )
F300.00000
G01 Z-0.03000
G04 P0 ( dwell for no time -- G64 should not smooth over this point )
F600.00000
X62.01080 Y39.92550
X62.01080 Y37.86810
X59.47080 Y37.86810
X59.47080 Y40.40810
X62.01080 Y40.40810
X62.01080 Y39.95090
G04 P0 ( dwell for no time -- G64 should not smooth over this point )
G00 Z1.00000 ( retract )

G00 X65.05880 Y39.92550 ( rapid move to begin. )
F300.00000
G01 Z-0.03000
G04 P0 ( dwell for no time -- G64 should not smooth over this point )
F600.00000
X65.05880 Y39.92550
X65.03340 Y37.94430
X64.83020 Y37.53790
X64.57620 Y37.38550
X63.58560 Y37.36010
X63.43320 Y37.41090
X62.67120 Y37.36010
X62.49340 Y37.38550
X62.08700 Y37.79190
X62.01080 Y37.91890
X62.01080 Y40.40810
X65.03340 Y40.38270
X65.05880 Y39.95090
G04 P0 ( dwell for no time -- G64 should not smooth over this point )
G00 Z1.00000 ( retract )

G00 X8.67080 Y37.38550 ( rapid move to begin. )
F300.00000
G01 Z-0.03000
G04 P0 ( dwell for no time -- G64 should not smooth over this point )
F600.00000
X8.67080 Y37.38550
X8.67080 Y35.32810
X5.62280 Y35.32810
X5.59740 Y36.31870
X5.64820 Y36.47110
X5.59740 Y37.23310
X5.62280 Y37.86810
X8.67080 Y37.86810
X8.67080 Y37.46170
G04 P0 ( dwell for no time -- G64 should not smooth over this point )
G00 Z1.00000 ( retract )

G00 X11.21080 Y37.38550 ( rapid move to begin. )
F300.00000
G01 Z-0.03000
G04 P0 ( dwell for no time -- G64 should not smooth over this point )
F600.00000
X11.21080 Y37.38550
X11.21080 Y35.32810
X8.67080 Y35.32810
X8.67080 Y37.86810
X11.21080 Y37.86810
X11.21080 Y37.46170
G04 P0 ( dwell for no time -- G64 should not smooth over this point )
G00 Z1.00000 ( retract )

G00 X13.75080 Y37.38550 ( rapid move to begin. )
F300.00000
G01 Z-0.03000
G04 P0 ( dwell for no time -- G64 should not smooth over this point )
F600.00000
X13.75080 Y37.38550
X13.75080 Y35.32810
X11.21080 Y35.32810
X11.21080 Y37.86810
X13.75080 Y37.86810
X13.75080 Y37.46170
G04 P0 ( dwell for no time -- G64 should not smooth over this point )
G00 Z1.00000 ( retract )

G00 X16.29080 Y37.38550 ( rapid move to begin. )
F300.00000
G01 Z-0.03000
G04 P0 ( dwell for no time -- G64 should not smooth over this point )
F600.00000
X16.29080 Y37.38550
X16.29080 Y35.32810
X13.75080 Y35.32810
X13.75080 Y37.86810
X16.29080 Y37.86810
X16.29080 Y37.46170
G04 P0 ( dwell for no time -- G64 should not smooth over this point )
G00 Z1.00000 ( retract )

G00 X18.83080 Y37.38550 ( rapid move to begin. )
F300.00000
G01 Z-0.03000
G04 P0 ( dwell for no time -- G64 should not smooth over this point )
F600.00000
X18.83080 Y37.38550
X18.83080 Y35.32810
X16.29080 Y35.32810
X16.29080 Y37.86810
X18.83080 Y37.86810
X18.83080 Y37.46170
G04 P0 ( dwell for no time -- G64 should not smooth over this point )
G00 Z1.00000 ( retract )

G00 X21.37080 Y37.38550 ( rapid move to begin. )
F300.00000
G01 Z-0.03000
G04 P0 ( dwell for no time -- G64 should not smooth over this point )
F600.00000
X21.37080 Y37.38550
X21.37080 Y35.32810
X18.83080 Y35.32810
X18.83080 Y37.86810
X21.37080 Y37.86810
X21.37080 Y37.46170
G04 P0 ( dwell for no time -- G64 should not smooth over this point )
G00 Z1.00000 ( retract )

G00 X23.91080 Y37.38550 ( rapid move to begin. )
F300.00000
G01 Z-0.03000
G04 P0 ( dwell for no time -- G64 should not smooth over this point )
F600.00000
X23.91080 Y37.38550
X23.91080 Y35.32810
X21.37080 Y35.32810
X21.37080 Y37.86810
X23.91080 Y37.86810
X23.91080 Y37.41090
G04 P0 ( dwell for no time -- G64 should not smooth over this point )
G00 Z1.00000 ( retract )

G00 X26.45080 Y37.38550 ( rapid move to begin. )
F300.00000
G01 Z-0.03000
G04 P0 ( dwell for no time -- G64 should not smooth over this point )
F600.00000
X26.45080 Y37.38550
X26.45080 Y35.32810
X23.91080 Y35.32810
X23.91080 Y37.86810
X26.45080 Y37.86810
X26.45080 Y37.41090
G04 P0 ( dwell for no time -- G64 should not smooth over this point )
G00 Z1.00000 ( retract )

G00 X28.99080 Y37.38550 ( rapid move to begin. )
F300.00000
G01 Z-0.03000
G04 P0 ( dwell for no time -- G64 should not smooth over this point )
F600.00000
X28.99080 Y37.38550
X28.99080 Y35.32810
X26.45080 Y35.32810
X26.45080 Y37.86810
X28.99080 Y37.86810
X28.99080 Y37.41090
G04 P0 ( dwell for no time -- G64 should not smooth over this point )
G00 Z1.00000 ( retract )

G00 X31.53080 Y37.38550 ( rapid move to begin. )
F300.00000
G01 Z-0.03000
G04 P0 ( dwell for no time -- G64 should not smooth over this point )
F600.00000
X31.53080 Y37.38550
X31.53080 Y35.32810
X28.99080 Y35.32810
X28.99080 Y37.86810
X31.53080 Y37.86810
X31.53080 Y37.41090
G04 P0 ( dwell for no time -- G64 should not smooth over this point )
G00 Z1.00000 ( retract )

G00 X34.07080 Y37.38550 ( rapid move to begin. )
F300.00000
G01 Z-0.03000
G04 P0 ( dwell for no time -- G64 should not smooth over this point )
F600.00000
X34.07080 Y37.38550
X34.07080 Y35.32810
X31.53080 Y35.32810
X31.53080 Y37.86810
X34.07080 Y37.86810
X34.07080 Y37.41090
G04 P0 ( dwell for no time -- G64 should not smooth over this point )
G00 Z1.00000 ( retract )

G00 X36.61080 Y37.38550 ( rapid move to begin. )
F300.00000
G01 Z-0.03000
G04 P0 ( dwell for no time -- G64 should not smooth over this point )
F600.00000
X36.61080 Y37.38550
X36.61080 Y35.32810
X34.07080 Y35.32810
X34.07080 Y37.86810
X36.61080 Y37.86810
X36.61080 Y37.41090
G04 P0 ( dwell for no time -- G64 should not smooth over this point )
G00 Z1.00000 ( retract )

G00 X39.15080 Y37.38550 ( rapid move to begin. )
F300.00000
G01 Z-0.03000
G04 P0 ( dwell for no time -- G64 should not smooth over this point )
F600.00000
X39.15080 Y37.38550
X39.15080 Y35.32810
X36.61080 Y35.32810
X36.61080 Y37.86810
X39.15080 Y37.86810
X39.15080 Y37.41090
G04 P0 ( dwell for no time -- G64 should not smooth over this point )
G00 Z1.00000 ( retract )

G00 X41.69080 Y37.38550 ( rapid move to begin. )
F300.00000
G01 Z-0.03000
G04 P0 ( dwell for no time -- G64 should not smooth over this point )
F600.00000
X41.69080 Y37.38550
X41.69080 Y35.32810
X39.15080 Y35.32810
X39.15080 Y37.86810
X41.69080 Y37.86810
X41.69080 Y37.41090
G04 P0 ( dwell for no time -- G64 should not smooth over this point )
G00 Z1.00000 ( retract )

G00 X44.23080 Y37.38550 ( rapid move to begin. )
F300.00000
G01 Z-0.03000
G04 P0 ( dwell for no time -- G64 should not smooth over this point )
F600.00000
X44.23080 Y37.38550
X44.23080 Y35.32810
X41.69080 Y35.32810
X41.69080 Y37.86810
X44.23080 Y37.86810
X44.23080 Y37.41090
G04 P0 ( dwell for no time -- G64 should not smooth over this point )
G00 Z1.00000 ( retract )

G00 X46.77080 Y37.38550 ( rapid move to begin. )
F300.00000
G01 Z-0.03000
G04 P0 ( dwell for no time -- G64 should not smooth over this point )
F600.00000
X46.77080 Y37.38550
X46.77080 Y35.32810
X44.23080 Y35.32810
X44.23080 Y37.86810
X46.77080 Y37.86810
X46.77080 Y37.41090
G04 P0 ( dwell for no time -- G64 should not smooth over this point )
G00 Z1.00000 ( retract )

G00 X49.31080 Y37.38550 ( rapid move to begin. )
F300.00000
G01 Z-0.03000
G04 P0 ( dwell for no time -- G64 should not smooth over this point )
F600.00000
X49.31080 Y37.38550
X49.31080 Y35.32810
X46.77080 Y35.32810
X46.77080 Y37.86810
X49.31080 Y37.86810
X49.31080 Y37.41090
G04 P0 ( dwell for no time -- G64 should not smooth over this point )
G00 Z1.00000 ( retract )

G00 X51.85080 Y37.38550 ( rapid move to begin. )
F300.00000
G01 Z-0.03000
G04 P0 ( dwell for no time -- G64 should not smooth over this point )
F600.00000
X51.85080 Y37.38550
X51.85080 Y35.32810
X49.31080 Y35.32810
X49.31080 Y37.86810
X51.85080 Y37.86810
X51.85080 Y37.41090
G04 P0 ( dwell for no time -- G64 should not smooth over this point )
G00 Z1.00000 ( retract )

G00 X54.39080 Y37.38550 ( rapid move to begin. )
F300.00000
G01 Z-0.03000
G04 P0 ( dwell for no time -- G64 should not smooth over this point )
F600.00000
X54.39080 Y37.38550
X54.39080 Y35.32810
X51.85080 Y35.32810
X51.85080 Y37.86810
X54.39080 Y37.86810
X54.39080 Y37.41090
G04 P0 ( dwell for no time -- G64 should not smooth over this point )
G00 Z1.00000 ( retract )

G00 X56.93080 Y37.38550 ( rapid move to begin. )
F300.00000
G01 Z-0.03000
G04 P0 ( dwell for no time -- G64 should not smooth over this point )
F600.00000
X56.93080 Y37.38550
X56.93080 Y35.32810
X54.39080 Y35.32810
X54.39080 Y37.86810
X56.93080 Y37.86810
X56.93080 Y37.41090
G04 P0 ( dwell for no time -- G64 should not smooth over this point )
G00 Z1.00000 ( retract )

G00 X59.47080 Y37.38550 ( rapid move to begin. )
F300.00000
G01 Z-0.03000
G04 P0 ( dwell for no time -- G64 should not smooth over this point )
F600.00000
X59.47080 Y37.38550
X59.47080 Y35.32810
X56.93080 Y35.32810
X56.93080 Y37.86810
X59.47080 Y37.86810
X59.47080 Y37.41090
G04 P0 ( dwell for no time -- G64 should not smooth over this point )
G00 Z1.00000 ( retract )

G00 X62.46800 Y37.38550 ( rapid move to begin. )
F300.00000
G01 Z-0.03000
G04 P0 ( dwell for no time -- G64 should not smooth over this point )
F600.00000
X62.46800 Y37.38550
X62.51880 Y37.36010
X62.51880 Y36.95370
X62.46800 Y36.80130
X62.46800 Y36.39490
X62.51880 Y36.24250
X62.49340 Y35.35350
X59.47080 Y35.32810
X59.47080 Y37.86810
X62.01080 Y37.86810
X62.46800 Y37.41090
G04 P0 ( dwell for no time -- G64 should not smooth over this point )
G00 Z1.00000 ( retract )

G00 X8.67080 Y34.84550 ( rapid move to begin. )
F300.00000
G01 Z-0.03000
G04 P0 ( dwell for no time -- G64 should not smooth over this point )
F600.00000
X8.67080 Y34.84550
X8.67080 Y32.78810
X5.62280 Y32.78810
X5.59740 Y33.77870
X5.64820 Y33.93110
X5.59740 Y34.69310
X5.62280 Y35.32810
X8.67080 Y35.32810
X8.67080 Y34.92170
G04 P0 ( dwell for no time -- G64 should not smooth over this point )
G00 Z1.00000 ( retract )

G00 X11.21080 Y34.84550 ( rapid move to begin. )
F300.00000
G01 Z-0.03000
G04 P0 ( dwell for no time -- G64 should not smooth over this point )
F600.00000
X11.21080 Y34.84550
X11.21080 Y32.78810
X8.67080 Y32.78810
X8.67080 Y35.32810
X11.21080 Y35.32810
X11.21080 Y34.92170
G04 P0 ( dwell for no time -- G64 should not smooth over this point )
G00 Z1.00000 ( retract )

G00 X13.75080 Y34.84550 ( rapid move to begin. )
F300.00000
G01 Z-0.03000
G04 P0 ( dwell for no time -- G64 should not smooth over this point )
F600.00000
X13.75080 Y34.84550
X13.75080 Y32.78810
X11.21080 Y32.78810
X11.21080 Y35.32810
X13.75080 Y35.32810
X13.75080 Y34.92170
G04 P0 ( dwell for no time -- G64 should not smooth over this point )
G00 Z1.00000 ( retract )

G00 X16.29080 Y34.84550 ( rapid move to begin. )
F300.00000
G01 Z-0.03000
G04 P0 ( dwell for no time -- G64 should not smooth over this point )
F600.00000
X16.29080 Y34.84550
X16.29080 Y32.78810
X13.75080 Y32.78810
X13.75080 Y35.32810
X16.29080 Y35.32810
X16.29080 Y34.92170
G04 P0 ( dwell for no time -- G64 should not smooth over this point )
G00 Z1.00000 ( retract )

G00 X18.83080 Y34.84550 ( rapid move to begin. )
F300.00000
G01 Z-0.03000
G04 P0 ( dwell for no time -- G64 should not smooth over this point )
F600.00000
X18.83080 Y34.84550
X18.83080 Y32.78810
X16.29080 Y32.78810
X16.29080 Y35.32810
X18.83080 Y35.32810
X18.83080 Y34.92170
G04 P0 ( dwell for no time -- G64 should not smooth over this point )
G00 Z1.00000 ( retract )

G00 X21.37080 Y34.84550 ( rapid move to begin. )
F300.00000
G01 Z-0.03000
G04 P0 ( dwell for no time -- G64 should not smooth over this point )
F600.00000
X21.37080 Y34.84550
X21.37080 Y32.78810
X18.83080 Y32.78810
X18.83080 Y35.32810
X21.37080 Y35.32810
X21.37080 Y34.87090
G04 P0 ( dwell for no time -- G64 should not smooth over this point )
G00 Z1.00000 ( retract )

G00 X23.91080 Y34.84550 ( rapid move to begin. )
F300.00000
G01 Z-0.03000
G04 P0 ( dwell for no time -- G64 should not smooth over this point )
F600.00000
X23.91080 Y34.84550
X23.91080 Y32.78810
X21.37080 Y32.78810
X21.37080 Y35.32810
X23.91080 Y35.32810
X23.91080 Y34.87090
G04 P0 ( dwell for no time -- G64 should not smooth over this point )
G00 Z1.00000 ( retract )

G00 X26.45080 Y34.84550 ( rapid move to begin. )
F300.00000
G01 Z-0.03000
G04 P0 ( dwell for no time -- G64 should not smooth over this point )
F600.00000
X26.45080 Y34.84550
X26.45080 Y32.78810
X23.91080 Y32.78810
X23.91080 Y35.32810
X26.45080 Y35.32810
X26.45080 Y34.87090
G04 P0 ( dwell for no time -- G64 should not smooth over this point )
G00 Z1.00000 ( retract )

G00 X28.99080 Y34.84550 ( rapid move to begin. )
F300.00000
G01 Z-0.03000
G04 P0 ( dwell for no time -- G64 should not smooth over this point )
F600.00000
X28.99080 Y34.84550
X28.99080 Y32.78810
X26.45080 Y32.78810
X26.45080 Y35.32810
X28.99080 Y35.32810
X28.99080 Y34.87090
G04 P0 ( dwell for no time -- G64 should not smooth over this point )
G00 Z1.00000 ( retract )

G00 X31.53080 Y34.84550 ( rapid move to begin. )
F300.00000
G01 Z-0.03000
G04 P0 ( dwell for no time -- G64 should not smooth over this point )
F600.00000
X31.53080 Y34.84550
X31.53080 Y32.78810
X28.99080 Y32.78810
X28.99080 Y35.32810
X31.53080 Y35.32810
X31.53080 Y34.87090
G04 P0 ( dwell for no time -- G64 should not smooth over this point )
G00 Z1.00000 ( retract )

G00 X34.07080 Y34.84550 ( rapid move to begin. )
F300.00000
G01 Z-0.03000
G04 P0 ( dwell for no time -- G64 should not smooth over this point )
F600.00000
X34.07080 Y34.84550
X34.07080 Y32.78810
X31.53080 Y32.78810
X31.53080 Y35.32810
X34.07080 Y35.32810
X34.07080 Y34.87090
G04 P0 ( dwell for no time -- G64 should not smooth over this point )
G00 Z1.00000 ( retract )

G00 X36.61080 Y34.84550 ( rapid move to begin. )
F300.00000
G01 Z-0.03000
G04 P0 ( dwell for no time -- G64 should not smooth over this point )
F600.00000
X36.61080 Y34.84550
X36.61080 Y32.78810
X34.07080 Y32.78810
X34.07080 Y35.32810
X36.61080 Y35.32810
X36.61080 Y34.87090
G04 P0 ( dwell for no time -- G64 should not smooth over this point )
G00 Z1.00000 ( retract )

G00 X39.15080 Y34.84550 ( rapid move to begin. )
F300.00000
G01 Z-0.03000
G04 P0 ( dwell for no time -- G64 should not smooth over this point )
F600.00000
X39.15080 Y34.84550
X39.15080 Y32.78810
X36.61080 Y32.78810
X36.61080 Y35.32810
X39.15080 Y35.32810
X39.15080 Y34.87090
G04 P0 ( dwell for no time -- G64 should not smooth over this point )
G00 Z1.00000 ( retract )

G00 X41.69080 Y34.84550 ( rapid move to begin. )
F300.00000
G01 Z-0.03000
G04 P0 ( dwell for no time -- G64 should not smooth over this point )
F600.00000
X41.69080 Y34.84550
X41.69080 Y32.78810
X39.15080 Y32.78810
X39.15080 Y35.32810
X41.69080 Y35.32810
X41.69080 Y34.87090
G04 P0 ( dwell for no time -- G64 should not smooth over this point )
G00 Z1.00000 ( retract )

G00 X44.23080 Y34.84550 ( rapid move to begin. )
F300.00000
G01 Z-0.03000
G04 P0 ( dwell for no time -- G64 should not smooth over this point )
F600.00000
X44.23080 Y34.84550
X44.23080 Y32.78810
X41.69080 Y32.78810
X41.69080 Y35.32810
X44.23080 Y35.32810
X44.23080 Y34.87090
G04 P0 ( dwell for no time -- G64 should not smooth over this point )
G00 Z1.00000 ( retract )

G00 X46.77080 Y34.84550 ( rapid move to begin. )
F300.00000
G01 Z-0.03000
G04 P0 ( dwell for no time -- G64 should not smooth over this point )
F600.00000
X46.77080 Y34.84550
X46.77080 Y32.78810
X44.23080 Y32.78810
X44.23080 Y35.32810
X46.77080 Y35.32810
X46.77080 Y34.87090
G04 P0 ( dwell for no time -- G64 should not smooth over this point )
G00 Z1.00000 ( retract )

G00 X49.31080 Y34.84550 ( rapid move to begin. )
F300.00000
G01 Z-0.03000
G04 P0 ( dwell for no time -- G64 should not smooth over this point )
F600.00000
X49.31080 Y34.84550
X49.31080 Y32.78810
X46.77080 Y32.78810
X46.77080 Y35.32810
X49.31080 Y35.32810
X49.31080 Y34.87090
G04 P0 ( dwell for no time -- G64 should not smooth over this point )
G00 Z1.00000 ( retract )

G00 X51.85080 Y34.84550 ( rapid move to begin. )
F300.00000
G01 Z-0.03000
G04 P0 ( dwell for no time -- G64 should not smooth over this point )
F600.00000
X51.85080 Y34.84550
X51.85080 Y32.78810
X49.31080 Y32.78810
X49.31080 Y35.32810
X51.85080 Y35.32810
X51.85080 Y34.87090
G04 P0 ( dwell for no time -- G64 should not smooth over this point )
G00 Z1.00000 ( retract )

G00 X54.39080 Y34.84550 ( rapid move to begin. )
F300.00000
G01 Z-0.03000
G04 P0 ( dwell for no time -- G64 should not smooth over this point )
F600.00000
X54.39080 Y34.84550
X54.39080 Y32.78810
X51.85080 Y32.78810
X51.85080 Y35.32810
X54.39080 Y35.32810
X54.39080 Y34.87090
G04 P0 ( dwell for no time -- G64 should not smooth over this point )
G00 Z1.00000 ( retract )

G00 X56.93080 Y34.84550 ( rapid move to begin. )
F300.00000
G01 Z-0.03000
G04 P0 ( dwell for no time -- G64 should not smooth over this point )
F600.00000
X56.93080 Y34.84550
X56.93080 Y32.78810
X54.39080 Y32.78810
X54.39080 Y35.32810
X56.93080 Y35.32810
X56.93080 Y34.87090
G04 P0 ( dwell for no time -- G64 should not smooth over this point )
G00 Z1.00000 ( retract )

G00 X59.47080 Y34.84550 ( rapid move to begin. )
F300.00000
G01 Z-0.03000
G04 P0 ( dwell for no time -- G64 should not smooth over this point )
F600.00000
X59.47080 Y34.84550
X59.47080 Y32.78810
X56.93080 Y32.78810
X56.93080 Y35.32810
X59.47080 Y35.32810
X59.47080 Y34.87090
G04 P0 ( dwell for no time -- G64 should not smooth over this point )
G00 Z1.00000 ( retract )

G00 X62.51880 Y34.84550 ( rapid move to begin. )
F300.00000
G01 Z-0.03000
G04 P0 ( dwell for no time -- G64 should not smooth over this point )
F600.00000
X62.51880 Y34.84550
X62.46800 Y33.90570
X62.51880 Y33.75330
X62.51880 Y32.94050
X62.46800 Y32.78810
X59.47080 Y32.78810
X59.47080 Y35.32810
X62.49340 Y35.30270
X62.51880 Y34.87090
G04 P0 ( dwell for no time -- G64 should not smooth over this point )
G00 Z1.00000 ( retract )

G00 X67.09080 Y33.55010 ( rapid move to begin. )
F300.00000
G01 Z-0.03000
G04 P0 ( dwell for no time -- G64 should not smooth over this point )
F600.00000
X67.09080 Y33.55010
X67.21780 Y33.29610
X67.34480 Y33.21990
X67.31940 Y31.51810
X65.61760 Y31.54350
X65.54140 Y31.67050
X65.38900 Y31.72130
X64.98260 Y32.12770
X64.80480 Y32.55950
X64.80480 Y33.06750
X65.08420 Y33.60090
X65.28740 Y33.80410
X65.54140 Y33.95650
X65.84620 Y34.05810
X66.25260 Y34.05810
X66.83680 Y33.82950
X67.09080 Y33.57550
G04 P0 ( dwell for no time -- G64 should not smooth over this point )
G00 Z1.00000 ( retract )

G00 X69.63080 Y33.55010 ( rapid move to begin. )
F300.00000
G01 Z-0.03000
G04 P0 ( dwell for no time -- G64 should not smooth over this point )
F600.00000
X69.63080 Y33.55010
X69.85940 Y32.99130
X69.85940 Y32.58490
X69.75780 Y32.28010
X69.60540 Y32.02610
X69.40220 Y31.82290
X69.04660 Y31.56890
X69.04660 Y31.51810
X67.34480 Y31.54350
X67.34480 Y33.16910
X67.67500 Y33.65170
X67.87820 Y33.85490
X68.15760 Y33.98190
X68.48780 Y34.05810
X68.86880 Y34.03270
X69.32600 Y33.88030
X69.63080 Y33.57550
G04 P0 ( dwell for no time -- G64 should not smooth over this point )
G00 Z1.00000 ( retract )

G00 X8.67080 Y32.30550 ( rapid move to begin. )
F300.00000
G01 Z-0.03000
G04 P0 ( dwell for no time -- G64 should not smooth over this point )
F600.00000
X8.67080 Y32.30550
X8.67080 Y30.24810
X5.62280 Y30.24810
X5.59740 Y31.23870
X5.64820 Y31.39110
X5.59740 Y32.15310
X5.62280 Y32.78810
X8.67080 Y32.78810
X8.67080 Y32.38170
G04 P0 ( dwell for no time -- G64 should not smooth over this point )
G00 Z1.00000 ( retract )

G00 X11.21080 Y32.30550 ( rapid move to begin. )
F300.00000
G01 Z-0.03000
G04 P0 ( dwell for no time -- G64 should not smooth over this point )
F600.00000
X11.21080 Y32.30550
X11.21080 Y30.24810
X8.67080 Y30.24810
X8.67080 Y32.78810
X11.21080 Y32.78810
X11.21080 Y32.38170
G04 P0 ( dwell for no time -- G64 should not smooth over this point )
G00 Z1.00000 ( retract )

G00 X13.75080 Y32.30550 ( rapid move to begin. )
F300.00000
G01 Z-0.03000
G04 P0 ( dwell for no time -- G64 should not smooth over this point )
F600.00000
X13.75080 Y32.30550
X13.75080 Y30.24810
X11.21080 Y30.24810
X11.21080 Y32.78810
X13.75080 Y32.78810
X13.75080 Y32.38170
G04 P0 ( dwell for no time -- G64 should not smooth over this point )
G00 Z1.00000 ( retract )

G00 X16.29080 Y32.30550 ( rapid move to begin. )
F300.00000
G01 Z-0.03000
G04 P0 ( dwell for no time -- G64 should not smooth over this point )
F600.00000
X16.29080 Y32.30550
X16.29080 Y30.24810
X13.75080 Y30.24810
X13.75080 Y32.78810
X16.29080 Y32.78810
X16.29080 Y32.38170
G04 P0 ( dwell for no time -- G64 should not smooth over this point )
G00 Z1.00000 ( retract )

G00 X18.83080 Y32.30550 ( rapid move to begin. )
F300.00000
G01 Z-0.03000
G04 P0 ( dwell for no time -- G64 should not smooth over this point )
F600.00000
X18.83080 Y32.30550
X18.83080 Y30.24810
X16.29080 Y30.24810
X16.29080 Y32.78810
X18.83080 Y32.78810
X18.83080 Y32.38170
G04 P0 ( dwell for no time -- G64 should not smooth over this point )
G00 Z1.00000 ( retract )

G00 X21.37080 Y32.30550 ( rapid move to begin. )
F300.00000
G01 Z-0.03000
G04 P0 ( dwell for no time -- G64 should not smooth over this point )
F600.00000
X21.37080 Y32.30550
X21.37080 Y30.24810
X18.83080 Y30.24810
X18.83080 Y32.78810
X21.37080 Y32.78810
X21.37080 Y32.33090
G04 P0 ( dwell for no time -- G64 should not smooth over this point )
G00 Z1.00000 ( retract )

G00 X23.91080 Y32.30550 ( rapid move to begin. )
F300.00000
G01 Z-0.03000
G04 P0 ( dwell for no time -- G64 should not smooth over this point )
F600.00000
X23.91080 Y32.30550
X23.91080 Y30.24810
X21.37080 Y30.24810
X21.37080 Y32.78810
X23.91080 Y32.78810
X23.91080 Y32.33090
G04 P0 ( dwell for no time -- G64 should not smooth over this point )
G00 Z1.00000 ( retract )

G00 X26.45080 Y32.30550 ( rapid move to begin. )
F300.00000
G01 Z-0.03000
G04 P0 ( dwell for no time -- G64 should not smooth over this point )
F600.00000
X26.45080 Y32.30550
X26.45080 Y30.24810
X23.91080 Y30.24810
X23.91080 Y32.78810
X26.45080 Y32.78810
X26.45080 Y32.33090
G04 P0 ( dwell for no time -- G64 should not smooth over this point )
G00 Z1.00000 ( retract )

G00 X28.99080 Y32.30550 ( rapid move to begin. )
F300.00000
G01 Z-0.03000
G04 P0 ( dwell for no time -- G64 should not smooth over this point )
F600.00000
X28.99080 Y32.30550
X28.99080 Y30.24810
X26.45080 Y30.24810
X26.45080 Y32.78810
X28.99080 Y32.78810
X28.99080 Y32.33090
G04 P0 ( dwell for no time -- G64 should not smooth over this point )
G00 Z1.00000 ( retract )

G00 X31.53080 Y32.30550 ( rapid move to begin. )
F300.00000
G01 Z-0.03000
G04 P0 ( dwell for no time -- G64 should not smooth over this point )
F600.00000
X31.53080 Y32.30550
X31.53080 Y30.24810
X28.99080 Y30.24810
X28.99080 Y32.78810
X31.53080 Y32.78810
X31.53080 Y32.33090
G04 P0 ( dwell for no time -- G64 should not smooth over this point )
G00 Z1.00000 ( retract )

G00 X34.07080 Y32.30550 ( rapid move to begin. )
F300.00000
G01 Z-0.03000
G04 P0 ( dwell for no time -- G64 should not smooth over this point )
F600.00000
X34.07080 Y32.30550
X34.07080 Y30.24810
X31.53080 Y30.24810
X31.53080 Y32.78810
X34.07080 Y32.78810
X34.07080 Y32.33090
G04 P0 ( dwell for no time -- G64 should not smooth over this point )
G00 Z1.00000 ( retract )

G00 X36.61080 Y32.30550 ( rapid move to begin. )
F300.00000
G01 Z-0.03000
G04 P0 ( dwell for no time -- G64 should not smooth over this point )
F600.00000
X36.61080 Y32.30550
X36.61080 Y30.24810
X34.07080 Y30.24810
X34.07080 Y32.78810
X36.61080 Y32.78810
X36.61080 Y32.33090
G04 P0 ( dwell for no time -- G64 should not smooth over this point )
G00 Z1.00000 ( retract )

G00 X39.15080 Y32.30550 ( rapid move to begin. )
F300.00000
G01 Z-0.03000
G04 P0 ( dwell for no time -- G64 should not smooth over this point )
F600.00000
X39.15080 Y32.30550
X39.15080 Y30.24810
X36.61080 Y30.24810
X36.61080 Y32.78810
X39.15080 Y32.78810
X39.15080 Y32.33090
G04 P0 ( dwell for no time -- G64 should not smooth over this point )
G00 Z1.00000 ( retract )

G00 X41.69080 Y32.30550 ( rapid move to begin. )
F300.00000
G01 Z-0.03000
G04 P0 ( dwell for no time -- G64 should not smooth over this point )
F600.00000
X41.69080 Y32.30550
X41.69080 Y30.24810
X39.15080 Y30.24810
X39.15080 Y32.78810
X41.69080 Y32.78810
X41.69080 Y32.33090
G04 P0 ( dwell for no time -- G64 should not smooth over this point )
G00 Z1.00000 ( retract )

G00 X44.23080 Y32.30550 ( rapid move to begin. )
F300.00000
G01 Z-0.03000
G04 P0 ( dwell for no time -- G64 should not smooth over this point )
F600.00000
X44.23080 Y32.30550
X44.23080 Y30.24810
X41.69080 Y30.24810
X41.69080 Y32.78810
X44.23080 Y32.78810
X44.23080 Y32.33090
G04 P0 ( dwell for no time -- G64 should not smooth over this point )
G00 Z1.00000 ( retract )

G00 X46.77080 Y32.30550 ( rapid move to begin. )
F300.00000
G01 Z-0.03000
G04 P0 ( dwell for no time -- G64 should not smooth over this point )
F600.00000
X46.77080 Y32.30550
X46.77080 Y30.24810
X44.23080 Y30.24810
X44.23080 Y32.78810
X46.77080 Y32.78810
X46.77080 Y32.33090
G04 P0 ( dwell for no time -- G64 should not smooth over this point )
G00 Z1.00000 ( retract )

G00 X49.31080 Y32.30550 ( rapid move to begin. )
F300.00000
G01 Z-0.03000
G04 P0 ( dwell for no time -- G64 should not smooth over this point )
F600.00000
X49.31080 Y32.30550
X49.31080 Y30.24810
X46.77080 Y30.24810
X46.77080 Y32.78810
X49.31080 Y32.78810
X49.31080 Y32.33090
G04 P0 ( dwell for no time -- G64 should not smooth over this point )
G00 Z1.00000 ( retract )

G00 X51.85080 Y32.30550 ( rapid move to begin. )
F300.00000
G01 Z-0.03000
G04 P0 ( dwell for no time -- G64 should not smooth over this point )
F600.00000
X51.85080 Y32.30550
X51.85080 Y30.24810
X49.31080 Y30.24810
X49.31080 Y32.78810
X51.85080 Y32.78810
X51.85080 Y32.33090
G04 P0 ( dwell for no time -- G64 should not smooth over this point )
G00 Z1.00000 ( retract )

G00 X54.39080 Y32.30550 ( rapid move to begin. )
F300.00000
G01 Z-0.03000
G04 P0 ( dwell for no time -- G64 should not smooth over this point )
F600.00000
X54.39080 Y32.30550
X54.39080 Y30.24810
X51.85080 Y30.24810
X51.85080 Y32.78810
X54.39080 Y32.78810
X54.39080 Y32.33090
G04 P0 ( dwell for no time -- G64 should not smooth over this point )
G00 Z1.00000 ( retract )

G00 X56.93080 Y32.30550 ( rapid move to begin. )
F300.00000
G01 Z-0.03000
G04 P0 ( dwell for no time -- G64 should not smooth over this point )
F600.00000
X56.93080 Y32.30550
X56.93080 Y30.24810
X54.39080 Y30.24810
X54.39080 Y32.78810
X56.93080 Y32.78810
X56.93080 Y32.33090
G04 P0 ( dwell for no time -- G64 should not smooth over this point )
G00 Z1.00000 ( retract )

G00 X59.47080 Y32.30550 ( rapid move to begin. )
F300.00000
G01 Z-0.03000
G04 P0 ( dwell for no time -- G64 should not smooth over this point )
F600.00000
X59.47080 Y32.30550
X59.47080 Y30.24810
X56.93080 Y30.24810
X56.93080 Y32.78810
X59.47080 Y32.78810
X59.47080 Y32.33090
G04 P0 ( dwell for no time -- G64 should not smooth over this point )
G00 Z1.00000 ( retract )

G00 X62.51880 Y32.30550 ( rapid move to begin. )
F300.00000
G01 Z-0.03000
G04 P0 ( dwell for no time -- G64 should not smooth over this point )
F600.00000
X62.51880 Y32.30550
X62.46800 Y31.36570
X62.51880 Y31.21330
X62.51880 Y30.40050
X62.46800 Y30.24810
X59.47080 Y30.24810
X59.47080 Y32.78810
X62.49340 Y32.76270
X62.51880 Y32.33090
G04 P0 ( dwell for no time -- G64 should not smooth over this point )
G00 Z1.00000 ( retract )

G00 X67.34480 Y31.01010 ( rapid move to begin. )
F300.00000
G01 Z-0.03000
G04 P0 ( dwell for no time -- G64 should not smooth over this point )
F600.00000
X67.34480 Y31.01010
X67.34480 Y29.00350
X65.64300 Y28.97810
X65.56680 Y29.10510
X65.31280 Y29.25750
X65.00800 Y29.56230
X64.88100 Y29.84170
X64.80480 Y30.17190
X64.83020 Y30.55290
X65.00800 Y30.98470
X65.43980 Y31.36570
X65.69380 Y31.51810
X67.31940 Y31.51810
X67.34480 Y31.03550
G04 P0 ( dwell for no time -- G64 should not smooth over this point )
G00 Z1.00000 ( retract )

G00 X69.63080 Y31.01010 ( rapid move to begin. )
F300.00000
G01 Z-0.03000
G04 P0 ( dwell for no time -- G64 should not smooth over this point )
F600.00000
X69.63080 Y31.01010
X69.85940 Y30.45130
X69.85940 Y30.04490
X69.75780 Y29.74010
X69.60540 Y29.48610
X69.40220 Y29.28290
X69.04660 Y29.02890
X69.04660 Y28.97810
X67.34480 Y29.00350
X67.37020 Y31.51810
X69.04660 Y31.51810
X69.12280 Y31.39110
X69.40220 Y31.26410
X69.63080 Y31.03550
G04 P0 ( dwell for no time -- G64 should not smooth over this point )
G00 Z1.00000 ( retract )

G00 X8.67080 Y29.76550 ( rapid move to begin. )
F300.00000
G01 Z-0.03000
G04 P0 ( dwell for no time -- G64 should not smooth over this point )
F600.00000
X8.67080 Y29.76550
X8.67080 Y27.70810
X5.62280 Y27.70810
X5.59740 Y28.69870
X5.64820 Y28.85110
X5.59740 Y29.61310
X5.62280 Y30.24810
X8.67080 Y30.24810
X8.67080 Y29.84170
G04 P0 ( dwell for no time -- G64 should not smooth over this point )
G00 Z1.00000 ( retract )

G00 X11.21080 Y29.76550 ( rapid move to begin. )
F300.00000
G01 Z-0.03000
G04 P0 ( dwell for no time -- G64 should not smooth over this point )
F600.00000
X11.21080 Y29.76550
X11.21080 Y27.70810
X8.67080 Y27.70810
X8.67080 Y30.24810
X11.21080 Y30.24810
X11.21080 Y29.84170
G04 P0 ( dwell for no time -- G64 should not smooth over this point )
G00 Z1.00000 ( retract )

G00 X13.75080 Y29.76550 ( rapid move to begin. )
F300.00000
G01 Z-0.03000
G04 P0 ( dwell for no time -- G64 should not smooth over this point )
F600.00000
X13.75080 Y29.76550
X13.75080 Y27.70810
X11.21080 Y27.70810
X11.21080 Y30.24810
X13.75080 Y30.24810
X13.75080 Y29.84170
G04 P0 ( dwell for no time -- G64 should not smooth over this point )
G00 Z1.00000 ( retract )

G00 X16.29080 Y29.76550 ( rapid move to begin. )
F300.00000
G01 Z-0.03000
G04 P0 ( dwell for no time -- G64 should not smooth over this point )
F600.00000
X16.29080 Y29.76550
X16.29080 Y27.70810
X13.75080 Y27.70810
X13.75080 Y30.24810
X16.29080 Y30.24810
X16.29080 Y29.84170
G04 P0 ( dwell for no time -- G64 should not smooth over this point )
G00 Z1.00000 ( retract )

G00 X18.83080 Y29.76550 ( rapid move to begin. )
F300.00000
G01 Z-0.03000
G04 P0 ( dwell for no time -- G64 should not smooth over this point )
F600.00000
X18.83080 Y29.76550
X18.83080 Y27.70810
X16.29080 Y27.70810
X16.29080 Y30.24810
X18.83080 Y30.24810
X18.83080 Y29.79090
G04 P0 ( dwell for no time -- G64 should not smooth over this point )
G00 Z1.00000 ( retract )

G00 X21.37080 Y29.76550 ( rapid move to begin. )
F300.00000
G01 Z-0.03000
G04 P0 ( dwell for no time -- G64 should not smooth over this point )
F600.00000
X21.37080 Y29.76550
X21.37080 Y27.70810
X18.83080 Y27.70810
X18.83080 Y30.24810
X21.37080 Y30.24810
X21.37080 Y29.79090
G04 P0 ( dwell for no time -- G64 should not smooth over this point )
G00 Z1.00000 ( retract )

G00 X23.91080 Y29.76550 ( rapid move to begin. )
F300.00000
G01 Z-0.03000
G04 P0 ( dwell for no time -- G64 should not smooth over this point )
F600.00000
X23.91080 Y29.76550
X23.91080 Y27.70810
X21.37080 Y27.70810
X21.37080 Y30.24810
X23.91080 Y30.24810
X23.91080 Y29.79090
G04 P0 ( dwell for no time -- G64 should not smooth over this point )
G00 Z1.00000 ( retract )

G00 X26.45080 Y29.76550 ( rapid move to begin. )
F300.00000
G01 Z-0.03000
G04 P0 ( dwell for no time -- G64 should not smooth over this point )
F600.00000
X26.45080 Y29.76550
X26.45080 Y27.70810
X23.91080 Y27.70810
X23.91080 Y30.24810
X26.45080 Y30.24810
X26.45080 Y29.79090
G04 P0 ( dwell for no time -- G64 should not smooth over this point )
G00 Z1.00000 ( retract )

G00 X28.99080 Y29.76550 ( rapid move to begin. )
F300.00000
G01 Z-0.03000
G04 P0 ( dwell for no time -- G64 should not smooth over this point )
F600.00000
X28.99080 Y29.76550
X28.99080 Y27.70810
X26.45080 Y27.70810
X26.45080 Y30.24810
X28.99080 Y30.24810
X28.99080 Y29.79090
G04 P0 ( dwell for no time -- G64 should not smooth over this point )
G00 Z1.00000 ( retract )

G00 X31.53080 Y29.76550 ( rapid move to begin. )
F300.00000
G01 Z-0.03000
G04 P0 ( dwell for no time -- G64 should not smooth over this point )
F600.00000
X31.53080 Y29.76550
X31.53080 Y27.70810
X28.99080 Y27.70810
X28.99080 Y30.24810
X31.53080 Y30.24810
X31.53080 Y29.79090
G04 P0 ( dwell for no time -- G64 should not smooth over this point )
G00 Z1.00000 ( retract )

G00 X34.07080 Y29.76550 ( rapid move to begin. )
F300.00000
G01 Z-0.03000
G04 P0 ( dwell for no time -- G64 should not smooth over this point )
F600.00000
X34.07080 Y29.76550
X34.07080 Y27.70810
X31.53080 Y27.70810
X31.53080 Y30.24810
X34.07080 Y30.24810
X34.07080 Y29.79090
G04 P0 ( dwell for no time -- G64 should not smooth over this point )
G00 Z1.00000 ( retract )

G00 X36.61080 Y29.76550 ( rapid move to begin. )
F300.00000
G01 Z-0.03000
G04 P0 ( dwell for no time -- G64 should not smooth over this point )
F600.00000
X36.61080 Y29.76550
X36.61080 Y27.70810
X34.07080 Y27.70810
X34.07080 Y30.24810
X36.61080 Y30.24810
X36.61080 Y29.79090
G04 P0 ( dwell for no time -- G64 should not smooth over this point )
G00 Z1.00000 ( retract )

G00 X39.15080 Y29.76550 ( rapid move to begin. )
F300.00000
G01 Z-0.03000
G04 P0 ( dwell for no time -- G64 should not smooth over this point )
F600.00000
X39.15080 Y29.76550
X39.15080 Y27.70810
X36.61080 Y27.70810
X36.61080 Y30.24810
X39.15080 Y30.24810
X39.15080 Y29.79090
G04 P0 ( dwell for no time -- G64 should not smooth over this point )
G00 Z1.00000 ( retract )

G00 X41.69080 Y29.76550 ( rapid move to begin. )
F300.00000
G01 Z-0.03000
G04 P0 ( dwell for no time -- G64 should not smooth over this point )
F600.00000
X41.69080 Y29.76550
X41.69080 Y27.70810
X39.15080 Y27.70810
X39.15080 Y30.24810
X41.69080 Y30.24810
X41.69080 Y29.79090
G04 P0 ( dwell for no time -- G64 should not smooth over this point )
G00 Z1.00000 ( retract )

G00 X44.23080 Y29.76550 ( rapid move to begin. )
F300.00000
G01 Z-0.03000
G04 P0 ( dwell for no time -- G64 should not smooth over this point )
F600.00000
X44.23080 Y29.76550
X44.23080 Y27.70810
X41.69080 Y27.70810
X41.69080 Y30.24810
X44.23080 Y30.24810
X44.23080 Y29.79090
G04 P0 ( dwell for no time -- G64 should not smooth over this point )
G00 Z1.00000 ( retract )

G00 X46.77080 Y29.76550 ( rapid move to begin. )
F300.00000
G01 Z-0.03000
G04 P0 ( dwell for no time -- G64 should not smooth over this point )
F600.00000
X46.77080 Y29.76550
X46.77080 Y27.70810
X44.23080 Y27.70810
X44.23080 Y30.24810
X46.77080 Y30.24810
X46.77080 Y29.79090
G04 P0 ( dwell for no time -- G64 should not smooth over this point )
G00 Z1.00000 ( retract )

G00 X49.31080 Y29.76550 ( rapid move to begin. )
F300.00000
G01 Z-0.03000
G04 P0 ( dwell for no time -- G64 should not smooth over this point )
F600.00000
X49.31080 Y29.76550
X49.31080 Y27.70810
X46.77080 Y27.70810
X46.77080 Y30.24810
X49.31080 Y30.24810
X49.31080 Y29.79090
G04 P0 ( dwell for no time -- G64 should not smooth over this point )
G00 Z1.00000 ( retract )

G00 X51.85080 Y29.76550 ( rapid move to begin. )
F300.00000
G01 Z-0.03000
G04 P0 ( dwell for no time -- G64 should not smooth over this point )
F600.00000
X51.85080 Y29.76550
X51.85080 Y27.70810
X49.31080 Y27.70810
X49.31080 Y30.24810
X51.85080 Y30.24810
X51.85080 Y29.79090
G04 P0 ( dwell for no time -- G64 should not smooth over this point )
G00 Z1.00000 ( retract )

G00 X54.39080 Y29.76550 ( rapid move to begin. )
F300.00000
G01 Z-0.03000
G04 P0 ( dwell for no time -- G64 should not smooth over this point )
F600.00000
X54.39080 Y29.76550
X54.39080 Y27.70810
X51.85080 Y27.70810
X51.85080 Y30.24810
X54.39080 Y30.24810
X54.39080 Y29.79090
G04 P0 ( dwell for no time -- G64 should not smooth over this point )
G00 Z1.00000 ( retract )

G00 X56.93080 Y29.76550 ( rapid move to begin. )
F300.00000
G01 Z-0.03000
G04 P0 ( dwell for no time -- G64 should not smooth over this point )
F600.00000
X56.93080 Y29.76550
X56.93080 Y27.70810
X54.39080 Y27.70810
X54.39080 Y30.24810
X56.93080 Y30.24810
X56.93080 Y29.79090
G04 P0 ( dwell for no time -- G64 should not smooth over this point )
G00 Z1.00000 ( retract )

G00 X59.47080 Y29.76550 ( rapid move to begin. )
F300.00000
G01 Z-0.03000
G04 P0 ( dwell for no time -- G64 should not smooth over this point )
F600.00000
X59.47080 Y29.76550
X59.47080 Y27.70810
X56.93080 Y27.70810
X56.93080 Y30.24810
X59.47080 Y30.24810
X59.47080 Y29.79090
G04 P0 ( dwell for no time -- G64 should not smooth over this point )
G00 Z1.00000 ( retract )

G00 X62.51880 Y29.76550 ( rapid move to begin. )
F300.00000
G01 Z-0.03000
G04 P0 ( dwell for no time -- G64 should not smooth over this point )
F600.00000
X62.51880 Y29.76550
X62.46800 Y28.82570
X62.51880 Y28.67330
X62.51880 Y27.86050
X62.46800 Y27.70810
X59.47080 Y27.70810
X59.47080 Y30.24810
X62.49340 Y30.22270
X62.51880 Y29.79090
G04 P0 ( dwell for no time -- G64 should not smooth over this point )
G00 Z1.00000 ( retract )

G00 X67.34480 Y28.47010 ( rapid move to begin. )
F300.00000
G01 Z-0.03000
G04 P0 ( dwell for no time -- G64 should not smooth over this point )
F600.00000
X67.34480 Y28.47010
X67.34480 Y27.27630
X67.21780 Y27.20010
X67.06540 Y26.94610
X66.86220 Y26.74290
X66.32880 Y26.46350
X65.74460 Y26.48890
X65.46520 Y26.61590
X65.03340 Y26.99690
X64.83020 Y27.40330
X64.80480 Y27.98750
X65.08420 Y28.52090
X65.28740 Y28.72410
X65.64300 Y28.97810
X67.34480 Y28.95270
X67.34480 Y28.49550
G04 P0 ( dwell for no time -- G64 should not smooth over this point )
G00 Z1.00000 ( retract )

G00 X69.63080 Y28.47010 ( rapid move to begin. )
F300.00000
G01 Z-0.03000
G04 P0 ( dwell for no time -- G64 should not smooth over this point )
F600.00000
X69.63080 Y28.47010
X69.85940 Y27.91130
X69.85940 Y27.50490
X69.75780 Y27.20010
X69.60540 Y26.94610
X69.40220 Y26.74290
X68.86880 Y26.46350
X68.28460 Y26.48890
X68.00520 Y26.61590
X67.57340 Y26.99690
X67.42100 Y27.25090
X67.34480 Y27.27630
X67.37020 Y28.97810
X69.04660 Y28.97810
X69.12280 Y28.85110
X69.40220 Y28.72410
X69.63080 Y28.49550
G04 P0 ( dwell for no time -- G64 should not smooth over this point )
G00 Z1.00000 ( retract )

G00 X8.67080 Y27.22550 ( rapid move to begin. )
F300.00000
G01 Z-0.03000
G04 P0 ( dwell for no time -- G64 should not smooth over this point )
F600.00000
X8.67080 Y27.22550
X8.67080 Y25.16810
X5.62280 Y25.16810
X5.59740 Y26.15870
X5.64820 Y26.31110
X5.59740 Y27.07310
X5.62280 Y27.70810
X8.67080 Y27.70810
X8.67080 Y27.30170
G04 P0 ( dwell for no time -- G64 should not smooth over this point )
G00 Z1.00000 ( retract )

G00 X11.21080 Y27.22550 ( rapid move to begin. )
F300.00000
G01 Z-0.03000
G04 P0 ( dwell for no time -- G64 should not smooth over this point )
F600.00000
X11.21080 Y27.22550
X11.21080 Y25.16810
X8.67080 Y25.16810
X8.67080 Y27.70810
X11.21080 Y27.70810
X11.21080 Y27.30170
G04 P0 ( dwell for no time -- G64 should not smooth over this point )
G00 Z1.00000 ( retract )

G00 X13.75080 Y27.22550 ( rapid move to begin. )
F300.00000
G01 Z-0.03000
G04 P0 ( dwell for no time -- G64 should not smooth over this point )
F600.00000
X13.75080 Y27.22550
X13.75080 Y25.16810
X11.21080 Y25.16810
X11.21080 Y27.70810
X13.75080 Y27.70810
X13.75080 Y27.30170
G04 P0 ( dwell for no time -- G64 should not smooth over this point )
G00 Z1.00000 ( retract )

G00 X16.29080 Y27.22550 ( rapid move to begin. )
F300.00000
G01 Z-0.03000
G04 P0 ( dwell for no time -- G64 should not smooth over this point )
F600.00000
X16.29080 Y27.22550
X16.29080 Y25.16810
X13.75080 Y25.16810
X13.75080 Y27.70810
X16.29080 Y27.70810
X16.29080 Y27.25090
G04 P0 ( dwell for no time -- G64 should not smooth over this point )
G00 Z1.00000 ( retract )

G00 X18.83080 Y27.22550 ( rapid move to begin. )
F300.00000
G01 Z-0.03000
G04 P0 ( dwell for no time -- G64 should not smooth over this point )
F600.00000
X18.83080 Y27.22550
X18.83080 Y25.16810
X16.29080 Y25.16810
X16.29080 Y27.70810
X18.83080 Y27.70810
X18.83080 Y27.25090
G04 P0 ( dwell for no time -- G64 should not smooth over this point )
G00 Z1.00000 ( retract )

G00 X21.37080 Y27.22550 ( rapid move to begin. )
F300.00000
G01 Z-0.03000
G04 P0 ( dwell for no time -- G64 should not smooth over this point )
F600.00000
X21.37080 Y27.22550
X21.37080 Y25.16810
X18.83080 Y25.16810
X18.83080 Y27.70810
X21.37080 Y27.70810
X21.37080 Y27.25090
G04 P0 ( dwell for no time -- G64 should not smooth over this point )
G00 Z1.00000 ( retract )

G00 X23.91080 Y27.22550 ( rapid move to begin. )
F300.00000
G01 Z-0.03000
G04 P0 ( dwell for no time -- G64 should not smooth over this point )
F600.00000
X23.91080 Y27.22550
X23.91080 Y25.16810
X21.37080 Y25.16810
X21.37080 Y27.70810
X23.91080 Y27.70810
X23.91080 Y27.25090
G04 P0 ( dwell for no time -- G64 should not smooth over this point )
G00 Z1.00000 ( retract )

G00 X26.45080 Y27.22550 ( rapid move to begin. )
F300.00000
G01 Z-0.03000
G04 P0 ( dwell for no time -- G64 should not smooth over this point )
F600.00000
X26.45080 Y27.22550
X26.45080 Y25.16810
X23.91080 Y25.16810
X23.91080 Y27.70810
X26.45080 Y27.70810
X26.45080 Y27.25090
G04 P0 ( dwell for no time -- G64 should not smooth over this point )
G00 Z1.00000 ( retract )

G00 X28.99080 Y27.22550 ( rapid move to begin. )
F300.00000
G01 Z-0.03000
G04 P0 ( dwell for no time -- G64 should not smooth over this point )
F600.00000
X28.99080 Y27.22550
X28.99080 Y25.16810
X26.45080 Y25.16810
X26.45080 Y27.70810
X28.99080 Y27.70810
X28.99080 Y27.25090
G04 P0 ( dwell for no time -- G64 should not smooth over this point )
G00 Z1.00000 ( retract )

G00 X31.53080 Y27.22550 ( rapid move to begin. )
F300.00000
G01 Z-0.03000
G04 P0 ( dwell for no time -- G64 should not smooth over this point )
F600.00000
X31.53080 Y27.22550
X31.53080 Y25.16810
X28.99080 Y25.16810
X28.99080 Y27.70810
X31.53080 Y27.70810
X31.53080 Y27.25090
G04 P0 ( dwell for no time -- G64 should not smooth over this point )
G00 Z1.00000 ( retract )

G00 X34.07080 Y27.22550 ( rapid move to begin. )
F300.00000
G01 Z-0.03000
G04 P0 ( dwell for no time -- G64 should not smooth over this point )
F600.00000
X34.07080 Y27.22550
X34.07080 Y25.16810
X31.53080 Y25.16810
X31.53080 Y27.70810
X34.07080 Y27.70810
X34.07080 Y27.25090
G04 P0 ( dwell for no time -- G64 should not smooth over this point )
G00 Z1.00000 ( retract )

G00 X36.61080 Y27.22550 ( rapid move to begin. )
F300.00000
G01 Z-0.03000
G04 P0 ( dwell for no time -- G64 should not smooth over this point )
F600.00000
X36.61080 Y27.22550
X36.61080 Y25.16810
X34.07080 Y25.16810
X34.07080 Y27.70810
X36.61080 Y27.70810
X36.61080 Y27.25090
G04 P0 ( dwell for no time -- G64 should not smooth over this point )
G00 Z1.00000 ( retract )

G00 X39.15080 Y27.22550 ( rapid move to begin. )
F300.00000
G01 Z-0.03000
G04 P0 ( dwell for no time -- G64 should not smooth over this point )
F600.00000
X39.15080 Y27.22550
X39.15080 Y25.16810
X36.61080 Y25.16810
X36.61080 Y27.70810
X39.15080 Y27.70810
X39.15080 Y27.25090
G04 P0 ( dwell for no time -- G64 should not smooth over this point )
G00 Z1.00000 ( retract )

G00 X41.69080 Y27.22550 ( rapid move to begin. )
F300.00000
G01 Z-0.03000
G04 P0 ( dwell for no time -- G64 should not smooth over this point )
F600.00000
X41.69080 Y27.22550
X41.69080 Y25.16810
X39.15080 Y25.16810
X39.15080 Y27.70810
X41.69080 Y27.70810
X41.69080 Y27.25090
G04 P0 ( dwell for no time -- G64 should not smooth over this point )
G00 Z1.00000 ( retract )

G00 X44.23080 Y27.22550 ( rapid move to begin. )
F300.00000
G01 Z-0.03000
G04 P0 ( dwell for no time -- G64 should not smooth over this point )
F600.00000
X44.23080 Y27.22550
X44.23080 Y25.16810
X41.69080 Y25.16810
X41.69080 Y27.70810
X44.23080 Y27.70810
X44.23080 Y27.25090
G04 P0 ( dwell for no time -- G64 should not smooth over this point )
G00 Z1.00000 ( retract )

G00 X46.77080 Y27.22550 ( rapid move to begin. )
F300.00000
G01 Z-0.03000
G04 P0 ( dwell for no time -- G64 should not smooth over this point )
F600.00000
X46.77080 Y27.22550
X46.77080 Y25.16810
X44.23080 Y25.16810
X44.23080 Y27.70810
X46.77080 Y27.70810
X46.77080 Y27.25090
G04 P0 ( dwell for no time -- G64 should not smooth over this point )
G00 Z1.00000 ( retract )

G00 X49.31080 Y27.22550 ( rapid move to begin. )
F300.00000
G01 Z-0.03000
G04 P0 ( dwell for no time -- G64 should not smooth over this point )
F600.00000
X49.31080 Y27.22550
X49.31080 Y25.16810
X46.77080 Y25.16810
X46.77080 Y27.70810
X49.31080 Y27.70810
X49.31080 Y27.25090
G04 P0 ( dwell for no time -- G64 should not smooth over this point )
G00 Z1.00000 ( retract )

G00 X51.85080 Y27.22550 ( rapid move to begin. )
F300.00000
G01 Z-0.03000
G04 P0 ( dwell for no time -- G64 should not smooth over this point )
F600.00000
X51.85080 Y27.22550
X51.85080 Y25.16810
X49.31080 Y25.16810
X49.31080 Y27.70810
X51.85080 Y27.70810
X51.85080 Y27.25090
G04 P0 ( dwell for no time -- G64 should not smooth over this point )
G00 Z1.00000 ( retract )

G00 X54.39080 Y27.22550 ( rapid move to begin. )
F300.00000
G01 Z-0.03000
G04 P0 ( dwell for no time -- G64 should not smooth over this point )
F600.00000
X54.39080 Y27.22550
X54.39080 Y25.16810
X51.85080 Y25.16810
X51.85080 Y27.70810
X54.39080 Y27.70810
X54.39080 Y27.25090
G04 P0 ( dwell for no time -- G64 should not smooth over this point )
G00 Z1.00000 ( retract )

G00 X56.93080 Y27.22550 ( rapid move to begin. )
F300.00000
G01 Z-0.03000
G04 P0 ( dwell for no time -- G64 should not smooth over this point )
F600.00000
X56.93080 Y27.22550
X56.93080 Y25.16810
X54.39080 Y25.16810
X54.39080 Y27.70810
X56.93080 Y27.70810
X56.93080 Y27.25090
G04 P0 ( dwell for no time -- G64 should not smooth over this point )
G00 Z1.00000 ( retract )

G00 X59.47080 Y27.22550 ( rapid move to begin. )
F300.00000
G01 Z-0.03000
G04 P0 ( dwell for no time -- G64 should not smooth over this point )
F600.00000
X59.47080 Y27.22550
X59.47080 Y25.16810
X56.93080 Y25.16810
X56.93080 Y27.70810
X59.47080 Y27.70810
X59.47080 Y27.25090
G04 P0 ( dwell for no time -- G64 should not smooth over this point )
G00 Z1.00000 ( retract )

G00 X62.51880 Y27.22550 ( rapid move to begin. )
F300.00000
G01 Z-0.03000
G04 P0 ( dwell for no time -- G64 should not smooth over this point )
F600.00000
X62.51880 Y27.22550
X62.46800 Y26.28570
X62.51880 Y26.13330
X62.51880 Y25.32050
X62.46800 Y25.16810
X59.47080 Y25.16810
X59.47080 Y27.70810
X62.49340 Y27.68270
X62.51880 Y27.25090
G04 P0 ( dwell for no time -- G64 should not smooth over this point )
G00 Z1.00000 ( retract )

G00 X8.67080 Y24.68550 ( rapid move to begin. )
F300.00000
G01 Z-0.03000
G04 P0 ( dwell for no time -- G64 should not smooth over this point )
F600.00000
X8.67080 Y24.68550
X8.67080 Y22.62810
X5.62280 Y22.62810
X5.59740 Y23.61870
X5.64820 Y23.77110
X5.59740 Y24.53310
X5.62280 Y25.16810
X8.67080 Y25.16810
X8.67080 Y24.76170
G04 P0 ( dwell for no time -- G64 should not smooth over this point )
G00 Z1.00000 ( retract )

G00 X11.21080 Y24.68550 ( rapid move to begin. )
F300.00000
G01 Z-0.03000
G04 P0 ( dwell for no time -- G64 should not smooth over this point )
F600.00000
X11.21080 Y24.68550
X11.21080 Y22.62810
X8.67080 Y22.62810
X8.67080 Y25.16810
X11.21080 Y25.16810
X11.21080 Y24.76170
G04 P0 ( dwell for no time -- G64 should not smooth over this point )
G00 Z1.00000 ( retract )

G00 X13.75080 Y24.68550 ( rapid move to begin. )
F300.00000
G01 Z-0.03000
G04 P0 ( dwell for no time -- G64 should not smooth over this point )
F600.00000
X13.75080 Y24.68550
X13.75080 Y22.62810
X11.21080 Y22.62810
X11.21080 Y25.16810
X13.75080 Y25.16810
X13.75080 Y24.76170
G04 P0 ( dwell for no time -- G64 should not smooth over this point )
G00 Z1.00000 ( retract )

G00 X16.29080 Y24.68550 ( rapid move to begin. )
F300.00000
G01 Z-0.03000
G04 P0 ( dwell for no time -- G64 should not smooth over this point )
F600.00000
X16.29080 Y24.68550
X16.29080 Y22.62810
X13.75080 Y22.62810
X13.75080 Y25.16810
X16.29080 Y25.16810
X16.29080 Y24.71090
G04 P0 ( dwell for no time -- G64 should not smooth over this point )
G00 Z1.00000 ( retract )

G00 X18.83080 Y24.68550 ( rapid move to begin. )
F300.00000
G01 Z-0.03000
G04 P0 ( dwell for no time -- G64 should not smooth over this point )
F600.00000
X18.83080 Y24.68550
X18.83080 Y22.62810
X16.29080 Y22.62810
X16.29080 Y25.16810
X18.83080 Y25.16810
X18.83080 Y24.71090
G04 P0 ( dwell for no time -- G64 should not smooth over this point )
G00 Z1.00000 ( retract )

G00 X21.37080 Y24.68550 ( rapid move to begin. )
F300.00000
G01 Z-0.03000
G04 P0 ( dwell for no time -- G64 should not smooth over this point )
F600.00000
X21.37080 Y24.68550
X21.37080 Y22.62810
X18.83080 Y22.62810
X18.83080 Y25.16810
X21.37080 Y25.16810
X21.37080 Y24.71090
G04 P0 ( dwell for no time -- G64 should not smooth over this point )
G00 Z1.00000 ( retract )

G00 X23.91080 Y24.68550 ( rapid move to begin. )
F300.00000
G01 Z-0.03000
G04 P0 ( dwell for no time -- G64 should not smooth over this point )
F600.00000
X23.91080 Y24.68550
X23.91080 Y22.62810
X21.37080 Y22.62810
X21.37080 Y25.16810
X23.91080 Y25.16810
X23.91080 Y24.71090
G04 P0 ( dwell for no time -- G64 should not smooth over this point )
G00 Z1.00000 ( retract )

G00 X26.45080 Y24.68550 ( rapid move to begin. )
F300.00000
G01 Z-0.03000
G04 P0 ( dwell for no time -- G64 should not smooth over this point )
F600.00000
X26.45080 Y24.68550
X26.45080 Y22.62810
X23.91080 Y22.62810
X23.91080 Y25.16810
X26.45080 Y25.16810
X26.45080 Y24.71090
G04 P0 ( dwell for no time -- G64 should not smooth over this point )
G00 Z1.00000 ( retract )

G00 X28.99080 Y24.68550 ( rapid move to begin. )
F300.00000
G01 Z-0.03000
G04 P0 ( dwell for no time -- G64 should not smooth over this point )
F600.00000
X28.99080 Y24.68550
X28.99080 Y22.62810
X26.45080 Y22.62810
X26.45080 Y25.16810
X28.99080 Y25.16810
X28.99080 Y24.71090
G04 P0 ( dwell for no time -- G64 should not smooth over this point )
G00 Z1.00000 ( retract )

G00 X31.53080 Y24.68550 ( rapid move to begin. )
F300.00000
G01 Z-0.03000
G04 P0 ( dwell for no time -- G64 should not smooth over this point )
F600.00000
X31.53080 Y24.68550
X31.53080 Y22.62810
X28.99080 Y22.62810
X28.99080 Y25.16810
X31.53080 Y25.16810
X31.53080 Y24.71090
G04 P0 ( dwell for no time -- G64 should not smooth over this point )
G00 Z1.00000 ( retract )

G00 X34.07080 Y24.68550 ( rapid move to begin. )
F300.00000
G01 Z-0.03000
G04 P0 ( dwell for no time -- G64 should not smooth over this point )
F600.00000
X34.07080 Y24.68550
X34.07080 Y22.62810
X31.53080 Y22.62810
X31.53080 Y25.16810
X34.07080 Y25.16810
X34.07080 Y24.71090
G04 P0 ( dwell for no time -- G64 should not smooth over this point )
G00 Z1.00000 ( retract )

G00 X36.61080 Y24.68550 ( rapid move to begin. )
F300.00000
G01 Z-0.03000
G04 P0 ( dwell for no time -- G64 should not smooth over this point )
F600.00000
X36.61080 Y24.68550
X36.61080 Y22.62810
X34.07080 Y22.62810
X34.07080 Y25.16810
X36.61080 Y25.16810
X36.61080 Y24.71090
G04 P0 ( dwell for no time -- G64 should not smooth over this point )
G00 Z1.00000 ( retract )

G00 X39.15080 Y24.68550 ( rapid move to begin. )
F300.00000
G01 Z-0.03000
G04 P0 ( dwell for no time -- G64 should not smooth over this point )
F600.00000
X39.15080 Y24.68550
X39.15080 Y22.62810
X36.61080 Y22.62810
X36.61080 Y25.16810
X39.15080 Y25.16810
X39.15080 Y24.71090
G04 P0 ( dwell for no time -- G64 should not smooth over this point )
G00 Z1.00000 ( retract )

G00 X41.69080 Y24.68550 ( rapid move to begin. )
F300.00000
G01 Z-0.03000
G04 P0 ( dwell for no time -- G64 should not smooth over this point )
F600.00000
X41.69080 Y24.68550
X41.69080 Y22.62810
X39.15080 Y22.62810
X39.15080 Y25.16810
X41.69080 Y25.16810
X41.69080 Y24.71090
G04 P0 ( dwell for no time -- G64 should not smooth over this point )
G00 Z1.00000 ( retract )

G00 X44.23080 Y24.68550 ( rapid move to begin. )
F300.00000
G01 Z-0.03000
G04 P0 ( dwell for no time -- G64 should not smooth over this point )
F600.00000
X44.23080 Y24.68550
X44.23080 Y22.62810
X41.69080 Y22.62810
X41.69080 Y25.16810
X44.23080 Y25.16810
X44.23080 Y24.71090
G04 P0 ( dwell for no time -- G64 should not smooth over this point )
G00 Z1.00000 ( retract )

G00 X46.77080 Y24.68550 ( rapid move to begin. )
F300.00000
G01 Z-0.03000
G04 P0 ( dwell for no time -- G64 should not smooth over this point )
F600.00000
X46.77080 Y24.68550
X46.77080 Y22.62810
X44.23080 Y22.62810
X44.23080 Y25.16810
X46.77080 Y25.16810
X46.77080 Y24.71090
G04 P0 ( dwell for no time -- G64 should not smooth over this point )
G00 Z1.00000 ( retract )

G00 X49.31080 Y24.68550 ( rapid move to begin. )
F300.00000
G01 Z-0.03000
G04 P0 ( dwell for no time -- G64 should not smooth over this point )
F600.00000
X49.31080 Y24.68550
X49.31080 Y22.62810
X46.77080 Y22.62810
X46.77080 Y25.16810
X49.31080 Y25.16810
X49.31080 Y24.71090
G04 P0 ( dwell for no time -- G64 should not smooth over this point )
G00 Z1.00000 ( retract )

G00 X51.85080 Y24.68550 ( rapid move to begin. )
F300.00000
G01 Z-0.03000
G04 P0 ( dwell for no time -- G64 should not smooth over this point )
F600.00000
X51.85080 Y24.68550
X51.85080 Y22.62810
