( pcb2gcode 1.2.1 )
( Software-independent Gcode )
      

G94 ( Millimeters per minute feed rate. )
G21 ( Units == Millimeters. )

G90 ( Absolute coordinates. )
S10000 ( RPM spindle speed. )
G64 P0.05080 ( set maximum deviation from commanded toolpath )
F600.00000 ( Feedrate. )

F600.00000 ( Feedrate. )
M3 ( Spindle on clockwise. )
G04 P0 ( dwell for no time -- G64 should not smooth over this point )
G00 Z0.50000 ( retract )

G00 X69.40220 Y55.80050 ( rapid move to begin. )
G01 Z-1.65000 F300.00000 ( plunge. )
G04 P0 ( dwell for no time -- G64 should not smooth over this point )
F600.00000
X69.40220 Y55.80050
X69.60540 Y55.62270
X69.78320 Y55.39410
X69.78320 Y44.01490
X72.22160 Y41.57650
X72.29780 Y41.44950
X72.29780 Y6.34670
X69.78320 Y3.78130
X69.78320 Y1.34290
X69.73240 Y1.19050
X69.58000 Y1.13970
X36.89560 Y1.13970
Z-0.60000
X34.39560 Y1.13970
Z-1.65000 F300.00000
F600.00000X1.71120 Y1.13970
X1.45720 Y1.19050
X1.40640 Y1.34290
X1.40640 Y56.61330
X1.45720 Y56.76570
X1.60960 Y56.81650
X33.77330 Y56.80428
Z-0.60000
X36.27330 Y56.80333
Z-1.65000 F300.00000
F600.00000X68.43700 Y56.79110
X69.40220 Y55.82590

G04 P0 ( dwell for no time -- G64 should not smooth over this point )
G00 Z40.00000 ( retract )


M5 ( Spindle off. )
M9 ( Coolant off. )
M2 ( Program end. )

