( pcb2gcode 1.2.1 )
( Software-independent Gcode )
      

G94 ( Millimeters per minute feed rate. )
G21 ( Units == Millimeters. )

G90 ( Absolute coordinates. )
S10000 ( RPM spindle speed. )
G64 P0.05080 ( set maximum deviation from commanded toolpath )
F600.00000 ( Feedrate. )

F600.00000 ( Feedrate. )
M3 ( Spindle on clockwise. )
G04 P0 ( dwell for no time -- G64 should not smooth over this point )
G00 Z1.00000 ( retract )

G00 X68.94500 Y55.34330 ( rapid move to begin. )
G01 Z-1.65000 F300.00000 ( plunge. )
G04 P0 ( dwell for no time -- G64 should not smooth over this point )
F600.00000
X68.94500 Y55.34330
X69.14820 Y55.16550
X69.32600 Y54.93690
X69.32600 Y43.55770
X71.76440 Y41.11930
X71.84060 Y40.99230
X71.86600 Y6.88010
X71.81520 Y6.72770
X69.32600 Y4.23850
X69.32600 Y1.80010
X69.27520 Y1.64770
X69.12280 Y1.59690
X36.84480 Y1.59690
Z-0.60000
X34.34480 Y1.59690
Z-1.65000 F300.00000
F600.00000X2.06680 Y1.59690
X1.91440 Y1.64770
X1.86360 Y1.80010
X1.86360 Y55.44490
X1.91440 Y56.30850
X2.06680 Y56.35930
X33.73520 Y56.35930
Z-0.60000
X36.23520 Y56.35930
Z-1.65000 F300.00000
F600.00000X67.90360 Y56.35930
X68.94500 Y55.36870

G04 P0 ( dwell for no time -- G64 should not smooth over this point )
G00 Z30.00000 ( retract )


M5 ( Spindle off. )
M9 ( Coolant off. )
M2 ( Program end. )

