( pcb2gcode 1.2.1 )
( Software-independent Gcode )
      

G94 ( Millimeters per minute feed rate. )
G21 ( Units == Millimeters. )

G90 ( Absolute coordinates. )
S10000 ( RPM spindle speed. )
G64 P0.05080 ( set maximum deviation from commanded toolpath )
F600.00000 ( Feedrate. )

F600.00000 ( Feedrate. )
M3 ( Spindle on clockwise. )
G04 P0 ( dwell for no time -- G64 should not smooth over this point )
G00 Z1.00000 ( retract )

G00 X68.43700 Y54.83530 ( rapid move to begin. )
G01 Z-1.60000 F300.00000 ( plunge. )
G04 P0 ( dwell for no time -- G64 should not smooth over this point )
F600.00000
X68.43700 Y54.83530
X68.64020 Y54.65750
X68.81800 Y54.42890
X68.81800 Y43.04970
X71.25640 Y40.61130
X71.33260 Y40.48430
X71.35800 Y7.38810
X71.30720 Y7.23570
X68.81800 Y4.74650
X68.81800 Y2.30810
X68.76720 Y2.15570
X68.61480 Y2.10490
X36.84480 Y2.10490
Z-0.60000
X34.34480 Y2.10490
Z-1.60000 F300.00000
F600.00000X2.57480 Y2.10490
X2.42240 Y2.15570
X2.37160 Y2.30810
X2.37160 Y55.54650
X2.42240 Y55.80050
X2.57480 Y55.85130
X33.73520 Y55.85130
Z-0.60000
X36.23520 Y55.85130
Z-1.60000 F300.00000
F600.00000X67.39560 Y55.85130
X68.43700 Y54.86070

G04 P0 ( dwell for no time -- G64 should not smooth over this point )
G00 Z30.00000 ( retract )


M5 ( Spindle off. )
M9 ( Coolant off. )
M2 ( Program end. )

