( pcb2gcode 1.2.1 )
( Software-independent Gcode )
      

G94 ( Inches per minute feed rate. )
G20 ( Units == INCHES. )

G90 ( Absolute coordinates. )
S20000 ( RPM spindle speed. )
G64 P0.00200 ( set maximum deviation from commanded toolpath )
F7.87402 ( Feedrate. )

F7.87402 ( Feedrate. )
M3 ( Spindle on clockwise. )
G04 P0 ( dwell for no time -- G64 should not smooth over this point )
G00 Z0.07874 ( retract )

G00 X2.69200 Y2.15650 ( rapid move to begin. )
G01 Z-0.02362 F3.93701 ( plunge. )
G04 P0 ( dwell for no time -- G64 should not smooth over this point )
F7.87402
X2.69200 Y2.15650
X2.69300 Y2.15650
X2.69300 Y2.15550
X2.69400 Y2.15550
X2.69400 Y2.15450
X2.69500 Y2.15450
X2.69500 Y2.15350
X2.69600 Y2.15350
X2.69600 Y2.15250
X2.69700 Y2.15250
X2.69700 Y2.15150
X2.69800 Y2.15150
X2.69800 Y2.15050
X2.69900 Y2.15050
X2.69900 Y2.14950
X2.70000 Y2.14950
X2.70000 Y2.14850
X2.70100 Y2.14850
X2.70100 Y2.14750
X2.70200 Y2.14750
X2.70200 Y2.14650
X2.70300 Y2.14650
X2.70300 Y2.14550
X2.70400 Y2.14550
X2.70400 Y2.14450
X2.70500 Y2.14450
X2.70500 Y2.14350
X2.70600 Y2.14350
X2.70600 Y2.14150
X2.70700 Y2.14150
X2.70700 Y1.69150
X2.70800 Y1.69150
X2.70800 Y1.69050
X2.70900 Y1.69050
X2.70900 Y1.68950
X2.71000 Y1.68950
X2.71000 Y1.68850
X2.71100 Y1.68850
X2.71100 Y1.68750
X2.71200 Y1.68750
X2.71200 Y1.68650
X2.71300 Y1.68650
X2.71300 Y1.68550
X2.71400 Y1.68550
X2.71400 Y1.68450
X2.71500 Y1.68450
X2.71500 Y1.68350
X2.71600 Y1.68350
X2.71600 Y1.68250
X2.71700 Y1.68250
X2.71700 Y1.68150
X2.71800 Y1.68150
X2.71800 Y1.68050
X2.71900 Y1.68050
X2.71900 Y1.67950
X2.72000 Y1.67950
X2.72000 Y1.67850
X2.72100 Y1.67850
X2.72100 Y1.67750
X2.72200 Y1.67750
X2.72200 Y1.67650
X2.72300 Y1.67650
X2.72300 Y1.67550
X2.72400 Y1.67550
X2.72400 Y1.67450
X2.72500 Y1.67450
X2.72500 Y1.67350
X2.72600 Y1.67350
X2.72600 Y1.67250
X2.72700 Y1.67250
X2.72700 Y1.67150
X2.72800 Y1.67150
X2.72800 Y1.67050
X2.72900 Y1.67050
X2.72900 Y1.66950
X2.73000 Y1.66950
X2.73000 Y1.66850
X2.73100 Y1.66850
X2.73100 Y1.66750
X2.73200 Y1.66750
X2.73200 Y1.66650
X2.73300 Y1.66650
X2.73300 Y1.66550
X2.73400 Y1.66550
X2.73400 Y1.66450
X2.73500 Y1.66450
X2.73500 Y1.66350
X2.73600 Y1.66350
X2.73600 Y1.66250
X2.73700 Y1.66250
X2.73700 Y1.66150
X2.73800 Y1.66150
X2.73800 Y1.66050
X2.73900 Y1.66050
X2.73900 Y1.65950
X2.74000 Y1.65950
X2.74000 Y1.65850
X2.74100 Y1.65850
X2.74100 Y1.65750
X2.74200 Y1.65750
X2.74200 Y1.65650
X2.74300 Y1.65650
X2.74300 Y1.65550
X2.74400 Y1.65550
X2.74400 Y1.65450
X2.74500 Y1.65450
X2.74500 Y1.65350
X2.74600 Y1.65350
X2.74600 Y1.65250
X2.74700 Y1.65250
X2.74700 Y1.65150
X2.74800 Y1.65150
X2.74800 Y1.65050
X2.74900 Y1.65050
X2.74900 Y1.64950
X2.75000 Y1.64950
X2.75000 Y1.64850
X2.75100 Y1.64850
X2.75100 Y1.64750
X2.75200 Y1.64750
X2.75200 Y1.64650
X2.75300 Y1.64650
X2.75300 Y1.64550
X2.75400 Y1.64550
X2.75400 Y1.64450
X2.75500 Y1.64450
X2.75500 Y1.64350
X2.75600 Y1.64350
X2.75600 Y1.64250
X2.75700 Y1.64250
X2.75700 Y1.64150
X2.75800 Y1.64150
X2.75800 Y1.64050
X2.75900 Y1.64050
X2.75900 Y1.63950
X2.76000 Y1.63950
X2.76000 Y1.63850
X2.76100 Y1.63850
X2.76100 Y1.63750
X2.76200 Y1.63750
X2.76200 Y1.63650
X2.76300 Y1.63650
X2.76300 Y1.63550
X2.76400 Y1.63550
X2.76400 Y1.63450
X2.76500 Y1.63450
X2.76500 Y1.63350
X2.76600 Y1.63350
X2.76600 Y1.63250
X2.76700 Y1.63250
X2.76700 Y1.63150
X2.76800 Y1.63150
X2.76800 Y1.63050
X2.76900 Y1.63050
X2.76900 Y1.62950
X2.77000 Y1.62950
X2.77000 Y1.62850
X2.77100 Y1.62850
X2.77100 Y1.62750
X2.77200 Y1.62750
X2.77200 Y1.62650
X2.77300 Y1.62650
X2.77300 Y1.62550
X2.77400 Y1.62550
X2.77400 Y1.62450
X2.77500 Y1.62450
X2.77500 Y1.62350
X2.77600 Y1.62350
X2.77600 Y1.62250
X2.77700 Y1.62250
X2.77700 Y1.62150
X2.77800 Y1.62150
X2.77800 Y1.62050
X2.77900 Y1.62050
X2.77900 Y1.61950
X2.78000 Y1.61950
X2.78000 Y1.61850
X2.78100 Y1.61850
X2.78100 Y1.61750
X2.78200 Y1.61750
X2.78200 Y1.61650
X2.78300 Y1.61650
X2.78300 Y1.61550
X2.78400 Y1.61550
X2.78400 Y1.61450
X2.78500 Y1.61450
X2.78500 Y1.61350
X2.78600 Y1.61350
X2.78600 Y1.61250
X2.78700 Y1.61250
X2.78700 Y1.61150
X2.78800 Y1.61150
X2.78800 Y1.61050
X2.78900 Y1.61050
X2.78900 Y1.60950
X2.79000 Y1.60950
X2.79000 Y1.60850
X2.79100 Y1.60850
X2.79100 Y1.60750
X2.79200 Y1.60750
X2.79200 Y1.60650
X2.79300 Y1.60650
X2.79300 Y1.60550
X2.79400 Y1.60550
X2.79400 Y1.60450
X2.79500 Y1.60450
X2.79500 Y1.60350
X2.79600 Y1.60350
X2.79600 Y1.60250
X2.79700 Y1.60250
X2.79700 Y1.60150
X2.79800 Y1.60150
X2.79800 Y1.60050
X2.79900 Y1.60050
X2.79900 Y1.59950
X2.80000 Y1.59950
X2.80000 Y1.59850
X2.80100 Y1.59850
X2.80100 Y1.59750
X2.80200 Y1.59750
X2.80200 Y1.59650
X2.80300 Y1.59650
X2.80300 Y1.59550
X2.80400 Y1.59550
X2.80400 Y1.59450
X2.80500 Y1.59450
X2.80500 Y1.59350
X2.80600 Y1.59350
X2.80600 Y1.59150
X2.80700 Y1.59150
X2.80700 Y0.20750
X2.80600 Y0.20750
X2.80600 Y0.20550
X2.80500 Y0.20550
X2.80500 Y0.20450
X2.80400 Y0.20450
X2.80400 Y0.20350
X2.80300 Y0.20350
X2.80300 Y0.20250
X2.80200 Y0.20250
X2.80200 Y0.20150
X2.80100 Y0.20150
X2.80100 Y0.20050
X2.80000 Y0.20050
X2.80000 Y0.19950
X2.79900 Y0.19950
X2.79900 Y0.19850
X2.79800 Y0.19850
X2.79800 Y0.19750
X2.79700 Y0.19750
X2.79700 Y0.19650
X2.79600 Y0.19650
X2.79600 Y0.19550
X2.79500 Y0.19550
X2.79500 Y0.19450
X2.79400 Y0.19450
X2.79400 Y0.19350
X2.79300 Y0.19350
X2.79300 Y0.19250
X2.79200 Y0.19250
X2.79200 Y0.19150
X2.79100 Y0.19150
X2.79100 Y0.19050
X2.79000 Y0.19050
X2.79000 Y0.18950
X2.78900 Y0.18950
X2.78900 Y0.18850
X2.78800 Y0.18850
X2.78800 Y0.18750
X2.78700 Y0.18750
X2.78700 Y0.18650
X2.78600 Y0.18650
X2.78600 Y0.18550
X2.78500 Y0.18550
X2.78500 Y0.18450
X2.78400 Y0.18450
X2.78400 Y0.18350
X2.78300 Y0.18350
X2.78300 Y0.18250
X2.78200 Y0.18250
X2.78200 Y0.18150
X2.78100 Y0.18150
X2.78100 Y0.18050
X2.78000 Y0.18050
X2.78000 Y0.17950
X2.77900 Y0.17950
X2.77900 Y0.17850
X2.77800 Y0.17850
X2.77800 Y0.17750
X2.77700 Y0.17750
X2.77700 Y0.17650
X2.77600 Y0.17650
X2.77600 Y0.17550
X2.77500 Y0.17550
X2.77500 Y0.17450
X2.77400 Y0.17450
X2.77400 Y0.17350
X2.77300 Y0.17350
X2.77300 Y0.17250
X2.77200 Y0.17250
X2.77200 Y0.17150
X2.77100 Y0.17150
X2.77100 Y0.17050
X2.77000 Y0.17050
X2.77000 Y0.16950
X2.76900 Y0.16950
X2.76900 Y0.16850
X2.76800 Y0.16850
X2.76800 Y0.16750
X2.76700 Y0.16750
X2.76700 Y0.16650
X2.76600 Y0.16650
X2.76600 Y0.16550
X2.76500 Y0.16550
X2.76500 Y0.16450
X2.76400 Y0.16450
X2.76400 Y0.16350
X2.76300 Y0.16350
X2.76300 Y0.16250
X2.76200 Y0.16250
X2.76200 Y0.16150
X2.76100 Y0.16150
X2.76100 Y0.16050
X2.76000 Y0.16050
X2.76000 Y0.15950
X2.75900 Y0.15950
X2.75900 Y0.15850
X2.75800 Y0.15850
X2.75800 Y0.15750
X2.75700 Y0.15750
X2.75700 Y0.15650
X2.75600 Y0.15650
X2.75600 Y0.15550
X2.75500 Y0.15550
X2.75500 Y0.15450
X2.75400 Y0.15450
X2.75400 Y0.15350
X2.75300 Y0.15350
X2.75300 Y0.15250
X2.75200 Y0.15250
X2.75200 Y0.15150
X2.75100 Y0.15150
X2.75100 Y0.15050
X2.75000 Y0.15050
X2.75000 Y0.14950
X2.74900 Y0.14950
X2.74900 Y0.14850
X2.74800 Y0.14850
X2.74800 Y0.14750
X2.74700 Y0.14750
X2.74700 Y0.14650
X2.74600 Y0.14650
X2.74600 Y0.14550
X2.74500 Y0.14550
X2.74500 Y0.14450
X2.74400 Y0.14450
X2.74400 Y0.14350
X2.74300 Y0.14350
X2.74300 Y0.14250
X2.74200 Y0.14250
X2.74200 Y0.14150
X2.74100 Y0.14150
X2.74100 Y0.14050
X2.74000 Y0.14050
X2.74000 Y0.13950
X2.73900 Y0.13950
X2.73900 Y0.13850
X2.73800 Y0.13850
X2.73800 Y0.13750
X2.73700 Y0.13750
X2.73700 Y0.13650
X2.73600 Y0.13650
X2.73600 Y0.13550
X2.73500 Y0.13550
X2.73500 Y0.13450
X2.73400 Y0.13450
X2.73400 Y0.13350
X2.73300 Y0.13350
X2.73300 Y0.13250
X2.73200 Y0.13250
X2.73200 Y0.13150
X2.73100 Y0.13150
X2.73100 Y0.13050
X2.73000 Y0.13050
X2.73000 Y0.12950
X2.72900 Y0.12950
X2.72900 Y0.12850
X2.72800 Y0.12850
X2.72800 Y0.12750
X2.72700 Y0.12750
X2.72700 Y0.12650
X2.72600 Y0.12650
X2.72600 Y0.12550
X2.72500 Y0.12550
X2.72500 Y0.12450
X2.72400 Y0.12450
X2.72400 Y0.12350
X2.72300 Y0.12350
X2.72300 Y0.12250
X2.72200 Y0.12250
X2.72200 Y0.12150
X2.72100 Y0.12150
X2.72100 Y0.12050
X2.72000 Y0.12050
X2.72000 Y0.11950
X2.71900 Y0.11950
X2.71900 Y0.11850
X2.71800 Y0.11850
X2.71800 Y0.11750
X2.71700 Y0.11750
X2.71700 Y0.11650
X2.71600 Y0.11650
X2.71600 Y0.11550
X2.71500 Y0.11550
X2.71500 Y0.11450
X2.71400 Y0.11450
X2.71400 Y0.11350
X2.71300 Y0.11350
X2.71300 Y0.11250
X2.71200 Y0.11250
X2.71200 Y0.11150
X2.71100 Y0.11150
X2.71100 Y0.11050
X2.71000 Y0.11050
X2.71000 Y0.10950
X2.70900 Y0.10950
X2.70900 Y0.10850
X2.70800 Y0.10850
X2.70800 Y0.10750
X2.70700 Y0.10750
X2.70700 Y0.00750
X2.70600 Y0.00750
X2.70600 Y0.00550
X2.70500 Y0.00550
X2.70500 Y0.00450
X2.70400 Y0.00450
X2.70400 Y0.00350
X2.70200 Y0.00350
X2.70200 Y0.00250
X0.01800 Y0.00250
X0.01800 Y0.00350
X0.01600 Y0.00350
X0.01600 Y0.00450
X0.01500 Y0.00450
X0.01500 Y0.00550
X0.01400 Y0.00550
X0.01400 Y0.00750
X0.01300 Y0.00750
X0.01300 Y2.19150
X0.01400 Y2.19150
X0.01400 Y2.19350
X0.01500 Y2.19350
X0.01500 Y2.19450
X0.01600 Y2.19450
X0.01600 Y2.19550
X0.01800 Y2.19550
X0.01800 Y2.19650
X2.65200 Y2.19650
X2.65200 Y2.19550
X2.65400 Y2.19550
X2.65400 Y2.19450
X2.65500 Y2.19450
X2.65500 Y2.19350
X2.65600 Y2.19350
X2.65600 Y2.19250
X2.65700 Y2.19250
X2.65700 Y2.19150
X2.65800 Y2.19150
X2.65800 Y2.19050
X2.65900 Y2.19050
X2.65900 Y2.18950
X2.66000 Y2.18950
X2.66000 Y2.18850
X2.66100 Y2.18850
X2.66100 Y2.18750
X2.66200 Y2.18750
X2.66200 Y2.18650
X2.66300 Y2.18650
X2.66300 Y2.18550
X2.66400 Y2.18550
X2.66400 Y2.18450
X2.66500 Y2.18450
X2.66500 Y2.18350
X2.66600 Y2.18350
X2.66600 Y2.18250
X2.66700 Y2.18250
X2.66700 Y2.18150
X2.66800 Y2.18150
X2.66800 Y2.18050
X2.66900 Y2.18050
X2.66900 Y2.17950
X2.67000 Y2.17950
X2.67000 Y2.17850
X2.67100 Y2.17850
X2.67100 Y2.17750
X2.67200 Y2.17750
X2.67200 Y2.17650
X2.67300 Y2.17650
X2.67300 Y2.17550
X2.67400 Y2.17550
X2.67400 Y2.17450
X2.67500 Y2.17450
X2.67500 Y2.17350
X2.67600 Y2.17350
X2.67600 Y2.17250
X2.67700 Y2.17250
X2.67700 Y2.17150
X2.67800 Y2.17150
X2.67800 Y2.17050
X2.67900 Y2.17050
X2.67900 Y2.16950
X2.68000 Y2.16950
X2.68000 Y2.16850
X2.68100 Y2.16850
X2.68100 Y2.16750
X2.68200 Y2.16750
X2.68200 Y2.16650
X2.68300 Y2.16650
X2.68300 Y2.16550
X2.68400 Y2.16550
X2.68400 Y2.16450
X2.68500 Y2.16450
X2.68500 Y2.16350
X2.68600 Y2.16350
X2.68600 Y2.16250
X2.68700 Y2.16250
X2.68700 Y2.16150
X2.68800 Y2.16150
X2.68800 Y2.16050
X2.68900 Y2.16050
X2.68900 Y2.15950
X2.69000 Y2.15950
X2.69000 Y2.15850
X2.69100 Y2.15850
X2.69100 Y2.15750
X2.69200 Y2.15750
X2.69200 Y2.15650
G01 Z-0.06299 F3.93701 ( plunge. )
G04 P0 ( dwell for no time -- G64 should not smooth over this point )
F7.87402
X2.69200 Y2.15650
X2.69300 Y2.15650
X2.69300 Y2.15550
X2.69400 Y2.15550
X2.69400 Y2.15450
X2.69500 Y2.15450
X2.69500 Y2.15350
X2.69600 Y2.15350
X2.69600 Y2.15250
X2.69700 Y2.15250
X2.69700 Y2.15150
X2.69800 Y2.15150
X2.69800 Y2.15050
X2.69900 Y2.15050
X2.69900 Y2.14950
X2.70000 Y2.14950
X2.70000 Y2.14850
X2.70100 Y2.14850
X2.70100 Y2.14750
X2.70200 Y2.14750
X2.70200 Y2.14650
X2.70300 Y2.14650
X2.70300 Y2.14550
X2.70400 Y2.14550
X2.70400 Y2.14450
X2.70500 Y2.14450
X2.70500 Y2.14350
X2.70600 Y2.14350
X2.70600 Y2.14150
X2.70700 Y2.14150
X2.70700 Y1.69150
X2.70800 Y1.69150
X2.70800 Y1.69050
X2.70900 Y1.69050
X2.70900 Y1.68950
X2.71000 Y1.68950
X2.71000 Y1.68850
X2.71100 Y1.68850
X2.71100 Y1.68750
X2.71200 Y1.68750
X2.71200 Y1.68650
X2.71300 Y1.68650
X2.71300 Y1.68550
X2.71400 Y1.68550
X2.71400 Y1.68450
X2.71500 Y1.68450
X2.71500 Y1.68350
X2.71600 Y1.68350
X2.71600 Y1.68250
X2.71700 Y1.68250
X2.71700 Y1.68150
X2.71800 Y1.68150
X2.71800 Y1.68050
X2.71900 Y1.68050
X2.71900 Y1.67950
X2.72000 Y1.67950
X2.72000 Y1.67850
X2.72100 Y1.67850
X2.72100 Y1.67750
X2.72200 Y1.67750
X2.72200 Y1.67650
X2.72300 Y1.67650
X2.72300 Y1.67550
X2.72400 Y1.67550
X2.72400 Y1.67450
X2.72500 Y1.67450
X2.72500 Y1.67350
X2.72600 Y1.67350
X2.72600 Y1.67250
X2.72700 Y1.67250
X2.72700 Y1.67150
X2.72800 Y1.67150
X2.72800 Y1.67050
X2.72900 Y1.67050
X2.72900 Y1.66950
X2.73000 Y1.66950
X2.73000 Y1.66850
X2.73100 Y1.66850
X2.73100 Y1.66750
X2.73200 Y1.66750
X2.73200 Y1.66650
X2.73300 Y1.66650
X2.73300 Y1.66550
X2.73400 Y1.66550
X2.73400 Y1.66450
X2.73500 Y1.66450
X2.73500 Y1.66350
X2.73600 Y1.66350
X2.73600 Y1.66250
X2.73700 Y1.66250
X2.73700 Y1.66150
X2.73800 Y1.66150
X2.73800 Y1.66050
X2.73900 Y1.66050
X2.73900 Y1.65950
X2.74000 Y1.65950
X2.74000 Y1.65850
X2.74100 Y1.65850
X2.74100 Y1.65750
X2.74200 Y1.65750
X2.74200 Y1.65650
X2.74300 Y1.65650
X2.74300 Y1.65550
X2.74400 Y1.65550
X2.74400 Y1.65450
X2.74500 Y1.65450
X2.74500 Y1.65350
X2.74600 Y1.65350
X2.74600 Y1.65250
X2.74700 Y1.65250
X2.74700 Y1.65150
X2.74800 Y1.65150
X2.74800 Y1.65050
X2.74900 Y1.65050
X2.74900 Y1.64950
X2.75000 Y1.64950
X2.75000 Y1.64850
X2.75100 Y1.64850
X2.75100 Y1.64750
X2.75200 Y1.64750
X2.75200 Y1.64650
X2.75300 Y1.64650
X2.75300 Y1.64550
X2.75400 Y1.64550
X2.75400 Y1.64450
X2.75500 Y1.64450
X2.75500 Y1.64350
X2.75600 Y1.64350
X2.75600 Y1.64250
X2.75700 Y1.64250
X2.75700 Y1.64150
X2.75800 Y1.64150
X2.75800 Y1.64050
X2.75900 Y1.64050
X2.75900 Y1.63950
X2.76000 Y1.63950
X2.76000 Y1.63850
X2.76100 Y1.63850
X2.76100 Y1.63750
X2.76200 Y1.63750
X2.76200 Y1.63650
X2.76300 Y1.63650
X2.76300 Y1.63550
X2.76400 Y1.63550
X2.76400 Y1.63450
X2.76500 Y1.63450
X2.76500 Y1.63350
X2.76600 Y1.63350
X2.76600 Y1.63250
X2.76700 Y1.63250
X2.76700 Y1.63150
X2.76800 Y1.63150
X2.76800 Y1.63050
X2.76900 Y1.63050
X2.76900 Y1.62950
X2.77000 Y1.62950
X2.77000 Y1.62850
X2.77100 Y1.62850
X2.77100 Y1.62750
X2.77200 Y1.62750
X2.77200 Y1.62650
X2.77300 Y1.62650
X2.77300 Y1.62550
X2.77400 Y1.62550
X2.77400 Y1.62450
X2.77500 Y1.62450
X2.77500 Y1.62350
X2.77600 Y1.62350
X2.77600 Y1.62250
X2.77700 Y1.62250
X2.77700 Y1.62150
X2.77800 Y1.62150
X2.77800 Y1.62050
X2.77900 Y1.62050
X2.77900 Y1.61950
X2.78000 Y1.61950
X2.78000 Y1.61850
X2.78100 Y1.61850
X2.78100 Y1.61750
X2.78200 Y1.61750
X2.78200 Y1.61650
X2.78300 Y1.61650
X2.78300 Y1.61550
X2.78400 Y1.61550
X2.78400 Y1.61450
X2.78500 Y1.61450
X2.78500 Y1.61350
X2.78600 Y1.61350
X2.78600 Y1.61250
X2.78700 Y1.61250
X2.78700 Y1.61150
X2.78800 Y1.61150
X2.78800 Y1.61050
X2.78900 Y1.61050
X2.78900 Y1.60950
X2.79000 Y1.60950
X2.79000 Y1.60850
X2.79100 Y1.60850
X2.79100 Y1.60750
X2.79200 Y1.60750
X2.79200 Y1.60650
X2.79300 Y1.60650
X2.79300 Y1.60550
X2.79400 Y1.60550
X2.79400 Y1.60450
X2.79500 Y1.60450
X2.79500 Y1.60350
X2.79600 Y1.60350
X2.79600 Y1.60250
X2.79700 Y1.60250
X2.79700 Y1.60150
X2.79800 Y1.60150
X2.79800 Y1.60050
X2.79900 Y1.60050
X2.79900 Y1.59950
X2.80000 Y1.59950
X2.80000 Y1.59850
X2.80100 Y1.59850
X2.80100 Y1.59750
X2.80200 Y1.59750
X2.80200 Y1.59650
X2.80300 Y1.59650
X2.80300 Y1.59550
X2.80400 Y1.59550
X2.80400 Y1.59450
X2.80500 Y1.59450
X2.80500 Y1.59350
X2.80600 Y1.59350
X2.80600 Y1.59150
X2.80700 Y1.59150
X2.80700 Y0.20750
X2.80600 Y0.20750
X2.80600 Y0.20550
X2.80500 Y0.20550
X2.80500 Y0.20450
X2.80400 Y0.20450
X2.80400 Y0.20350
X2.80300 Y0.20350
X2.80300 Y0.20250
X2.80200 Y0.20250
X2.80200 Y0.20150
X2.80100 Y0.20150
X2.80100 Y0.20050
X2.80000 Y0.20050
X2.80000 Y0.19950
X2.79900 Y0.19950
X2.79900 Y0.19850
X2.79800 Y0.19850
X2.79800 Y0.19750
X2.79700 Y0.19750
X2.79700 Y0.19650
X2.79600 Y0.19650
X2.79600 Y0.19550
X2.79500 Y0.19550
X2.79500 Y0.19450
X2.79400 Y0.19450
X2.79400 Y0.19350
X2.79300 Y0.19350
X2.79300 Y0.19250
X2.79200 Y0.19250
X2.79200 Y0.19150
X2.79100 Y0.19150
X2.79100 Y0.19050
X2.79000 Y0.19050
X2.79000 Y0.18950
X2.78900 Y0.18950
X2.78900 Y0.18850
X2.78800 Y0.18850
X2.78800 Y0.18750
X2.78700 Y0.18750
X2.78700 Y0.18650
X2.78600 Y0.18650
X2.78600 Y0.18550
X2.78500 Y0.18550
X2.78500 Y0.18450
X2.78400 Y0.18450
X2.78400 Y0.18350
X2.78300 Y0.18350
X2.78300 Y0.18250
X2.78200 Y0.18250
X2.78200 Y0.18150
X2.78100 Y0.18150
X2.78100 Y0.18050
X2.78000 Y0.18050
X2.78000 Y0.17950
X2.77900 Y0.17950
X2.77900 Y0.17850
X2.77800 Y0.17850
X2.77800 Y0.17750
X2.77700 Y0.17750
X2.77700 Y0.17650
X2.77600 Y0.17650
X2.77600 Y0.17550
X2.77500 Y0.17550
X2.77500 Y0.17450
X2.77400 Y0.17450
X2.77400 Y0.17350
X2.77300 Y0.17350
X2.77300 Y0.17250
X2.77200 Y0.17250
X2.77200 Y0.17150
X2.77100 Y0.17150
X2.77100 Y0.17050
X2.77000 Y0.17050
X2.77000 Y0.16950
X2.76900 Y0.16950
X2.76900 Y0.16850
X2.76800 Y0.16850
X2.76800 Y0.16750
X2.76700 Y0.16750
X2.76700 Y0.16650
X2.76600 Y0.16650
X2.76600 Y0.16550
X2.76500 Y0.16550
X2.76500 Y0.16450
X2.76400 Y0.16450
X2.76400 Y0.16350
X2.76300 Y0.16350
X2.76300 Y0.16250
X2.76200 Y0.16250
X2.76200 Y0.16150
X2.76100 Y0.16150
X2.76100 Y0.16050
X2.76000 Y0.16050
X2.76000 Y0.15950
X2.75900 Y0.15950
X2.75900 Y0.15850
X2.75800 Y0.15850
X2.75800 Y0.15750
X2.75700 Y0.15750
X2.75700 Y0.15650
X2.75600 Y0.15650
X2.75600 Y0.15550
X2.75500 Y0.15550
X2.75500 Y0.15450
X2.75400 Y0.15450
X2.75400 Y0.15350
X2.75300 Y0.15350
X2.75300 Y0.15250
X2.75200 Y0.15250
X2.75200 Y0.15150
X2.75100 Y0.15150
X2.75100 Y0.15050
X2.75000 Y0.15050
X2.75000 Y0.14950
X2.74900 Y0.14950
X2.74900 Y0.14850
X2.74800 Y0.14850
X2.74800 Y0.14750
X2.74700 Y0.14750
X2.74700 Y0.14650
X2.74600 Y0.14650
X2.74600 Y0.14550
X2.74500 Y0.14550
X2.74500 Y0.14450
X2.74400 Y0.14450
X2.74400 Y0.14350
X2.74300 Y0.14350
X2.74300 Y0.14250
X2.74200 Y0.14250
X2.74200 Y0.14150
X2.74100 Y0.14150
X2.74100 Y0.14050
X2.74000 Y0.14050
X2.74000 Y0.13950
X2.73900 Y0.13950
X2.73900 Y0.13850
X2.73800 Y0.13850
X2.73800 Y0.13750
X2.73700 Y0.13750
X2.73700 Y0.13650
X2.73600 Y0.13650
X2.73600 Y0.13550
X2.73500 Y0.13550
X2.73500 Y0.13450
X2.73400 Y0.13450
X2.73400 Y0.13350
X2.73300 Y0.13350
X2.73300 Y0.13250
X2.73200 Y0.13250
X2.73200 Y0.13150
X2.73100 Y0.13150
X2.73100 Y0.13050
X2.73000 Y0.13050
X2.73000 Y0.12950
X2.72900 Y0.12950
X2.72900 Y0.12850
X2.72800 Y0.12850
X2.72800 Y0.12750
X2.72700 Y0.12750
X2.72700 Y0.12650
X2.72600 Y0.12650
X2.72600 Y0.12550
X2.72500 Y0.12550
X2.72500 Y0.12450
X2.72400 Y0.12450
X2.72400 Y0.12350
X2.72300 Y0.12350
X2.72300 Y0.12250
X2.72200 Y0.12250
X2.72200 Y0.12150
X2.72100 Y0.12150
X2.72100 Y0.12050
X2.72000 Y0.12050
X2.72000 Y0.11950
X2.71900 Y0.11950
X2.71900 Y0.11850
X2.71800 Y0.11850
X2.71800 Y0.11750
X2.71700 Y0.11750
X2.71700 Y0.11650
X2.71600 Y0.11650
X2.71600 Y0.11550
X2.71500 Y0.11550
X2.71500 Y0.11450
X2.71400 Y0.11450
X2.71400 Y0.11350
X2.71300 Y0.11350
X2.71300 Y0.11250
X2.71200 Y0.11250
X2.71200 Y0.11150
X2.71100 Y0.11150
X2.71100 Y0.11050
X2.71000 Y0.11050
X2.71000 Y0.10950
X2.70900 Y0.10950
X2.70900 Y0.10850
X2.70800 Y0.10850
X2.70800 Y0.10750
X2.70700 Y0.10750
X2.70700 Y0.00750
X2.70600 Y0.00750
X2.70600 Y0.00550
X2.70500 Y0.00550
X2.70500 Y0.00450
X2.70400 Y0.00450
X2.70400 Y0.00350
X2.70200 Y0.00350
X2.70200 Y0.00250
X0.01800 Y0.00250
X0.01800 Y0.00350
X0.01600 Y0.00350
X0.01600 Y0.00450
X0.01500 Y0.00450
X0.01500 Y0.00550
X0.01400 Y0.00550
X0.01400 Y0.00750
X0.01300 Y0.00750
X0.01300 Y2.19150
X0.01400 Y2.19150
X0.01400 Y2.19350
X0.01500 Y2.19350
X0.01500 Y2.19450
X0.01600 Y2.19450
X0.01600 Y2.19550
X0.01800 Y2.19550
X0.01800 Y2.19650
X2.65200 Y2.19650
X2.65200 Y2.19550
X2.65400 Y2.19550
X2.65400 Y2.19450
X2.65500 Y2.19450
X2.65500 Y2.19350
X2.65600 Y2.19350
X2.65600 Y2.19250
X2.65700 Y2.19250
X2.65700 Y2.19150
X2.65800 Y2.19150
X2.65800 Y2.19050
X2.65900 Y2.19050
X2.65900 Y2.18950
X2.66000 Y2.18950
X2.66000 Y2.18850
X2.66100 Y2.18850
X2.66100 Y2.18750
X2.66200 Y2.18750
X2.66200 Y2.18650
X2.66300 Y2.18650
X2.66300 Y2.18550
X2.66400 Y2.18550
X2.66400 Y2.18450
X2.66500 Y2.18450
X2.66500 Y2.18350
X2.66600 Y2.18350
X2.66600 Y2.18250
X2.66700 Y2.18250
X2.66700 Y2.18150
X2.66800 Y2.18150
X2.66800 Y2.18050
X2.66900 Y2.18050
X2.66900 Y2.17950
X2.67000 Y2.17950
X2.67000 Y2.17850
X2.67100 Y2.17850
X2.67100 Y2.17750
X2.67200 Y2.17750
X2.67200 Y2.17650
X2.67300 Y2.17650
X2.67300 Y2.17550
X2.67400 Y2.17550
X2.67400 Y2.17450
X2.67500 Y2.17450
X2.67500 Y2.17350
X2.67600 Y2.17350
X2.67600 Y2.17250
X2.67700 Y2.17250
X2.67700 Y2.17150
X2.67800 Y2.17150
X2.67800 Y2.17050
X2.67900 Y2.17050
X2.67900 Y2.16950
X2.68000 Y2.16950
X2.68000 Y2.16850
X2.68100 Y2.16850
X2.68100 Y2.16750
X2.68200 Y2.16750
X2.68200 Y2.16650
X2.68300 Y2.16650
X2.68300 Y2.16550
X2.68400 Y2.16550
X2.68400 Y2.16450
X2.68500 Y2.16450
X2.68500 Y2.16350
X2.68600 Y2.16350
X2.68600 Y2.16250
X2.68700 Y2.16250
X2.68700 Y2.16150
X2.68800 Y2.16150
X2.68800 Y2.16050
X2.68900 Y2.16050
X2.68900 Y2.15950
X2.69000 Y2.15950
X2.69000 Y2.15850
X2.69100 Y2.15850
X2.69100 Y2.15750
X2.69200 Y2.15750
X2.69200 Y2.15650

G04 P0 ( dwell for no time -- G64 should not smooth over this point )
G00 Z1.18110 ( retract )


M5 ( Spindle off. )
M9 ( Coolant off. )
M2 ( Program end. )

