( pcb2gcode 2.5.0 )
( Software-independent Gcode )


G94 ( Millimeters per minute feed rate. )
G21 ( Units == Millimeters. )

G90 ( Absolute coordinates. )
G00 S10000 ( RPM spindle speed. )
G64 P0.01016 ( set maximum deviation from commanded toolpath )
G01 F600.00000 ( Feedrate. )


G00 Z40.00000 (Retract to tool change height)
T0
M5      (Spindle stop.)
G04 P1.00000 (Wait for spindle to stop)
(MSG, Change tool bit to mill diameter 2.00000mm)
M6      (Tool change.)
M0      (Temporary machine stop.)
M3 ( Spindle on clockwise. )
G04 P1.00000 (Wait for spindle to get up to speed)
G04 P0 ( dwell for no time -- G64 should not smooth over this point )
G00 Z0.50000 ( retract )

G00 X18.44647 Y7.26837 ( rapid move to begin. )
G01 F300.00000
( Mill infeed pass 1/1 )
G01 Z-0.07500
G04 P0 ( dwell for no time -- G64 should not smooth over this point )
G01 F600.00000
G01 X18.44647 Y7.26837
G01 X18.51206 Y7.20283
G01 X18.59339 Y7.13695
G01 X18.72869 Y7.03865
G01 X18.81648 Y6.98165
G01 X18.90975 Y6.93413
G01 X19.06253 Y6.86611
G01 X19.16027 Y6.82859
G01 X19.26136 Y6.80149
G01 X19.42496 Y6.76672
G01 X19.52834 Y6.75036
G01 X19.63286 Y6.74487
G01 X19.80012 Y6.74487
G01 X19.90464 Y6.75036
G01 X20.00802 Y6.76672
G01 X20.17162 Y6.80149
G01 X20.27271 Y6.82859
G01 X20.37045 Y6.86611
G01 X20.52323 Y6.93413
G01 X20.61650 Y6.98165
G01 X20.70428 Y7.03865
G01 X20.83959 Y7.13695
G01 X20.92092 Y7.20283
G01 X20.98647 Y7.26839
G01 X20.98647 Y50.45258
G01 X20.92092 Y50.51814
G01 X20.83959 Y50.58403
G01 X20.70428 Y50.68233
G01 X20.61650 Y50.73932
G01 X20.53159 Y50.78258
G01 X20.17162 Y50.91949
G01 X20.00802 Y50.95426
G01 X19.90464 Y50.97062
G01 X19.80012 Y50.97610
G01 X19.63286 Y50.97610
G01 X19.52834 Y50.97062
G01 X19.42496 Y50.95426
G01 X19.26136 Y50.91949
G01 X19.16027 Y50.89238
G01 X19.06253 Y50.85487
G01 X18.90975 Y50.78685
G01 X18.81648 Y50.73932
G01 X18.72869 Y50.68233
G01 X18.59339 Y50.58403
G01 X18.51206 Y50.51814
G01 X18.44647 Y50.45258
G04 P0 ( dwell for no time -- G64 should not smooth over this point )
G00 Z0.50000 ( retract )

G00 X22.25647 Y54.71503 ( rapid move to begin. )
G01 F300.00000
( Mill infeed pass 1/1 )
G01 Z-0.07500
G04 P0 ( dwell for no time -- G64 should not smooth over this point )
G01 F600.00000
G01 X22.25647 Y54.71503
G01 X22.34748 Y54.80792
G01 X22.42881 Y54.87378
G01 X22.55769 Y54.96741
G01 X22.64548 Y55.02443
G01 X22.73874 Y55.07195
G01 X22.88429 Y55.13675
G01 X22.98200 Y55.17424
G01 X23.08309 Y55.20134
G01 X23.23892 Y55.23446
G01 X23.34230 Y55.25085
G01 X23.44685 Y55.25631
G01 X23.60613 Y55.25631
G01 X23.71068 Y55.25085
G01 X23.81405 Y55.23446
G01 X23.96988 Y55.20134
G01 X24.07097 Y55.17424
G01 X24.16869 Y55.13675
G01 X24.31423 Y55.07195
G01 X24.40750 Y55.02443
G01 X24.49528 Y54.96741
G01 X24.62416 Y54.87378
G01 X24.70549 Y54.80792
G01 X24.79647 Y54.71503
G01 X24.79647 Y51.26592
G01 X24.70549 Y51.17305
G01 X24.62416 Y51.10719
G01 X24.49528 Y51.01357
G01 X24.40750 Y50.95654
G01 X24.32729 Y50.91568
G01 X23.98144 Y50.78260
G01 X23.89648 Y50.73932
G01 X23.80869 Y50.68233
G01 X23.67339 Y50.58403
G01 X23.59206 Y50.51814
G01 X23.52647 Y50.45258
G01 X23.59206 Y50.51814
G01 X23.67339 Y50.58403
G01 X23.80869 Y50.68233
G01 X23.89648 Y50.73932
G01 X23.98144 Y50.78260
G01 X24.32729 Y50.91568
G01 X24.40750 Y50.95654
G01 X24.49528 Y51.01357
G01 X24.62416 Y51.10719
G01 X24.70549 Y51.17305
G01 X24.79647 Y51.26592
G01 X24.88748 Y51.17305
G01 X24.96881 Y51.10719
G01 X25.09769 Y51.01357
G01 X25.18548 Y50.95654
G01 X25.26566 Y50.91568
G01 X25.62309 Y50.77963
G01 X25.77892 Y50.74651
G01 X25.88230 Y50.73013
G01 X25.98685 Y50.72467
G01 X26.14613 Y50.72467
G01 X26.25065 Y50.73013
G01 X26.35403 Y50.74651
G01 X26.52314 Y50.78319
G01 X26.86731 Y50.91570
G01 X27.04496 Y50.95426
G01 X27.14834 Y50.97062
G01 X27.25286 Y50.97610
G01 X27.42012 Y50.97610
G01 X27.52464 Y50.97062
G01 X27.62802 Y50.95426
G01 X27.80536 Y50.91580
G01 X28.15159 Y50.78258
G01 X28.23650 Y50.73932
G01 X28.32428 Y50.68233
G01 X28.45959 Y50.58403
G01 X28.54092 Y50.51814
G01 X28.60647 Y50.45258
G01 X28.60647 Y7.26839
G01 X28.67206 Y7.20283
G01 X28.75339 Y7.13695
G01 X28.88869 Y7.03865
G01 X28.97648 Y6.98165
G01 X29.06975 Y6.93413
G01 X29.22253 Y6.86611
G01 X29.32027 Y6.82859
G01 X29.35880 Y6.81825
G01 X29.42611 Y6.82394
G01 X29.35880 Y6.81825
G01 X29.32027 Y6.82859
G01 X29.22253 Y6.86611
G01 X29.06975 Y6.93413
G01 X28.97648 Y6.98165
G01 X28.88869 Y7.03865
G01 X28.75339 Y7.13695
G01 X28.67206 Y7.20283
G01 X28.60647 Y7.26839
G01 X28.54092 Y7.20283
G01 X28.45959 Y7.13695
G01 X28.32428 Y7.03865
G01 X28.23650 Y6.98165
G01 X28.14323 Y6.93413
G01 X27.99045 Y6.86611
G01 X27.89271 Y6.82859
G01 X27.79162 Y6.80149
G01 X27.62802 Y6.76672
G01 X27.52464 Y6.75036
G01 X27.42012 Y6.74487
G01 X27.25286 Y6.74487
G01 X27.14834 Y6.75036
G01 X27.04496 Y6.76672
G01 X26.88136 Y6.80149
G01 X26.78024 Y6.82859
G01 X26.68253 Y6.86611
G01 X26.52975 Y6.93413
G01 X26.43648 Y6.98165
G01 X26.34869 Y7.03865
G01 X26.21339 Y7.13695
G01 X26.13206 Y7.20283
G01 X26.06647 Y7.26837
G04 P0 ( dwell for no time -- G64 should not smooth over this point )
G00 Z0.50000 ( retract )

G00 X31.40047 Y3.00592 ( rapid move to begin. )
G01 F300.00000
( Mill infeed pass 1/1 )
G01 Z-0.07500
G04 P0 ( dwell for no time -- G64 should not smooth over this point )
G01 F600.00000
G01 X31.40047 Y3.00592
G01 X31.49148 Y2.91305
G01 X31.57281 Y2.84719
G01 X31.70169 Y2.75357
G01 X31.78948 Y2.69654
G01 X31.88274 Y2.64902
G01 X32.02829 Y2.58423
G01 X32.12600 Y2.54673
G01 X32.22709 Y2.51963
G01 X32.38292 Y2.48651
G01 X32.48630 Y2.47013
G01 X32.59085 Y2.46467
G01 X32.75013 Y2.46467
G01 X32.85468 Y2.47013
G01 X32.95805 Y2.48651
G01 X33.11388 Y2.51963
G01 X33.21497 Y2.54673
G01 X33.31269 Y2.58423
G01 X33.45823 Y2.64902
G01 X33.55150 Y2.69654
G01 X33.63928 Y2.75357
G01 X33.76816 Y2.84719
G01 X33.84949 Y2.91305
G01 X33.94047 Y3.00592
G01 X33.94047 Y6.45503
G01 X34.03148 Y6.54792
G01 X34.11281 Y6.61378
G01 X34.24169 Y6.70741
G01 X34.32948 Y6.76443
G01 X34.43649 Y6.81805
G01 X34.50611 Y6.82392
G01 X34.43649 Y6.81805
G01 X34.32948 Y6.76443
G01 X34.24169 Y6.70741
G01 X34.11281 Y6.61378
G01 X34.03148 Y6.54792
G01 X33.94047 Y6.45503
G01 X33.84949 Y6.54792
G01 X33.76816 Y6.61378
G01 X33.63928 Y6.70741
G01 X33.55150 Y6.76443
G01 X33.45823 Y6.81195
G01 X33.31269 Y6.87675
G01 X33.21497 Y6.91424
G01 X33.19293 Y6.92016
G01 X32.14050 Y6.84007
G01 X31.89882 Y6.81825
G01 X31.86027 Y6.82859
G01 X31.76253 Y6.86611
G01 X31.60975 Y6.93413
G01 X31.51648 Y6.98165
G01 X31.42869 Y7.03865
G01 X31.29339 Y7.13695
G01 X31.21206 Y7.20283
G01 X31.14647 Y7.26837
G01 X31.08092 Y7.20283
G01 X30.99959 Y7.13695
G01 X30.86428 Y7.03865
G01 X30.77650 Y6.98165
G01 X30.65163 Y6.92006
G01 X30.77269 Y6.87675
G01 X30.91823 Y6.81195
G01 X31.01150 Y6.76443
G01 X31.09928 Y6.70741
G01 X31.22816 Y6.61378
G01 X31.30949 Y6.54792
G01 X31.40047 Y6.45503
G01 X31.49148 Y6.54792
G01 X31.57281 Y6.61378
G01 X31.70169 Y6.70741
G01 X31.78948 Y6.76443
G01 X31.89649 Y6.81805
G01 X31.96611 Y6.82392
G01 X31.89649 Y6.81805
G01 X31.78948 Y6.76443
G01 X31.70169 Y6.70741
G01 X31.57281 Y6.61378
G01 X31.49148 Y6.54792
G01 X31.40047 Y6.45503
G01 X31.40047 Y3.00592
G01 X31.30949 Y2.91305
G01 X31.22816 Y2.84719
G01 X31.09928 Y2.75357
G01 X31.01150 Y2.69654
G01 X30.91823 Y2.64902
G01 X30.77269 Y2.58423
G01 X30.67497 Y2.54673
G01 X30.57388 Y2.51963
G01 X30.41805 Y2.48651
G01 X30.31468 Y2.47013
G01 X30.21013 Y2.46467
G01 X30.05085 Y2.46467
G01 X29.94630 Y2.47013
G01 X29.84292 Y2.48651
G01 X29.68709 Y2.51963
G01 X29.58600 Y2.54673
G01 X29.48829 Y2.58423
G01 X29.34274 Y2.64902
G01 X29.24948 Y2.69654
G01 X29.16169 Y2.75357
G01 X29.03281 Y2.84719
G01 X28.95148 Y2.91305
G01 X28.87747 Y2.98707
G01 X28.77086 Y3.10546
G01 X28.70500 Y3.18681
G01 X28.64800 Y3.27460
G01 X28.56835 Y3.41254
G01 X28.52083 Y3.50581
G01 X28.48331 Y3.60353
G01 X28.43408 Y3.75504
G01 X28.40698 Y3.85616
G01 X28.39063 Y3.95953
G01 X28.37396 Y4.11795
G01 X28.36848 Y4.22250
G01 X28.36848 Y5.23847
G01 X28.37396 Y5.34302
G01 X28.39063 Y5.50144
G01 X28.40698 Y5.60482
G01 X28.43408 Y5.70594
G01 X28.48331 Y5.85745
G01 X28.52083 Y5.95516
G01 X28.56835 Y6.04843
G01 X28.64800 Y6.18638
G01 X28.70500 Y6.27416
G01 X28.77086 Y6.35552
G01 X28.87747 Y6.47391
G01 X28.95148 Y6.54792
G01 X29.03281 Y6.61378
G01 X29.16169 Y6.70741
G01 X29.24948 Y6.76443
G01 X29.35651 Y6.81805
G01 X29.60050 Y6.84007
G01 X30.65163 Y6.92006
G01 X30.77650 Y6.98165
G01 X30.86428 Y7.03865
G01 X30.99959 Y7.13695
G01 X31.08092 Y7.20283
G01 X31.14647 Y7.26837
G01 X31.14647 Y50.45258
G01 X31.08092 Y50.51814
G01 X30.99959 Y50.58403
G01 X30.86428 Y50.68233
G01 X30.77650 Y50.73932
G01 X30.69159 Y50.78258
G01 X30.34536 Y50.91580
G01 X30.16802 Y50.95426
G01 X30.06464 Y50.97062
G01 X29.96012 Y50.97610
G01 X29.79286 Y50.97610
G01 X29.68834 Y50.97062
G01 X29.58496 Y50.95426
G01 X29.40759 Y50.91578
G01 X29.06314 Y50.78319
G01 X28.89405 Y50.74651
G01 X28.79068 Y50.73013
G01 X28.68613 Y50.72467
G01 X28.52685 Y50.72467
G01 X28.42230 Y50.73013
G01 X28.31892 Y50.74651
G01 X28.16309 Y50.77963
G01 X27.80566 Y50.91568
G01 X27.72548 Y50.95654
G01 X27.63769 Y51.01357
G01 X27.50881 Y51.10719
G01 X27.42748 Y51.17305
G01 X27.33647 Y51.26592
G01 X27.24547 Y51.17305
G01 X27.16416 Y51.10719
G01 X27.03528 Y51.01357
G01 X26.94750 Y50.95654
G01 X26.86731 Y50.91570
G01 X26.52144 Y50.78260
G01 X26.43648 Y50.73932
G01 X26.34869 Y50.68233
G01 X26.21339 Y50.58403
G01 X26.13206 Y50.51814
G01 X26.06647 Y50.45258
G01 X26.13206 Y50.51814
G01 X26.21339 Y50.58403
G01 X26.34869 Y50.68233
G01 X26.43648 Y50.73932
G01 X26.52144 Y50.78260
G01 X26.86731 Y50.91570
G01 X26.94750 Y50.95654
G01 X27.03528 Y51.01357
G01 X27.16416 Y51.10719
G01 X27.24547 Y51.17305
G01 X27.33647 Y51.26592
G01 X27.33647 Y54.71503
G01 X27.24547 Y54.80792
G01 X27.16416 Y54.87378
G01 X27.03528 Y54.96741
G01 X26.94750 Y55.02443
G01 X26.85423 Y55.07195
G01 X26.70869 Y55.13675
G01 X26.61097 Y55.17424
G01 X26.50986 Y55.20134
G01 X26.35403 Y55.23446
G01 X26.25065 Y55.25085
G01 X26.14613 Y55.25631
G01 X25.98685 Y55.25631
G01 X25.88230 Y55.25085
G01 X25.77892 Y55.23446
G01 X25.62309 Y55.20134
G01 X25.52200 Y55.17424
G01 X25.42429 Y55.13675
G01 X25.27874 Y55.07195
G01 X25.18548 Y55.02443
G01 X25.09769 Y54.96741
G01 X24.96881 Y54.87378
G01 X24.88748 Y54.80792
G01 X24.79647 Y54.71503
G04 P0 ( dwell for no time -- G64 should not smooth over this point )
G00 Z0.50000 ( retract )

G00 X27.33647 Y54.71503 ( rapid move to begin. )
G01 F300.00000
( Mill infeed pass 1/1 )
G01 Z-0.07500
G04 P0 ( dwell for no time -- G64 should not smooth over this point )
G01 F600.00000
G01 X27.33647 Y54.71503
G01 X27.42748 Y54.80792
G01 X27.50881 Y54.87378
G01 X27.63769 Y54.96741
G01 X27.72548 Y55.02443
G01 X27.81874 Y55.07195
G01 X27.96429 Y55.13675
G01 X28.06200 Y55.17424
G01 X28.16309 Y55.20134
G01 X28.31892 Y55.23446
G01 X28.42230 Y55.25085
G01 X28.52685 Y55.25631
G01 X28.68613 Y55.25631
G01 X28.79068 Y55.25085
G01 X28.89405 Y55.23446
G01 X29.04988 Y55.20134
G01 X29.15097 Y55.17424
G01 X29.24869 Y55.13675
G01 X29.39423 Y55.07195
G01 X29.48750 Y55.02443
G01 X29.57528 Y54.96741
G01 X29.70416 Y54.87378
G01 X29.78549 Y54.80792
G01 X29.87647 Y54.71503
G01 X29.87647 Y51.26592
G01 X29.78549 Y51.17305
G01 X29.70416 Y51.10719
G01 X29.57528 Y51.01357
G01 X29.48750 Y50.95654
G01 X29.40729 Y50.91568
G01 X29.06144 Y50.78260
G01 X28.97648 Y50.73932
G01 X28.88869 Y50.68233
G01 X28.75339 Y50.58403
G01 X28.67206 Y50.51814
G01 X28.60647 Y50.45258
G01 X28.67206 Y50.51814
G01 X28.75339 Y50.58403
G01 X28.88869 Y50.68233
G01 X28.97648 Y50.73932
G01 X29.06144 Y50.78260
G01 X29.40729 Y50.91568
G01 X29.48750 Y50.95654
G01 X29.57528 Y51.01357
G01 X29.70416 Y51.10719
G01 X29.78549 Y51.17305
G01 X29.87647 Y51.26592
G01 X29.96748 Y51.17305
G01 X30.04881 Y51.10719
G01 X30.17769 Y51.01357
G01 X30.26548 Y50.95654
G01 X30.34566 Y50.91568
G01 X30.70309 Y50.77963
G01 X30.85892 Y50.74651
G01 X30.96230 Y50.73013
G01 X31.06685 Y50.72467
G01 X31.22613 Y50.72467
G01 X31.33068 Y50.73013
G01 X31.43405 Y50.74651
G01 X31.60314 Y50.78319
G01 X31.94731 Y50.91570
G01 X32.12496 Y50.95426
G01 X32.22834 Y50.97062
G01 X32.33286 Y50.97610
G01 X32.50012 Y50.97610
G01 X32.60464 Y50.97062
G01 X32.70802 Y50.95426
G01 X32.88536 Y50.91580
G01 X33.23159 Y50.78258
G01 X33.31650 Y50.73932
G01 X33.40428 Y50.68233
G01 X33.53959 Y50.58403
G01 X33.62092 Y50.51814
G01 X33.68647 Y50.45258
G01 X33.68647 Y7.26837
G01 X33.62092 Y7.20283
G01 X33.53959 Y7.13695
G01 X33.40428 Y7.03865
G01 X33.31650 Y6.98165
G01 X33.19163 Y6.92006
G01 X33.31650 Y6.98165
G01 X33.40428 Y7.03865
G01 X33.53959 Y7.13695
G01 X33.62092 Y7.20283
G01 X33.68647 Y7.26837
G01 X33.75206 Y7.20283
G01 X33.83339 Y7.13695
G01 X33.96869 Y7.03865
G01 X34.05648 Y6.98165
G01 X34.14975 Y6.93413
G01 X34.30253 Y6.86611
G01 X34.40027 Y6.82859
G01 X34.43882 Y6.81825
G01 X34.68050 Y6.84007
G01 X35.73293 Y6.92016
G01 X35.75497 Y6.91424
G01 X35.85269 Y6.87675
G01 X35.99823 Y6.81195
G01 X36.09150 Y6.76443
G01 X36.17928 Y6.70741
G01 X36.30816 Y6.61378
G01 X36.38949 Y6.54792
G01 X36.48047 Y6.45503
G01 X36.57148 Y6.54792
G01 X36.65281 Y6.61378
G01 X36.78169 Y6.70741
G01 X36.86948 Y6.76443
G01 X36.97649 Y6.81805
G01 X37.04611 Y6.82394
G01 X36.97649 Y6.81805
G01 X36.86948 Y6.76443
G01 X36.78169 Y6.70741
G01 X36.65281 Y6.61378
G01 X36.57148 Y6.54792
G01 X36.48047 Y6.45503
G01 X36.48047 Y3.00592
G01 X36.38949 Y2.91305
G01 X36.30816 Y2.84719
G01 X36.17928 Y2.75357
G01 X36.09150 Y2.69654
G01 X35.99823 Y2.64902
G01 X35.85269 Y2.58423
G01 X35.75497 Y2.54673
G01 X35.65388 Y2.51963
G01 X35.49805 Y2.48651
G01 X35.39468 Y2.47013
G01 X35.29013 Y2.46467
G01 X35.13085 Y2.46467
G01 X35.02630 Y2.47013
G01 X34.92292 Y2.48651
G01 X34.76709 Y2.51963
G01 X34.66600 Y2.54673
G01 X34.56829 Y2.58423
G01 X34.42274 Y2.64902
G01 X34.32948 Y2.69654
G01 X34.24169 Y2.75357
G01 X34.11281 Y2.84719
G01 X34.03148 Y2.91305
G01 X33.94047 Y3.00592
G04 P0 ( dwell for no time -- G64 should not smooth over this point )
G00 Z0.50000 ( retract )

G00 X44.10047 Y3.00592 ( rapid move to begin. )
G01 F300.00000
( Mill infeed pass 1/1 )
G01 Z-0.07500
G04 P0 ( dwell for no time -- G64 should not smooth over this point )
G01 F600.00000
G01 X44.10047 Y3.00592
G01 X44.19148 Y2.91305
G01 X44.27281 Y2.84719
G01 X44.40169 Y2.75357
G01 X44.48948 Y2.69654
G01 X44.58274 Y2.64902
G01 X44.72829 Y2.58423
G01 X44.82600 Y2.54673
G01 X44.92709 Y2.51963
G01 X45.08292 Y2.48651
G01 X45.18630 Y2.47013
G01 X45.29085 Y2.46467
G01 X45.45013 Y2.46467
G01 X45.55468 Y2.47013
G01 X45.65805 Y2.48651
G01 X45.81388 Y2.51963
G01 X45.91497 Y2.54673
G01 X46.01269 Y2.58423
G01 X46.15823 Y2.64902
G01 X46.25150 Y2.69654
G01 X46.33928 Y2.75357
G01 X46.46816 Y2.84719
G01 X46.54949 Y2.91305
G01 X46.64047 Y3.00592
G01 X46.64047 Y6.45503
G01 X46.73148 Y6.54792
G01 X46.81281 Y6.61378
G01 X46.94169 Y6.70741
G01 X47.02948 Y6.76443
G01 X47.13649 Y6.81805
G01 X47.20611 Y6.82392
G01 X47.13649 Y6.81805
G01 X47.02948 Y6.76443
G01 X46.94169 Y6.70741
G01 X46.81281 Y6.61378
G01 X46.73148 Y6.54792
G01 X46.64047 Y6.45503
G01 X46.54949 Y6.54792
G01 X46.46816 Y6.61378
G01 X46.33928 Y6.70741
G01 X46.25150 Y6.76443
G01 X46.15823 Y6.81195
G01 X46.01269 Y6.87675
G01 X45.91497 Y6.91424
G01 X45.89293 Y6.92016
G01 X44.84050 Y6.84007
G01 X44.59882 Y6.81825
G01 X44.56027 Y6.82859
G01 X44.46253 Y6.86611
G01 X44.30975 Y6.93413
G01 X44.21648 Y6.98165
G01 X44.12869 Y7.03865
G01 X43.99339 Y7.13695
G01 X43.91206 Y7.20283
G01 X43.84647 Y7.26837
G01 X43.78092 Y7.20283
G01 X43.69959 Y7.13695
G01 X43.56428 Y7.03865
G01 X43.47650 Y6.98165
G01 X43.35163 Y6.92006
G01 X43.47650 Y6.98165
G01 X43.56428 Y7.03865
G01 X43.69959 Y7.13695
G01 X43.78092 Y7.20283
G01 X43.84647 Y7.26837
G01 X43.84647 Y50.45258
G01 X43.78092 Y50.51814
G01 X43.69959 Y50.58403
G01 X43.56428 Y50.68233
G01 X43.47650 Y50.73932
G01 X43.39159 Y50.78258
G01 X43.04536 Y50.91580
G01 X42.86802 Y50.95426
G01 X42.76464 Y50.97062
G01 X42.66012 Y50.97610
G01 X42.49286 Y50.97610
G01 X42.38834 Y50.97062
G01 X42.28496 Y50.95426
G01 X42.10759 Y50.91578
G01 X41.76314 Y50.78319
G01 X41.59405 Y50.74651
G01 X41.49068 Y50.73013
G01 X41.38613 Y50.72467
G01 X41.22685 Y50.72467
G01 X41.12230 Y50.73013
G01 X41.01892 Y50.74651
G01 X40.86309 Y50.77963
G01 X40.50566 Y50.91568
G01 X40.42548 Y50.95654
G01 X40.33769 Y51.01357
G01 X40.20881 Y51.10719
G01 X40.12748 Y51.17305
G01 X40.03647 Y51.26592
G01 X39.94549 Y51.17305
G01 X39.86416 Y51.10719
G01 X39.73528 Y51.01357
G01 X39.64750 Y50.95654
G01 X39.56729 Y50.91568
G01 X39.22144 Y50.78260
G01 X39.13648 Y50.73932
G01 X39.04869 Y50.68233
G01 X38.91339 Y50.58403
G01 X38.83206 Y50.51814
G01 X38.76647 Y50.45258
G01 X38.83206 Y50.51814
G01 X38.91339 Y50.58403
G01 X39.04869 Y50.68233
G01 X39.13648 Y50.73932
G01 X39.22144 Y50.78260
G01 X39.56729 Y50.91568
G01 X39.64750 Y50.95654
G01 X39.73528 Y51.01357
G01 X39.86416 Y51.10719
G01 X39.94549 Y51.17305
G01 X40.03647 Y51.26592
G01 X40.03647 Y54.71503
G01 X39.94549 Y54.80792
G01 X39.86416 Y54.87378
G01 X39.73528 Y54.96741
G01 X39.64750 Y55.02443
G01 X39.55423 Y55.07195
G01 X39.40869 Y55.13675
G01 X39.31097 Y55.17424
G01 X39.20988 Y55.20134
G01 X39.05405 Y55.23446
G01 X38.95068 Y55.25085
G01 X38.84613 Y55.25631
G01 X38.68685 Y55.25631
G01 X38.58230 Y55.25085
G01 X38.47892 Y55.23446
G01 X38.32309 Y55.20134
G01 X38.22200 Y55.17424
G01 X38.12429 Y55.13675
G01 X37.97874 Y55.07195
G01 X37.88548 Y55.02443
G01 X37.79769 Y54.96741
G01 X37.66881 Y54.87378
G01 X37.58748 Y54.80792
G01 X37.49647 Y54.71503
G04 P0 ( dwell for no time -- G64 should not smooth over this point )
G00 Z0.50000 ( retract )

G00 X42.57647 Y54.71503 ( rapid move to begin. )
G01 F300.00000
( Mill infeed pass 1/1 )
G01 Z-0.07500
G04 P0 ( dwell for no time -- G64 should not smooth over this point )
G01 F600.00000
G01 X42.57647 Y54.71503
G01 X42.66748 Y54.80792
G01 X42.74881 Y54.87378
G01 X42.87769 Y54.96741
G01 X42.96548 Y55.02443
G01 X43.05874 Y55.07195
G01 X43.20429 Y55.13675
G01 X43.30200 Y55.17424
G01 X43.40309 Y55.20134
G01 X43.55892 Y55.23446
G01 X43.66230 Y55.25085
G01 X43.76685 Y55.25631
G01 X43.92613 Y55.25631
G01 X44.03068 Y55.25085
G01 X44.13405 Y55.23446
G01 X44.28988 Y55.20134
G01 X44.39097 Y55.17424
G01 X44.48869 Y55.13675
G01 X44.63423 Y55.07195
G01 X44.72750 Y55.02443
G01 X44.81528 Y54.96741
G01 X44.94416 Y54.87378
G01 X45.02549 Y54.80792
G01 X45.09951 Y54.73391
G01 X45.20611 Y54.61552
G01 X45.27197 Y54.53416
G01 X45.32897 Y54.44638
G01 X45.40863 Y54.30843
G01 X45.45615 Y54.21516
G01 X45.49366 Y54.11742
G01 X45.54289 Y53.96594
G01 X45.56999 Y53.86482
G01 X45.58635 Y53.76144
G01 X45.60301 Y53.60302
G01 X45.60850 Y53.49847
G01 X45.60850 Y52.48247
G01 X45.60301 Y52.37795
G01 X45.58635 Y52.21953
G01 X45.56999 Y52.11616
G01 X45.54289 Y52.01504
G01 X45.49366 Y51.86353
G01 X45.45615 Y51.76579
G01 X45.40863 Y51.67254
G01 X45.32897 Y51.53460
G01 X45.27197 Y51.44682
G01 X45.20611 Y51.36546
G01 X45.09951 Y51.24707
G01 X45.02549 Y51.17305
G01 X44.94416 Y51.10719
G01 X44.81528 Y51.01357
G01 X44.72750 Y50.95654
G01 X44.64731 Y50.91570
G01 X44.30144 Y50.78263
G01 X44.21648 Y50.73932
G01 X44.12869 Y50.68233
G01 X43.99339 Y50.58403
G01 X43.91206 Y50.51814
G01 X43.84647 Y50.45258
G04 P0 ( dwell for no time -- G64 should not smooth over this point )
G00 Z0.50000 ( retract )

G00 X49.18047 Y54.71503 ( rapid move to begin. )
G01 F300.00000
( Mill infeed pass 1/1 )
G01 Z-0.07500
G04 P0 ( dwell for no time -- G64 should not smooth over this point )
G01 F600.00000
G01 X49.18047 Y54.71503
G01 X49.08949 Y54.80792
G01 X49.00816 Y54.87378
G01 X48.87928 Y54.96741
G01 X48.79150 Y55.02443
G01 X48.69823 Y55.07195
G01 X48.55269 Y55.13675
G01 X48.45497 Y55.17424
G01 X48.35388 Y55.20134
G01 X48.19805 Y55.23446
G01 X48.09468 Y55.25085
G01 X47.99013 Y55.25631
G01 X47.83085 Y55.25631
G01 X47.72630 Y55.25085
G01 X47.62292 Y55.23446
G01 X47.46709 Y55.20134
G01 X47.36600 Y55.17424
G01 X47.26829 Y55.13675
G01 X47.12274 Y55.07195
G01 X47.02948 Y55.02443
G01 X46.94169 Y54.96741
G01 X46.81281 Y54.87378
G01 X46.73148 Y54.80792
G01 X46.65747 Y54.73391
G01 X46.55086 Y54.61552
G01 X46.48500 Y54.53416
G01 X46.42800 Y54.44638
G01 X46.34835 Y54.30843
G01 X46.30083 Y54.21516
G01 X46.26331 Y54.11742
G01 X46.21408 Y53.96594
G01 X46.18698 Y53.86482
G01 X46.17063 Y53.76144
G01 X46.15396 Y53.60302
G01 X46.14848 Y53.49847
G01 X46.14848 Y52.48247
G01 X46.15396 Y52.37795
G01 X46.17063 Y52.21953
G01 X46.18698 Y52.11616
G01 X46.21408 Y52.01504
G01 X46.26331 Y51.86353
G01 X46.30083 Y51.76579
G01 X46.34835 Y51.67254
G01 X46.42800 Y51.53460
G01 X46.48500 Y51.44682
G01 X46.55086 Y51.36546
G01 X46.65747 Y51.24707
G01 X46.73148 Y51.17305
G01 X46.81281 Y51.10719
G01 X46.94169 Y51.01357
G01 X47.02948 Y50.95654
G01 X47.13656 Y50.90287
G01 X47.38050 Y50.88088
G01 X48.43171 Y50.80089
G01 X48.55650 Y50.73932
G01 X48.64428 Y50.68233
G01 X48.77959 Y50.58403
G01 X48.86092 Y50.51814
G01 X48.92647 Y50.45258
G01 X48.86092 Y50.51814
G01 X48.77959 Y50.58403
G01 X48.64428 Y50.68233
G01 X48.55650 Y50.73932
G01 X48.43173 Y50.80087
G01 X48.34799 Y50.80724
G01 X48.43285 Y50.80079
G01 X48.45497 Y50.80673
G01 X48.55269 Y50.84423
G01 X48.69823 Y50.90902
G01 X48.79150 Y50.95654
G01 X48.87928 Y51.01357
G01 X49.00816 Y51.10719
G01 X49.08949 Y51.17305
G01 X49.18047 Y51.26592
G01 X49.27148 Y51.17305
G01 X49.35281 Y51.10719
G01 X49.48169 Y51.01357
G01 X49.56948 Y50.95654
G01 X49.67656 Y50.90287
G01 X49.74611 Y50.89703
G01 X49.67656 Y50.90287
G01 X49.56948 Y50.95654
G01 X49.48169 Y51.01357
G01 X49.35281 Y51.10719
G01 X49.27148 Y51.17305
G01 X49.18047 Y51.26592
G01 X49.18047 Y54.71503
G01 X49.27148 Y54.80792
G01 X49.35281 Y54.87378
G01 X49.48169 Y54.96741
G01 X49.56948 Y55.02443
G01 X49.66274 Y55.07195
G01 X49.80829 Y55.13675
G01 X49.90600 Y55.17424
G01 X50.00709 Y55.20134
G01 X50.16292 Y55.23446
G01 X50.26630 Y55.25085
G01 X50.37085 Y55.25631
G01 X50.53013 Y55.25631
G01 X50.63468 Y55.25085
G01 X50.73805 Y55.23446
G01 X50.89388 Y55.20134
G01 X50.99497 Y55.17424
G01 X51.09269 Y55.13675
G01 X51.23823 Y55.07195
G01 X51.33150 Y55.02443
G01 X51.41928 Y54.96741
G01 X51.54816 Y54.87378
G01 X51.62949 Y54.80792
G01 X51.72047 Y54.71503
G01 X51.72047 Y51.26592
G01 X51.81148 Y51.17305
G01 X51.89281 Y51.10719
G01 X52.02169 Y51.01357
G01 X52.10945 Y50.95654
G01 X52.21654 Y50.90287
G01 X52.28611 Y50.89703
G01 X52.21654 Y50.90287
G01 X52.10945 Y50.95654
G01 X52.02169 Y51.01357
G01 X51.89281 Y51.10719
G01 X51.81148 Y51.17305
G01 X51.72047 Y51.26592
G01 X51.62949 Y51.17305
G01 X51.54816 Y51.10719
G01 X51.41928 Y51.01357
G01 X51.33150 Y50.95654
G01 X51.23823 Y50.90902
G01 X51.09269 Y50.84423
G01 X50.99497 Y50.80673
G01 X50.97173 Y50.80087
G01 X49.92050 Y50.88088
G01 X49.67875 Y50.90270
G01 X49.64027 Y50.89238
G01 X49.54253 Y50.85487
G01 X49.38975 Y50.78685
G01 X49.29648 Y50.73932
G01 X49.20869 Y50.68233
G01 X49.07339 Y50.58403
G01 X48.99206 Y50.51814
G01 X48.92647 Y50.45258
G01 X48.92647 Y7.26837
G01 X48.86092 Y7.20283
G01 X48.77959 Y7.13695
G01 X48.64428 Y7.03865
G01 X48.55650 Y6.98165
G01 X48.43163 Y6.92006
G01 X48.55650 Y6.98165
G01 X48.64428 Y7.03865
G01 X48.77959 Y7.13695
G01 X48.86092 Y7.20283
G01 X48.92647 Y7.26837
G01 X48.99206 Y7.20283
G01 X49.07339 Y7.13695
G01 X49.20869 Y7.03865
G01 X49.29648 Y6.98165
G01 X49.38975 Y6.93413
G01 X49.54253 Y6.86611
G01 X49.64027 Y6.82859
G01 X49.74136 Y6.80149
G01 X49.90496 Y6.76672
G01 X50.00834 Y6.75036
G01 X50.11286 Y6.74487
G01 X50.28012 Y6.74487
G01 X50.38464 Y6.75036
G01 X50.48802 Y6.76672
G01 X50.65162 Y6.80149
G01 X50.75271 Y6.82859
G01 X50.85045 Y6.86611
G01 X51.00323 Y6.93413
G01 X51.09650 Y6.98165
G01 X51.18428 Y7.03865
G01 X51.31959 Y7.13695
G01 X51.40092 Y7.20283
G01 X51.46647 Y7.26837
G01 X51.46647 Y50.45258
G01 X51.40092 Y50.51814
G01 X51.31959 Y50.58403
G01 X51.18428 Y50.68233
G01 X51.09650 Y50.73932
G01 X50.97173 Y50.80087
G01 X50.88799 Y50.80724
G01 X50.97171 Y50.80089
G01 X51.09650 Y50.73932
G01 X51.18428 Y50.68233
G01 X51.31959 Y50.58403
G01 X51.40092 Y50.51814
G01 X51.46647 Y50.45258
G01 X51.53206 Y50.51814
G01 X51.61339 Y50.58403
G01 X51.74869 Y50.68233
G01 X51.83645 Y50.73932
G01 X51.92975 Y50.78685
G01 X52.08250 Y50.85487
G01 X52.18027 Y50.89238
G01 X52.21870 Y50.90267
G01 X52.46048 Y50.88088
G01 X53.51171 Y50.80089
G01 X53.63650 Y50.73932
G01 X53.72428 Y50.68233
G01 X53.85956 Y50.58403
G01 X53.94092 Y50.51814
G01 X54.00647 Y50.45258
G01 X53.94092 Y50.51814
G01 X53.85956 Y50.58403
G01 X53.72428 Y50.68233
G01 X53.63650 Y50.73932
G01 X53.51173 Y50.80087
G01 X53.42799 Y50.80724
G01 X53.51285 Y50.80079
G01 X53.53497 Y50.80673
G01 X53.63269 Y50.84423
G01 X53.77820 Y50.90902
G01 X53.87150 Y50.95654
G01 X53.95928 Y51.01357
G01 X54.08816 Y51.10719
G01 X54.16949 Y51.17305
G01 X54.26047 Y51.26592
G01 X54.35148 Y51.17305
G01 X54.43281 Y51.10719
G01 X54.56169 Y51.01357
G01 X54.64948 Y50.95654
G01 X54.75656 Y50.90287
G01 X54.82611 Y50.89703
G01 X54.75656 Y50.90287
G01 X54.64948 Y50.95654
G01 X54.56169 Y51.01357
G01 X54.43281 Y51.10719
G01 X54.35148 Y51.17305
G01 X54.26047 Y51.26592
G01 X54.26047 Y54.71503
G01 X54.16949 Y54.80792
G01 X54.08816 Y54.87378
G01 X53.95928 Y54.96741
G01 X53.87150 Y55.02443
G01 X53.77820 Y55.07195
G01 X53.63269 Y55.13675
G01 X53.53497 Y55.17424
G01 X53.43388 Y55.20134
G01 X53.27805 Y55.23446
G01 X53.17468 Y55.25085
G01 X53.07013 Y55.25631
G01 X52.91085 Y55.25631
G01 X52.80627 Y55.25085
G01 X52.70292 Y55.23446
G01 X52.54709 Y55.20134
G01 X52.44600 Y55.17424
G01 X52.34829 Y55.13675
G01 X52.20274 Y55.07195
G01 X52.10945 Y55.02443
G01 X52.02169 Y54.96741
G01 X51.89281 Y54.87378
G01 X51.81148 Y54.80792
G01 X51.72047 Y54.71503
G04 P0 ( dwell for no time -- G64 should not smooth over this point )
G00 Z0.50000 ( retract )

G00 X54.26047 Y54.71503 ( rapid move to begin. )
G01 F300.00000
( Mill infeed pass 1/1 )
G01 Z-0.07500
G04 P0 ( dwell for no time -- G64 should not smooth over this point )
G01 F600.00000
G01 X54.26047 Y54.71503
G01 X54.35148 Y54.80792
G01 X54.43281 Y54.87378
G01 X54.56169 Y54.96741
G01 X54.64948 Y55.02443
G01 X54.74274 Y55.07195
G01 X54.88829 Y55.13675
G01 X54.98600 Y55.17424
G01 X55.08709 Y55.20134
G01 X55.24292 Y55.23446
G01 X55.34630 Y55.25085
G01 X55.45085 Y55.25631
G01 X55.61013 Y55.25631
G01 X55.71468 Y55.25085
G01 X55.81805 Y55.23446
G01 X55.97388 Y55.20134
G01 X56.07497 Y55.17424
G01 X56.17269 Y55.13675
G01 X56.31823 Y55.07195
G01 X56.41150 Y55.02443
G01 X56.49928 Y54.96741
G01 X56.62816 Y54.87378
G01 X56.70949 Y54.80792
G01 X56.80047 Y54.71503
G01 X56.80047 Y51.26592
G01 X56.89148 Y51.17305
G01 X56.97281 Y51.10719
G01 X57.10169 Y51.01357
G01 X57.18948 Y50.95654
G01 X57.29656 Y50.90287
G01 X57.36611 Y50.89701
G01 X57.29656 Y50.90287
G01 X57.18948 Y50.95654
G01 X57.10169 Y51.01357
G01 X56.97281 Y51.10719
G01 X56.89148 Y51.17305
G01 X56.80047 Y51.26592
G01 X56.70949 Y51.17305
G01 X56.62816 Y51.10719
G01 X56.49928 Y51.01357
G01 X56.41150 Y50.95654
G01 X56.31823 Y50.90902
G01 X56.17269 Y50.84423
G01 X56.07497 Y50.80673
G01 X56.05173 Y50.80087
G01 X55.00050 Y50.88088
G01 X54.75875 Y50.90270
G01 X54.72027 Y50.89238
G01 X54.62253 Y50.85487
G01 X54.46975 Y50.78685
G01 X54.37648 Y50.73932
G01 X54.28869 Y50.68233
G01 X54.15339 Y50.58403
G01 X54.07206 Y50.51814
G01 X54.00647 Y50.45258
G01 X54.00647 Y7.26837
G01 X53.94092 Y7.20283
G01 X53.85956 Y7.13695
G01 X53.72428 Y7.03865
G01 X53.63650 Y6.98165
G01 X53.51163 Y6.92006
G01 X53.63650 Y6.98165
G01 X53.72428 Y7.03865
G01 X53.85956 Y7.13695
G01 X53.94092 Y7.20283
G01 X54.00647 Y7.26837
G01 X54.07206 Y7.20283
G01 X54.15339 Y7.13695
G01 X54.28869 Y7.03865
G01 X54.37648 Y6.98165
G01 X54.46975 Y6.93413
G01 X54.62253 Y6.86611
G01 X54.72027 Y6.82859
G01 X54.75882 Y6.81825
G01 X55.00050 Y6.84007
G01 X56.05163 Y6.92006
G01 X56.17650 Y6.98165
G01 X56.26428 Y7.03865
G01 X56.39959 Y7.13695
G01 X56.48092 Y7.20283
G01 X56.54647 Y7.26837
G01 X56.48092 Y7.20283
G01 X56.39959 Y7.13695
G01 X56.26428 Y7.03865
G01 X56.17650 Y6.98165
G01 X56.05163 Y6.92006
G01 X56.17269 Y6.87675
G01 X56.31823 Y6.81195
G01 X56.41150 Y6.76443
G01 X56.49928 Y6.70741
G01 X56.62816 Y6.61378
G01 X56.70949 Y6.54792
G01 X56.80047 Y6.45503
G01 X56.89148 Y6.54792
G01 X56.97281 Y6.61378
G01 X57.10169 Y6.70741
G01 X57.18948 Y6.76443
G01 X57.29649 Y6.81805
G01 X57.36611 Y6.82394
G01 X57.29880 Y6.81825
G01 X57.26027 Y6.82859
G01 X57.16253 Y6.86611
G01 X57.00975 Y6.93413
G01 X56.91648 Y6.98165
G01 X56.82869 Y7.03865
G01 X56.69339 Y7.13695
G01 X56.61206 Y7.20283
G01 X56.54647 Y7.26837
G01 X56.54647 Y50.45258
G01 X56.48092 Y50.51814
G01 X56.39959 Y50.58403
G01 X56.26428 Y50.68233
G01 X56.17650 Y50.73932
G01 X56.05173 Y50.80087
G01 X55.96799 Y50.80724
G01 X56.05171 Y50.80089
G01 X56.17650 Y50.73932
G01 X56.26428 Y50.68233
G01 X56.39959 Y50.58403
G01 X56.48092 Y50.51814
G01 X56.54647 Y50.45258
G01 X56.61206 Y50.51814
G01 X56.69339 Y50.58403
G01 X56.82869 Y50.68233
G01 X56.91648 Y50.73932
G01 X57.00975 Y50.78685
G01 X57.16253 Y50.85487
G01 X57.26027 Y50.89238
G01 X57.29870 Y50.90267
G01 X57.54050 Y50.88088
G01 X58.59171 Y50.80089
G01 X58.71650 Y50.73932
G01 X58.80428 Y50.68233
G01 X58.93959 Y50.58403
G01 X59.02092 Y50.51814
G01 X59.08647 Y50.45258
G01 X59.02092 Y50.51814
G01 X58.93959 Y50.58403
G01 X58.80428 Y50.68233
G01 X58.71650 Y50.73932
G01 X58.59173 Y50.80087
G01 X58.50799 Y50.80724
G01 X58.59285 Y50.80079
G01 X58.61497 Y50.80673
G01 X58.71269 Y50.84423
G01 X58.85823 Y50.90902
G01 X58.95150 Y50.95654
G01 X59.03928 Y51.01357
G01 X59.16816 Y51.10719
G01 X59.24949 Y51.17305
G01 X59.34047 Y51.26592
G01 X59.43148 Y51.17305
G01 X59.51281 Y51.10719
G01 X59.64169 Y51.01357
G01 X59.72948 Y50.95654
G01 X59.83656 Y50.90287
G01 X59.90611 Y50.89701
G01 X59.83656 Y50.90287
G01 X59.72948 Y50.95654
G01 X59.64169 Y51.01357
G01 X59.51281 Y51.10719
G01 X59.43148 Y51.17305
G01 X59.34047 Y51.26592
G01 X59.34047 Y54.71503
G01 X59.24949 Y54.80792
G01 X59.16816 Y54.87378
G01 X59.03928 Y54.96741
G01 X58.95150 Y55.02443
G01 X58.85823 Y55.07195
G01 X58.71269 Y55.13675
G01 X58.61497 Y55.17424
G01 X58.51388 Y55.20134
G01 X58.35805 Y55.23446
G01 X58.25468 Y55.25085
G01 X58.15013 Y55.25631
G01 X57.99085 Y55.25631
G01 X57.88630 Y55.25085
G01 X57.78292 Y55.23446
G01 X57.62709 Y55.20134
G01 X57.52600 Y55.17424
G01 X57.42829 Y55.13675
G01 X57.28274 Y55.07195
G01 X57.18948 Y55.02443
G01 X57.10169 Y54.96741
G01 X56.97281 Y54.87378
G01 X56.89148 Y54.80792
G01 X56.80047 Y54.71503
G04 P0 ( dwell for no time -- G64 should not smooth over this point )
G00 Z0.50000 ( retract )

G00 X59.34047 Y54.71503 ( rapid move to begin. )
G01 F300.00000
( Mill infeed pass 1/1 )
G01 Z-0.07500
G04 P0 ( dwell for no time -- G64 should not smooth over this point )
G01 F600.00000
G01 X59.34047 Y54.71503
G01 X59.43148 Y54.80792
G01 X59.51281 Y54.87378
G01 X59.64169 Y54.96741
G01 X59.72948 Y55.02443
G01 X59.82274 Y55.07195
G01 X59.96829 Y55.13675
G01 X60.06600 Y55.17424
G01 X60.16709 Y55.20134
G01 X60.32292 Y55.23446
G01 X60.42630 Y55.25085
G01 X60.53085 Y55.25631
G01 X60.69013 Y55.25631
G01 X60.79468 Y55.25085
G01 X60.89805 Y55.23446
G01 X61.05388 Y55.20134
G01 X61.15497 Y55.17424
G01 X61.25269 Y55.13675
G01 X61.39823 Y55.07195
G01 X61.49150 Y55.02443
G01 X61.57928 Y54.96741
G01 X61.70816 Y54.87378
G01 X61.78949 Y54.80792
G01 X61.88047 Y54.71503
G01 X61.88047 Y51.26592
G01 X61.97148 Y51.17305
G01 X62.05281 Y51.10719
G01 X62.18169 Y51.01357
G01 X62.26948 Y50.95654
G01 X62.37656 Y50.90287
G01 X62.44611 Y50.89703
G01 X62.37656 Y50.90287
G01 X62.26948 Y50.95654
G01 X62.18169 Y51.01357
G01 X62.05281 Y51.10719
G01 X61.97148 Y51.17305
G01 X61.88047 Y51.26592
G01 X61.78949 Y51.17305
G01 X61.70816 Y51.10719
G01 X61.57928 Y51.01357
G01 X61.49150 Y50.95654
G01 X61.39823 Y50.90902
G01 X61.25269 Y50.84423
G01 X61.15497 Y50.80673
G01 X61.13173 Y50.80087
G01 X60.08050 Y50.88088
G01 X59.83872 Y50.90270
G01 X59.80027 Y50.89238
G01 X59.70253 Y50.85487
G01 X59.54975 Y50.78685
G01 X59.45648 Y50.73932
G01 X59.36869 Y50.68233
G01 X59.23339 Y50.58403
G01 X59.15206 Y50.51814
G01 X59.08647 Y50.45258
G01 X59.08647 Y7.26837
G01 X59.02092 Y7.20283
G01 X58.93959 Y7.13695
G01 X58.80428 Y7.03865
G01 X58.71650 Y6.98165
G01 X58.59163 Y6.92006
G01 X58.71650 Y6.98165
G01 X58.80428 Y7.03865
G01 X58.93959 Y7.13695
G01 X59.02092 Y7.20283
G01 X59.08647 Y7.26837
G01 X59.15206 Y7.20283
G01 X59.23339 Y7.13695
G01 X59.36869 Y7.03865
G01 X59.45648 Y6.98165
G01 X59.54975 Y6.93413
G01 X59.70253 Y6.86611
G01 X59.80027 Y6.82859
G01 X59.83880 Y6.81825
G01 X60.08050 Y6.84007
G01 X61.13163 Y6.92006
G01 X61.25650 Y6.98165
G01 X61.34428 Y7.03865
G01 X61.47959 Y7.13695
G01 X61.56092 Y7.20283
G01 X61.62647 Y7.26837
G01 X61.56092 Y7.20283
G01 X61.47959 Y7.13695
G01 X61.34428 Y7.03865
G01 X61.25650 Y6.98165
G01 X61.13163 Y6.92006
G01 X61.25269 Y6.87675
G01 X61.39823 Y6.81195
G01 X61.49150 Y6.76443
G01 X61.57928 Y6.70741
G01 X61.70816 Y6.61378
G01 X61.78949 Y6.54792
G01 X61.88047 Y6.45503
G01 X61.97148 Y6.54792
G01 X62.05281 Y6.61378
G01 X62.18169 Y6.70741
G01 X62.26948 Y6.76443
G01 X62.37649 Y6.81805
G01 X62.44611 Y6.82392
G01 X62.37882 Y6.81825
G01 X62.34027 Y6.82859
G01 X62.24253 Y6.86611
G01 X62.08975 Y6.93413
G01 X61.99648 Y6.98165
G01 X61.90869 Y7.03865
G01 X61.77339 Y7.13695
G01 X61.69206 Y7.20283
G01 X61.62647 Y7.26837
G01 X61.62647 Y50.45258
G01 X61.56092 Y50.51814
G01 X61.47959 Y50.58403
G01 X61.34428 Y50.68233
G01 X61.25650 Y50.73932
G01 X61.13173 Y50.80087
G01 X61.04799 Y50.80724
G01 X61.13171 Y50.80089
G01 X61.25650 Y50.73932
G01 X61.34428 Y50.68233
G01 X61.47959 Y50.58403
G01 X61.56092 Y50.51814
G01 X61.62647 Y50.45258
G01 X61.69206 Y50.51814
G01 X61.77339 Y50.58403
G01 X61.90869 Y50.68233
G01 X61.99648 Y50.73932
G01 X62.08975 Y50.78685
G01 X62.24253 Y50.85487
G01 X62.34027 Y50.89238
G01 X62.37872 Y50.90267
G01 X62.62050 Y50.88088
G01 X63.67285 Y50.80079
G01 X63.79269 Y50.84423
G01 X63.93823 Y50.90902
G01 X64.03150 Y50.95654
G01 X64.11928 Y51.01357
G01 X64.24816 Y51.10719
G01 X64.32949 Y51.17305
G01 X64.42047 Y51.26592
G01 X64.42050 Y52.48247
G01 X64.42047 Y54.71503
G01 X64.32949 Y54.80792
G01 X64.24816 Y54.87378
G01 X64.11928 Y54.96741
G01 X64.03150 Y55.02443
G01 X63.93823 Y55.07195
G01 X63.79269 Y55.13675
G01 X63.69497 Y55.17424
G01 X63.59388 Y55.20134
G01 X63.43805 Y55.23446
G01 X63.33468 Y55.25085
G01 X63.23013 Y55.25631
G01 X63.07085 Y55.25631
G01 X62.96630 Y55.25085
G01 X62.86292 Y55.23446
G01 X62.70709 Y55.20134
G01 X62.60600 Y55.17424
G01 X62.50829 Y55.13675
G01 X62.36274 Y55.07195
G01 X62.26948 Y55.02443
G01 X62.18169 Y54.96741
G01 X62.05281 Y54.87378
G01 X61.97148 Y54.80792
G01 X61.88047 Y54.71503
G04 P0 ( dwell for no time -- G64 should not smooth over this point )
G00 Z0.50000 ( retract )

G00 X64.42047 Y54.71503 ( rapid move to begin. )
G01 F300.00000
( Mill infeed pass 1/1 )
G01 Z-0.07500
G04 P0 ( dwell for no time -- G64 should not smooth over this point )
G01 F600.00000
G01 X64.42047 Y54.71503
G01 X64.51148 Y54.80792
G01 X64.59281 Y54.87378
G01 X64.72169 Y54.96741
G01 X64.80948 Y55.02443
G01 X64.90274 Y55.07195
G01 X65.04829 Y55.13675
G01 X65.14600 Y55.17424
G01 X65.24709 Y55.20134
G01 X65.40292 Y55.23446
G01 X65.50630 Y55.25085
G01 X65.61085 Y55.25631
G01 X65.77013 Y55.25631
G01 X65.87468 Y55.25085
G01 X65.97805 Y55.23446
G01 X66.13388 Y55.20134
G01 X66.23497 Y55.17424
G01 X66.33269 Y55.13675
G01 X66.47823 Y55.07195
G01 X66.57150 Y55.02443
G01 X66.65928 Y54.96741
G01 X66.78816 Y54.87378
G01 X66.86949 Y54.80792
G01 X66.94351 Y54.73391
G01 X67.05011 Y54.61552
G01 X67.11597 Y54.53416
G01 X67.17297 Y54.44638
G01 X67.25263 Y54.30843
G01 X67.30015 Y54.21516
G01 X67.33766 Y54.11742
G01 X67.38689 Y53.96594
G01 X67.41399 Y53.86482
G01 X67.43035 Y53.76144
G01 X67.44701 Y53.60302
G01 X67.45250 Y53.49847
G01 X67.45250 Y52.48247
G01 X67.44701 Y52.37795
G01 X67.43035 Y52.21953
G01 X67.41399 Y52.11616
G01 X67.38689 Y52.01504
G01 X67.33766 Y51.86353
G01 X67.30015 Y51.76579
G01 X67.25263 Y51.67254
G01 X67.17297 Y51.53460
G01 X67.11597 Y51.44682
G01 X67.05011 Y51.36546
G01 X66.94351 Y51.24707
G01 X66.86949 Y51.17305
G01 X66.78816 Y51.10719
G01 X66.65928 Y51.01357
G01 X66.57150 Y50.95654
G01 X66.47823 Y50.90902
G01 X66.33269 Y50.84423
G01 X66.23497 Y50.80673
G01 X66.13388 Y50.77963
G01 X65.97805 Y50.74651
G01 X65.87468 Y50.73013
G01 X65.77013 Y50.72467
G01 X65.61085 Y50.72467
G01 X65.50630 Y50.73013
G01 X65.40292 Y50.74651
G01 X65.24709 Y50.77963
G01 X65.14600 Y50.80673
G01 X65.04829 Y50.84423
G01 X64.90274 Y50.90902
G01 X64.80948 Y50.95654
G01 X64.72169 Y51.01357
G01 X64.59281 Y51.10719
G01 X64.51148 Y51.17305
G01 X64.42047 Y51.26592
G01 X64.32949 Y51.17305
G01 X64.24816 Y51.10719
G01 X64.11928 Y51.01357
G01 X64.03150 Y50.95654
G01 X63.93823 Y50.90902
G01 X63.79269 Y50.84423
G01 X63.69497 Y50.80673
G01 X63.67285 Y50.80079
G01 X63.58799 Y50.80724
G01 X63.67173 Y50.80087
G01 X63.79650 Y50.73932
G01 X63.88428 Y50.68233
G01 X64.01959 Y50.58403
G01 X64.10092 Y50.51814
G01 X64.17493 Y50.44412
G01 X64.28685 Y50.31984
G01 X64.35271 Y50.23851
G01 X64.40973 Y50.15070
G01 X64.49335 Y50.00587
G01 X64.54087 Y49.91260
G01 X64.57839 Y49.81489
G01 X64.63005 Y49.65584
G01 X64.65715 Y49.55472
G01 X64.67353 Y49.45134
G01 X64.69101 Y49.28502
G01 X64.69650 Y49.18050
G01 X64.69101 Y49.07595
G01 X64.67353 Y48.90963
G01 X64.65715 Y48.80626
G01 X64.63005 Y48.70514
G01 X64.57839 Y48.54608
G01 X64.54087 Y48.44837
G01 X64.49335 Y48.35510
G01 X64.40973 Y48.21027
G01 X64.35271 Y48.12246
G01 X64.28685 Y48.04113
G01 X64.16858 Y47.91047
G04 P0 ( dwell for no time -- G64 should not smooth over this point )
G00 Z0.50000 ( retract )

G00 X64.16858 Y45.37047 ( rapid move to begin. )
G01 F300.00000
( Mill infeed pass 1/1 )
G01 Z-0.07500
G04 P0 ( dwell for no time -- G64 should not smooth over this point )
G01 F600.00000
G01 X64.16858 Y45.37047
G01 X64.28685 Y45.23984
G01 X64.35271 Y45.15851
G01 X64.40973 Y45.07070
G01 X64.49335 Y44.92587
G01 X64.54087 Y44.83260
G01 X64.57839 Y44.73489
G01 X64.63005 Y44.57584
G01 X64.65715 Y44.47472
G01 X64.67353 Y44.37134
G01 X64.69101 Y44.20502
G01 X64.69650 Y44.10050
G01 X64.69101 Y43.99595
G01 X64.67353 Y43.82963
G01 X64.65715 Y43.72626
G01 X64.63005 Y43.62514
G01 X64.57839 Y43.46608
G01 X64.54087 Y43.36837
G01 X64.49335 Y43.27510
G01 X64.40973 Y43.13027
G01 X64.35271 Y43.04246
G01 X64.28685 Y42.96113
G01 X64.16858 Y42.83047
G04 P0 ( dwell for no time -- G64 should not smooth over this point )
G00 Z0.50000 ( retract )

G00 X64.16858 Y40.29047 ( rapid move to begin. )
G01 F300.00000
( Mill infeed pass 1/1 )
G01 Z-0.07500
G04 P0 ( dwell for no time -- G64 should not smooth over this point )
G01 F600.00000
G01 X64.16858 Y40.29047
G01 X64.28685 Y40.15984
G01 X64.35271 Y40.07851
G01 X64.40973 Y39.99070
G01 X64.49335 Y39.84587
G01 X64.54087 Y39.75260
G01 X64.57839 Y39.65489
G01 X64.63005 Y39.49584
G01 X64.65715 Y39.39472
G01 X64.67353 Y39.29134
G01 X64.69101 Y39.12502
G01 X64.69650 Y39.02050
G01 X64.69101 Y38.91595
G01 X64.67353 Y38.74963
G01 X64.65715 Y38.64626
G01 X64.63005 Y38.54514
G01 X64.57839 Y38.38608
G01 X64.54087 Y38.28837
G01 X64.49335 Y38.19510
G01 X64.40973 Y38.05027
G01 X64.35271 Y37.96246
G01 X64.28685 Y37.88113
G01 X64.16856 Y37.75047
G04 P0 ( dwell for no time -- G64 should not smooth over this point )
G00 Z0.50000 ( retract )

G00 X69.44891 Y31.40047 ( rapid move to begin. )
G01 F300.00000
( Mill infeed pass 1/1 )
G01 Z-0.07500
G04 P0 ( dwell for no time -- G64 should not smooth over this point )
G01 F600.00000
G01 X69.44891 Y31.40047
G01 X69.59011 Y31.55346
G01 X69.65597 Y31.63481
G01 X69.71297 Y31.72260
G01 X69.79263 Y31.86054
G01 X69.84015 Y31.95381
G01 X69.87766 Y32.05153
G01 X69.92689 Y32.20304
G01 X69.95399 Y32.30416
G01 X69.97035 Y32.40753
G01 X69.98701 Y32.56595
G01 X69.99250 Y32.67050
G01 X69.98701 Y32.77502
G01 X69.97035 Y32.93344
G01 X69.95399 Y33.03682
G01 X69.92689 Y33.13794
G01 X69.87766 Y33.28945
G01 X69.84015 Y33.38716
G01 X69.79263 Y33.48043
G01 X69.71297 Y33.61838
G01 X69.65597 Y33.70616
G01 X69.59011 Y33.78752
G01 X69.48351 Y33.90591
G01 X69.40949 Y33.97992
G01 X69.32816 Y34.04578
G01 X69.19928 Y34.13941
G01 X69.11150 Y34.19643
G01 X69.01823 Y34.24395
G01 X68.87269 Y34.30875
G01 X68.77497 Y34.34624
G01 X68.67388 Y34.37334
G01 X68.51805 Y34.40646
G01 X68.41468 Y34.42285
G01 X68.31013 Y34.42831
G01 X68.15085 Y34.42831
G01 X68.04630 Y34.42285
G01 X67.94292 Y34.40646
G01 X67.78709 Y34.37334
G01 X67.68600 Y34.34624
G01 X67.58829 Y34.30875
G01 X67.44274 Y34.24395
G01 X67.34948 Y34.19643
G01 X67.26169 Y34.13941
G01 X67.13281 Y34.04578
G01 X67.05148 Y33.97992
G01 X66.96047 Y33.88701
G04 P0 ( dwell for no time -- G64 should not smooth over this point )
G00 Z0.50000 ( retract )

G00 X64.02771 Y32.67047 ( rapid move to begin. )
G01 F300.00000
( Mill infeed pass 1/1 )
G01 Z-0.07500
G04 P0 ( dwell for no time -- G64 should not smooth over this point )
G01 F600.00000
G01 X64.02771 Y32.67047
G01 X64.40447 Y31.83598
G01 X64.60539 Y31.40047
G01 X66.90891 Y31.40047
G01 X66.96047 Y31.45392
G01 X67.01204 Y31.40047
G01 X66.96047 Y31.45392
G01 X66.96047 Y33.88701
G01 X66.86949 Y33.97992
G01 X66.78816 Y34.04578
G01 X66.65928 Y34.13941
G01 X66.57150 Y34.19643
G01 X66.47823 Y34.24395
G01 X66.33269 Y34.30875
G01 X66.23497 Y34.34624
G01 X66.13388 Y34.37334
G01 X65.97805 Y34.40646
G01 X65.87468 Y34.42285
G01 X65.77013 Y34.42831
G01 X65.61085 Y34.42831
G01 X65.50630 Y34.42285
G01 X65.40292 Y34.40646
G01 X65.24709 Y34.37334
G01 X65.14600 Y34.34624
G01 X65.04829 Y34.30875
G01 X64.90274 Y34.24395
G01 X64.80948 Y34.19643
G01 X64.68397 Y34.11200
G01 X64.67353 Y34.21134
G01 X64.65715 Y34.31472
G01 X64.63005 Y34.41584
G01 X64.57839 Y34.57489
G01 X64.54087 Y34.67260
G01 X64.49335 Y34.76587
G01 X64.40973 Y34.91070
G01 X64.35271 Y34.99851
G01 X64.28685 Y35.07984
G01 X64.16856 Y35.21047
G01 X64.28685 Y35.07984
G01 X64.35271 Y34.99851
G01 X64.40973 Y34.91070
G01 X64.49335 Y34.76587
G01 X64.54087 Y34.67260
G01 X64.57839 Y34.57489
G01 X64.63005 Y34.41584
G01 X64.65715 Y34.31472
G01 X64.67353 Y34.21134
G01 X64.68397 Y34.11200
G01 X64.40447 Y33.50497
G01 X64.02771 Y32.67047
G01 X3.20437 Y32.67047
G01 X3.08613 Y32.80113
G01 X3.02027 Y32.88246
G01 X2.96324 Y32.97027
G01 X2.87963 Y33.11510
G01 X2.83210 Y33.20837
G01 X2.79459 Y33.30608
G01 X2.74292 Y33.46514
G01 X2.71582 Y33.56626
G01 X2.69944 Y33.66963
G01 X2.68196 Y33.83595
G01 X2.67648 Y33.94050
G01 X2.68196 Y34.04502
G01 X2.69944 Y34.21134
G01 X2.71582 Y34.31472
G01 X2.74292 Y34.41584
G01 X2.79459 Y34.57489
G01 X2.83210 Y34.67260
G01 X2.87963 Y34.76587
G01 X2.96324 Y34.91070
G01 X3.02027 Y34.99851
G01 X3.08613 Y35.07984
G01 X3.20437 Y35.21047
G01 X64.16856 Y35.21047
G01 X64.28685 Y35.34113
G01 X64.35271 Y35.42246
G01 X64.40973 Y35.51027
G01 X64.49335 Y35.65510
G01 X64.54087 Y35.74837
G01 X64.57839 Y35.84608
G01 X64.63005 Y36.00514
G01 X64.65715 Y36.10626
G01 X64.67353 Y36.20963
G01 X64.69101 Y36.37595
G01 X64.69650 Y36.48050
G01 X64.69101 Y36.58502
G01 X64.67353 Y36.75134
G01 X64.65715 Y36.85472
G01 X64.63005 Y36.95584
G01 X64.57839 Y37.11489
G01 X64.54087 Y37.21260
G01 X64.49335 Y37.30587
G01 X64.40973 Y37.45070
G01 X64.35271 Y37.53851
G01 X64.28685 Y37.61984
G01 X64.16856 Y37.75047
G01 X3.20437 Y37.75047
G01 X3.08613 Y37.88113
G01 X3.02027 Y37.96246
G01 X2.96324 Y38.05027
G01 X2.87963 Y38.19510
G01 X2.83210 Y38.28837
G01 X2.79459 Y38.38608
G01 X2.74292 Y38.54514
G01 X2.71582 Y38.64626
G01 X2.69944 Y38.74963
G01 X2.68196 Y38.91595
G01 X2.67648 Y39.02050
G01 X2.68196 Y39.12502
G01 X2.69944 Y39.29134
G01 X2.71582 Y39.39472
G01 X2.74292 Y39.49584
G01 X2.79459 Y39.65489
G01 X2.83210 Y39.75260
G01 X2.87963 Y39.84587
G01 X2.96324 Y39.99070
G01 X3.02027 Y40.07851
G01 X3.08613 Y40.15984
G01 X3.20437 Y40.29047
G01 X64.16858 Y40.29047
G01 X64.28685 Y40.42113
G01 X64.35271 Y40.50246
G01 X64.40973 Y40.59027
G01 X64.49335 Y40.73510
G01 X64.54087 Y40.82837
G01 X64.57839 Y40.92608
G01 X64.63005 Y41.08514
G01 X64.65715 Y41.18626
G01 X64.67353 Y41.28963
G01 X64.69101 Y41.45595
G01 X64.69650 Y41.56050
G01 X64.69101 Y41.66502
G01 X64.67353 Y41.83134
G01 X64.65715 Y41.93472
G01 X64.63005 Y42.03584
G01 X64.57839 Y42.19489
G01 X64.54087 Y42.29260
G01 X64.49335 Y42.38587
G01 X64.40973 Y42.53070
G01 X64.35271 Y42.61851
G01 X64.28685 Y42.69984
G01 X64.16858 Y42.83047
G01 X3.20437 Y42.83047
G01 X3.08613 Y42.96113
G01 X3.02027 Y43.04246
G01 X2.96324 Y43.13027
G01 X2.87963 Y43.27510
G01 X2.83210 Y43.36837
G01 X2.79459 Y43.46608
G01 X2.74292 Y43.62514
G01 X2.71582 Y43.72626
G01 X2.69944 Y43.82963
G01 X2.68196 Y43.99595
G01 X2.67648 Y44.10050
G01 X2.68196 Y44.20502
G01 X2.69944 Y44.37134
G01 X2.71582 Y44.47472
G01 X2.74292 Y44.57584
G01 X2.79459 Y44.73489
G01 X2.83210 Y44.83260
G01 X2.87963 Y44.92587
G01 X2.96324 Y45.07070
G01 X3.02027 Y45.15851
G01 X3.08613 Y45.23984
G01 X3.20437 Y45.37047
G01 X64.16858 Y45.37047
G01 X64.28685 Y45.50113
G01 X64.35271 Y45.58246
G01 X64.40973 Y45.67027
G01 X64.49335 Y45.81510
G01 X64.54087 Y45.90837
G01 X64.57839 Y46.00608
G01 X64.63005 Y46.16514
G01 X64.65715 Y46.26626
G01 X64.67353 Y46.36963
G01 X64.69101 Y46.53595
G01 X64.69650 Y46.64050
G01 X64.69101 Y46.74502
G01 X64.67353 Y46.91134
G01 X64.65715 Y47.01472
G01 X64.63005 Y47.11584
G01 X64.57839 Y47.27489
G01 X64.54087 Y47.37260
G01 X64.49335 Y47.46587
G01 X64.40973 Y47.61070
G01 X64.35271 Y47.69851
G01 X64.28685 Y47.77984
G01 X64.16858 Y47.91047
G01 X3.20437 Y47.91047
G01 X3.08613 Y48.04113
G01 X3.02027 Y48.12246
G01 X2.96324 Y48.21027
G01 X2.87963 Y48.35510
G01 X2.83210 Y48.44837
G01 X2.79459 Y48.54608
G01 X2.74292 Y48.70514
G01 X2.71582 Y48.80626
G01 X2.69944 Y48.90963
G01 X2.68196 Y49.07595
G01 X2.67648 Y49.18050
G01 X2.68196 Y49.28502
G01 X2.69944 Y49.45134
G01 X2.71582 Y49.55472
G01 X2.74292 Y49.65584
G01 X2.79459 Y49.81489
G01 X2.83210 Y49.91260
G01 X2.87963 Y50.00587
G01 X2.96324 Y50.15070
G01 X3.02027 Y50.23851
G01 X3.08613 Y50.31984
G01 X3.19804 Y50.44412
G01 X3.27206 Y50.51814
G01 X3.35339 Y50.58403
G01 X3.48869 Y50.68233
G01 X3.57648 Y50.73932
G01 X3.66975 Y50.78685
G01 X3.82253 Y50.85487
G01 X3.92024 Y50.89238
G01 X4.02136 Y50.91949
G01 X4.18496 Y50.95426
G01 X4.28834 Y50.97062
G01 X4.39286 Y50.97610
G01 X4.56012 Y50.97610
G01 X4.66464 Y50.97062
G01 X4.76802 Y50.95426
G01 X4.93162 Y50.91949
G01 X5.03271 Y50.89238
G01 X5.13045 Y50.85487
G01 X5.28323 Y50.78685
G01 X5.37650 Y50.73932
G01 X5.46428 Y50.68233
G01 X5.59959 Y50.58403
G01 X5.68092 Y50.51814
G01 X5.74647 Y50.45258
G01 X5.74647 Y7.26839
G01 X5.68092 Y7.20283
G01 X5.59959 Y7.13695
G01 X5.46428 Y7.03865
G01 X5.37650 Y6.98165
G01 X5.24648 Y6.91774
G01 X5.13045 Y6.86611
G01 X5.03271 Y6.82859
G01 X4.93162 Y6.80149
G01 X4.76802 Y6.76672
G01 X4.66464 Y6.75036
G01 X4.56012 Y6.74487
G01 X4.39286 Y6.74487
G01 X4.28834 Y6.75036
G01 X4.18496 Y6.76672
G01 X4.02136 Y6.80149
G01 X3.92024 Y6.82859
G01 X3.82253 Y6.86611
G01 X3.66975 Y6.93413
G01 X3.57648 Y6.98165
G01 X3.48869 Y7.03865
G01 X3.35339 Y7.13695
G01 X3.27206 Y7.20283
G01 X3.19804 Y7.27682
G01 X3.08613 Y7.40113
G01 X3.02027 Y7.48246
G01 X2.96324 Y7.57025
G01 X2.87963 Y7.71510
G01 X2.83210 Y7.80837
G01 X2.79459 Y7.90608
G01 X2.74292 Y8.06514
G01 X2.71582 Y8.16626
G01 X2.69944 Y8.26963
G01 X2.68196 Y8.43595
G01 X2.67648 Y8.54050
G01 X2.68196 Y8.64502
G01 X2.69944 Y8.81134
G01 X2.71582 Y8.91472
G01 X2.74292 Y9.01584
G01 X2.79459 Y9.17489
G01 X2.83210 Y9.27260
G01 X2.87963 Y9.36587
G01 X2.96324 Y9.51070
G01 X3.02027 Y9.59851
G01 X3.08613 Y9.67984
G01 X3.20437 Y9.81047
G04 P0 ( dwell for no time -- G64 should not smooth over this point )
G00 Z0.50000 ( retract )

G00 X3.20437 Y12.35047 ( rapid move to begin. )
G01 F300.00000
( Mill infeed pass 1/1 )
G01 Z-0.07500
G04 P0 ( dwell for no time -- G64 should not smooth over this point )
G01 F600.00000
G01 X3.20437 Y12.35047
G01 X3.08613 Y12.21984
G01 X3.02027 Y12.13851
G01 X2.96324 Y12.05070
G01 X2.87963 Y11.90587
G01 X2.83210 Y11.81260
G01 X2.79459 Y11.71489
G01 X2.74292 Y11.55584
G01 X2.71582 Y11.45472
G01 X2.69944 Y11.35134
G01 X2.68196 Y11.18502
G01 X2.67648 Y11.08050
G01 X2.68196 Y10.97595
G01 X2.69944 Y10.80963
G01 X2.71582 Y10.70626
G01 X2.74292 Y10.60514
G01 X2.79459 Y10.44608
G01 X2.83210 Y10.34837
G01 X2.87963 Y10.25510
G01 X2.96324 Y10.11027
G01 X3.02027 Y10.02246
G01 X3.08613 Y9.94113
G01 X3.20437 Y9.81047
G01 X64.16858 Y9.81047
G01 X64.28685 Y9.67984
G01 X64.35271 Y9.59851
G01 X64.40973 Y9.51070
G01 X64.49335 Y9.36587
G01 X64.54087 Y9.27260
G01 X64.57839 Y9.17489
G01 X64.63005 Y9.01584
G01 X64.65715 Y8.91472
G01 X64.67353 Y8.81134
G01 X64.69101 Y8.64502
G01 X64.69650 Y8.54050
G01 X64.69101 Y8.43595
G01 X64.67353 Y8.26963
G01 X64.65715 Y8.16626
G01 X64.63005 Y8.06514
G01 X64.57839 Y7.90608
G01 X64.54087 Y7.80837
G01 X64.49335 Y7.71510
G01 X64.40973 Y7.57025
G01 X64.35271 Y7.48246
G01 X64.28685 Y7.40113
G01 X64.17493 Y7.27682
G01 X64.10092 Y7.20283
G01 X64.01959 Y7.13695
G01 X63.88428 Y7.03865
G01 X63.79650 Y6.98165
G01 X63.67163 Y6.92006
G01 X62.62050 Y6.84007
G01 X62.37649 Y6.81805
G01 X62.26948 Y6.76443
G01 X62.18169 Y6.70741
G01 X62.05281 Y6.61378
G01 X61.97148 Y6.54792
G01 X61.88047 Y6.45503
G01 X61.88047 Y3.00592
G01 X61.78949 Y2.91305
G01 X61.70816 Y2.84719
G01 X61.57928 Y2.75357
G01 X61.49150 Y2.69654
G01 X61.39823 Y2.64902
G01 X61.25269 Y2.58423
G01 X61.15497 Y2.54673
G01 X61.05388 Y2.51963
G01 X60.89805 Y2.48651
G01 X60.79468 Y2.47013
G01 X60.69013 Y2.46467
G01 X60.53085 Y2.46467
G01 X60.42630 Y2.47013
G01 X60.32292 Y2.48651
G01 X60.16709 Y2.51963
G01 X60.06600 Y2.54673
G01 X59.96829 Y2.58423
G01 X59.82274 Y2.64902
G01 X59.72948 Y2.69654
G01 X59.64169 Y2.75357
G01 X59.51281 Y2.84719
G01 X59.43148 Y2.91305
G01 X59.34047 Y3.00592
G01 X59.34047 Y6.45503
G01 X59.43148 Y6.54792
G01 X59.51281 Y6.61378
G01 X59.64169 Y6.70741
G01 X59.72948 Y6.76443
G01 X59.83649 Y6.81805
G01 X59.90611 Y6.82394
G01 X59.83649 Y6.81805
G01 X59.72948 Y6.76443
G01 X59.64169 Y6.70741
G01 X59.51281 Y6.61378
G01 X59.43148 Y6.54792
G01 X59.34047 Y6.45503
G01 X59.24949 Y6.54792
G01 X59.16816 Y6.61378
G01 X59.03928 Y6.70741
G01 X58.95150 Y6.76443
G01 X58.85823 Y6.81195
G01 X58.71269 Y6.87675
G01 X58.59293 Y6.92016
G01 X57.54050 Y6.84007
G01 X57.29649 Y6.81805
G01 X57.18948 Y6.76443
G01 X57.10169 Y6.70741
G01 X56.97281 Y6.61378
G01 X56.89148 Y6.54792
G01 X56.80047 Y6.45503
G01 X56.80047 Y3.00592
G01 X56.70949 Y2.91305
G01 X56.62816 Y2.84719
G01 X56.49928 Y2.75357
G01 X56.41150 Y2.69654
G01 X56.31823 Y2.64902
G01 X56.17269 Y2.58423
G01 X56.07497 Y2.54673
G01 X55.97388 Y2.51963
G01 X55.81805 Y2.48651
G01 X55.71468 Y2.47013
G01 X55.61013 Y2.46467
G01 X55.45085 Y2.46467
G01 X55.34630 Y2.47013
G01 X55.24292 Y2.48651
G01 X55.08709 Y2.51963
G01 X54.98600 Y2.54673
G01 X54.88829 Y2.58423
G01 X54.74274 Y2.64902
G01 X54.64948 Y2.69654
G01 X54.56169 Y2.75357
G01 X54.43281 Y2.84719
G01 X54.35148 Y2.91305
G01 X54.26047 Y3.00592
G01 X54.26047 Y6.45503
G01 X54.35148 Y6.54792
G01 X54.43281 Y6.61378
G01 X54.56169 Y6.70741
G01 X54.64948 Y6.76443
G01 X54.75649 Y6.81805
G01 X54.82611 Y6.82392
G01 X54.75649 Y6.81805
G01 X54.64948 Y6.76443
G01 X54.56169 Y6.70741
G01 X54.43281 Y6.61378
G01 X54.35148 Y6.54792
G01 X54.26047 Y6.45503
G01 X54.16949 Y6.54792
G01 X54.08816 Y6.61378
G01 X53.95928 Y6.70741
G01 X53.87150 Y6.76443
G01 X53.77820 Y6.81195
G01 X53.63269 Y6.87675
G01 X53.53497 Y6.91424
G01 X53.51293 Y6.92016
G01 X52.46048 Y6.84007
G01 X52.21880 Y6.81825
G01 X52.18027 Y6.82859
G01 X52.08250 Y6.86611
G01 X51.92975 Y6.93413
G01 X51.83645 Y6.98165
G01 X51.74869 Y7.03865
G01 X51.61339 Y7.13695
G01 X51.53206 Y7.20283
G01 X51.46647 Y7.26837
G01 X51.53206 Y7.20283
G01 X51.61339 Y7.13695
G01 X51.74869 Y7.03865
G01 X51.83645 Y6.98165
G01 X51.92975 Y6.93413
G01 X52.08250 Y6.86611
G01 X52.18027 Y6.82859
G01 X52.21880 Y6.81825
G01 X52.28611 Y6.82392
G01 X52.21646 Y6.81805
G01 X52.10945 Y6.76443
G01 X52.02169 Y6.70741
G01 X51.89281 Y6.61378
G01 X51.81148 Y6.54792
G01 X51.73747 Y6.47391
G01 X51.63086 Y6.35552
G01 X51.56498 Y6.27416
G01 X51.50800 Y6.18638
G01 X51.42835 Y6.04843
G01 X51.38083 Y5.95516
G01 X51.34331 Y5.85745
G01 X51.29408 Y5.70594
G01 X51.26698 Y5.60482
G01 X51.25063 Y5.50144
G01 X51.23396 Y5.34302
G01 X51.22848 Y5.23847
G01 X51.22848 Y4.22250
G01 X51.23396 Y4.11795
G01 X51.25063 Y3.95953
G01 X51.26698 Y3.85616
G01 X51.29408 Y3.75504
G01 X51.34331 Y3.60353
G01 X51.38083 Y3.50581
G01 X51.42835 Y3.41254
G01 X51.50800 Y3.27460
G01 X51.56498 Y3.18681
G01 X51.63086 Y3.10546
G01 X51.73747 Y2.98707
G01 X51.81148 Y2.91305
G01 X51.89281 Y2.84719
G01 X52.02169 Y2.75357
G01 X52.10945 Y2.69654
G01 X52.20274 Y2.64902
G01 X52.34829 Y2.58423
G01 X52.44600 Y2.54673
G01 X52.54709 Y2.51963
G01 X52.70292 Y2.48651
G01 X52.80627 Y2.47013
G01 X52.91085 Y2.46467
G01 X53.07013 Y2.46467
G01 X53.17468 Y2.47013
G01 X53.27805 Y2.48651
G01 X53.43388 Y2.51963
G01 X53.53497 Y2.54673
G01 X53.63269 Y2.58423
G01 X53.77820 Y2.64902
G01 X53.87150 Y2.69654
G01 X53.95928 Y2.75357
G01 X54.08816 Y2.84719
G01 X54.16949 Y2.91305
G01 X54.26047 Y3.00592
G04 P0 ( dwell for no time -- G64 should not smooth over this point )
G00 Z0.50000 ( retract )

G00 X56.80047 Y3.00592 ( rapid move to begin. )
G01 F300.00000
( Mill infeed pass 1/1 )
G01 Z-0.07500
G04 P0 ( dwell for no time -- G64 should not smooth over this point )
G01 F600.00000
G01 X56.80047 Y3.00592
G01 X56.89148 Y2.91305
G01 X56.97281 Y2.84719
G01 X57.10169 Y2.75357
G01 X57.18948 Y2.69654
G01 X57.28274 Y2.64902
G01 X57.42829 Y2.58423
G01 X57.52600 Y2.54673
G01 X57.62709 Y2.51963
G01 X57.78292 Y2.48651
G01 X57.88630 Y2.47013
G01 X57.99085 Y2.46467
G01 X58.15013 Y2.46467
G01 X58.25468 Y2.47013
G01 X58.35805 Y2.48651
G01 X58.51388 Y2.51963
G01 X58.61497 Y2.54673
G01 X58.71269 Y2.58423
G01 X58.85823 Y2.64902
G01 X58.95150 Y2.69654
G01 X59.03928 Y2.75357
G01 X59.16816 Y2.84719
G01 X59.24949 Y2.91305
G01 X59.34047 Y3.00592
G04 P0 ( dwell for no time -- G64 should not smooth over this point )
G00 Z0.50000 ( retract )

G00 X61.88047 Y3.00592 ( rapid move to begin. )
G01 F300.00000
( Mill infeed pass 1/1 )
G01 Z-0.07500
G04 P0 ( dwell for no time -- G64 should not smooth over this point )
G01 F600.00000
G01 X61.88047 Y3.00592
G01 X61.97148 Y2.91305
G01 X62.05281 Y2.84719
G01 X62.18169 Y2.75357
G01 X62.26948 Y2.69654
G01 X62.36274 Y2.64902
G01 X62.50829 Y2.58423
G01 X62.60600 Y2.54673
G01 X62.70709 Y2.51963
G01 X62.86292 Y2.48651
G01 X62.96630 Y2.47013
G01 X63.07085 Y2.46467
G01 X63.23013 Y2.46467
G01 X63.33468 Y2.47013
G01 X63.43805 Y2.48651
G01 X63.59388 Y2.51963
G01 X63.69497 Y2.54673
G01 X63.79269 Y2.58423
G01 X63.93823 Y2.64902
G01 X64.03150 Y2.69654
G01 X64.11928 Y2.75357
G01 X64.24816 Y2.84719
G01 X64.32949 Y2.91305
G01 X64.42047 Y3.00592
G01 X64.42047 Y6.45503
G01 X64.32949 Y6.54792
G01 X64.24816 Y6.61378
G01 X64.11928 Y6.70741
G01 X64.03150 Y6.76443
G01 X63.93823 Y6.81195
G01 X63.79269 Y6.87675
G01 X63.67163 Y6.92006
G01 X63.79269 Y6.87675
G01 X63.93823 Y6.81195
G01 X64.03150 Y6.76443
G01 X64.11928 Y6.70741
G01 X64.24816 Y6.61378
G01 X64.32949 Y6.54792
G01 X64.42047 Y6.45503
G01 X64.51148 Y6.54792
G01 X64.59281 Y6.61378
G01 X64.72169 Y6.70741
G01 X64.80948 Y6.76443
G01 X64.90274 Y6.81195
G01 X65.04829 Y6.87675
G01 X65.14600 Y6.91424
G01 X65.24709 Y6.94134
G01 X65.40292 Y6.97446
G01 X65.50630 Y6.99085
G01 X65.61085 Y6.99631
G01 X65.77013 Y6.99631
G01 X65.87468 Y6.99085
G01 X65.97805 Y6.97446
G01 X66.13388 Y6.94134
G01 X66.23497 Y6.91424
G01 X66.33269 Y6.87675
G01 X66.47823 Y6.81195
G01 X66.57150 Y6.76443
G01 X66.65928 Y6.70741
G01 X66.78816 Y6.61378
G01 X66.86949 Y6.54792
G01 X66.94351 Y6.47391
G01 X67.05011 Y6.35552
G01 X67.11597 Y6.27416
G01 X67.17297 Y6.18638
G01 X67.25263 Y6.04843
G01 X67.30015 Y5.95516
G01 X67.33766 Y5.85745
G01 X67.38689 Y5.70594
G01 X67.41399 Y5.60482
G01 X67.43035 Y5.50144
G01 X67.44701 Y5.34302
G01 X67.45250 Y5.23847
G01 X67.45250 Y4.22250
G01 X67.44701 Y4.11795
G01 X67.43035 Y3.95953
G01 X67.41399 Y3.85616
G01 X67.38689 Y3.75504
G01 X67.33766 Y3.60353
G01 X67.30015 Y3.50581
G01 X67.25263 Y3.41254
G01 X67.17297 Y3.27460
G01 X67.11597 Y3.18681
G01 X67.05011 Y3.10546
G01 X66.94351 Y2.98707
G01 X66.86949 Y2.91305
G01 X66.78816 Y2.84719
G01 X66.65928 Y2.75357
G01 X66.57150 Y2.69654
G01 X66.47823 Y2.64902
G01 X66.33269 Y2.58423
G01 X66.23497 Y2.54673
G01 X66.13388 Y2.51963
G01 X65.97805 Y2.48651
G01 X65.87468 Y2.47013
G01 X65.77013 Y2.46467
G01 X65.61085 Y2.46467
G01 X65.50630 Y2.47013
G01 X65.40292 Y2.48651
G01 X65.24709 Y2.51963
G01 X65.14600 Y2.54673
G01 X65.04829 Y2.58423
G01 X64.90274 Y2.64902
G01 X64.80948 Y2.69654
G01 X64.72169 Y2.75357
G01 X64.59281 Y2.84719
G01 X64.51148 Y2.91305
G01 X64.42047 Y3.00592
G04 P0 ( dwell for no time -- G64 should not smooth over this point )
G00 Z0.50000 ( retract )

G00 X64.16858 Y9.81047 ( rapid move to begin. )
G01 F300.00000
( Mill infeed pass 1/1 )
G01 Z-0.07500
G04 P0 ( dwell for no time -- G64 should not smooth over this point )
G01 F600.00000
G01 X64.16858 Y9.81047
G01 X64.28685 Y9.94113
G01 X64.35271 Y10.02246
G01 X64.40973 Y10.11027
G01 X64.49335 Y10.25510
G01 X64.54087 Y10.34837
G01 X64.57839 Y10.44608
G01 X64.63005 Y10.60514
G01 X64.65715 Y10.70626
G01 X64.67353 Y10.80963
G01 X64.69101 Y10.97595
G01 X64.69650 Y11.08050
G01 X64.69101 Y11.18502
G01 X64.67353 Y11.35134
G01 X64.65715 Y11.45472
G01 X64.63005 Y11.55584
G01 X64.57839 Y11.71489
G01 X64.54087 Y11.81260
G01 X64.49335 Y11.90587
G01 X64.40973 Y12.05070
G01 X64.35271 Y12.13851
G01 X64.28685 Y12.21984
G01 X64.16856 Y12.35047
G01 X3.20437 Y12.35047
G01 X3.08613 Y12.48113
G01 X3.02027 Y12.56246
G01 X2.96324 Y12.65027
G01 X2.87963 Y12.79510
G01 X2.83210 Y12.88837
G01 X2.79459 Y12.98608
G01 X2.74292 Y13.14514
G01 X2.71582 Y13.24626
G01 X2.69944 Y13.34963
G01 X2.68196 Y13.51595
G01 X2.67648 Y13.62047
G01 X2.68196 Y13.72502
G01 X2.69944 Y13.89134
G01 X2.71582 Y13.99472
G01 X2.74292 Y14.09584
G01 X2.79459 Y14.25489
G01 X2.83210 Y14.35260
G01 X2.87963 Y14.44587
G01 X2.96324 Y14.59070
G01 X3.02027 Y14.67851
G01 X3.08613 Y14.75984
G01 X3.20437 Y14.89047
G04 P0 ( dwell for no time -- G64 should not smooth over this point )
G00 Z0.50000 ( retract )

G00 X3.20437 Y17.43047 ( rapid move to begin. )
G01 F300.00000
( Mill infeed pass 1/1 )
G01 Z-0.07500
G04 P0 ( dwell for no time -- G64 should not smooth over this point )
G01 F600.00000
G01 X3.20437 Y17.43047
G01 X3.08613 Y17.29984
G01 X3.02027 Y17.21851
G01 X2.96324 Y17.13070
G01 X2.87963 Y16.98587
G01 X2.83210 Y16.89260
G01 X2.79459 Y16.79489
G01 X2.74292 Y16.63584
G01 X2.71582 Y16.53472
G01 X2.69944 Y16.43134
G01 X2.68196 Y16.26502
G01 X2.67648 Y16.16050
G01 X2.68196 Y16.05595
G01 X2.69944 Y15.88963
G01 X2.71582 Y15.78626
G01 X2.74292 Y15.68514
G01 X2.79459 Y15.52608
G01 X2.83210 Y15.42837
G01 X2.87963 Y15.33510
G01 X2.96324 Y15.19027
G01 X3.02027 Y15.10246
G01 X3.08613 Y15.02113
G01 X3.20437 Y14.89047
G01 X64.16856 Y14.89047
G01 X64.28685 Y14.75984
G01 X64.35271 Y14.67851
G01 X64.40973 Y14.59070
G01 X64.49335 Y14.44587
G01 X64.54087 Y14.35260
G01 X64.57839 Y14.25489
G01 X64.63005 Y14.09584
G01 X64.65715 Y13.99472
G01 X64.67353 Y13.89134
G01 X64.69101 Y13.72502
G01 X64.69650 Y13.62047
G01 X64.69101 Y13.51595
G01 X64.67353 Y13.34963
G01 X64.65715 Y13.24626
G01 X64.63005 Y13.14514
G01 X64.57839 Y12.98608
G01 X64.54087 Y12.88837
G01 X64.49335 Y12.79510
G01 X64.40973 Y12.65027
G01 X64.35271 Y12.56246
G01 X64.28685 Y12.48113
G01 X64.16856 Y12.35047
G04 P0 ( dwell for no time -- G64 should not smooth over this point )
G00 Z0.50000 ( retract )

G00 X64.16856 Y14.89047 ( rapid move to begin. )
G01 F300.00000
( Mill infeed pass 1/1 )
G01 Z-0.07500
G04 P0 ( dwell for no time -- G64 should not smooth over this point )
G01 F600.00000
G01 X64.16856 Y14.89047
G01 X64.28685 Y15.02113
G01 X64.35271 Y15.10246
G01 X64.40973 Y15.19027
G01 X64.49335 Y15.33510
G01 X64.54087 Y15.42837
G01 X64.57839 Y15.52608
G01 X64.63005 Y15.68514
G01 X64.65715 Y15.78626
G01 X64.67353 Y15.88963
G01 X64.69101 Y16.05595
G01 X64.69650 Y16.16050
G01 X64.69101 Y16.26502
G01 X64.67353 Y16.43134
G01 X64.65715 Y16.53472
G01 X64.63005 Y16.63584
G01 X64.57839 Y16.79489
G01 X64.54087 Y16.89260
G01 X64.49335 Y16.98587
G01 X64.40973 Y17.13070
G01 X64.35271 Y17.21851
G01 X64.28685 Y17.29984
G01 X64.16858 Y17.43047
G01 X3.20437 Y17.43047
G01 X3.08613 Y17.56113
G01 X3.02027 Y17.64246
G01 X2.96324 Y17.73027
G01 X2.87963 Y17.87510
G01 X2.83210 Y17.96837
G01 X2.79459 Y18.06608
G01 X2.74292 Y18.22514
G01 X2.71582 Y18.32626
G01 X2.69944 Y18.42963
G01 X2.68196 Y18.59595
G01 X2.67648 Y18.70050
G01 X2.68196 Y18.80502
G01 X2.69944 Y18.97134
G01 X2.71582 Y19.07472
G01 X2.74292 Y19.17584
G01 X2.79459 Y19.33489
G01 X2.83210 Y19.43260
G01 X2.87963 Y19.52587
G01 X2.96324 Y19.67070
G01 X3.02027 Y19.75851
G01 X3.08613 Y19.83984
G01 X3.20437 Y19.97047
G04 P0 ( dwell for no time -- G64 should not smooth over this point )
G00 Z0.50000 ( retract )

G00 X3.20437 Y22.51047 ( rapid move to begin. )
G01 F300.00000
( Mill infeed pass 1/1 )
G01 Z-0.07500
G04 P0 ( dwell for no time -- G64 should not smooth over this point )
G01 F600.00000
G01 X3.20437 Y22.51047
G01 X3.08613 Y22.37984
G01 X3.02027 Y22.29851
G01 X2.96324 Y22.21070
G01 X2.87963 Y22.06587
G01 X2.83210 Y21.97260
G01 X2.79459 Y21.87489
G01 X2.74292 Y21.71584
G01 X2.71582 Y21.61472
G01 X2.69944 Y21.51134
G01 X2.68196 Y21.34502
G01 X2.67648 Y21.24050
G01 X2.68196 Y21.13595
G01 X2.69944 Y20.96963
G01 X2.71582 Y20.86626
G01 X2.74292 Y20.76514
G01 X2.79459 Y20.60608
G01 X2.83210 Y20.50837
G01 X2.87963 Y20.41510
G01 X2.96324 Y20.27027
G01 X3.02027 Y20.18246
G01 X3.08613 Y20.10113
G01 X3.20437 Y19.97047
G01 X64.16856 Y19.97047
G01 X64.28685 Y19.83984
G01 X64.35271 Y19.75851
G01 X64.40973 Y19.67070
G01 X64.49335 Y19.52587
G01 X64.54087 Y19.43260
G01 X64.57839 Y19.33489
G01 X64.63005 Y19.17584
G01 X64.65715 Y19.07472
G01 X64.67353 Y18.97134
G01 X64.69101 Y18.80502
G01 X64.69650 Y18.70050
G01 X64.69101 Y18.59595
G01 X64.67353 Y18.42963
G01 X64.65715 Y18.32626
G01 X64.63005 Y18.22514
G01 X64.57839 Y18.06608
G01 X64.54087 Y17.96837
G01 X64.49335 Y17.87510
G01 X64.40973 Y17.73027
G01 X64.35271 Y17.64246
G01 X64.28685 Y17.56113
G01 X64.16858 Y17.43047
G04 P0 ( dwell for no time -- G64 should not smooth over this point )
G00 Z0.50000 ( retract )

G00 X46.64047 Y3.00592 ( rapid move to begin. )
G01 F300.00000
( Mill infeed pass 1/1 )
G01 Z-0.07500
G04 P0 ( dwell for no time -- G64 should not smooth over this point )
G01 F600.00000
G01 X46.64047 Y3.00592
G01 X46.73148 Y2.91305
G01 X46.81281 Y2.84719
G01 X46.94169 Y2.75357
G01 X47.02948 Y2.69654
G01 X47.12274 Y2.64902
G01 X47.26829 Y2.58423
G01 X47.36600 Y2.54673
G01 X47.46709 Y2.51963
G01 X47.62292 Y2.48651
G01 X47.72630 Y2.47013
G01 X47.83085 Y2.46467
G01 X47.99013 Y2.46467
G01 X48.09468 Y2.47013
G01 X48.19805 Y2.48651
G01 X48.35388 Y2.51963
G01 X48.45497 Y2.54673
G01 X48.55269 Y2.58423
G01 X48.69823 Y2.64902
G01 X48.79150 Y2.69654
G01 X48.87928 Y2.75357
G01 X49.00816 Y2.84719
G01 X49.08949 Y2.91305
G01 X49.16351 Y2.98707
G01 X49.27011 Y3.10546
G01 X49.33597 Y3.18681
G01 X49.39297 Y3.27460
G01 X49.47263 Y3.41254
G01 X49.52015 Y3.50581
G01 X49.55766 Y3.60353
G01 X49.60689 Y3.75504
G01 X49.63399 Y3.85616
G01 X49.65035 Y3.95953
G01 X49.66701 Y4.11795
G01 X49.67250 Y4.22250
G01 X49.67250 Y5.23847
G01 X49.66701 Y5.34302
G01 X49.65035 Y5.50144
G01 X49.63399 Y5.60482
G01 X49.60689 Y5.70594
G01 X49.55766 Y5.85745
G01 X49.52015 Y5.95516
G01 X49.47263 Y6.04843
G01 X49.39297 Y6.18638
G01 X49.33597 Y6.27416
G01 X49.27011 Y6.35552
G01 X49.16351 Y6.47391
G01 X49.08949 Y6.54792
G01 X49.00816 Y6.61378
G01 X48.87928 Y6.70741
G01 X48.79150 Y6.76443
G01 X48.69823 Y6.81195
G01 X48.55269 Y6.87675
G01 X48.43293 Y6.92016
G01 X47.38050 Y6.84007
G01 X47.13882 Y6.81825
G01 X47.10027 Y6.82859
G01 X47.00253 Y6.86611
G01 X46.84975 Y6.93413
G01 X46.75648 Y6.98165
G01 X46.66869 Y7.03865
G01 X46.53339 Y7.13695
G01 X46.45206 Y7.20283
G01 X46.38647 Y7.26837
G01 X46.32092 Y7.20283
G01 X46.23959 Y7.13695
G01 X46.10428 Y7.03865
G01 X46.01650 Y6.98165
G01 X45.89163 Y6.92006
G01 X46.01650 Y6.98165
G01 X46.10428 Y7.03865
G01 X46.23959 Y7.13695
G01 X46.32092 Y7.20283
G01 X46.38647 Y7.26837
G01 X46.38647 Y50.45258
G01 X46.45206 Y50.51814
G01 X46.53339 Y50.58403
G01 X46.66869 Y50.68233
G01 X46.75648 Y50.73932
G01 X46.84975 Y50.78685
G01 X47.00253 Y50.85487
G01 X47.10027 Y50.89238
G01 X47.13875 Y50.90270
G01 X47.20611 Y50.89703
G01 X47.13872 Y50.90267
G01 X47.10027 Y50.89238
G01 X47.00253 Y50.85487
G01 X46.84975 Y50.78685
G01 X46.75648 Y50.73932
G01 X46.66869 Y50.68233
G01 X46.53339 Y50.58403
G01 X46.45206 Y50.51814
G01 X46.38647 Y50.45258
G01 X46.32092 Y50.51814
G01 X46.23959 Y50.58403
G01 X46.10428 Y50.68233
G01 X46.01650 Y50.73932
G01 X45.92323 Y50.78685
G01 X45.77045 Y50.85487
G01 X45.67271 Y50.89238
G01 X45.57162 Y50.91949
G01 X45.40802 Y50.95426
G01 X45.30464 Y50.97062
G01 X45.20012 Y50.97610
G01 X45.03286 Y50.97610
G01 X44.92834 Y50.97062
G01 X44.82496 Y50.95426
G01 X44.64731 Y50.91570
G01 X44.30294 Y50.78311
G01 X44.13405 Y50.74651
G01 X44.03068 Y50.73013
G01 X43.92613 Y50.72467
G01 X43.76685 Y50.72467
G01 X43.66230 Y50.73013
G01 X43.55892 Y50.74651
G01 X43.40309 Y50.77963
G01 X43.04566 Y50.91568
G01 X42.96548 Y50.95654
G01 X42.87769 Y51.01357
G01 X42.74881 Y51.10719
G01 X42.66748 Y51.17305
G01 X42.57647 Y51.26592
G01 X42.48549 Y51.17305
G01 X42.40416 Y51.10719
G01 X42.27528 Y51.01357
G01 X42.18750 Y50.95654
G01 X42.10729 Y50.91568
G01 X41.76144 Y50.78260
G01 X41.67648 Y50.73932
G01 X41.58869 Y50.68233
G01 X41.45339 Y50.58403
G01 X41.37206 Y50.51814
G01 X41.30647 Y50.45258
G01 X41.37206 Y50.51814
G01 X41.45339 Y50.58403
G01 X41.58869 Y50.68233
G01 X41.67648 Y50.73932
G01 X41.76144 Y50.78260
G01 X42.10729 Y50.91568
G01 X42.18750 Y50.95654
G01 X42.27528 Y51.01357
G01 X42.40416 Y51.10719
G01 X42.48549 Y51.17305
G01 X42.57647 Y51.26592
G01 X42.57647 Y54.71503
G01 X42.48549 Y54.80792
G01 X42.40416 Y54.87378
G01 X42.27528 Y54.96741
G01 X42.18750 Y55.02443
G01 X42.09423 Y55.07195
G01 X41.94869 Y55.13675
G01 X41.85097 Y55.17424
G01 X41.74988 Y55.20134
G01 X41.59405 Y55.23446
G01 X41.49068 Y55.25085
G01 X41.38613 Y55.25631
G01 X41.22685 Y55.25631
G01 X41.12230 Y55.25085
G01 X41.01892 Y55.23446
G01 X40.86309 Y55.20134
G01 X40.76200 Y55.17424
G01 X40.66429 Y55.13675
G01 X40.51874 Y55.07195
G01 X40.42548 Y55.02443
G01 X40.33769 Y54.96741
G01 X40.20881 Y54.87378
G01 X40.12748 Y54.80792
G01 X40.03647 Y54.71503
G04 P0 ( dwell for no time -- G64 should not smooth over this point )
G00 Z0.50000 ( retract )

G00 X34.95647 Y54.71503 ( rapid move to begin. )
G01 F300.00000
( Mill infeed pass 1/1 )
G01 Z-0.07500
G04 P0 ( dwell for no time -- G64 should not smooth over this point )
G01 F600.00000
G01 X34.95647 Y54.71503
G01 X35.04748 Y54.80792
G01 X35.12881 Y54.87378
G01 X35.25769 Y54.96741
G01 X35.34548 Y55.02443
G01 X35.43874 Y55.07195
G01 X35.58429 Y55.13675
G01 X35.68200 Y55.17424
G01 X35.78309 Y55.20134
G01 X35.93892 Y55.23446
G01 X36.04230 Y55.25085
G01 X36.14685 Y55.25631
G01 X36.30613 Y55.25631
G01 X36.41068 Y55.25085
G01 X36.51405 Y55.23446
G01 X36.66988 Y55.20134
G01 X36.77097 Y55.17424
G01 X36.86869 Y55.13675
G01 X37.01423 Y55.07195
G01 X37.10750 Y55.02443
G01 X37.19528 Y54.96741
G01 X37.32416 Y54.87378
G01 X37.40549 Y54.80792
G01 X37.49647 Y54.71503
G01 X37.49647 Y51.26592
G01 X37.40549 Y51.17305
G01 X37.32416 Y51.10719
G01 X37.19528 Y51.01357
G01 X37.10750 Y50.95654
G01 X37.02731 Y50.91570
G01 X36.68144 Y50.78260
G01 X36.59648 Y50.73932
G01 X36.50869 Y50.68233
G01 X36.37339 Y50.58403
G01 X36.29206 Y50.51814
G01 X36.22647 Y50.45258
G01 X36.29206 Y50.51814
G01 X36.37339 Y50.58403
G01 X36.50869 Y50.68233
G01 X36.59648 Y50.73932
G01 X36.68144 Y50.78260
G01 X37.02731 Y50.91570
G01 X37.10750 Y50.95654
G01 X37.19528 Y51.01357
G01 X37.32416 Y51.10719
G01 X37.40549 Y51.17305
G01 X37.49647 Y51.26592
G01 X37.58748 Y51.17305
G01 X37.66881 Y51.10719
G01 X37.79769 Y51.01357
G01 X37.88548 Y50.95654
G01 X37.96566 Y50.91568
G01 X38.32309 Y50.77963
G01 X38.47892 Y50.74651
G01 X38.58230 Y50.73013
G01 X38.68685 Y50.72467
G01 X38.84613 Y50.72467
G01 X38.95068 Y50.73013
G01 X39.05405 Y50.74651
G01 X39.22314 Y50.78319
G01 X39.56759 Y50.91578
G01 X39.74496 Y50.95426
G01 X39.84834 Y50.97062
G01 X39.95286 Y50.97610
G01 X40.12012 Y50.97610
G01 X40.22464 Y50.97062
G01 X40.32802 Y50.95426
G01 X40.50536 Y50.91580
G01 X40.85159 Y50.78258
G01 X40.93650 Y50.73932
G01 X41.02428 Y50.68233
G01 X41.15959 Y50.58403
G01 X41.24092 Y50.51814
G01 X41.30647 Y50.45258
G01 X41.30647 Y7.26837
G01 X41.24092 Y7.20283
G01 X41.15959 Y7.13695
G01 X41.02428 Y7.03865
G01 X40.93650 Y6.98165
G01 X40.81163 Y6.92006
G01 X40.93650 Y6.98165
G01 X41.02428 Y7.03865
G01 X41.15959 Y7.13695
G01 X41.24092 Y7.20283
G01 X41.30647 Y7.26837
G01 X41.37206 Y7.20283
G01 X41.45339 Y7.13695
G01 X41.58869 Y7.03865
G01 X41.67648 Y6.98165
G01 X41.76975 Y6.93413
G01 X41.92253 Y6.86611
G01 X42.02027 Y6.82859
G01 X42.05880 Y6.81825
G01 X42.30050 Y6.84007
G01 X43.35293 Y6.92016
G01 X43.37497 Y6.91424
G01 X43.47269 Y6.87675
G01 X43.61823 Y6.81195
G01 X43.71150 Y6.76443
G01 X43.79928 Y6.70741
G01 X43.92816 Y6.61378
G01 X44.00949 Y6.54792
G01 X44.10047 Y6.45503
G01 X44.19148 Y6.54792
G01 X44.27281 Y6.61378
G01 X44.40169 Y6.70741
G01 X44.48948 Y6.76443
G01 X44.59649 Y6.81805
G01 X44.66611 Y6.82392
G01 X44.59649 Y6.81805
G01 X44.48948 Y6.76443
G01 X44.40169 Y6.70741
G01 X44.27281 Y6.61378
G01 X44.19148 Y6.54792
G01 X44.10047 Y6.45503
G01 X44.10047 Y3.00592
G01 X44.00949 Y2.91305
G01 X43.92816 Y2.84719
G01 X43.79928 Y2.75357
G01 X43.71150 Y2.69654
G01 X43.61823 Y2.64902
G01 X43.47269 Y2.58423
G01 X43.37497 Y2.54673
G01 X43.27388 Y2.51963
G01 X43.11805 Y2.48651
G01 X43.01468 Y2.47013
G01 X42.91013 Y2.46467
G01 X42.75085 Y2.46467
G01 X42.64630 Y2.47013
G01 X42.54292 Y2.48651
G01 X42.38709 Y2.51963
G01 X42.28600 Y2.54673
G01 X42.18829 Y2.58423
G01 X42.04274 Y2.64902
G01 X41.94948 Y2.69654
G01 X41.86169 Y2.75357
G01 X41.73281 Y2.84719
G01 X41.65148 Y2.91305
G01 X41.56047 Y3.00592
G04 P0 ( dwell for no time -- G64 should not smooth over this point )
G00 Z0.50000 ( retract )

G00 X39.02047 Y3.00592 ( rapid move to begin. )
G01 F300.00000
( Mill infeed pass 1/1 )
G01 Z-0.07500
G04 P0 ( dwell for no time -- G64 should not smooth over this point )
G01 F600.00000
G01 X39.02047 Y3.00592
G01 X39.11148 Y2.91305
G01 X39.19281 Y2.84719
G01 X39.32169 Y2.75357
G01 X39.40948 Y2.69654
G01 X39.50274 Y2.64902
G01 X39.64829 Y2.58423
G01 X39.74600 Y2.54673
G01 X39.84709 Y2.51963
G01 X40.00292 Y2.48651
G01 X40.10630 Y2.47013
G01 X40.21085 Y2.46467
G01 X40.37013 Y2.46467
G01 X40.47468 Y2.47013
G01 X40.57805 Y2.48651
G01 X40.73388 Y2.51963
G01 X40.83497 Y2.54673
G01 X40.93269 Y2.58423
G01 X41.07823 Y2.64902
G01 X41.17150 Y2.69654
G01 X41.25928 Y2.75357
G01 X41.38816 Y2.84719
G01 X41.46949 Y2.91305
G01 X41.56047 Y3.00592
G01 X41.56047 Y6.45503
G01 X41.65148 Y6.54792
G01 X41.73281 Y6.61378
G01 X41.86169 Y6.70741
G01 X41.94948 Y6.76443
G01 X42.05649 Y6.81805
G01 X42.12611 Y6.82394
G01 X42.05649 Y6.81805
G01 X41.94948 Y6.76443
G01 X41.86169 Y6.70741
G01 X41.73281 Y6.61378
G01 X41.65148 Y6.54792
G01 X41.56047 Y6.45503
G01 X41.46949 Y6.54792
G01 X41.38816 Y6.61378
G01 X41.25928 Y6.70741
G01 X41.17150 Y6.76443
G01 X41.07823 Y6.81195
G01 X40.93269 Y6.87675
G01 X40.83497 Y6.91424
G01 X40.81293 Y6.92016
G01 X39.76050 Y6.84007
G01 X39.51882 Y6.81825
G01 X39.48027 Y6.82859
G01 X39.38253 Y6.86611
G01 X39.22975 Y6.93413
G01 X39.13648 Y6.98165
G01 X39.04869 Y7.03865
G01 X38.91339 Y7.13695
G01 X38.83206 Y7.20283
G01 X38.76647 Y7.26837
G01 X38.70092 Y7.20283
G01 X38.61959 Y7.13695
G01 X38.48428 Y7.03865
G01 X38.39650 Y6.98165
G01 X38.27163 Y6.92006
G01 X38.39650 Y6.98165
G01 X38.48428 Y7.03865
G01 X38.61959 Y7.13695
G01 X38.70092 Y7.20283
G01 X38.76647 Y7.26837
G01 X38.76647 Y50.45258
G01 X38.70092 Y50.51814
G01 X38.61959 Y50.58403
G01 X38.48428 Y50.68233
G01 X38.39650 Y50.73932
G01 X38.31159 Y50.78258
G01 X37.96536 Y50.91580
G01 X37.78802 Y50.95426
G01 X37.68464 Y50.97062
G01 X37.58012 Y50.97610
G01 X37.41286 Y50.97610
G01 X37.30834 Y50.97062
G01 X37.20496 Y50.95426
G01 X37.02731 Y50.91570
G01 X36.68314 Y50.78319
G01 X36.51405 Y50.74651
G01 X36.41068 Y50.73013
G01 X36.30613 Y50.72467
G01 X36.14685 Y50.72467
G01 X36.04230 Y50.73013
G01 X35.93892 Y50.74651
G01 X35.78309 Y50.77963
G01 X35.42566 Y50.91568
G01 X35.34548 Y50.95654
G01 X35.25769 Y51.01357
G01 X35.12881 Y51.10719
G01 X35.04748 Y51.17305
G01 X34.95647 Y51.26592
G01 X34.86549 Y51.17305
G01 X34.78416 Y51.10719
G01 X34.65528 Y51.01357
G01 X34.56750 Y50.95654
G01 X34.48729 Y50.91568
G01 X34.14144 Y50.78260
G01 X34.05648 Y50.73932
G01 X33.96869 Y50.68233
G01 X33.83339 Y50.58403
G01 X33.75206 Y50.51814
G01 X33.68647 Y50.45258
G01 X33.75206 Y50.51814
G01 X33.83339 Y50.58403
G01 X33.96869 Y50.68233
G01 X34.05648 Y50.73932
G01 X34.14144 Y50.78260
G01 X34.48729 Y50.91568
G01 X34.56750 Y50.95654
G01 X34.65528 Y51.01357
G01 X34.78416 Y51.10719
G01 X34.86549 Y51.17305
G01 X34.95647 Y51.26592
G01 X34.95647 Y54.71503
G01 X34.86549 Y54.80792
G01 X34.78416 Y54.87378
G01 X34.65528 Y54.96741
G01 X34.56750 Y55.02443
G01 X34.47423 Y55.07195
G01 X34.32869 Y55.13675
G01 X34.23097 Y55.17424
G01 X34.12988 Y55.20134
G01 X33.97405 Y55.23446
G01 X33.87068 Y55.25085
G01 X33.76613 Y55.25631
G01 X33.60685 Y55.25631
G01 X33.50230 Y55.25085
G01 X33.39892 Y55.23446
G01 X33.24309 Y55.20134
G01 X33.14200 Y55.17424
G01 X33.04429 Y55.13675
G01 X32.89874 Y55.07195
G01 X32.80548 Y55.02443
G01 X32.71769 Y54.96741
G01 X32.58881 Y54.87378
G01 X32.50748 Y54.80792
G01 X32.41647 Y54.71503
G04 P0 ( dwell for no time -- G64 should not smooth over this point )
G00 Z0.50000 ( retract )

G00 X29.87647 Y54.71503 ( rapid move to begin. )
G01 F300.00000
( Mill infeed pass 1/1 )
G01 Z-0.07500
G04 P0 ( dwell for no time -- G64 should not smooth over this point )
G01 F600.00000
G01 X29.87647 Y54.71503
G01 X29.96748 Y54.80792
G01 X30.04881 Y54.87378
G01 X30.17769 Y54.96741
G01 X30.26548 Y55.02443
G01 X30.35874 Y55.07195
G01 X30.50429 Y55.13675
G01 X30.60200 Y55.17424
G01 X30.70309 Y55.20134
G01 X30.85892 Y55.23446
G01 X30.96230 Y55.25085
G01 X31.06685 Y55.25631
G01 X31.22613 Y55.25631
G01 X31.33068 Y55.25085
G01 X31.43405 Y55.23446
G01 X31.58988 Y55.20134
G01 X31.69097 Y55.17424
G01 X31.78869 Y55.13675
G01 X31.93423 Y55.07195
G01 X32.02750 Y55.02443
G01 X32.11528 Y54.96741
G01 X32.24416 Y54.87378
G01 X32.32549 Y54.80792
G01 X32.41647 Y54.71503
G01 X32.41647 Y51.26592
G01 X32.32549 Y51.17305
G01 X32.24416 Y51.10719
G01 X32.11528 Y51.01357
G01 X32.02750 Y50.95654
G01 X31.94731 Y50.91570
G01 X31.60144 Y50.78260
G01 X31.51648 Y50.73932
G01 X31.42869 Y50.68233
G01 X31.29339 Y50.58403
G01 X31.21206 Y50.51814
G01 X31.14647 Y50.45258
G01 X31.21206 Y50.51814
G01 X31.29339 Y50.58403
G01 X31.42869 Y50.68233
G01 X31.51648 Y50.73932
G01 X31.60144 Y50.78260
G01 X31.94731 Y50.91570
G01 X32.02750 Y50.95654
G01 X32.11528 Y51.01357
G01 X32.24416 Y51.10719
G01 X32.32549 Y51.17305
G01 X32.41647 Y51.26592
G01 X32.50748 Y51.17305
G01 X32.58881 Y51.10719
G01 X32.71769 Y51.01357
G01 X32.80548 Y50.95654
G01 X32.88566 Y50.91568
G01 X33.24309 Y50.77963
G01 X33.39892 Y50.74651
G01 X33.50230 Y50.73013
G01 X33.60685 Y50.72467
G01 X33.76613 Y50.72467
G01 X33.87068 Y50.73013
G01 X33.97405 Y50.74651
G01 X34.14314 Y50.78319
G01 X34.48759 Y50.91578
G01 X34.66496 Y50.95426
G01 X34.76834 Y50.97062
G01 X34.87286 Y50.97610
G01 X35.04012 Y50.97610
G01 X35.14464 Y50.97062
G01 X35.24802 Y50.95426
G01 X35.42536 Y50.91580
G01 X35.77159 Y50.78258
G01 X35.85650 Y50.73932
G01 X35.94428 Y50.68233
G01 X36.07959 Y50.58403
G01 X36.16092 Y50.51814
G01 X36.22647 Y50.45258
G01 X36.22647 Y7.26837
G01 X36.16092 Y7.20283
G01 X36.07959 Y7.13695
G01 X35.94428 Y7.03865
G01 X35.85650 Y6.98165
G01 X35.73163 Y6.92006
G01 X35.85650 Y6.98165
G01 X35.94428 Y7.03865
G01 X36.07959 Y7.13695
G01 X36.16092 Y7.20283
G01 X36.22647 Y7.26837
G01 X36.29206 Y7.20283
G01 X36.37339 Y7.13695
G01 X36.50869 Y7.03865
G01 X36.59648 Y6.98165
G01 X36.68975 Y6.93413
G01 X36.84253 Y6.86611
G01 X36.94027 Y6.82859
G01 X36.97880 Y6.81825
G01 X37.22050 Y6.84007
G01 X38.27293 Y6.92016
G01 X38.29497 Y6.91424
G01 X38.39269 Y6.87675
G01 X38.53823 Y6.81195
G01 X38.63150 Y6.76443
G01 X38.71928 Y6.70741
G01 X38.84816 Y6.61378
G01 X38.92949 Y6.54792
G01 X39.02047 Y6.45503
G01 X39.11148 Y6.54792
G01 X39.19281 Y6.61378
G01 X39.32169 Y6.70741
G01 X39.40948 Y6.76443
G01 X39.51649 Y6.81805
G01 X39.58611 Y6.82392
G01 X39.51649 Y6.81805
G01 X39.40948 Y6.76443
G01 X39.32169 Y6.70741
G01 X39.19281 Y6.61378
G01 X39.11148 Y6.54792
G01 X39.02047 Y6.45503
G01 X39.02047 Y3.00592
G01 X38.92949 Y2.91305
G01 X38.84816 Y2.84719
G01 X38.71928 Y2.75357
G01 X38.63150 Y2.69654
G01 X38.53823 Y2.64902
G01 X38.39269 Y2.58423
G01 X38.29497 Y2.54673
G01 X38.19388 Y2.51963
G01 X38.03805 Y2.48651
G01 X37.93468 Y2.47013
G01 X37.83013 Y2.46467
G01 X37.67085 Y2.46467
G01 X37.56630 Y2.47013
G01 X37.46292 Y2.48651
G01 X37.30709 Y2.51963
G01 X37.20600 Y2.54673
G01 X37.10829 Y2.58423
G01 X36.96274 Y2.64902
G01 X36.86948 Y2.69654
G01 X36.78169 Y2.75357
G01 X36.65281 Y2.84719
G01 X36.57148 Y2.91305
G01 X36.48047 Y3.00592
G04 P0 ( dwell for no time -- G64 should not smooth over this point )
G00 Z0.50000 ( retract )

G00 X23.52647 Y7.26837 ( rapid move to begin. )
G01 F300.00000
( Mill infeed pass 1/1 )
G01 Z-0.07500
G04 P0 ( dwell for no time -- G64 should not smooth over this point )
G01 F600.00000
G01 X23.52647 Y7.26837
G01 X23.59206 Y7.20283
G01 X23.67339 Y7.13695
G01 X23.80869 Y7.03865
G01 X23.89648 Y6.98165
G01 X23.98975 Y6.93413
G01 X24.14253 Y6.86611
G01 X24.24027 Y6.82859
G01 X24.34136 Y6.80149
G01 X24.50496 Y6.76672
G01 X24.60834 Y6.75036
G01 X24.71286 Y6.74487
G01 X24.88012 Y6.74487
G01 X24.98464 Y6.75036
G01 X25.08802 Y6.76672
G01 X25.25162 Y6.80149
G01 X25.35271 Y6.82859
G01 X25.45045 Y6.86611
G01 X25.60323 Y6.93413
G01 X25.69650 Y6.98165
G01 X25.78428 Y7.03865
G01 X25.91959 Y7.13695
G01 X26.00092 Y7.20283
G01 X26.06647 Y7.26837
G01 X26.06647 Y50.45258
G01 X26.00092 Y50.51814
G01 X25.91959 Y50.58403
G01 X25.78428 Y50.68233
G01 X25.69650 Y50.73932
G01 X25.61159 Y50.78258
G01 X25.26536 Y50.91580
G01 X25.08802 Y50.95426
G01 X24.98464 Y50.97062
G01 X24.88012 Y50.97610
G01 X24.71286 Y50.97610
G01 X24.60834 Y50.97062
G01 X24.50496 Y50.95426
G01 X24.32759 Y50.91578
G01 X23.98314 Y50.78319
G01 X23.81405 Y50.74651
G01 X23.71068 Y50.73013
G01 X23.60613 Y50.72467
G01 X23.44685 Y50.72467
G01 X23.34230 Y50.73013
G01 X23.23892 Y50.74651
G01 X23.06973 Y50.78319
G01 X22.72566 Y50.91568
G01 X22.64548 Y50.95654
G01 X22.55769 Y51.01357
G01 X22.42881 Y51.10719
G01 X22.34748 Y51.17305
G01 X22.25647 Y51.26592
G01 X22.16549 Y51.17305
G01 X22.08416 Y51.10719
G01 X21.95528 Y51.01357
G01 X21.86750 Y50.95654
G01 X21.78726 Y50.91568
G01 X21.42988 Y50.77963
G01 X21.27405 Y50.74651
G01 X21.17068 Y50.73013
G01 X21.06613 Y50.72467
G01 X20.90685 Y50.72467
G01 X20.80230 Y50.73013
G01 X20.69892 Y50.74651
G01 X20.54309 Y50.77963
G01 X20.18566 Y50.91568
G01 X20.10548 Y50.95654
G01 X20.01769 Y51.01357
G01 X19.88881 Y51.10719
G01 X19.80748 Y51.17305
G01 X19.73347 Y51.24707
G01 X19.62686 Y51.36546
G01 X19.56100 Y51.44682
G01 X19.50400 Y51.53460
G01 X19.42435 Y51.67254
G01 X19.37683 Y51.76579
G01 X19.33931 Y51.86353
G01 X19.29008 Y52.01504
G01 X19.26298 Y52.11616
G01 X19.24663 Y52.21953
G01 X19.22996 Y52.37795
G01 X19.22448 Y52.48247
G01 X19.22448 Y53.49847
G01 X19.22996 Y53.60302
G01 X19.24663 Y53.76144
G01 X19.26298 Y53.86482
G01 X19.29008 Y53.96594
G01 X19.33931 Y54.11742
G01 X19.37683 Y54.21516
G01 X19.42435 Y54.30843
G01 X19.50400 Y54.44638
G01 X19.56100 Y54.53416
G01 X19.62686 Y54.61552
G01 X19.73347 Y54.73391
G01 X19.80748 Y54.80792
G01 X19.88881 Y54.87378
G01 X20.01769 Y54.96741
G01 X20.10548 Y55.02443
G01 X20.19874 Y55.07195
G01 X20.34429 Y55.13675
G01 X20.44200 Y55.17424
G01 X20.54309 Y55.20134
G01 X20.69892 Y55.23446
G01 X20.80230 Y55.25085
G01 X20.90685 Y55.25631
G01 X21.06613 Y55.25631
G01 X21.17068 Y55.25085
G01 X21.27405 Y55.23446
G01 X21.42988 Y55.20134
G01 X21.53097 Y55.17424
G01 X21.62869 Y55.13675
G01 X21.77423 Y55.07195
G01 X21.86750 Y55.02443
G01 X21.95528 Y54.96741
G01 X22.08416 Y54.87378
G01 X22.16549 Y54.80792
G01 X22.25647 Y54.71503
G01 X22.25647 Y51.26592
G01 X22.16549 Y51.17305
G01 X22.08416 Y51.10719
G01 X21.95528 Y51.01357
G01 X21.86750 Y50.95654
G01 X21.78726 Y50.91568
G01 X21.44144 Y50.78260
G01 X21.35648 Y50.73932
G01 X21.26869 Y50.68233
G01 X21.13339 Y50.58403
G01 X21.05206 Y50.51814
G01 X20.98647 Y50.45258
G01 X21.05206 Y50.51814
G01 X21.13339 Y50.58403
G01 X21.26869 Y50.68233
G01 X21.35648 Y50.73932
G01 X21.44144 Y50.78260
G01 X21.80136 Y50.91949
G01 X21.96496 Y50.95426
G01 X22.06834 Y50.97062
G01 X22.17286 Y50.97610
G01 X22.34012 Y50.97610
G01 X22.44464 Y50.97062
G01 X22.54802 Y50.95426
G01 X22.71162 Y50.91949
G01 X23.07159 Y50.78258
G01 X23.15650 Y50.73932
G01 X23.24428 Y50.68233
G01 X23.37959 Y50.58403
G01 X23.46092 Y50.51814
G01 X23.52647 Y50.45258
G01 X23.52647 Y7.26837
G01 X23.46092 Y7.20283
G01 X23.37959 Y7.13695
G01 X23.24428 Y7.03865
G01 X23.15650 Y6.98165
G01 X23.06323 Y6.93413
G01 X22.91045 Y6.86611
G01 X22.81271 Y6.82859
G01 X22.71162 Y6.80149
G01 X22.54802 Y6.76672
G01 X22.44464 Y6.75036
G01 X22.34012 Y6.74487
G01 X22.17286 Y6.74487
G01 X22.06834 Y6.75036
G01 X21.96496 Y6.76672
G01 X21.80136 Y6.80149
G01 X21.70027 Y6.82859
G01 X21.60253 Y6.86611
G01 X21.44975 Y6.93413
G01 X21.35648 Y6.98165
G01 X21.26869 Y7.03865
G01 X21.13339 Y7.13695
G01 X21.05206 Y7.20283
G01 X20.98647 Y7.26839
G04 P0 ( dwell for no time -- G64 should not smooth over this point )
G00 Z0.50000 ( retract )

G00 X15.90647 Y7.26837 ( rapid move to begin. )
G01 F300.00000
( Mill infeed pass 1/1 )
G01 Z-0.07500
G04 P0 ( dwell for no time -- G64 should not smooth over this point )
G01 F600.00000
G01 X15.90647 Y7.26837
G01 X15.97206 Y7.20283
G01 X16.05339 Y7.13695
G01 X16.18869 Y7.03865
G01 X16.27648 Y6.98165
G01 X16.36975 Y6.93413
G01 X16.52253 Y6.86611
G01 X16.62027 Y6.82859
G01 X16.72136 Y6.80149
G01 X16.88496 Y6.76672
G01 X16.98834 Y6.75036
G01 X17.09286 Y6.74487
G01 X17.26012 Y6.74487
G01 X17.36464 Y6.75036
G01 X17.46802 Y6.76672
G01 X17.63162 Y6.80149
G01 X17.73271 Y6.82859
G01 X17.83045 Y6.86611
G01 X17.98323 Y6.93413
G01 X18.07650 Y6.98165
G01 X18.16428 Y7.03865
G01 X18.29959 Y7.13695
G01 X18.38092 Y7.20283
G01 X18.44647 Y7.26837
G01 X18.44647 Y50.45258
G01 X18.38092 Y50.51814
G01 X18.29959 Y50.58403
G01 X18.16428 Y50.68233
G01 X18.07650 Y50.73932
G01 X17.98323 Y50.78685
G01 X17.83045 Y50.85487
G01 X17.73271 Y50.89238
G01 X17.63162 Y50.91949
G01 X17.46802 Y50.95426
G01 X17.36464 Y50.97062
G01 X17.26012 Y50.97610
G01 X17.09286 Y50.97610
G01 X16.98834 Y50.97062
G01 X16.88496 Y50.95426
G01 X16.72136 Y50.91949
G01 X16.62027 Y50.89238
G01 X16.52253 Y50.85487
G01 X16.36975 Y50.78685
G01 X16.27648 Y50.73932
G01 X16.18869 Y50.68233
G01 X16.05339 Y50.58403
G01 X15.97206 Y50.51814
G01 X15.90647 Y50.45258
G04 P0 ( dwell for no time -- G64 should not smooth over this point )
G00 Z0.50000 ( retract )

G00 X13.36647 Y50.45258 ( rapid move to begin. )
G01 F300.00000
( Mill infeed pass 1/1 )
G01 Z-0.07500
G04 P0 ( dwell for no time -- G64 should not smooth over this point )
G01 F600.00000
G01 X13.36647 Y50.45258
G01 X13.43206 Y50.51814
G01 X13.51339 Y50.58403
G01 X13.64867 Y50.68233
G01 X13.73645 Y50.73932
G01 X13.82975 Y50.78685
G01 X13.98250 Y50.85487
G01 X14.08027 Y50.89238
G01 X14.18136 Y50.91949
G01 X14.34496 Y50.95426
G01 X14.44834 Y50.97062
G01 X14.55286 Y50.97610
G01 X14.72012 Y50.97610
G01 X14.82464 Y50.97062
G01 X14.92802 Y50.95426
G01 X15.09162 Y50.91949
G01 X15.19271 Y50.89238
G01 X15.29045 Y50.85487
G01 X15.44323 Y50.78685
G01 X15.53650 Y50.73932
G01 X15.62428 Y50.68233
G01 X15.75959 Y50.58403
G01 X15.84092 Y50.51814
G01 X15.90647 Y50.45258
G01 X15.90647 Y7.26837
G01 X15.84092 Y7.20283
G01 X15.75959 Y7.13695
G01 X15.62428 Y7.03865
G01 X15.53650 Y6.98165
G01 X15.44323 Y6.93413
G01 X15.29045 Y6.86611
G01 X15.19271 Y6.82859
G01 X15.09162 Y6.80149
G01 X14.92802 Y6.76672
G01 X14.82464 Y6.75036
G01 X14.72012 Y6.74487
G01 X14.55286 Y6.74487
G01 X14.44834 Y6.75036
G01 X14.34496 Y6.76672
G01 X14.18136 Y6.80149
G01 X14.08027 Y6.82859
G01 X13.98250 Y6.86611
G01 X13.82975 Y6.93413
G01 X13.73645 Y6.98165
G01 X13.64867 Y7.03865
G01 X13.51339 Y7.13695
G01 X13.43206 Y7.20283
G01 X13.36647 Y7.26839
G04 P0 ( dwell for no time -- G64 should not smooth over this point )
G00 Z0.50000 ( retract )

G00 X10.82647 Y7.26837 ( rapid move to begin. )
G01 F300.00000
( Mill infeed pass 1/1 )
G01 Z-0.07500
G04 P0 ( dwell for no time -- G64 should not smooth over this point )
G01 F600.00000
G01 X10.82647 Y7.26837
G01 X10.89206 Y7.20283
G01 X10.97339 Y7.13695
G01 X11.10869 Y7.03865
G01 X11.19648 Y6.98165
G01 X11.28975 Y6.93413
G01 X11.44253 Y6.86611
G01 X11.54027 Y6.82859
G01 X11.64136 Y6.80149
G01 X11.80496 Y6.76672
G01 X11.90834 Y6.75036
G01 X12.01286 Y6.74487
G01 X12.18012 Y6.74487
G01 X12.28464 Y6.75036
G01 X12.38802 Y6.76672
G01 X12.55162 Y6.80149
G01 X12.65271 Y6.82859
G01 X12.75045 Y6.86611
G01 X12.90323 Y6.93413
G01 X12.99650 Y6.98165
G01 X13.08428 Y7.03865
G01 X13.21959 Y7.13695
G01 X13.30092 Y7.20283
G01 X13.36647 Y7.26839
G01 X13.36647 Y50.45258
G01 X13.30092 Y50.51814
G01 X13.21959 Y50.58403
G01 X13.08428 Y50.68233
G01 X12.99650 Y50.73932
G01 X12.90323 Y50.78685
G01 X12.75045 Y50.85487
G01 X12.65271 Y50.89238
G01 X12.55162 Y50.91949
G01 X12.38802 Y50.95426
G01 X12.28464 Y50.97062
G01 X12.18012 Y50.97610
G01 X12.01286 Y50.97610
G01 X11.90834 Y50.97062
G01 X11.80496 Y50.95426
G01 X11.64136 Y50.91949
G01 X11.54027 Y50.89238
G01 X11.44253 Y50.85487
G01 X11.28975 Y50.78685
G01 X11.19648 Y50.73932
G01 X11.10869 Y50.68233
G01 X10.97339 Y50.58403
G01 X10.89206 Y50.51814
G01 X10.82647 Y50.45256
G04 P0 ( dwell for no time -- G64 should not smooth over this point )
G00 Z0.50000 ( retract )

G00 X8.28647 Y50.45256 ( rapid move to begin. )
G01 F300.00000
( Mill infeed pass 1/1 )
G01 Z-0.07500
G04 P0 ( dwell for no time -- G64 should not smooth over this point )
G01 F600.00000
G01 X8.28647 Y50.45256
G01 X8.35206 Y50.51814
G01 X8.43339 Y50.58403
G01 X8.56869 Y50.68233
G01 X8.65648 Y50.73932
G01 X8.74975 Y50.78685
G01 X8.90253 Y50.85487
G01 X9.00027 Y50.89238
G01 X9.10136 Y50.91949
G01 X9.26496 Y50.95426
G01 X9.36834 Y50.97062
G01 X9.47286 Y50.97610
G01 X9.64012 Y50.97610
G01 X9.74464 Y50.97062
G01 X9.84802 Y50.95426
G01 X10.01162 Y50.91949
G01 X10.11271 Y50.89238
G01 X10.21045 Y50.85487
G01 X10.36323 Y50.78685
G01 X10.45650 Y50.73932
G01 X10.54428 Y50.68233
G01 X10.67959 Y50.58403
G01 X10.76092 Y50.51814
G01 X10.82647 Y50.45256
G01 X10.82647 Y7.26837
G01 X10.76092 Y7.20283
G01 X10.67959 Y7.13695
G01 X10.54428 Y7.03865
G01 X10.45650 Y6.98165
G01 X10.36323 Y6.93413
G01 X10.21045 Y6.86611
G01 X10.11271 Y6.82859
G01 X10.01162 Y6.80149
G01 X9.84802 Y6.76672
G01 X9.74464 Y6.75036
G01 X9.64012 Y6.74487
G01 X9.47286 Y6.74487
G01 X9.36834 Y6.75036
G01 X9.26496 Y6.76672
G01 X9.10136 Y6.80149
G01 X9.00027 Y6.82859
G01 X8.90253 Y6.86611
G01 X8.74975 Y6.93413
G01 X8.65648 Y6.98165
G01 X8.56869 Y7.03865
G01 X8.43339 Y7.13695
G01 X8.35206 Y7.20283
G01 X8.28647 Y7.26837
G04 P0 ( dwell for no time -- G64 should not smooth over this point )
G00 Z0.50000 ( retract )

G00 X5.74647 Y7.26839 ( rapid move to begin. )
G01 F300.00000
( Mill infeed pass 1/1 )
G01 Z-0.07500
G04 P0 ( dwell for no time -- G64 should not smooth over this point )
G01 F600.00000
G01 X5.74647 Y7.26839
G01 X5.81206 Y7.20283
G01 X5.89339 Y7.13695
G01 X6.02869 Y7.03865
G01 X6.11648 Y6.98165
G01 X6.20975 Y6.93413
G01 X6.36253 Y6.86611
G01 X6.46027 Y6.82859
G01 X6.56136 Y6.80149
G01 X6.72496 Y6.76672
G01 X6.82834 Y6.75036
G01 X6.93286 Y6.74487
G01 X7.10012 Y6.74487
G01 X7.20464 Y6.75036
G01 X7.30802 Y6.76672
G01 X7.47162 Y6.80149
G01 X7.57271 Y6.82859
G01 X7.67045 Y6.86611
G01 X7.82323 Y6.93413
G01 X7.91650 Y6.98165
G01 X8.00428 Y7.03865
G01 X8.13959 Y7.13695
G01 X8.22092 Y7.20283
G01 X8.28647 Y7.26837
G01 X8.28647 Y50.45256
G01 X8.22092 Y50.51814
G01 X8.13959 Y50.58403
G01 X8.00428 Y50.68233
G01 X7.91650 Y50.73932
G01 X7.82323 Y50.78685
G01 X7.67045 Y50.85487
G01 X7.57271 Y50.89238
G01 X7.47162 Y50.91949
G01 X7.30802 Y50.95426
G01 X7.20464 Y50.97062
G01 X7.10012 Y50.97610
G01 X6.93286 Y50.97610
G01 X6.82834 Y50.97062
G01 X6.72496 Y50.95426
G01 X6.56136 Y50.91949
G01 X6.46027 Y50.89238
G01 X6.36253 Y50.85487
G01 X6.20975 Y50.78685
G01 X6.11648 Y50.73932
G01 X6.02869 Y50.68233
G01 X5.89339 Y50.58403
G01 X5.81206 Y50.51814
G01 X5.74647 Y50.45258
G04 P0 ( dwell for no time -- G64 should not smooth over this point )
G00 Z0.50000 ( retract )

G00 X3.20437 Y47.91047 ( rapid move to begin. )
G01 F300.00000
( Mill infeed pass 1/1 )
G01 Z-0.07500
G04 P0 ( dwell for no time -- G64 should not smooth over this point )
G01 F600.00000
G01 X3.20437 Y47.91047
G01 X3.08613 Y47.77984
G01 X3.02027 Y47.69851
G01 X2.96324 Y47.61070
G01 X2.87963 Y47.46587
G01 X2.83210 Y47.37260
G01 X2.79459 Y47.27489
G01 X2.74292 Y47.11584
G01 X2.71582 Y47.01472
G01 X2.69944 Y46.91134
G01 X2.68196 Y46.74502
G01 X2.67648 Y46.64050
G01 X2.68196 Y46.53595
G01 X2.69944 Y46.36963
G01 X2.71582 Y46.26626
G01 X2.74292 Y46.16514
G01 X2.79459 Y46.00608
G01 X2.83210 Y45.90837
G01 X2.87963 Y45.81510
G01 X2.96324 Y45.67027
G01 X3.02027 Y45.58246
G01 X3.08613 Y45.50113
G01 X3.20437 Y45.37047
G04 P0 ( dwell for no time -- G64 should not smooth over this point )
G00 Z0.50000 ( retract )

G00 X3.20437 Y42.83047 ( rapid move to begin. )
G01 F300.00000
( Mill infeed pass 1/1 )
G01 Z-0.07500
G04 P0 ( dwell for no time -- G64 should not smooth over this point )
G01 F600.00000
G01 X3.20437 Y42.83047
G01 X3.08613 Y42.69984
G01 X3.02027 Y42.61851
G01 X2.96324 Y42.53070
G01 X2.87963 Y42.38587
G01 X2.83210 Y42.29260
G01 X2.79459 Y42.19489
G01 X2.74292 Y42.03584
G01 X2.71582 Y41.93472
G01 X2.69944 Y41.83134
G01 X2.68196 Y41.66502
G01 X2.67648 Y41.56050
G01 X2.68196 Y41.45595
G01 X2.69944 Y41.28963
G01 X2.71582 Y41.18626
G01 X2.74292 Y41.08514
G01 X2.79459 Y40.92608
G01 X2.83210 Y40.82837
G01 X2.87963 Y40.73510
G01 X2.96324 Y40.59027
G01 X3.02027 Y40.50246
G01 X3.08613 Y40.42113
G01 X3.20437 Y40.29047
G04 P0 ( dwell for no time -- G64 should not smooth over this point )
G00 Z0.50000 ( retract )

G00 X3.20437 Y37.75047 ( rapid move to begin. )
G01 F300.00000
( Mill infeed pass 1/1 )
G01 Z-0.07500
G04 P0 ( dwell for no time -- G64 should not smooth over this point )
G01 F600.00000
G01 X3.20437 Y37.75047
G01 X3.08613 Y37.61984
G01 X3.02027 Y37.53851
G01 X2.96324 Y37.45070
G01 X2.87963 Y37.30587
G01 X2.83210 Y37.21260
G01 X2.79459 Y37.11489
G01 X2.74292 Y36.95584
G01 X2.71582 Y36.85472
G01 X2.69944 Y36.75134
G01 X2.68196 Y36.58502
G01 X2.67648 Y36.48050
G01 X2.68196 Y36.37595
G01 X2.69944 Y36.20963
G01 X2.71582 Y36.10626
G01 X2.74292 Y36.00514
G01 X2.79459 Y35.84608
G01 X2.83210 Y35.74837
G01 X2.87963 Y35.65510
G01 X2.96324 Y35.51027
G01 X3.02027 Y35.42246
G01 X3.08613 Y35.34113
G01 X3.20437 Y35.21047
G04 P0 ( dwell for no time -- G64 should not smooth over this point )
G00 Z0.50000 ( retract )

G00 X3.20437 Y32.67047 ( rapid move to begin. )
G01 F300.00000
( Mill infeed pass 1/1 )
G01 Z-0.07500
G04 P0 ( dwell for no time -- G64 should not smooth over this point )
G01 F600.00000
G01 X3.20437 Y32.67047
G01 X3.08613 Y32.53984
G01 X3.02027 Y32.45851
G01 X2.96324 Y32.37070
G01 X2.87963 Y32.22587
G01 X2.83210 Y32.13260
G01 X2.79459 Y32.03489
G01 X2.74292 Y31.87584
G01 X2.71582 Y31.77472
G01 X2.69944 Y31.67134
G01 X2.68196 Y31.50502
G01 X2.67648 Y31.40050
G01 X2.68196 Y31.29595
G01 X2.69944 Y31.12963
G01 X2.71582 Y31.02626
G01 X2.74292 Y30.92514
G01 X2.79459 Y30.76608
G01 X2.83210 Y30.66837
G01 X2.87963 Y30.57510
G01 X2.96324 Y30.43027
G01 X3.02027 Y30.34246
G01 X3.08613 Y30.26113
G01 X3.20437 Y30.13047
G01 X64.02771 Y30.13047
G01 X64.40447 Y30.96497
G01 X64.60539 Y31.40047
G01 X64.40447 Y30.96497
G01 X64.02771 Y30.13047
G01 X64.40447 Y29.29598
G01 X64.60539 Y28.86047
G01 X64.40447 Y28.42497
G01 X64.02771 Y27.59047
G01 X3.20437 Y27.59047
G01 X3.08613 Y27.72113
G01 X3.02027 Y27.80246
G01 X2.96324 Y27.89027
G01 X2.87963 Y28.03510
G01 X2.83210 Y28.12837
G01 X2.79459 Y28.22608
G01 X2.74292 Y28.38514
G01 X2.71582 Y28.48626
G01 X2.69944 Y28.58963
G01 X2.68196 Y28.75595
G01 X2.67648 Y28.86050
G01 X2.68196 Y28.96502
G01 X2.69944 Y29.13134
G01 X2.71582 Y29.23472
G01 X2.74292 Y29.33584
G01 X2.79459 Y29.49489
G01 X2.83210 Y29.59260
G01 X2.87963 Y29.68587
G01 X2.96324 Y29.83070
G01 X3.02027 Y29.91851
G01 X3.08613 Y29.99984
G01 X3.20437 Y30.13047
G04 P0 ( dwell for no time -- G64 should not smooth over this point )
G00 Z0.50000 ( retract )

G00 X3.20437 Y27.59047 ( rapid move to begin. )
G01 F300.00000
( Mill infeed pass 1/1 )
G01 Z-0.07500
G04 P0 ( dwell for no time -- G64 should not smooth over this point )
G01 F600.00000
G01 X3.20437 Y27.59047
G01 X3.08613 Y27.45984
G01 X3.02027 Y27.37851
G01 X2.96324 Y27.29070
G01 X2.87963 Y27.14585
G01 X2.83210 Y27.05260
G01 X2.79459 Y26.95489
G01 X2.74292 Y26.79581
G01 X2.71582 Y26.69472
G01 X2.69944 Y26.59134
G01 X2.68196 Y26.42502
G01 X2.67648 Y26.32050
G01 X2.68196 Y26.21595
G01 X2.69944 Y26.04963
G01 X2.71582 Y25.94626
G01 X2.74292 Y25.84514
G01 X2.79459 Y25.68608
G01 X2.83210 Y25.58837
G01 X2.87963 Y25.49510
G01 X2.96324 Y25.35027
G01 X3.02027 Y25.26246
G01 X3.08613 Y25.18113
G01 X3.20437 Y25.05047
G01 X64.16858 Y25.05047
G01 X64.28685 Y25.18113
G01 X64.35271 Y25.26246
G01 X64.40973 Y25.35027
G01 X64.49335 Y25.49510
G01 X64.54087 Y25.58837
G01 X64.57839 Y25.68608
G01 X64.63005 Y25.84514
G01 X64.65715 Y25.94626
G01 X64.67353 Y26.04963
G01 X64.68395 Y26.14897
G01 X64.67353 Y26.04963
G01 X64.65715 Y25.94626
G01 X64.63005 Y25.84514
G01 X64.57839 Y25.68608
G01 X64.54087 Y25.58837
G01 X64.49335 Y25.49510
G01 X64.40973 Y25.35027
G01 X64.35271 Y25.26246
G01 X64.28685 Y25.18113
G01 X64.16858 Y25.05047
G01 X64.28685 Y24.91984
G01 X64.35271 Y24.83851
G01 X64.40973 Y24.75070
G01 X64.49335 Y24.60587
G01 X64.54087 Y24.51260
G01 X64.57839 Y24.41489
G01 X64.63005 Y24.25584
G01 X64.65715 Y24.15472
G01 X64.67353 Y24.05134
G01 X64.69101 Y23.88502
G01 X64.69650 Y23.78050
G01 X64.69101 Y23.67595
G01 X64.67353 Y23.50963
G01 X64.65715 Y23.40626
G01 X64.63005 Y23.30514
G01 X64.57839 Y23.14608
G01 X64.54087 Y23.04837
G01 X64.49335 Y22.95510
G01 X64.40973 Y22.81027
G01 X64.35271 Y22.72246
G01 X64.28685 Y22.64113
G01 X64.16856 Y22.51047
G04 P0 ( dwell for no time -- G64 should not smooth over this point )
G00 Z0.50000 ( retract )

G00 X66.96047 Y26.37392 ( rapid move to begin. )
G01 F300.00000
( Mill infeed pass 1/1 )
G01 Z-0.07500
G04 P0 ( dwell for no time -- G64 should not smooth over this point )
G01 F600.00000
G01 X66.96047 Y26.37392
G01 X66.86949 Y26.28105
G01 X66.78816 Y26.21519
G01 X66.65928 Y26.12157
G01 X66.57150 Y26.06454
G01 X66.47823 Y26.01702
G01 X66.33269 Y25.95223
G01 X66.23497 Y25.91474
G01 X66.13388 Y25.88763
G01 X65.97805 Y25.85451
G01 X65.87468 Y25.83813
G01 X65.77013 Y25.83267
G01 X65.61085 Y25.83267
G01 X65.50630 Y25.83813
G01 X65.40292 Y25.85451
G01 X65.24709 Y25.88763
G01 X65.14600 Y25.91474
G01 X65.04829 Y25.95223
G01 X64.90274 Y26.01702
G01 X64.80948 Y26.06454
G01 X64.68395 Y26.14897
G01 X64.40447 Y26.75598
G01 X64.02771 Y27.59047
G01 X64.40447 Y28.42497
G01 X64.60539 Y28.86047
G01 X66.90891 Y28.86047
G01 X66.96047 Y28.80701
G01 X66.96047 Y26.37392
G01 X67.05148 Y26.28105
G01 X67.13281 Y26.21519
G01 X67.26169 Y26.12157
G01 X67.34948 Y26.06454
G01 X67.44274 Y26.01702
G01 X67.58829 Y25.95223
G01 X67.68600 Y25.91474
G01 X67.78709 Y25.88763
G01 X67.94292 Y25.85451
G01 X68.04630 Y25.83813
G01 X68.15085 Y25.83267
G01 X68.31013 Y25.83267
G01 X68.41468 Y25.83813
G01 X68.51805 Y25.85451
G01 X68.67388 Y25.88763
G01 X68.77497 Y25.91474
G01 X68.87269 Y25.95223
G01 X69.01823 Y26.01702
G01 X69.11150 Y26.06454
G01 X69.19928 Y26.12157
G01 X69.32816 Y26.21519
G01 X69.40949 Y26.28105
G01 X69.48351 Y26.35507
G01 X69.59011 Y26.47346
G01 X69.65597 Y26.55482
G01 X69.71297 Y26.64260
G01 X69.79263 Y26.78052
G01 X69.84015 Y26.87381
G01 X69.87766 Y26.97153
G01 X69.92689 Y27.12304
G01 X69.95399 Y27.22416
G01 X69.97035 Y27.32753
G01 X69.98701 Y27.48595
G01 X69.99250 Y27.59050
G01 X69.98701 Y27.69502
G01 X69.97035 Y27.85344
G01 X69.95399 Y27.95682
G01 X69.92689 Y28.05794
G01 X69.87766 Y28.20945
G01 X69.84015 Y28.30716
G01 X69.79263 Y28.40043
G01 X69.71297 Y28.53838
G01 X69.65597 Y28.62616
G01 X69.59011 Y28.70752
G01 X69.44891 Y28.86047
G01 X67.01204 Y28.86047
G01 X66.96047 Y28.91392
G01 X67.01204 Y28.86047
G01 X66.96047 Y28.80701
G01 X66.90891 Y28.86047
G01 X66.96047 Y28.91392
G01 X66.96047 Y31.34703
G01 X66.90891 Y31.40047
G01 X66.96047 Y31.34703
G01 X67.01204 Y31.40047
G01 X69.44891 Y31.40047
G01 X69.48351 Y31.36591
G01 X69.59011 Y31.24752
G01 X69.65597 Y31.16616
G01 X69.71297 Y31.07838
G01 X69.79263 Y30.94043
G01 X69.84015 Y30.84716
G01 X69.87766 Y30.74945
G01 X69.92689 Y30.59794
G01 X69.95399 Y30.49682
G01 X69.97035 Y30.39344
G01 X69.98701 Y30.23502
G01 X69.99250 Y30.13050
G01 X69.98701 Y30.02595
G01 X69.97035 Y29.86753
G01 X69.95399 Y29.76416
G01 X69.92689 Y29.66304
G01 X69.87766 Y29.51153
G01 X69.84015 Y29.41381
G01 X69.79263 Y29.32054
G01 X69.71297 Y29.18260
G01 X69.65597 Y29.09481
G01 X69.59011 Y29.01346
G01 X69.44891 Y28.86047
G04 P0 ( dwell for no time -- G64 should not smooth over this point )
G00 Z0.50000 ( retract )

G00 X64.16856 Y19.97047 ( rapid move to begin. )
G01 F300.00000
( Mill infeed pass 1/1 )
G01 Z-0.07500
G04 P0 ( dwell for no time -- G64 should not smooth over this point )
G01 F600.00000
G01 X64.16856 Y19.97047
G01 X64.28685 Y20.10113
G01 X64.35271 Y20.18246
G01 X64.40973 Y20.27027
G01 X64.49335 Y20.41510
G01 X64.54087 Y20.50837
G01 X64.57839 Y20.60608
G01 X64.63005 Y20.76514
G01 X64.65715 Y20.86626
G01 X64.67353 Y20.96963
G01 X64.69101 Y21.13595
G01 X64.69650 Y21.24050
G01 X64.69101 Y21.34502
G01 X64.67353 Y21.51134
G01 X64.65715 Y21.61472
G01 X64.63005 Y21.71584
G01 X64.57839 Y21.87489
G01 X64.54087 Y21.97260
G01 X64.49335 Y22.06587
G01 X64.40973 Y22.21070
G01 X64.35271 Y22.29851
G01 X64.28685 Y22.37984
G01 X64.16856 Y22.51047
G01 X3.20437 Y22.51047
G01 X3.08613 Y22.64113
G01 X3.02027 Y22.72246
G01 X2.96324 Y22.81027
G01 X2.87963 Y22.95510
G01 X2.83210 Y23.04837
G01 X2.79459 Y23.14608
G01 X2.74292 Y23.30514
G01 X2.71582 Y23.40626
G01 X2.69944 Y23.50963
G01 X2.68196 Y23.67595
G01 X2.67648 Y23.78050
G01 X2.68196 Y23.88502
G01 X2.69944 Y24.05134
G01 X2.71582 Y24.15472
G01 X2.74292 Y24.25584
G01 X2.79459 Y24.41489
G01 X2.83210 Y24.51260
G01 X2.87963 Y24.60587
G01 X2.96324 Y24.75070
G01 X3.02027 Y24.83851
G01 X3.08613 Y24.91984
G01 X3.20437 Y25.05047

G04 P0 ( dwell for no time -- G64 should not smooth over this point )
G00 Z40.000000 ( retract )


M5 ( Spindle off. )
G04 P1.000000
M9 ( Coolant off. )
M2 ( Program end. )

