( pcb2gcode 2.5.0 )
( Gcode for linuxcnc )


G94 ( Millimeters per minute feed rate. )
G21 ( Units == Millimeters. )

G90 ( Absolute coordinates. )
G00 S10000 ( RPM spindle speed. )
G64 P0.01016 ( set maximum deviation from commanded toolpath )
G01 F600.00000 ( Feedrate. )

o1 sub ( G01 with Z-correction subroutine )
    #4 = 0 ( x-tile offset [minus the initial offset] )
    #5 = 0 ( y-tile offset [minus the initial offset] )
    #6 = [ FIX[ [ #1 - -71.77050 + #4 ] / 8.82250 ] ] ( Lower left point X index )
    #7 = [ FIX[ [ #2 - 1.19048 + #5 ] / 9.22334 ] ] ( Lower left point Y index )
    #8 = [ #6 * 7 + [ #7 + 1 ] + 500 ] ( Upper left point parameter number )
    #9 = [ [ #6 + 1 ] *7 + [ #7 + 1 ] + 500 ] ( Upper right point parameter number )
    #10 = [ #6 * 7 + #7 + 500 ] ( Lower left point parameter number )
    #11 = [ [ #6 + 1 ] * 7 + #7 + 500 ] ( Lower right point parameter number )
    #12 = [ [ #2 + #5 - 1.19048 - #7 * 9.22334 ] / 9.22334 ] ( Distance between the point and the left border of the rectangle, normalized to 1 )
    #13 = [ [ #1 + #4 - -71.77050 - #6 * 8.82250 ] / 8.82250 ] ( Distance between the point and the bottom border of the rectangle, normalized to 1 ) 
    #14 = [ ##10 + [ ##8 - ##10 ] * #12 ] ( Linear interpolation of the x-min elements )
    #15 = [ ##11 + [ ##9 - ##11 ] * #12 ] ( Linear interpolation of the x-max elements )
    #16 = [ #14 + [ #15 - #14 ] * #13 ] ( Linear interpolation of previously interpolated points )
    G01 X#1 Y#2 Z[#3 + #16]
o1 endsub

o2 sub ( Y probe subroutine )
    G0 Z0.500 ( Move to probe height )
    X[#101 * 8.82250 + -71.77050] Y[#102 * 9.22334 + 1.19048] ( Move to the current probe point )
    G38.2 Z-3 F100.000000 ( Probe it )
    #[#101 * 7 + #102 + 500] = #5063 ( Save the probe in the correct parameter )
    #102 = [#102 + #103] ( Increment/decrement by 1 the Y counter )
o2 endsub

o3 sub ( X probe subroutine )
    o4 repeat [#104]
        o2 call
    o4 endrepeat
    #104 = 7
    #103 = [0 - #103]
    #102 = [#102 + #103]
    #101 = [#101 + 1] ( Increment by 1 the X counter )
o3 endsub

#107 = 0
#108 = 0

(MSG, Attach the probe tool)
M0 ( Temporary machine stop. )
G0 Z0.500 ( Move Z to safe height )
G0 X-71.77050 Y1.19048 ( Move XY to start point )
G0 Z0.500 ( Move Z to probe height )
(PROBEOPEN RawProbeLog.txt) ( Record all probes in RawProbeLog.txt )
G38.2 Z-3 F100.000000 ( Z-probe )
#500 = 0 ( Probe point [0, 0] is our reference )
G10 L20 P0 Z0 ( Set the current Z as zero-value )

( We now start the real probing: move the Z axis to the probing height, move to )
( the probing XY position, probe it and save the result, parameter #5063, )
( in a numbered parameter; we will make 9 probes on the X-axis and )
( 7 probes on the Y-axis, for a grand total of 63 probes )

#101 = 0 ( X iterator )
#102 = 1 ( Y iterator )
#103 = 1 ( UP or DOWN increment )
#104 = 6 ( number of Y points; the 1st Y row can be done one time less )
o5 repeat [9]
    o3 call
o5 endrepeat

G0 Z0.500 ( Move Z to safe height )
(PROBECLOSE) ( Close the probe log file )
( Probing has ended, each Z-coordinate will be corrected with a bilinear interpolation )
(MSG, Detach the probe tool)
M0 ( Temporary machine stop. )


G00 Z40.00000 (Retract to tool change height)
T0
M5      (Spindle stop.)
G04 P1.00000 (Wait for spindle to stop)
(MSG, Change tool bit to mill diameter 2.00000mm)
M6      (Tool change.)
M0      (Temporary machine stop.)
M3 ( Spindle on clockwise. )
G04 P1.00000 (Wait for spindle to get up to speed)
G04 P0 ( dwell for no time -- G64 should not smooth over this point )
G00 Z0.50000 ( retract )

G00 X-1.19048 Y2.19050 ( rapid move to begin. )
G01 F300.00000
( Mill infeed pass 1/1 )
o1 call [-1.19048] [2.19050] [-0.07500]
G04 P0 ( dwell for no time -- G64 should not smooth over this point )
G01 F600.00000
o1 call [-1.19048] [10.41381] [-0.07500]
o1 call [-1.19048] [19.63715] [-0.07500]
o1 call [-1.19048] [28.86049] [-0.07500]
o1 call [-1.19048] [38.08382] [-0.07500]
o1 call [-1.19048] [47.30716] [-0.07500]
o1 call [-1.19048] [55.53050] [-0.07500]
o1 call [-1.19048] [55.53050] [-0.07500]
o1 call [-1.20970] [55.72557] [-0.07500]
o1 call [-1.26660] [55.91318] [-0.07500]
o1 call [-1.35901] [56.08605] [-0.07500]
o1 call [-1.48339] [56.23759] [-0.07500]
o1 call [-1.63493] [56.36197] [-0.07500]
o1 call [-1.80780] [56.45437] [-0.07500]
o1 call [-1.99540] [56.51127] [-0.07500]
o1 call [-2.19050] [56.53050] [-0.07500]
o1 call [-2.19050] [56.53050] [-0.07500]
o1 call [-10.01298] [56.53050] [-0.07500]
o1 call [-18.83548] [56.53050] [-0.07500]
o1 call [-27.65798] [56.53050] [-0.07500]
o1 call [-36.48049] [56.53050] [-0.07500]
o1 call [-45.30299] [56.53050] [-0.07500]
o1 call [-54.12549] [56.53050] [-0.07500]
o1 call [-62.94800] [56.53050] [-0.07500]
o1 call [-66.96050] [56.53050] [-0.07500]
o1 call [-66.96050] [56.53050] [-0.07500]
o1 call [-67.15557] [56.51127] [-0.07500]
o1 call [-67.34318] [56.45437] [-0.07500]
o1 call [-67.51605] [56.36197] [-0.07500]
o1 call [-67.66759] [56.23759] [-0.07500]
o1 call [-68.93759] [54.96759] [-0.07500]
o1 call [-69.06197] [54.81605] [-0.07500]
o1 call [-69.15437] [54.64318] [-0.07500]
o1 call [-69.21127] [54.45557] [-0.07500]
o1 call [-69.23050] [54.26050] [-0.07500]
o1 call [-69.23050] [47.30716] [-0.07500]
o1 call [-69.23050] [43.24470] [-0.07500]
o1 call [-71.47759] [40.99759] [-0.07500]
o1 call [-71.60197] [40.84605] [-0.07500]
o1 call [-71.69437] [40.67318] [-0.07500]
o1 call [-71.75127] [40.48557] [-0.07500]
o1 call [-71.77050] [40.29050] [-0.07500]
o1 call [-71.77050] [38.08382] [-0.07500]
o1 call [-71.77050] [28.86049] [-0.07500]
o1 call [-71.77050] [19.63715] [-0.07500]
o1 call [-71.77050] [10.41381] [-0.07500]
o1 call [-71.77050] [7.27050] [-0.07500]
o1 call [-71.75127] [7.07540] [-0.07500]
o1 call [-71.69437] [6.88780] [-0.07500]
o1 call [-71.60197] [6.71493] [-0.07500]
o1 call [-71.47759] [6.56339] [-0.07500]
o1 call [-69.23050] [4.31628] [-0.07500]
o1 call [-69.23050] [2.19050] [-0.07500]
o1 call [-69.21127] [1.99540] [-0.07500]
o1 call [-69.15437] [1.80780] [-0.07500]
o1 call [-69.06197] [1.63493] [-0.07500]
o1 call [-68.93759] [1.48339] [-0.07500]
o1 call [-68.78605] [1.35901] [-0.07500]
o1 call [-68.61318] [1.26660] [-0.07500]
o1 call [-68.42557] [1.20970] [-0.07500]
o1 call [-68.23050] [1.19048] [-0.07500]
o1 call [-62.94800] [1.19048] [-0.07500]
o1 call [-54.12549] [1.19048] [-0.07500]
o1 call [-45.30299] [1.19048] [-0.07500]
o1 call [-36.48049] [1.19048] [-0.07500]
o1 call [-27.65798] [1.19048] [-0.07500]
o1 call [-18.83548] [1.19048] [-0.07500]
o1 call [-10.01298] [1.19048] [-0.07500]
o1 call [-2.19050] [1.19048] [-0.07500]
o1 call [-1.99540] [1.20970] [-0.07500]
o1 call [-1.80780] [1.26660] [-0.07500]
o1 call [-1.63493] [1.35901] [-0.07500]
o1 call [-1.48339] [1.48339] [-0.07500]
o1 call [-1.35901] [1.63493] [-0.07500]
o1 call [-1.26660] [1.80780] [-0.07500]
o1 call [-1.20970] [1.99540] [-0.07500]
o1 call [-1.19048] [2.19050] [-0.07500]
o1 call [-1.19048] [2.19050] [-0.07500]
G04 P0 ( dwell for no time -- G64 should not smooth over this point )
G00 Z0.50000 ( retract )

G00 X-8.28647 Y8.45909 ( rapid move to begin. )
G01 F300.00000
( Mill infeed pass 1/1 )
o1 call [-8.28647] [8.45909] [-0.07500]
G04 P0 ( dwell for no time -- G64 should not smooth over this point )
G01 F600.00000
o1 call [-8.39923] [8.34500] [-0.07500]
o1 call [-8.51721] [8.20860] [-0.07500]
o1 call [-8.57019] [8.13212] [-0.07500]
o1 call [-8.62247] [8.04627] [-0.07500]
o1 call [-8.68124] [7.93857] [-0.07500]
o1 call [-8.83186] [7.77550] [-0.07500]
o1 call [-8.96547] [7.65762] [-0.07500]
o1 call [-9.05178] [7.61249] [-0.07500]
o1 call [-9.20545] [7.54637] [-0.07500]
o1 call [-9.34837] [7.49900] [-0.07500]
o1 call [-9.47286] [7.48869] [-0.07500]
o1 call [-9.64012] [7.48861] [-0.07500]
o1 call [-9.76275] [7.49862] [-0.07500]
o1 call [-9.85719] [7.52788] [-0.07500]
o1 call [-10.01298] [7.59243] [-0.07500]
o1 call [-10.06120] [7.61241] [-0.07500]
o1 call [-10.14596] [7.65658] [-0.07500]
o1 call [-10.28106] [7.77553] [-0.07500]
o1 call [-10.43186] [7.93847] [-0.07500]
o1 call [-10.49058] [8.04672] [-0.07500]
o1 call [-10.54263] [8.13214] [-0.07500]
o1 call [-10.59587] [8.20890] [-0.07500]
o1 call [-10.71433] [8.34571] [-0.07500]
o1 call [-10.82647] [8.45909] [-0.07500]
o1 call [-10.82647] [10.41381] [-0.07500]
o1 call [-10.82647] [19.63715] [-0.07500]
o1 call [-10.82647] [28.86049] [-0.07500]
o1 call [-10.82647] [38.08382] [-0.07500]
o1 call [-10.82647] [47.30716] [-0.07500]
o1 call [-10.82647] [49.26196] [-0.07500]
o1 call [-10.71372] [49.37595] [-0.07500]
o1 call [-10.59574] [49.51233] [-0.07500]
o1 call [-10.54273] [49.58883] [-0.07500]
o1 call [-10.49046] [49.67466] [-0.07500]
o1 call [-10.43171] [49.78238] [-0.07500]
o1 call [-10.28109] [49.94542] [-0.07500]
o1 call [-10.14748] [50.06333] [-0.07500]
o1 call [-10.06117] [50.10846] [-0.07500]
o1 call [-10.01298] [50.12919] [-0.07500]
o1 call [-9.90750] [50.17455] [-0.07500]
o1 call [-9.76458] [50.22193] [-0.07500]
o1 call [-9.64012] [50.23224] [-0.07500]
o1 call [-9.47286] [50.23231] [-0.07500]
o1 call [-9.35018] [50.22231] [-0.07500]
o1 call [-9.25576] [50.19302] [-0.07500]
o1 call [-9.05175] [50.10854] [-0.07500]
o1 call [-8.96697] [50.06437] [-0.07500]
o1 call [-8.83189] [49.94542] [-0.07500]
o1 call [-8.68109] [49.78248] [-0.07500]
o1 call [-8.62236] [49.67420] [-0.07500]
o1 call [-8.57032] [49.58881] [-0.07500]
o1 call [-8.51706] [49.51200] [-0.07500]
o1 call [-8.40865] [49.38525] [-0.07500]
o1 call [-8.28647] [49.26196] [-0.07500]
G04 P0 ( dwell for no time -- G64 should not smooth over this point )
G00 Z0.50000 ( retract )

G00 X-5.74647 Y49.26196 ( rapid move to begin. )
G01 F300.00000
( Mill infeed pass 1/1 )
o1 call [-5.74647] [49.26196] [-0.07500]
G04 P0 ( dwell for no time -- G64 should not smooth over this point )
G01 F600.00000
o1 call [-5.86865] [49.38525] [-0.07500]
o1 call [-5.97706] [49.51200] [-0.07500]
o1 call [-6.03032] [49.58881] [-0.07500]
o1 call [-6.08236] [49.67420] [-0.07500]
o1 call [-6.14109] [49.78248] [-0.07500]
o1 call [-6.29189] [49.94542] [-0.07500]
o1 call [-6.42697] [50.06437] [-0.07500]
o1 call [-6.51175] [50.10854] [-0.07500]
o1 call [-6.71576] [50.19302] [-0.07500]
o1 call [-6.81018] [50.22231] [-0.07500]
o1 call [-6.93283] [50.23231] [-0.07500]
o1 call [-7.10012] [50.23224] [-0.07500]
o1 call [-7.22455] [50.22193] [-0.07500]
o1 call [-7.36750] [50.17455] [-0.07500]
o1 call [-7.52117] [50.10846] [-0.07500]
o1 call [-7.60748] [50.06333] [-0.07500]
o1 call [-7.74109] [49.94542] [-0.07500]
o1 call [-7.89171] [49.78238] [-0.07500]
o1 call [-7.95046] [49.67466] [-0.07500]
o1 call [-8.00273] [49.58883] [-0.07500]
o1 call [-8.05574] [49.51233] [-0.07500]
o1 call [-8.17372] [49.37595] [-0.07500]
o1 call [-8.28647] [49.26196] [-0.07500]
o1 call [-8.28647] [47.30716] [-0.07500]
o1 call [-8.28647] [38.08382] [-0.07500]
o1 call [-8.28647] [28.86049] [-0.07500]
o1 call [-8.28647] [19.63715] [-0.07500]
o1 call [-8.28647] [10.41381] [-0.07500]
o1 call [-8.28647] [8.45909] [-0.07500]
o1 call [-8.17433] [8.34571] [-0.07500]
o1 call [-8.05587] [8.20890] [-0.07500]
o1 call [-8.00263] [8.13214] [-0.07500]
o1 call [-7.95058] [8.04672] [-0.07500]
o1 call [-7.89186] [7.93847] [-0.07500]
o1 call [-7.74106] [7.77553] [-0.07500]
o1 call [-7.60596] [7.65658] [-0.07500]
o1 call [-7.52120] [7.61241] [-0.07500]
o1 call [-7.31719] [7.52793] [-0.07500]
o1 call [-7.22272] [7.49862] [-0.07500]
o1 call [-7.10009] [7.48861] [-0.07500]
o1 call [-6.93283] [7.48869] [-0.07500]
o1 call [-6.80837] [7.49900] [-0.07500]
o1 call [-6.66545] [7.54637] [-0.07500]
o1 call [-6.51178] [7.61249] [-0.07500]
o1 call [-6.42547] [7.65762] [-0.07500]
o1 call [-6.29186] [7.77550] [-0.07500]
o1 call [-6.14124] [7.93857] [-0.07500]
o1 call [-6.08247] [8.04627] [-0.07500]
o1 call [-6.03019] [8.13212] [-0.07500]
o1 call [-5.97721] [8.20860] [-0.07500]
o1 call [-5.85923] [8.34500] [-0.07500]
o1 call [-5.74647] [8.45909] [-0.07500]
G04 P0 ( dwell for no time -- G64 should not smooth over this point )
G00 Z0.50000 ( retract )

G00 X-4.39342 Y9.81047 ( rapid move to begin. )
G01 F300.00000
( Mill infeed pass 1/1 )
o1 call [-4.39342] [9.81047] [-0.07500]
G04 P0 ( dwell for no time -- G64 should not smooth over this point )
G01 F600.00000
o1 call [-4.24277] [9.66087] [-0.07500]
o1 call [-4.16621] [9.59790] [-0.07500]
o1 call [-4.02220] [9.49704] [-0.07500]
o1 call [-3.88697] [9.42437] [-0.07500]
o1 call [-3.75189] [9.30542] [-0.07500]
o1 call [-3.63665] [9.18409] [-0.07500]
o1 call [-3.59296] [9.13189] [-0.07500]
o1 call [-3.50355] [8.94449] [-0.07500]
o1 call [-3.43299] [8.74896] [-0.07500]
o1 call [-3.42316] [8.56714] [-0.07500]
o1 call [-3.43266] [8.33379] [-0.07500]
o1 call [-3.50355] [8.13646] [-0.07500]
o1 call [-3.59200] [7.95058] [-0.07500]
o1 call [-3.63675] [7.89694] [-0.07500]
o1 call [-3.75186] [7.77550] [-0.07500]
o1 call [-3.88547] [7.65762] [-0.07500]
o1 call [-3.97178] [7.61249] [-0.07500]
o1 call [-4.12545] [7.54637] [-0.07500]
o1 call [-4.26837] [7.49900] [-0.07500]
o1 call [-4.39286] [7.48869] [-0.07500]
o1 call [-4.56009] [7.48861] [-0.07500]
o1 call [-4.68275] [7.49862] [-0.07500]
o1 call [-4.82748] [7.54642] [-0.07500]
o1 call [-5.02997] [7.63644] [-0.07500]
o1 call [-5.06596] [7.65658] [-0.07500]
o1 call [-5.16230] [7.73877] [-0.07500]
o1 call [-5.31630] [7.89684] [-0.07500]
o1 call [-5.35996] [7.94901] [-0.07500]
o1 call [-5.41059] [8.04672] [-0.07500]
o1 call [-5.46263] [8.13214] [-0.07500]
o1 call [-5.51587] [8.20890] [-0.07500]
o1 call [-5.63433] [8.34571] [-0.07500]
o1 call [-5.74647] [8.45909] [-0.07500]
o1 call [-5.74647] [10.41381] [-0.07500]
o1 call [-5.74647] [19.63715] [-0.07500]
o1 call [-5.74647] [28.86049] [-0.07500]
o1 call [-5.74647] [38.08382] [-0.07500]
o1 call [-5.74647] [47.30716] [-0.07500]
o1 call [-5.74647] [49.26196] [-0.07500]
o1 call [-5.63372] [49.37595] [-0.07500]
o1 call [-5.51574] [49.51233] [-0.07500]
o1 call [-5.46273] [49.58883] [-0.07500]
o1 call [-5.41046] [49.67466] [-0.07500]
o1 call [-5.35171] [49.78238] [-0.07500]
o1 call [-5.20109] [49.94542] [-0.07500]
o1 call [-5.06748] [50.06333] [-0.07500]
o1 call [-4.98117] [50.10846] [-0.07500]
o1 call [-4.82750] [50.17455] [-0.07500]
o1 call [-4.68458] [50.22193] [-0.07500]
o1 call [-4.56012] [50.23224] [-0.07500]
o1 call [-4.39283] [50.23231] [-0.07500]
o1 call [-4.27018] [50.22231] [-0.07500]
o1 call [-4.17576] [50.19302] [-0.07500]
o1 call [-3.97175] [50.10854] [-0.07500]
o1 call [-3.92296] [50.08451] [-0.07500]
o1 call [-3.88697] [50.06437] [-0.07500]
o1 call [-3.79065] [49.98217] [-0.07500]
o1 call [-3.63665] [49.82409] [-0.07500]
o1 call [-3.59296] [49.77189] [-0.07500]
o1 call [-3.52463] [49.63348] [-0.07500]
o1 call [-3.50355] [49.58449] [-0.07500]
o1 call [-3.43299] [49.38896] [-0.07500]
o1 call [-3.42316] [49.15383] [-0.07500]
o1 call [-3.43266] [48.97379] [-0.07500]
o1 call [-3.50355] [48.77646] [-0.07500]
o1 call [-3.59202] [48.59059] [-0.07500]
o1 call [-3.60124] [48.57857] [-0.07500]
o1 call [-3.75186] [48.41550] [-0.07500]
o1 call [-3.88544] [48.29762] [-0.07500]
o1 call [-4.02263] [48.22378] [-0.07500]
o1 call [-4.16624] [48.12312] [-0.07500]
o1 call [-4.23693] [48.06620] [-0.07500]
o1 call [-4.39342] [47.91047] [-0.07500]
o1 call [-10.01298] [47.91047] [-0.07500]
o1 call [-18.83548] [47.91047] [-0.07500]
o1 call [-27.65798] [47.91047] [-0.07500]
o1 call [-36.48049] [47.91047] [-0.07500]
o1 call [-45.30299] [47.91047] [-0.07500]
o1 call [-54.12549] [47.91047] [-0.07500]
o1 call [-62.94800] [47.91047] [-0.07500]
o1 call [-62.97953] [47.91047] [-0.07500]
o1 call [-63.13671] [48.06679] [-0.07500]
o1 call [-63.20674] [48.12305] [-0.07500]
o1 call [-63.35073] [48.22391] [-0.07500]
o1 call [-63.48593] [48.29655] [-0.07500]
o1 call [-63.62106] [48.41553] [-0.07500]
o1 call [-63.73630] [48.53686] [-0.07500]
o1 call [-63.77996] [48.58904] [-0.07500]
o1 call [-63.84831] [48.72747] [-0.07500]
o1 call [-63.86940] [48.77646] [-0.07500]
o1 call [-63.93993] [48.97197] [-0.07500]
o1 call [-63.94976] [49.15383] [-0.07500]
o1 call [-63.94026] [49.38713] [-0.07500]
o1 call [-63.86940] [49.58449] [-0.07500]
o1 call [-63.78093] [49.77034] [-0.07500]
o1 call [-63.77171] [49.78238] [-0.07500]
o1 call [-63.62109] [49.94542] [-0.07500]
o1 call [-63.48748] [50.06333] [-0.07500]
o1 call [-63.40117] [50.10846] [-0.07500]
o1 call [-63.19721] [50.19312] [-0.07500]
o1 call [-63.10458] [50.22193] [-0.07500]
o1 call [-62.98012] [50.23224] [-0.07500]
o1 call [-62.94800] [50.23225] [-0.07500]
o1 call [-62.81286] [50.23231] [-0.07500]
o1 call [-62.69018] [50.22231] [-0.07500]
o1 call [-62.54547] [50.17450] [-0.07500]
o1 call [-62.39175] [50.10854] [-0.07500]
o1 call [-62.30697] [50.06437] [-0.07500]
o1 call [-62.17189] [49.94542] [-0.07500]
o1 call [-62.05665] [49.82411] [-0.07500]
o1 call [-62.01296] [49.77191] [-0.07500]
o1 call [-61.96236] [49.67420] [-0.07500]
o1 call [-61.91032] [49.58881] [-0.07500]
o1 call [-61.85706] [49.51200] [-0.07500]
o1 call [-61.74865] [49.38525] [-0.07500]
o1 call [-61.62647] [49.26196] [-0.07500]
o1 call [-61.62647] [47.30716] [-0.07500]
o1 call [-61.62647] [38.08382] [-0.07500]
o1 call [-61.62647] [28.86049] [-0.07500]
o1 call [-61.62647] [19.63715] [-0.07500]
o1 call [-61.62647] [10.41381] [-0.07500]
o1 call [-61.62647] [8.45897] [-0.07500]
o1 call [-61.73923] [8.34500] [-0.07500]
o1 call [-61.85721] [8.20860] [-0.07500]
o1 call [-61.91019] [8.13212] [-0.07500]
o1 call [-61.96247] [8.04627] [-0.07500]
o1 call [-62.01200] [7.95061] [-0.07500]
o1 call [-62.05675] [7.89694] [-0.07500]
o1 call [-62.17186] [7.77550] [-0.07500]
o1 call [-62.30547] [7.65762] [-0.07500]
o1 call [-62.39178] [7.61249] [-0.07500]
o1 call [-62.54545] [7.54637] [-0.07500]
o1 call [-62.68837] [7.49900] [-0.07500]
o1 call [-62.81283] [7.48869] [-0.07500]
o1 call [-62.94800] [7.48862] [-0.07500]
o1 call [-62.98012] [7.48861] [-0.07500]
o1 call [-63.10275] [7.49862] [-0.07500]
o1 call [-63.19719] [7.52788] [-0.07500]
o1 call [-63.40120] [7.61241] [-0.07500]
o1 call [-63.48596] [7.65658] [-0.07500]
o1 call [-63.62106] [7.77553] [-0.07500]
o1 call [-63.77186] [7.93847] [-0.07500]
o1 call [-63.84831] [8.08747] [-0.07500]
o1 call [-63.86940] [8.13646] [-0.07500]
o1 call [-63.93993] [8.33197] [-0.07500]
o1 call [-63.94976] [8.51383] [-0.07500]
o1 call [-63.94026] [8.74713] [-0.07500]
o1 call [-63.86940] [8.94449] [-0.07500]
o1 call [-63.84834] [8.99351] [-0.07500]
o1 call [-63.78093] [9.13034] [-0.07500]
o1 call [-63.73620] [9.18401] [-0.07500]
o1 call [-63.62109] [9.30545] [-0.07500]
o1 call [-63.48748] [9.42333] [-0.07500]
o1 call [-63.35030] [9.49717] [-0.07500]
o1 call [-63.20671] [9.59783] [-0.07500]
o1 call [-63.12944] [9.66143] [-0.07500]
o1 call [-62.97938] [9.81047] [-0.07500]
o1 call [-62.94800] [9.81047] [-0.07500]
o1 call [-54.12549] [9.81047] [-0.07500]
o1 call [-45.30299] [9.81047] [-0.07500]
o1 call [-36.48049] [9.81047] [-0.07500]
o1 call [-27.65798] [9.81047] [-0.07500]
o1 call [-18.83548] [9.81047] [-0.07500]
o1 call [-10.01298] [9.81047] [-0.07500]
o1 call [-4.39342] [9.81047] [-0.07500]
o1 call [-4.23693] [9.96620] [-0.07500]
o1 call [-4.16624] [10.02312] [-0.07500]
o1 call [-4.02263] [10.12378] [-0.07500]
o1 call [-3.88544] [10.19762] [-0.07500]
o1 call [-3.75186] [10.31550] [-0.07500]
o1 call [-3.65867] [10.41381] [-0.07500]
o1 call [-3.63675] [10.43694] [-0.07500]
o1 call [-3.59202] [10.49058] [-0.07500]
o1 call [-3.50355] [10.67646] [-0.07500]
o1 call [-3.43266] [10.87379] [-0.07500]
o1 call [-3.42316] [11.10714] [-0.07500]
o1 call [-3.43299] [11.28896] [-0.07500]
o1 call [-3.50355] [11.48449] [-0.07500]
o1 call [-3.52463] [11.53348] [-0.07500]
o1 call [-3.60109] [11.68248] [-0.07500]
o1 call [-3.75189] [11.84542] [-0.07500]
o1 call [-3.88697] [11.96437] [-0.07500]
o1 call [-4.02220] [12.03704] [-0.07500]
o1 call [-4.16621] [12.13790] [-0.07500]
o1 call [-4.24277] [12.20087] [-0.07500]
o1 call [-4.39342] [12.35047] [-0.07500]
o1 call [-10.01298] [12.35047] [-0.07500]
o1 call [-18.83548] [12.35047] [-0.07500]
o1 call [-27.65798] [12.35047] [-0.07500]
o1 call [-36.48049] [12.35047] [-0.07500]
o1 call [-45.30299] [12.35047] [-0.07500]
o1 call [-54.12549] [12.35047] [-0.07500]
o1 call [-62.94800] [12.35047] [-0.07500]
o1 call [-62.97938] [12.35047] [-0.07500]
o1 call [-63.12944] [12.20143] [-0.07500]
o1 call [-63.20671] [12.13783] [-0.07500]
o1 call [-63.35030] [12.03717] [-0.07500]
o1 call [-63.48748] [11.96333] [-0.07500]
o1 call [-63.62109] [11.84545] [-0.07500]
o1 call [-63.77171] [11.68238] [-0.07500]
o1 call [-63.78093] [11.67034] [-0.07500]
o1 call [-63.86940] [11.48449] [-0.07500]
o1 call [-63.94026] [11.28713] [-0.07500]
o1 call [-63.94979] [11.10714] [-0.07500]
o1 call [-63.93993] [10.87197] [-0.07500]
o1 call [-63.86940] [10.67646] [-0.07500]
o1 call [-63.77996] [10.48904] [-0.07500]
o1 call [-63.73630] [10.43686] [-0.07500]
o1 call [-63.71441] [10.41381] [-0.07500]
o1 call [-63.62106] [10.31553] [-0.07500]
o1 call [-63.48593] [10.19655] [-0.07500]
o1 call [-63.35073] [10.12391] [-0.07500]
o1 call [-63.20674] [10.02305] [-0.07500]
o1 call [-63.13013] [9.96006] [-0.07500]
o1 call [-62.97938] [9.81047] [-0.07500]
G04 P0 ( dwell for no time -- G64 should not smooth over this point )
G00 Z0.50000 ( retract )

G00 X-61.62647 Y8.45897 ( rapid move to begin. )
G01 F300.00000
( Mill infeed pass 1/1 )
o1 call [-61.62647] [8.45897] [-0.07500]
G04 P0 ( dwell for no time -- G64 should not smooth over this point )
G01 F600.00000
o1 call [-61.50433] [8.33570] [-0.07500]
o1 call [-61.39587] [8.20890] [-0.07500]
o1 call [-61.34263] [8.13214] [-0.07500]
o1 call [-61.29059] [8.04672] [-0.07500]
o1 call [-61.23186] [7.93847] [-0.07500]
o1 call [-61.08106] [7.77553] [-0.07500]
o1 call [-60.94596] [7.65658] [-0.07500]
o1 call [-60.86120] [7.61241] [-0.07500]
o1 call [-60.65719] [7.52788] [-0.07500]
o1 call [-60.56275] [7.49862] [-0.07500]
o1 call [-60.44009] [7.48861] [-0.07500]
o1 call [-60.27286] [7.48869] [-0.07500]
o1 call [-60.14837] [7.49900] [-0.07500]
o1 call [-60.00545] [7.54637] [-0.07500]
o1 call [-59.85178] [7.61249] [-0.07500]
o1 call [-59.76547] [7.65762] [-0.07500]
o1 call [-59.63186] [7.77550] [-0.07500]
o1 call [-59.48124] [7.93857] [-0.07500]
o1 call [-59.42247] [8.04627] [-0.07500]
o1 call [-59.37019] [8.13212] [-0.07500]
o1 call [-59.31721] [8.20860] [-0.07500]
o1 call [-59.19923] [8.34500] [-0.07500]
o1 call [-59.08647] [8.45897] [-0.07500]
G04 P0 ( dwell for no time -- G64 should not smooth over this point )
G00 Z0.50000 ( retract )

G00 X-56.54647 Y8.45897 ( rapid move to begin. )
G01 F300.00000
( Mill infeed pass 1/1 )
o1 call [-56.54647] [8.45897] [-0.07500]
G04 P0 ( dwell for no time -- G64 should not smooth over this point )
G01 F600.00000
o1 call [-56.65923] [8.34500] [-0.07500]
o1 call [-56.77721] [8.20860] [-0.07500]
o1 call [-56.83019] [8.13212] [-0.07500]
o1 call [-56.88247] [8.04627] [-0.07500]
o1 call [-56.94124] [7.93857] [-0.07500]
o1 call [-57.09186] [7.77550] [-0.07500]
o1 call [-57.22547] [7.65762] [-0.07500]
o1 call [-57.31178] [7.61249] [-0.07500]
o1 call [-57.46545] [7.54637] [-0.07500]
o1 call [-57.60837] [7.49900] [-0.07500]
o1 call [-57.73286] [7.48869] [-0.07500]
o1 call [-57.90012] [7.48861] [-0.07500]
o1 call [-58.02275] [7.49862] [-0.07500]
o1 call [-58.11719] [7.52788] [-0.07500]
o1 call [-58.32120] [7.61241] [-0.07500]
o1 call [-58.40596] [7.65658] [-0.07500]
o1 call [-58.54106] [7.77553] [-0.07500]
o1 call [-58.69186] [7.93847] [-0.07500]
o1 call [-58.75059] [8.04672] [-0.07500]
o1 call [-58.80263] [8.13214] [-0.07500]
o1 call [-58.85587] [8.20890] [-0.07500]
o1 call [-58.96433] [8.33570] [-0.07500]
o1 call [-59.08647] [8.45897] [-0.07500]
o1 call [-59.08647] [10.41381] [-0.07500]
o1 call [-59.08647] [19.63715] [-0.07500]
o1 call [-59.08647] [28.86049] [-0.07500]
o1 call [-59.08647] [38.08382] [-0.07500]
o1 call [-59.08647] [47.30716] [-0.07500]
o1 call [-59.08647] [49.26196] [-0.07500]
o1 call [-58.97372] [49.37595] [-0.07500]
o1 call [-58.85574] [49.51233] [-0.07500]
o1 call [-58.80273] [49.58883] [-0.07500]
o1 call [-58.75046] [49.67466] [-0.07500]
o1 call [-58.69171] [49.78238] [-0.07500]
o1 call [-58.54109] [49.94542] [-0.07500]
o1 call [-58.40748] [50.06333] [-0.07500]
o1 call [-58.32117] [50.10846] [-0.07500]
o1 call [-58.16750] [50.17455] [-0.07500]
o1 call [-58.02458] [50.22193] [-0.07500]
o1 call [-57.90012] [50.23224] [-0.07500]
o1 call [-57.73283] [50.23231] [-0.07500]
o1 call [-57.61018] [50.22231] [-0.07500]
o1 call [-57.51576] [50.19302] [-0.07500]
o1 call [-57.31175] [50.10854] [-0.07500]
o1 call [-57.22697] [50.06437] [-0.07500]
o1 call [-57.09189] [49.94542] [-0.07500]
o1 call [-56.94109] [49.78248] [-0.07500]
o1 call [-56.88236] [49.67420] [-0.07500]
o1 call [-56.83032] [49.58881] [-0.07500]
o1 call [-56.77706] [49.51200] [-0.07500]
o1 call [-56.65862] [49.37519] [-0.07500]
o1 call [-56.54647] [49.26183] [-0.07500]
G04 P0 ( dwell for no time -- G64 should not smooth over this point )
G00 Z0.50000 ( retract )

G00 X-49.18050 Y53.46876 ( rapid move to begin. )
G01 F300.00000
( Mill infeed pass 1/1 )
o1 call [-49.18050] [53.46876] [-0.07500]
G04 P0 ( dwell for no time -- G64 should not smooth over this point )
G01 F600.00000
o1 call [-49.10572] [53.54399] [-0.07500]
o1 call [-49.01830] [53.64485] [-0.07500]
o1 call [-48.94032] [53.74932] [-0.07500]
o1 call [-48.88271] [53.83843] [-0.07500]
o1 call [-48.82891] [53.93675] [-0.07500]
o1 call [-48.74474] [54.07213] [-0.07500]
o1 call [-48.61634] [54.24168] [-0.07500]
o1 call [-48.44255] [54.36629] [-0.07500]
o1 call [-48.29053] [54.45334] [-0.07500]
o1 call [-48.20031] [54.47899] [-0.07500]
o1 call [-47.99013] [54.51930] [-0.07500]
o1 call [-47.91047] [54.52715] [-0.07500]
o1 call [-47.77667] [54.51110] [-0.07500]
o1 call [-47.62064] [54.47899] [-0.07500]
o1 call [-47.53039] [54.45334] [-0.07500]
o1 call [-47.37842] [54.36632] [-0.07500]
o1 call [-47.20458] [54.24168] [-0.07500]
o1 call [-47.07619] [54.07213] [-0.07500]
o1 call [-46.98218] [53.92027] [-0.07500]
o1 call [-46.93202] [53.73264] [-0.07500]
o1 call [-46.89447] [53.49827] [-0.07500]
o1 call [-46.89447] [52.48265] [-0.07500]
o1 call [-46.92168] [52.29848] [-0.07500]
o1 call [-46.98218] [52.06063] [-0.07500]
o1 call [-47.07619] [51.90879] [-0.07500]
o1 call [-47.20458] [51.73925] [-0.07500]
o1 call [-47.37842] [51.61461] [-0.07500]
o1 call [-47.53039] [51.52759] [-0.07500]
o1 call [-47.62064] [51.50193] [-0.07500]
o1 call [-47.77667] [51.46983] [-0.07500]
o1 call [-47.91047] [51.45377] [-0.07500]
o1 call [-48.04428] [51.46985] [-0.07500]
o1 call [-48.20031] [51.50193] [-0.07500]
o1 call [-48.29053] [51.52759] [-0.07500]
o1 call [-48.44255] [51.61463] [-0.07500]
o1 call [-48.61685] [51.73965] [-0.07500]
o1 call [-48.74530] [51.90849] [-0.07500]
o1 call [-48.82980] [52.04364] [-0.07500]
o1 call [-48.86958] [52.11867] [-0.07500]
o1 call [-48.92785] [52.21303] [-0.07500]
o1 call [-48.98261] [52.28966] [-0.07500]
o1 call [-49.04494] [52.36995] [-0.07500]
o1 call [-49.18050] [52.51217] [-0.07500]
o1 call [-49.18050] [53.46876] [-0.07500]
o1 call [-49.31601] [53.61097] [-0.07500]
o1 call [-49.37832] [53.69118] [-0.07500]
o1 call [-49.43308] [53.76789] [-0.07500]
o1 call [-49.49137] [53.86225] [-0.07500]
o1 call [-49.53115] [53.93731] [-0.07500]
o1 call [-49.61565] [54.07246] [-0.07500]
o1 call [-49.74410] [54.24127] [-0.07500]
o1 call [-49.91840] [54.36629] [-0.07500]
o1 call [-50.07039] [54.45334] [-0.07500]
o1 call [-50.16064] [54.47899] [-0.07500]
o1 call [-50.31667] [54.51110] [-0.07500]
o1 call [-50.45045] [54.52715] [-0.07500]
o1 call [-50.58428] [54.51110] [-0.07500]
o1 call [-50.74031] [54.47899] [-0.07500]
o1 call [-50.83051] [54.45336] [-0.07500]
o1 call [-50.98255] [54.36629] [-0.07500]
o1 call [-51.15685] [54.24127] [-0.07500]
o1 call [-51.28530] [54.07244] [-0.07500]
o1 call [-51.36980] [53.93728] [-0.07500]
o1 call [-51.45052] [53.79197] [-0.07500]
o1 call [-51.48029] [53.74932] [-0.07500]
o1 call [-51.55827] [53.64485] [-0.07500]
o1 call [-51.64572] [53.54399] [-0.07500]
o1 call [-51.72047] [53.46876] [-0.07500]
o1 call [-51.72047] [52.51217] [-0.07500]
o1 call [-51.79520] [52.43696] [-0.07500]
o1 call [-51.88260] [52.33607] [-0.07500]
o1 call [-51.96063] [52.23160] [-0.07500]
o1 call [-52.01824] [52.14250] [-0.07500]
o1 call [-52.07201] [52.04412] [-0.07500]
o1 call [-52.15619] [51.90879] [-0.07500]
o1 call [-52.28456] [51.73925] [-0.07500]
o1 call [-52.45840] [51.61461] [-0.07500]
o1 call [-52.61039] [51.52759] [-0.07500]
o1 call [-52.70064] [51.50193] [-0.07500]
o1 call [-52.85664] [51.46983] [-0.07500]
o1 call [-52.99045] [51.45377] [-0.07500]
o1 call [-53.12428] [51.46985] [-0.07500]
o1 call [-53.28031] [51.50196] [-0.07500]
o1 call [-53.37051] [51.52759] [-0.07500]
o1 call [-53.52255] [51.61466] [-0.07500]
o1 call [-53.69634] [51.73925] [-0.07500]
o1 call [-53.82476] [51.90879] [-0.07500]
o1 call [-53.90891] [52.04412] [-0.07500]
o1 call [-53.96271] [52.14250] [-0.07500]
o1 call [-54.02032] [52.23160] [-0.07500]
o1 call [-54.12549] [52.36796] [-0.07500]
o1 call [-54.13561] [52.38108] [-0.07500]
o1 call [-54.26047] [52.51461] [-0.07500]
o1 call [-54.26047] [53.46632] [-0.07500]
o1 call [-54.38537] [53.59987] [-0.07500]
o1 call [-54.50063] [53.74932] [-0.07500]
o1 call [-54.55829] [53.83853] [-0.07500]
o1 call [-54.61204] [53.93680] [-0.07500]
o1 call [-54.69619] [54.07213] [-0.07500]
o1 call [-54.82458] [54.24168] [-0.07500]
o1 call [-54.99842] [54.36632] [-0.07500]
o1 call [-55.15039] [54.45334] [-0.07500]
o1 call [-55.24064] [54.47899] [-0.07500]
o1 call [-55.45082] [54.51930] [-0.07500]
o1 call [-55.53047] [54.52715] [-0.07500]
o1 call [-55.61013] [54.51930] [-0.07500]
o1 call [-55.82031] [54.47899] [-0.07500]
o1 call [-55.91053] [54.45334] [-0.07500]
o1 call [-56.06255] [54.36629] [-0.07500]
o1 call [-56.23634] [54.24168] [-0.07500]
o1 call [-56.36474] [54.07213] [-0.07500]
o1 call [-56.44891] [53.93675] [-0.07500]
o1 call [-56.50271] [53.83843] [-0.07500]
o1 call [-56.56032] [53.74932] [-0.07500]
o1 call [-56.67561] [53.59982] [-0.07500]
o1 call [-56.80050] [53.46634] [-0.07500]
o1 call [-56.80050] [52.51458] [-0.07500]
o1 call [-56.92537] [52.38105] [-0.07500]
o1 call [-57.04063] [52.23160] [-0.07500]
o1 call [-57.09832] [52.14239] [-0.07500]
o1 call [-57.15204] [52.04412] [-0.07500]
o1 call [-57.23619] [51.90879] [-0.07500]
o1 call [-57.36458] [51.73925] [-0.07500]
o1 call [-57.53837] [51.61463] [-0.07500]
o1 call [-57.69039] [51.52759] [-0.07500]
o1 call [-57.78064] [51.50193] [-0.07500]
o1 call [-57.93667] [51.46983] [-0.07500]
o1 call [-58.07045] [51.45377] [-0.07500]
o1 call [-58.20428] [51.46985] [-0.07500]
o1 call [-58.36031] [51.50193] [-0.07500]
o1 call [-58.45053] [51.52759] [-0.07500]
o1 call [-58.60255] [51.61463] [-0.07500]
o1 call [-58.77634] [51.73925] [-0.07500]
o1 call [-58.90476] [51.90879] [-0.07500]
o1 call [-58.98891] [52.04412] [-0.07500]
o1 call [-59.04271] [52.14250] [-0.07500]
o1 call [-59.10032] [52.23160] [-0.07500]
o1 call [-59.21561] [52.38108] [-0.07500]
o1 call [-59.34047] [52.51461] [-0.07500]
o1 call [-59.34047] [53.46632] [-0.07500]
o1 call [-59.34047] [52.51461] [-0.07500]
o1 call [-59.46537] [52.38105] [-0.07500]
o1 call [-59.58063] [52.23160] [-0.07500]
o1 call [-59.63831] [52.14239] [-0.07500]
o1 call [-59.69204] [52.04412] [-0.07500]
o1 call [-59.77619] [51.90879] [-0.07500]
o1 call [-59.90458] [51.73925] [-0.07500]
o1 call [-60.07837] [51.61463] [-0.07500]
o1 call [-60.23039] [51.52759] [-0.07500]
o1 call [-60.32064] [51.50193] [-0.07500]
o1 call [-60.53085] [51.46162] [-0.07500]
o1 call [-60.61047] [51.45377] [-0.07500]
o1 call [-60.74428] [51.46985] [-0.07500]
o1 call [-60.90031] [51.50193] [-0.07500]
o1 call [-60.99053] [51.52759] [-0.07500]
o1 call [-61.14255] [51.61463] [-0.07500]
o1 call [-61.31657] [51.73950] [-0.07500]
o1 call [-61.44476] [51.90879] [-0.07500]
o1 call [-61.52891] [52.04412] [-0.07500]
o1 call [-61.58271] [52.14250] [-0.07500]
o1 call [-61.64032] [52.23160] [-0.07500]
o1 call [-61.75561] [52.38108] [-0.07500]
o1 call [-61.88047] [52.51461] [-0.07500]
o1 call [-61.88047] [53.46632] [-0.07500]
o1 call [-61.88047] [52.51461] [-0.07500]
o1 call [-62.00537] [52.38105] [-0.07500]
o1 call [-62.12063] [52.23160] [-0.07500]
o1 call [-62.17831] [52.14239] [-0.07500]
o1 call [-62.23204] [52.04412] [-0.07500]
o1 call [-62.31619] [51.90879] [-0.07500]
o1 call [-62.44458] [51.73925] [-0.07500]
o1 call [-62.61842] [51.61461] [-0.07500]
o1 call [-62.77039] [51.52759] [-0.07500]
o1 call [-62.86064] [51.50193] [-0.07500]
o1 call [-62.94800] [51.48396] [-0.07500]
o1 call [-63.01667] [51.46983] [-0.07500]
o1 call [-63.15045] [51.45377] [-0.07500]
o1 call [-63.28428] [51.46985] [-0.07500]
o1 call [-63.44031] [51.50193] [-0.07500]
o1 call [-63.53053] [51.52759] [-0.07500]
o1 call [-63.68255] [51.61463] [-0.07500]
o1 call [-63.85634] [51.73925] [-0.07500]
o1 call [-63.98476] [51.90879] [-0.07500]
o1 call [-64.06891] [52.04412] [-0.07500]
o1 call [-64.12271] [52.14250] [-0.07500]
o1 call [-64.18032] [52.23160] [-0.07500]
o1 call [-64.29561] [52.38108] [-0.07500]
o1 call [-64.42050] [52.51458] [-0.07500]
o1 call [-64.42050] [53.46634] [-0.07500]
o1 call [-64.54537] [53.59987] [-0.07500]
o1 call [-64.66063] [53.74932] [-0.07500]
o1 call [-64.71829] [53.83853] [-0.07500]
o1 call [-64.77204] [53.93680] [-0.07500]
o1 call [-64.85619] [54.07213] [-0.07500]
o1 call [-64.98438] [54.24145] [-0.07500]
o1 call [-65.02771] [54.27523] [-0.07500]
o1 call [-65.20422] [54.39479] [-0.07500]
o1 call [-65.31041] [54.45334] [-0.07500]
o1 call [-65.34730] [54.46507] [-0.07500]
o1 call [-65.55667] [54.51110] [-0.07500]
o1 call [-65.69047] [54.52715] [-0.07500]
o1 call [-65.82428] [54.51110] [-0.07500]
o1 call [-66.03363] [54.46507] [-0.07500]
o1 call [-66.07051] [54.45336] [-0.07500]
o1 call [-66.17673] [54.39479] [-0.07500]
o1 call [-66.35326] [54.27521] [-0.07500]
o1 call [-66.39634] [54.24168] [-0.07500]
o1 call [-66.52474] [54.07213] [-0.07500]
o1 call [-66.61877] [53.92027] [-0.07500]
o1 call [-66.66893] [53.73264] [-0.07500]
o1 call [-66.70647] [53.49847] [-0.07500]
o1 call [-66.70645] [52.48247] [-0.07500]
o1 call [-66.66893] [52.24829] [-0.07500]
o1 call [-66.61874] [52.06063] [-0.07500]
o1 call [-66.52476] [51.90879] [-0.07500]
o1 call [-66.39657] [51.73950] [-0.07500]
o1 call [-66.22255] [51.61463] [-0.07500]
o1 call [-66.07053] [51.52759] [-0.07500]
o1 call [-66.03365] [51.51588] [-0.07500]
o1 call [-65.82428] [51.46985] [-0.07500]
o1 call [-65.69047] [51.45377] [-0.07500]
o1 call [-65.55667] [51.46983] [-0.07500]
o1 call [-65.40064] [51.50193] [-0.07500]
o1 call [-65.31039] [51.52759] [-0.07500]
o1 call [-65.15842] [51.61461] [-0.07500]
o1 call [-64.98458] [51.73925] [-0.07500]
o1 call [-64.85619] [51.90879] [-0.07500]
o1 call [-64.77204] [52.04412] [-0.07500]
o1 call [-64.71832] [52.14239] [-0.07500]
o1 call [-64.66063] [52.23160] [-0.07500]
o1 call [-64.54537] [52.38105] [-0.07500]
o1 call [-64.42050] [52.51458] [-0.07500]
o1 call [-64.42050] [53.46634] [-0.07500]
o1 call [-64.29561] [53.59982] [-0.07500]
o1 call [-64.18032] [53.74932] [-0.07500]
o1 call [-64.12271] [53.83843] [-0.07500]
o1 call [-64.06891] [53.93675] [-0.07500]
o1 call [-63.98474] [54.07213] [-0.07500]
o1 call [-63.85637] [54.24168] [-0.07500]
o1 call [-63.68255] [54.36629] [-0.07500]
o1 call [-63.53051] [54.45336] [-0.07500]
o1 call [-63.44031] [54.47899] [-0.07500]
o1 call [-63.28428] [54.51110] [-0.07500]
o1 call [-63.15045] [54.52715] [-0.07500]
o1 call [-63.01667] [54.51110] [-0.07500]
o1 call [-62.94800] [54.49697] [-0.07500]
o1 call [-62.86064] [54.47899] [-0.07500]
o1 call [-62.77039] [54.45334] [-0.07500]
o1 call [-62.61842] [54.36632] [-0.07500]
o1 call [-62.44458] [54.24168] [-0.07500]
o1 call [-62.31619] [54.07213] [-0.07500]
o1 call [-62.23204] [53.93680] [-0.07500]
o1 call [-62.17829] [53.83853] [-0.07500]
o1 call [-62.12063] [53.74932] [-0.07500]
o1 call [-62.00537] [53.59987] [-0.07500]
o1 call [-61.88047] [53.46632] [-0.07500]
o1 call [-61.75561] [53.59982] [-0.07500]
o1 call [-61.64032] [53.74932] [-0.07500]
o1 call [-61.58271] [53.83843] [-0.07500]
o1 call [-61.52891] [53.93675] [-0.07500]
o1 call [-61.44474] [54.07213] [-0.07500]
o1 call [-61.31634] [54.24168] [-0.07500]
o1 call [-61.27326] [54.27521] [-0.07500]
o1 call [-61.09673] [54.39479] [-0.07500]
o1 call [-60.99053] [54.45334] [-0.07500]
o1 call [-60.90031] [54.47899] [-0.07500]
o1 call [-60.69010] [54.51930] [-0.07500]
o1 call [-60.61047] [54.52715] [-0.07500]
o1 call [-60.53085] [54.51930] [-0.07500]
o1 call [-60.32064] [54.47899] [-0.07500]
o1 call [-60.23039] [54.45334] [-0.07500]
o1 call [-60.07840] [54.36629] [-0.07500]
o1 call [-59.90438] [54.24145] [-0.07500]
o1 call [-59.77619] [54.07213] [-0.07500]
o1 call [-59.69204] [53.93680] [-0.07500]
o1 call [-59.63829] [53.83853] [-0.07500]
o1 call [-59.58063] [53.74932] [-0.07500]
o1 call [-59.46537] [53.59987] [-0.07500]
o1 call [-59.34047] [53.46632] [-0.07500]
o1 call [-59.21561] [53.59982] [-0.07500]
o1 call [-59.10032] [53.74932] [-0.07500]
o1 call [-59.04271] [53.83843] [-0.07500]
o1 call [-58.98891] [53.93675] [-0.07500]
o1 call [-58.90474] [54.07213] [-0.07500]
o1 call [-58.77634] [54.24168] [-0.07500]
o1 call [-58.73326] [54.27521] [-0.07500]
o1 call [-58.55673] [54.39479] [-0.07500]
o1 call [-58.45053] [54.45334] [-0.07500]
o1 call [-58.41363] [54.46507] [-0.07500]
o1 call [-58.20428] [54.51110] [-0.07500]
o1 call [-58.07047] [54.52715] [-0.07500]
o1 call [-57.93667] [54.51110] [-0.07500]
o1 call [-57.78064] [54.47899] [-0.07500]
o1 call [-57.69039] [54.45334] [-0.07500]
o1 call [-57.53840] [54.36629] [-0.07500]
o1 call [-57.36458] [54.24168] [-0.07500]
o1 call [-57.23619] [54.07213] [-0.07500]
o1 call [-57.15204] [53.93680] [-0.07500]
o1 call [-57.09829] [53.83853] [-0.07500]
o1 call [-57.04063] [53.74932] [-0.07500]
o1 call [-56.92537] [53.59987] [-0.07500]
o1 call [-56.80050] [53.46634] [-0.07500]
o1 call [-56.80050] [52.51458] [-0.07500]
o1 call [-56.67561] [52.38108] [-0.07500]
o1 call [-56.56032] [52.23160] [-0.07500]
o1 call [-56.50271] [52.14250] [-0.07500]
o1 call [-56.44891] [52.04412] [-0.07500]
o1 call [-56.36476] [51.90879] [-0.07500]
o1 call [-56.23634] [51.73925] [-0.07500]
o1 call [-56.06255] [51.61463] [-0.07500]
o1 call [-55.91053] [51.52759] [-0.07500]
o1 call [-55.82031] [51.50193] [-0.07500]
o1 call [-55.61013] [51.46162] [-0.07500]
o1 call [-55.53047] [51.45377] [-0.07500]
o1 call [-55.45082] [51.46162] [-0.07500]
o1 call [-55.24064] [51.50193] [-0.07500]
o1 call [-55.15039] [51.52759] [-0.07500]
o1 call [-54.99842] [51.61461] [-0.07500]
o1 call [-54.82458] [51.73925] [-0.07500]
o1 call [-54.69619] [51.90879] [-0.07500]
o1 call [-54.61204] [52.04412] [-0.07500]
o1 call [-54.55832] [52.14239] [-0.07500]
o1 call [-54.50063] [52.23160] [-0.07500]
o1 call [-54.38537] [52.38105] [-0.07500]
o1 call [-54.26047] [52.51461] [-0.07500]
o1 call [-54.26047] [53.46632] [-0.07500]
o1 call [-54.13561] [53.59982] [-0.07500]
o1 call [-54.12549] [53.61294] [-0.07500]
o1 call [-54.02032] [53.74932] [-0.07500]
o1 call [-53.96271] [53.83843] [-0.07500]
o1 call [-53.90891] [53.93675] [-0.07500]
o1 call [-53.82474] [54.07213] [-0.07500]
o1 call [-53.69637] [54.24168] [-0.07500]
o1 call [-53.52255] [54.36629] [-0.07500]
o1 call [-53.37051] [54.45336] [-0.07500]
o1 call [-53.28031] [54.47899] [-0.07500]
o1 call [-53.12428] [54.51110] [-0.07500]
o1 call [-52.99047] [54.52715] [-0.07500]
o1 call [-52.91085] [54.51930] [-0.07500]
o1 call [-52.70064] [54.47899] [-0.07500]
o1 call [-52.61041] [54.45334] [-0.07500]
o1 call [-52.45840] [54.36632] [-0.07500]
o1 call [-52.28456] [54.24168] [-0.07500]
o1 call [-52.18634] [54.11534] [-0.07500]
o1 call [-52.07201] [53.93680] [-0.07500]
o1 call [-52.01824] [53.83843] [-0.07500]
o1 call [-51.96063] [53.74932] [-0.07500]
o1 call [-51.88260] [53.64485] [-0.07500]
o1 call [-51.79518] [53.54397] [-0.07500]
o1 call [-51.72047] [53.46876] [-0.07500]
o1 call [-51.72047] [52.51217] [-0.07500]
o1 call [-51.58491] [52.36990] [-0.07500]
o1 call [-51.52261] [52.28966] [-0.07500]
o1 call [-51.46782] [52.21303] [-0.07500]
o1 call [-51.40958] [52.11867] [-0.07500]
o1 call [-51.36980] [52.04364] [-0.07500]
o1 call [-51.28530] [51.90851] [-0.07500]
o1 call [-51.15682] [51.73965] [-0.07500]
o1 call [-50.98253] [51.61463] [-0.07500]
o1 call [-50.83053] [51.52759] [-0.07500]
o1 call [-50.74031] [51.50193] [-0.07500]
o1 call [-50.58428] [51.46985] [-0.07500]
o1 call [-50.45045] [51.45377] [-0.07500]
o1 call [-50.31667] [51.46983] [-0.07500]
o1 call [-50.10730] [51.51588] [-0.07500]
o1 call [-50.07039] [51.52759] [-0.07500]
o1 call [-49.96422] [51.58616] [-0.07500]
o1 call [-49.91842] [51.61461] [-0.07500]
o1 call [-49.74458] [51.73925] [-0.07500]
o1 call [-49.61619] [51.90879] [-0.07500]
o1 call [-49.53204] [52.04412] [-0.07500]
o1 call [-49.47831] [52.14239] [-0.07500]
o1 call [-49.42063] [52.23160] [-0.07500]
o1 call [-49.34265] [52.33607] [-0.07500]
o1 call [-49.25520] [52.43696] [-0.07500]
o1 call [-49.18050] [52.51217] [-0.07500]
G04 P0 ( dwell for no time -- G64 should not smooth over this point )
G00 Z0.50000 ( retract )

G00 X-48.92647 Y49.26183 ( rapid move to begin. )
G01 F300.00000
( Mill infeed pass 1/1 )
o1 call [-48.92647] [49.26183] [-0.07500]
G04 P0 ( dwell for no time -- G64 should not smooth over this point )
G01 F600.00000
o1 call [-48.81372] [49.37595] [-0.07500]
o1 call [-48.69574] [49.51233] [-0.07500]
o1 call [-48.64273] [49.58883] [-0.07500]
o1 call [-48.59046] [49.67466] [-0.07500]
o1 call [-48.53171] [49.78238] [-0.07500]
o1 call [-48.38109] [49.94542] [-0.07500]
o1 call [-48.24748] [50.06333] [-0.07500]
o1 call [-48.16117] [50.10846] [-0.07500]
o1 call [-48.00750] [50.17455] [-0.07500]
o1 call [-47.86458] [50.22193] [-0.07500]
o1 call [-47.74012] [50.23224] [-0.07500]
o1 call [-47.57283] [50.23231] [-0.07500]
o1 call [-47.45018] [50.22231] [-0.07500]
o1 call [-47.35576] [50.19302] [-0.07500]
o1 call [-47.15175] [50.10854] [-0.07500]
o1 call [-47.06697] [50.06437] [-0.07500]
o1 call [-46.93189] [49.94542] [-0.07500]
o1 call [-46.78109] [49.78248] [-0.07500]
o1 call [-46.72236] [49.67420] [-0.07500]
o1 call [-46.67032] [49.58881] [-0.07500]
o1 call [-46.61706] [49.51200] [-0.07500]
o1 call [-46.50865] [49.38525] [-0.07500]
o1 call [-46.38647] [49.26196] [-0.07500]
G04 P0 ( dwell for no time -- G64 should not smooth over this point )
G00 Z0.50000 ( retract )

G00 X-43.84647 Y49.26196 ( rapid move to begin. )
G01 F300.00000
( Mill infeed pass 1/1 )
o1 call [-43.84647] [49.26196] [-0.07500]
G04 P0 ( dwell for no time -- G64 should not smooth over this point )
G01 F600.00000
o1 call [-43.96865] [49.38525] [-0.07500]
o1 call [-44.07706] [49.51200] [-0.07500]
o1 call [-44.13032] [49.58881] [-0.07500]
o1 call [-44.18236] [49.67420] [-0.07500]
o1 call [-44.24109] [49.78248] [-0.07500]
o1 call [-44.39189] [49.94542] [-0.07500]
o1 call [-44.52697] [50.06437] [-0.07500]
o1 call [-44.61175] [50.10854] [-0.07500]
o1 call [-44.81576] [50.19302] [-0.07500]
o1 call [-44.91018] [50.22231] [-0.07500]
o1 call [-45.03286] [50.23231] [-0.07500]
o1 call [-45.20012] [50.23224] [-0.07500]
o1 call [-45.30299] [50.22371] [-0.07500]
o1 call [-45.32458] [50.22193] [-0.07500]
o1 call [-45.46750] [50.17455] [-0.07500]
o1 call [-45.62117] [50.10846] [-0.07500]
o1 call [-45.70748] [50.06333] [-0.07500]
o1 call [-45.84109] [49.94542] [-0.07500]
o1 call [-45.99171] [49.78238] [-0.07500]
o1 call [-46.05046] [49.67466] [-0.07500]
o1 call [-46.10273] [49.58883] [-0.07500]
o1 call [-46.15574] [49.51233] [-0.07500]
o1 call [-46.27372] [49.37595] [-0.07500]
o1 call [-46.38647] [49.26196] [-0.07500]
o1 call [-46.38647] [47.30716] [-0.07500]
o1 call [-46.38647] [38.08382] [-0.07500]
o1 call [-46.38647] [28.86049] [-0.07500]
o1 call [-46.38647] [19.63715] [-0.07500]
o1 call [-46.38647] [10.41381] [-0.07500]
o1 call [-46.38647] [8.45897] [-0.07500]
o1 call [-46.26433] [8.33570] [-0.07500]
o1 call [-46.17690] [8.23534] [-0.07500]
o1 call [-46.12595] [8.16829] [-0.07500]
o1 call [-46.05058] [8.04672] [-0.07500]
o1 call [-45.99186] [7.93847] [-0.07500]
o1 call [-45.84106] [7.77553] [-0.07500]
o1 call [-45.70596] [7.65658] [-0.07500]
o1 call [-45.62120] [7.61241] [-0.07500]
o1 call [-45.41719] [7.52788] [-0.07500]
o1 call [-45.32275] [7.49862] [-0.07500]
o1 call [-45.30299] [7.49701] [-0.07500]
o1 call [-45.20012] [7.48861] [-0.07500]
o1 call [-45.03283] [7.48869] [-0.07500]
o1 call [-44.90837] [7.49900] [-0.07500]
o1 call [-44.76545] [7.54637] [-0.07500]
o1 call [-44.61178] [7.61249] [-0.07500]
o1 call [-44.52547] [7.65762] [-0.07500]
o1 call [-44.39186] [7.77550] [-0.07500]
o1 call [-44.24124] [7.93857] [-0.07500]
o1 call [-44.18247] [8.04627] [-0.07500]
o1 call [-44.13019] [8.13212] [-0.07500]
o1 call [-44.07721] [8.20860] [-0.07500]
o1 call [-43.95923] [8.34500] [-0.07500]
o1 call [-43.84647] [8.45897] [-0.07500]
o1 call [-43.84647] [10.41381] [-0.07500]
o1 call [-43.84647] [19.63715] [-0.07500]
o1 call [-43.84647] [28.86049] [-0.07500]
o1 call [-43.84647] [38.08382] [-0.07500]
o1 call [-43.84647] [47.30716] [-0.07500]
o1 call [-43.84647] [49.26196] [-0.07500]
o1 call [-43.73372] [49.37595] [-0.07500]
o1 call [-43.61574] [49.51233] [-0.07500]
o1 call [-43.56273] [49.58883] [-0.07500]
o1 call [-43.51046] [49.67466] [-0.07500]
o1 call [-43.45171] [49.78238] [-0.07500]
o1 call [-43.30109] [49.94542] [-0.07500]
o1 call [-43.16748] [50.06333] [-0.07500]
o1 call [-43.08117] [50.10846] [-0.07500]
o1 call [-42.92750] [50.17455] [-0.07500]
o1 call [-42.78458] [50.22193] [-0.07500]
o1 call [-42.66012] [50.23224] [-0.07500]
o1 call [-42.49286] [50.23231] [-0.07500]
o1 call [-42.37018] [50.22231] [-0.07500]
o1 call [-42.27576] [50.19302] [-0.07500]
o1 call [-42.07175] [50.10854] [-0.07500]
o1 call [-41.98697] [50.06437] [-0.07500]
o1 call [-41.85189] [49.94542] [-0.07500]
o1 call [-41.70109] [49.78248] [-0.07500]
o1 call [-41.64236] [49.67420] [-0.07500]
o1 call [-41.59032] [49.58881] [-0.07500]
o1 call [-41.53706] [49.51200] [-0.07500]
o1 call [-41.41862] [49.37519] [-0.07500]
o1 call [-41.30647] [49.26183] [-0.07500]
o1 call [-41.30647] [47.30716] [-0.07500]
o1 call [-41.30647] [38.08382] [-0.07500]
o1 call [-41.30647] [28.86049] [-0.07500]
o1 call [-41.30647] [19.63715] [-0.07500]
o1 call [-41.30647] [10.41381] [-0.07500]
o1 call [-41.30647] [8.45897] [-0.07500]
o1 call [-41.18433] [8.33570] [-0.07500]
o1 call [-41.07587] [8.20890] [-0.07500]
o1 call [-41.02263] [8.13214] [-0.07500]
o1 call [-40.97058] [8.04672] [-0.07500]
o1 call [-40.91186] [7.93847] [-0.07500]
o1 call [-40.76106] [7.77553] [-0.07500]
o1 call [-40.62596] [7.65658] [-0.07500]
o1 call [-40.54120] [7.61241] [-0.07500]
o1 call [-40.33719] [7.52788] [-0.07500]
o1 call [-40.24275] [7.49862] [-0.07500]
o1 call [-40.12012] [7.48861] [-0.07500]
o1 call [-39.95283] [7.48869] [-0.07500]
o1 call [-39.82837] [7.49900] [-0.07500]
o1 call [-39.68545] [7.54637] [-0.07500]
o1 call [-39.53178] [7.61249] [-0.07500]
o1 call [-39.44547] [7.65762] [-0.07500]
o1 call [-39.31186] [7.77550] [-0.07500]
o1 call [-39.16124] [7.93857] [-0.07500]
o1 call [-39.10247] [8.04627] [-0.07500]
o1 call [-39.05019] [8.13212] [-0.07500]
o1 call [-38.99721] [8.20860] [-0.07500]
o1 call [-38.87923] [8.34500] [-0.07500]
o1 call [-38.76647] [8.45897] [-0.07500]
G04 P0 ( dwell for no time -- G64 should not smooth over this point )
G00 Z0.50000 ( retract )

G00 X-39.02047 Y5.94155 ( rapid move to begin. )
G01 F300.00000
( Mill infeed pass 1/1 )
o1 call [-39.02047] [5.94155] [-0.07500]
G04 P0 ( dwell for no time -- G64 should not smooth over this point )
G01 F600.00000
o1 call [-38.91466] [6.00263] [-0.07500]
o1 call [-38.78933] [6.06669] [-0.07500]
o1 call [-38.63000] [6.13761] [-0.07500]
o1 call [-38.53013] [6.17606] [-0.07500]
o1 call [-38.37084] [6.22780] [-0.07500]
o1 call [-38.28804] [6.25005] [-0.07500]
o1 call [-38.12873] [6.28389] [-0.07500]
o1 call [-38.05654] [6.29534] [-0.07500]
o1 call [-37.83010] [6.31561] [-0.07500]
o1 call [-37.60371] [6.31206] [-0.07500]
o1 call [-37.44440] [6.29532] [-0.07500]
o1 call [-37.37224] [6.28384] [-0.07500]
o1 call [-37.21293] [6.24995] [-0.07500]
o1 call [-37.13018] [6.22770] [-0.07500]
o1 call [-36.97090] [6.17594] [-0.07500]
o1 call [-36.87108] [6.13751] [-0.07500]
o1 call [-36.71177] [6.06657] [-0.07500]
o1 call [-36.58652] [6.00251] [-0.07500]
o1 call [-36.48049] [5.94127] [-0.07500]
o1 call [-36.48047] [5.94127] [-0.07500]
o1 call [-36.37443] [6.00248] [-0.07500]
o1 call [-36.24913] [6.06654] [-0.07500]
o1 call [-36.08982] [6.13746] [-0.07500]
o1 call [-35.99000] [6.17589] [-0.07500]
o1 call [-35.83072] [6.22763] [-0.07500]
o1 call [-35.74796] [6.24985] [-0.07500]
o1 call [-35.58863] [6.28371] [-0.07500]
o1 call [-35.51652] [6.29514] [-0.07500]
o1 call [-35.35719] [6.31188] [-0.07500]
o1 call [-35.29013] [6.31541] [-0.07500]
o1 call [-35.06376] [6.31185] [-0.07500]
o1 call [-34.90446] [6.29509] [-0.07500]
o1 call [-34.83232] [6.28363] [-0.07500]
o1 call [-34.67304] [6.24975] [-0.07500]
o1 call [-34.59036] [6.22755] [-0.07500]
o1 call [-34.43108] [6.17579] [-0.07500]
o1 call [-34.33125] [6.13733] [-0.07500]
o1 call [-34.17197] [6.06639] [-0.07500]
o1 call [-34.04675] [6.00235] [-0.07500]
o1 call [-33.94047] [5.94099] [-0.07500]
o1 call [-33.83418] [6.00235] [-0.07500]
o1 call [-33.70895] [6.06636] [-0.07500]
o1 call [-33.54962] [6.13728] [-0.07500]
o1 call [-33.44985] [6.17568] [-0.07500]
o1 call [-33.29056] [6.22742] [-0.07500]
o1 call [-33.20786] [6.24965] [-0.07500]
o1 call [-33.04855] [6.28351] [-0.07500]
o1 call [-32.97647] [6.29494] [-0.07500]
o1 call [-32.81716] [6.31168] [-0.07500]
o1 call [-32.59082] [6.31518] [-0.07500]
o1 call [-32.52381] [6.31165] [-0.07500]
o1 call [-32.36451] [6.29489] [-0.07500]
o1 call [-32.29240] [6.28343] [-0.07500]
o1 call [-32.13311] [6.24957] [-0.07500]
o1 call [-32.05051] [6.22735] [-0.07500]
o1 call [-31.89123] [6.17558] [-0.07500]
o1 call [-31.79146] [6.13715] [-0.07500]
o1 call [-31.63215] [6.06624] [-0.07500]
o1 call [-31.50700] [6.00223] [-0.07500]
o1 call [-31.40047] [5.94071] [-0.07500]
o1 call [-31.29395] [6.00220] [-0.07500]
o1 call [-31.16878] [6.06618] [-0.07500]
o1 call [-31.00944] [6.13710] [-0.07500]
o1 call [-30.90972] [6.17551] [-0.07500]
o1 call [-30.75044] [6.22725] [-0.07500]
o1 call [-30.66779] [6.24945] [-0.07500]
o1 call [-30.50848] [6.28330] [-0.07500]
o1 call [-30.43642] [6.29473] [-0.07500]
o1 call [-30.27711] [6.31147] [-0.07500]
o1 call [-30.05085] [6.31498] [-0.07500]
o1 call [-29.98384] [6.31145] [-0.07500]
o1 call [-29.82453] [6.29468] [-0.07500]
o1 call [-29.75252] [6.28325] [-0.07500]
o1 call [-29.59321] [6.24937] [-0.07500]
o1 call [-29.51059] [6.22714] [-0.07500]
o1 call [-29.35130] [6.17538] [-0.07500]
o1 call [-29.25163] [6.13700] [-0.07500]
o1 call [-29.15021] [6.09184] [-0.07500]
o1 call [-29.09377] [5.92900] [-0.07500]
o1 call [-29.05110] [5.76972] [-0.07500]
o1 call [-29.03180] [5.67922] [-0.07500]
o1 call [-29.00658] [5.51991] [-0.07500]
o1 call [-28.99789] [5.43756] [-0.07500]
o1 call [-28.98852] [5.23845] [-0.07500]
o1 call [-28.98852] [4.22250] [-0.07500]
o1 call [-28.99789] [4.02339] [-0.07500]
o1 call [-29.00658] [3.94104] [-0.07500]
o1 call [-29.03180] [3.78173] [-0.07500]
o1 call [-29.05110] [3.69123] [-0.07500]
o1 call [-29.09377] [3.53195] [-0.07500]
o1 call [-29.15021] [3.36911] [-0.07500]
o1 call [-29.25163] [3.32395] [-0.07500]
o1 call [-29.35135] [3.28554] [-0.07500]
o1 call [-29.51064] [3.23378] [-0.07500]
o1 call [-29.59321] [3.21158] [-0.07500]
o1 call [-29.75250] [3.17772] [-0.07500]
o1 call [-29.82453] [3.16627] [-0.07500]
o1 call [-29.98384] [3.14950] [-0.07500]
o1 call [-30.21013] [3.14597] [-0.07500]
o1 call [-30.43642] [3.16622] [-0.07500]
o1 call [-30.50848] [3.17765] [-0.07500]
o1 call [-30.66779] [3.21150] [-0.07500]
o1 call [-30.75036] [3.23370] [-0.07500]
o1 call [-30.90967] [3.28544] [-0.07500]
o1 call [-31.00944] [3.32385] [-0.07500]
o1 call [-31.16878] [3.39476] [-0.07500]
o1 call [-31.29392] [3.45875] [-0.07500]
o1 call [-31.40047] [3.52024] [-0.07500]
o1 call [-31.40047] [5.94071] [-0.07500]
o1 call [-31.40047] [3.52024] [-0.07500]
o1 call [-31.50700] [3.45872] [-0.07500]
o1 call [-31.63215] [3.39471] [-0.07500]
o1 call [-31.79146] [3.32380] [-0.07500]
o1 call [-31.89123] [3.28537] [-0.07500]
o1 call [-32.05051] [3.23360] [-0.07500]
o1 call [-32.13311] [3.21140] [-0.07500]
o1 call [-32.29240] [3.17752] [-0.07500]
o1 call [-32.36451] [3.16606] [-0.07500]
o1 call [-32.52381] [3.14930] [-0.07500]
o1 call [-32.75013] [3.14577] [-0.07500]
o1 call [-32.97647] [3.16601] [-0.07500]
o1 call [-33.04855] [3.17744] [-0.07500]
o1 call [-33.20786] [3.21130] [-0.07500]
o1 call [-33.29056] [3.23353] [-0.07500]
o1 call [-33.44985] [3.28527] [-0.07500]
o1 call [-33.54962] [3.32367] [-0.07500]
o1 call [-33.70895] [3.39459] [-0.07500]
o1 call [-33.83418] [3.45859] [-0.07500]
o1 call [-33.94047] [3.51996] [-0.07500]
o1 call [-33.94047] [5.94099] [-0.07500]
o1 call [-33.94047] [3.51996] [-0.07500]
o1 call [-34.04675] [3.45859] [-0.07500]
o1 call [-34.17197] [3.39456] [-0.07500]
o1 call [-34.33128] [3.32362] [-0.07500]
o1 call [-34.43108] [3.28519] [-0.07500]
o1 call [-34.59038] [3.23342] [-0.07500]
o1 call [-34.67304] [3.21120] [-0.07500]
o1 call [-34.83232] [3.17732] [-0.07500]
o1 call [-34.90446] [3.16586] [-0.07500]
o1 call [-35.06376] [3.14910] [-0.07500]
o1 call [-35.13082] [3.14557] [-0.07500]
o1 call [-35.35719] [3.14907] [-0.07500]
o1 call [-35.51649] [3.16581] [-0.07500]
o1 call [-35.58863] [3.17726] [-0.07500]
o1 call [-35.74796] [3.21110] [-0.07500]
o1 call [-35.83072] [3.23335] [-0.07500]
o1 call [-35.99000] [3.28509] [-0.07500]
o1 call [-36.08980] [3.32352] [-0.07500]
o1 call [-36.24913] [3.39443] [-0.07500]
o1 call [-36.37440] [3.45847] [-0.07500]
o1 call [-36.48047] [3.51968] [-0.07500]
o1 call [-36.48047] [5.94127] [-0.07500]
o1 call [-36.48047] [3.51968] [-0.07500]
o1 call [-36.48049] [3.51967] [-0.07500]
o1 call [-36.58652] [3.45844] [-0.07500]
o1 call [-36.71179] [3.39438] [-0.07500]
o1 call [-36.87108] [3.32347] [-0.07500]
o1 call [-36.97095] [3.28499] [-0.07500]
o1 call [-37.13023] [3.23322] [-0.07500]
o1 call [-37.21293] [3.21100] [-0.07500]
o1 call [-37.37222] [3.17711] [-0.07500]
o1 call [-37.44440] [3.16566] [-0.07500]
o1 call [-37.60371] [3.14889] [-0.07500]
o1 call [-37.67085] [3.14536] [-0.07500]
o1 call [-37.89724] [3.14887] [-0.07500]
o1 call [-38.05654] [3.16561] [-0.07500]
o1 call [-38.12876] [3.17706] [-0.07500]
o1 call [-38.28804] [3.21092] [-0.07500]
o1 call [-38.37077] [3.23314] [-0.07500]
o1 call [-38.53008] [3.28488] [-0.07500]
o1 call [-38.63000] [3.32334] [-0.07500]
o1 call [-38.78931] [3.39426] [-0.07500]
o1 call [-38.91466] [3.45832] [-0.07500]
o1 call [-39.02047] [3.51940] [-0.07500]
o1 call [-39.12629] [3.45832] [-0.07500]
o1 call [-39.25159] [3.39423] [-0.07500]
o1 call [-39.41090] [3.32329] [-0.07500]
o1 call [-39.51082] [3.28481] [-0.07500]
o1 call [-39.67010] [3.23304] [-0.07500]
o1 call [-39.75286] [3.21079] [-0.07500]
o1 call [-39.91214] [3.17693] [-0.07500]
o1 call [-39.98438] [3.16545] [-0.07500]
o1 call [-40.14366] [3.14869] [-0.07500]
o1 call [-40.37013] [3.14513] [-0.07500]
o1 call [-40.43729] [3.14866] [-0.07500]
o1 call [-40.59660] [3.16540] [-0.07500]
o1 call [-40.66881] [3.17686] [-0.07500]
o1 call [-40.90312] [3.23045] [-0.07500]
o1 call [-41.06492] [3.55534] [-0.07500]
o1 call [-41.20952] [3.78379] [-0.07500]
o1 call [-41.25689] [3.87399] [-0.07500]
o1 call [-41.31244] [3.96454] [-0.07500]
o1 call [-41.35748] [4.03022] [-0.07500]
o1 call [-41.43152] [4.12679] [-0.07500]
o1 call [-41.56047] [4.26847] [-0.07500]
o1 call [-41.56047] [5.19245] [-0.07500]
o1 call [-41.43152] [5.33413] [-0.07500]
o1 call [-41.35745] [5.43073] [-0.07500]
o1 call [-41.31244] [5.49639] [-0.07500]
o1 call [-41.25692] [5.58694] [-0.07500]
o1 call [-41.20952] [5.67713] [-0.07500]
o1 call [-41.06492] [5.90561] [-0.07500]
o1 call [-40.90312] [6.23050] [-0.07500]
o1 call [-40.82814] [6.25026] [-0.07500]
o1 call [-40.66881] [6.28409] [-0.07500]
o1 call [-40.59660] [6.29557] [-0.07500]
o1 call [-40.43729] [6.31228] [-0.07500]
o1 call [-40.21085] [6.31579] [-0.07500]
o1 call [-39.98435] [6.29552] [-0.07500]
o1 call [-39.91214] [6.28404] [-0.07500]
o1 call [-39.75286] [6.25016] [-0.07500]
o1 call [-39.67010] [6.22791] [-0.07500]
o1 call [-39.51082] [6.17614] [-0.07500]
o1 call [-39.41090] [6.13766] [-0.07500]
o1 call [-39.25159] [6.06672] [-0.07500]
o1 call [-39.12627] [6.00263] [-0.07500]
o1 call [-39.02047] [5.94155] [-0.07500]
o1 call [-39.02047] [3.51940] [-0.07500]
G04 P0 ( dwell for no time -- G64 should not smooth over this point )
G00 Z0.50000 ( retract )

G00 X-41.30647 Y8.45897 ( rapid move to begin. )
G01 F300.00000
( Mill infeed pass 1/1 )
o1 call [-41.30647] [8.45897] [-0.07500]
G04 P0 ( dwell for no time -- G64 should not smooth over this point )
G01 F600.00000
o1 call [-41.41923] [8.34500] [-0.07500]
o1 call [-41.53721] [8.20860] [-0.07500]
o1 call [-41.59019] [8.13212] [-0.07500]
o1 call [-41.64247] [8.04627] [-0.07500]
o1 call [-41.70124] [7.93857] [-0.07500]
o1 call [-41.85186] [7.77550] [-0.07500]
o1 call [-41.98547] [7.65762] [-0.07500]
o1 call [-42.07178] [7.61249] [-0.07500]
o1 call [-42.22545] [7.54637] [-0.07500]
o1 call [-42.36837] [7.49900] [-0.07500]
o1 call [-42.49283] [7.48869] [-0.07500]
o1 call [-42.66012] [7.48861] [-0.07500]
o1 call [-42.78275] [7.49862] [-0.07500]
o1 call [-42.87719] [7.52788] [-0.07500]
o1 call [-43.08120] [7.61241] [-0.07500]
o1 call [-43.16596] [7.65658] [-0.07500]
o1 call [-43.30106] [7.77553] [-0.07500]
o1 call [-43.45186] [7.93847] [-0.07500]
o1 call [-43.51058] [8.04672] [-0.07500]
o1 call [-43.56263] [8.13214] [-0.07500]
o1 call [-43.61587] [8.20890] [-0.07500]
o1 call [-43.72433] [8.33570] [-0.07500]
o1 call [-43.84647] [8.45897] [-0.07500]
G04 P0 ( dwell for no time -- G64 should not smooth over this point )
G00 Z0.50000 ( retract )

G00 X-46.64047 Y4.26642 ( rapid move to begin. )
G01 F300.00000
( Mill infeed pass 1/1 )
o1 call [-46.64047] [4.26642] [-0.07500]
G04 P0 ( dwell for no time -- G64 should not smooth over this point )
G01 F600.00000
o1 call [-46.72508] [4.17802] [-0.07500]
o1 call [-46.80390] [4.08407] [-0.07500]
o1 call [-46.84304] [4.03022] [-0.07500]
o1 call [-46.90504] [3.94122] [-0.07500]
o1 call [-46.99122] [3.78369] [-0.07500]
o1 call [-47.07570] [3.64854] [-0.07500]
o1 call [-47.20415] [3.47963] [-0.07500]
o1 call [-47.37842] [3.35461] [-0.07500]
o1 call [-47.53039] [3.26759] [-0.07500]
o1 call [-47.62064] [3.24193] [-0.07500]
o1 call [-47.83085] [3.20162] [-0.07500]
o1 call [-47.91047] [3.19377] [-0.07500]
o1 call [-48.04428] [3.20983] [-0.07500]
o1 call [-48.20031] [3.24193] [-0.07500]
o1 call [-48.29053] [3.26759] [-0.07500]
o1 call [-48.44255] [3.35463] [-0.07500]
o1 call [-48.61634] [3.47925] [-0.07500]
o1 call [-48.74476] [3.64882] [-0.07500]
o1 call [-48.83874] [3.80063] [-0.07500]
o1 call [-48.89925] [4.03845] [-0.07500]
o1 call [-48.92645] [4.22250] [-0.07500]
o1 call [-48.92647] [5.23845] [-0.07500]
o1 call [-48.88893] [5.47264] [-0.07500]
o1 call [-48.83874] [5.66029] [-0.07500]
o1 call [-48.74474] [5.81213] [-0.07500]
o1 call [-48.61634] [5.98168] [-0.07500]
o1 call [-48.44255] [6.10629] [-0.07500]
o1 call [-48.29053] [6.19334] [-0.07500]
o1 call [-48.20031] [6.21899] [-0.07500]
o1 call [-48.04428] [6.25110] [-0.07500]
o1 call [-47.91047] [6.26715] [-0.07500]
o1 call [-47.77667] [6.25110] [-0.07500]
o1 call [-47.62064] [6.21899] [-0.07500]
o1 call [-47.53039] [6.19334] [-0.07500]
o1 call [-47.37842] [6.10632] [-0.07500]
o1 call [-47.20435] [5.98148] [-0.07500]
o1 call [-47.07570] [5.81241] [-0.07500]
o1 call [-46.99125] [5.67726] [-0.07500]
o1 call [-46.90504] [5.51970] [-0.07500]
o1 call [-46.84306] [5.43073] [-0.07500]
o1 call [-46.80390] [5.37685] [-0.07500]
o1 call [-46.72508] [5.28292] [-0.07500]
o1 call [-46.64047] [5.19451] [-0.07500]
o1 call [-46.64047] [4.26642] [-0.07500]
G04 P0 ( dwell for no time -- G64 should not smooth over this point )
G00 Z0.50000 ( retract )

G00 X-51.46647 Y8.45897 ( rapid move to begin. )
G01 F300.00000
( Mill infeed pass 1/1 )
o1 call [-51.46647] [8.45897] [-0.07500]
G04 P0 ( dwell for no time -- G64 should not smooth over this point )
G01 F600.00000
o1 call [-51.34433] [8.33570] [-0.07500]
o1 call [-51.23587] [8.20890] [-0.07500]
o1 call [-51.18263] [8.13214] [-0.07500]
o1 call [-51.13058] [8.04672] [-0.07500]
o1 call [-51.07186] [7.93847] [-0.07500]
o1 call [-50.92106] [7.77553] [-0.07500]
o1 call [-50.78596] [7.65658] [-0.07500]
o1 call [-50.70120] [7.61241] [-0.07500]
o1 call [-50.49719] [7.52788] [-0.07500]
o1 call [-50.40275] [7.49862] [-0.07500]
o1 call [-50.28012] [7.48861] [-0.07500]
o1 call [-50.11283] [7.48869] [-0.07500]
o1 call [-49.98837] [7.49900] [-0.07500]
o1 call [-49.84545] [7.54637] [-0.07500]
o1 call [-49.69178] [7.61249] [-0.07500]
o1 call [-49.60547] [7.65762] [-0.07500]
o1 call [-49.47186] [7.77550] [-0.07500]
o1 call [-49.32124] [7.93857] [-0.07500]
o1 call [-49.26247] [8.04627] [-0.07500]
o1 call [-49.21019] [8.13212] [-0.07500]
o1 call [-49.15721] [8.20860] [-0.07500]
o1 call [-49.03923] [8.34500] [-0.07500]
o1 call [-48.92647] [8.45897] [-0.07500]
G04 P0 ( dwell for no time -- G64 should not smooth over this point )
G00 Z0.50000 ( retract )

G00 X-46.38647 Y8.45897 ( rapid move to begin. )
G01 F300.00000
( Mill infeed pass 1/1 )
o1 call [-46.38647] [8.45897] [-0.07500]
G04 P0 ( dwell for no time -- G64 should not smooth over this point )
G01 F600.00000
o1 call [-46.49923] [8.34500] [-0.07500]
o1 call [-46.61721] [8.20860] [-0.07500]
o1 call [-46.67019] [8.13212] [-0.07500]
o1 call [-46.72247] [8.04627] [-0.07500]
o1 call [-46.78124] [7.93857] [-0.07500]
o1 call [-46.93186] [7.77550] [-0.07500]
o1 call [-47.06547] [7.65762] [-0.07500]
o1 call [-47.15178] [7.61249] [-0.07500]
o1 call [-47.30545] [7.54637] [-0.07500]
o1 call [-47.44837] [7.49900] [-0.07500]
o1 call [-47.57283] [7.48869] [-0.07500]
o1 call [-47.74012] [7.48861] [-0.07500]
o1 call [-47.86275] [7.49862] [-0.07500]
o1 call [-47.95719] [7.52788] [-0.07500]
o1 call [-48.16120] [7.61241] [-0.07500]
o1 call [-48.24596] [7.65658] [-0.07500]
o1 call [-48.38106] [7.77553] [-0.07500]
o1 call [-48.53186] [7.93847] [-0.07500]
o1 call [-48.59059] [8.04672] [-0.07500]
o1 call [-48.64263] [8.13214] [-0.07500]
o1 call [-48.69587] [8.20890] [-0.07500]
o1 call [-48.80433] [8.33570] [-0.07500]
o1 call [-48.92647] [8.45897] [-0.07500]
o1 call [-48.92647] [10.41381] [-0.07500]
o1 call [-48.92647] [19.63715] [-0.07500]
o1 call [-48.92647] [28.86049] [-0.07500]
o1 call [-48.92647] [38.08382] [-0.07500]
o1 call [-48.92647] [47.30716] [-0.07500]
o1 call [-48.92647] [49.26183] [-0.07500]
o1 call [-49.03862] [49.37519] [-0.07500]
o1 call [-49.15706] [49.51200] [-0.07500]
o1 call [-49.21032] [49.58881] [-0.07500]
o1 call [-49.26236] [49.67420] [-0.07500]
o1 call [-49.32109] [49.78248] [-0.07500]
o1 call [-49.47189] [49.94542] [-0.07500]
o1 call [-49.60697] [50.06437] [-0.07500]
o1 call [-49.69175] [50.10854] [-0.07500]
o1 call [-49.89576] [50.19302] [-0.07500]
o1 call [-49.99018] [50.22231] [-0.07500]
o1 call [-50.11283] [50.23231] [-0.07500]
o1 call [-50.28009] [50.23224] [-0.07500]
o1 call [-50.40458] [50.22193] [-0.07500]
o1 call [-50.54750] [50.17455] [-0.07500]
o1 call [-50.70117] [50.10846] [-0.07500]
o1 call [-50.78748] [50.06333] [-0.07500]
o1 call [-50.92109] [49.94545] [-0.07500]
o1 call [-51.07171] [49.78238] [-0.07500]
o1 call [-51.13053] [49.67450] [-0.07500]
o1 call [-51.18273] [49.58883] [-0.07500]
o1 call [-51.23556] [49.51255] [-0.07500]
o1 call [-51.35367] [49.37598] [-0.07500]
o1 call [-51.46647] [49.26196] [-0.07500]
o1 call [-51.46647] [47.30716] [-0.07500]
o1 call [-51.46647] [38.08382] [-0.07500]
o1 call [-51.46647] [28.86049] [-0.07500]
o1 call [-51.46647] [19.63715] [-0.07500]
o1 call [-51.46647] [10.41381] [-0.07500]
o1 call [-51.46647] [8.45897] [-0.07500]
o1 call [-51.57923] [8.34500] [-0.07500]
o1 call [-51.69721] [8.20860] [-0.07500]
o1 call [-51.75019] [8.13212] [-0.07500]
o1 call [-51.80247] [8.04627] [-0.07500]
o1 call [-51.86122] [7.93857] [-0.07500]
o1 call [-52.01186] [7.77550] [-0.07500]
o1 call [-52.14544] [7.65762] [-0.07500]
o1 call [-52.23178] [7.61246] [-0.07500]
o1 call [-52.38545] [7.54637] [-0.07500]
o1 call [-52.52835] [7.49900] [-0.07500]
o1 call [-52.65286] [7.48869] [-0.07500]
o1 call [-52.82012] [7.48861] [-0.07500]
o1 call [-52.94272] [7.49862] [-0.07500]
o1 call [-53.03716] [7.52788] [-0.07500]
o1 call [-53.24117] [7.61241] [-0.07500]
o1 call [-53.32596] [7.65658] [-0.07500]
o1 call [-53.46106] [7.77553] [-0.07500]
o1 call [-53.61186] [7.93847] [-0.07500]
o1 call [-53.67056] [8.04672] [-0.07500]
o1 call [-53.72260] [8.13214] [-0.07500]
o1 call [-53.77587] [8.20890] [-0.07500]
o1 call [-53.88433] [8.33570] [-0.07500]
o1 call [-54.00647] [8.45897] [-0.07500]
o1 call [-54.00647] [10.41381] [-0.07500]
o1 call [-54.00647] [19.63715] [-0.07500]
o1 call [-54.00647] [28.86049] [-0.07500]
o1 call [-54.00647] [38.08382] [-0.07500]
o1 call [-54.00647] [47.30716] [-0.07500]
o1 call [-54.00647] [49.26183] [-0.07500]
o1 call [-53.89370] [49.37595] [-0.07500]
o1 call [-53.77572] [49.51233] [-0.07500]
o1 call [-53.72273] [49.58883] [-0.07500]
o1 call [-53.67046] [49.67466] [-0.07500]
o1 call [-53.61171] [49.78238] [-0.07500]
o1 call [-53.46106] [49.94542] [-0.07500]
o1 call [-53.32748] [50.06333] [-0.07500]
o1 call [-53.24117] [50.10846] [-0.07500]
o1 call [-53.08750] [50.17455] [-0.07500]
o1 call [-52.94458] [50.22193] [-0.07500]
o1 call [-52.82012] [50.23224] [-0.07500]
o1 call [-52.65286] [50.23231] [-0.07500]
o1 call [-52.53018] [50.22231] [-0.07500]
o1 call [-52.43576] [50.19302] [-0.07500]
o1 call [-52.23175] [50.10854] [-0.07500]
o1 call [-52.14697] [50.06437] [-0.07500]
o1 call [-52.01189] [49.94542] [-0.07500]
o1 call [-51.86106] [49.78248] [-0.07500]
o1 call [-51.80224] [49.67407] [-0.07500]
o1 call [-51.72695] [49.55258] [-0.07500]
o1 call [-51.67595] [49.48545] [-0.07500]
o1 call [-51.58862] [49.38525] [-0.07500]
o1 call [-51.46647] [49.26196] [-0.07500]
G04 P0 ( dwell for no time -- G64 should not smooth over this point )
G00 Z0.50000 ( retract )

G00 X-54.00647 Y49.26183 ( rapid move to begin. )
G01 F300.00000
( Mill infeed pass 1/1 )
o1 call [-54.00647] [49.26183] [-0.07500]
G04 P0 ( dwell for no time -- G64 should not smooth over this point )
G01 F600.00000
o1 call [-54.11862] [49.37519] [-0.07500]
o1 call [-54.12549] [49.38313] [-0.07500]
o1 call [-54.23706] [49.51200] [-0.07500]
o1 call [-54.29032] [49.58881] [-0.07500]
o1 call [-54.34236] [49.67420] [-0.07500]
o1 call [-54.40109] [49.78248] [-0.07500]
o1 call [-54.55189] [49.94542] [-0.07500]
o1 call [-54.68697] [50.06437] [-0.07500]
o1 call [-54.77175] [50.10854] [-0.07500]
o1 call [-54.97576] [50.19302] [-0.07500]
o1 call [-55.07018] [50.22231] [-0.07500]
o1 call [-55.19283] [50.23231] [-0.07500]
o1 call [-55.36012] [50.23224] [-0.07500]
o1 call [-55.48458] [50.22193] [-0.07500]
o1 call [-55.62750] [50.17455] [-0.07500]
o1 call [-55.78117] [50.10846] [-0.07500]
o1 call [-55.86748] [50.06333] [-0.07500]
o1 call [-56.00109] [49.94542] [-0.07500]
o1 call [-56.15171] [49.78238] [-0.07500]
o1 call [-56.21046] [49.67466] [-0.07500]
o1 call [-56.26273] [49.58883] [-0.07500]
o1 call [-56.31574] [49.51233] [-0.07500]
o1 call [-56.43372] [49.37595] [-0.07500]
o1 call [-56.54647] [49.26183] [-0.07500]
o1 call [-56.54647] [47.30716] [-0.07500]
o1 call [-56.54647] [38.08382] [-0.07500]
o1 call [-56.54647] [28.86049] [-0.07500]
o1 call [-56.54647] [19.63715] [-0.07500]
o1 call [-56.54647] [10.41381] [-0.07500]
o1 call [-56.54647] [8.45897] [-0.07500]
o1 call [-56.42433] [8.33570] [-0.07500]
o1 call [-56.31587] [8.20890] [-0.07500]
o1 call [-56.26263] [8.13214] [-0.07500]
o1 call [-56.21058] [8.04672] [-0.07500]
o1 call [-56.15186] [7.93847] [-0.07500]
o1 call [-56.00106] [7.77553] [-0.07500]
o1 call [-55.86596] [7.65658] [-0.07500]
o1 call [-55.78120] [7.61241] [-0.07500]
o1 call [-55.57719] [7.52788] [-0.07500]
o1 call [-55.48275] [7.49862] [-0.07500]
o1 call [-55.36012] [7.48861] [-0.07500]
o1 call [-55.19283] [7.48869] [-0.07500]
o1 call [-55.06837] [7.49900] [-0.07500]
o1 call [-54.92545] [7.54637] [-0.07500]
o1 call [-54.77178] [7.61249] [-0.07500]
o1 call [-54.68547] [7.65762] [-0.07500]
o1 call [-54.55186] [7.77550] [-0.07500]
o1 call [-54.40124] [7.93857] [-0.07500]
o1 call [-54.34247] [8.04627] [-0.07500]
o1 call [-54.29019] [8.13212] [-0.07500]
o1 call [-54.23721] [8.20860] [-0.07500]
o1 call [-54.12549] [8.33775] [-0.07500]
o1 call [-54.11923] [8.34500] [-0.07500]
o1 call [-54.00647] [8.45897] [-0.07500]
G04 P0 ( dwell for no time -- G64 should not smooth over this point )
G00 Z0.50000 ( retract )

G00 X-64.42047 Y3.52055 ( rapid move to begin. )
G01 F300.00000
( Mill infeed pass 1/1 )
o1 call [-64.42047] [3.52055] [-0.07500]
G04 P0 ( dwell for no time -- G64 should not smooth over this point )
G01 F600.00000
o1 call [-64.42047] [5.94040] [-0.07500]
o1 call [-64.31369] [6.00207] [-0.07500]
o1 call [-64.18857] [6.06603] [-0.07500]
o1 call [-64.02926] [6.13695] [-0.07500]
o1 call [-63.92959] [6.17533] [-0.07500]
o1 call [-63.77034] [6.22709] [-0.07500]
o1 call [-63.68771] [6.24929] [-0.07500]
o1 call [-63.52840] [6.28315] [-0.07500]
o1 call [-63.45639] [6.29458] [-0.07500]
o1 call [-63.29708] [6.31132] [-0.07500]
o1 call [-63.23013] [6.31485] [-0.07500]
o1 call [-63.00387] [6.31132] [-0.07500]
o1 call [-62.94800] [6.30545] [-0.07500]
o1 call [-62.84456] [6.29458] [-0.07500]
o1 call [-62.77252] [6.28315] [-0.07500]
o1 call [-62.61324] [6.24929] [-0.07500]
o1 call [-62.53069] [6.22709] [-0.07500]
o1 call [-62.37138] [6.17535] [-0.07500]
o1 call [-62.27169] [6.13695] [-0.07500]
o1 call [-62.11238] [6.06603] [-0.07500]
o1 call [-61.98726] [6.00207] [-0.07500]
o1 call [-61.88047] [5.94040] [-0.07500]
o1 call [-61.88047] [3.52055] [-0.07500]
o1 call [-61.88047] [5.94040] [-0.07500]
o1 call [-61.77369] [6.00207] [-0.07500]
o1 call [-61.64857] [6.06603] [-0.07500]
o1 call [-61.48926] [6.13695] [-0.07500]
o1 call [-61.38959] [6.17533] [-0.07500]
o1 call [-61.23034] [6.22709] [-0.07500]
o1 call [-61.14771] [6.24929] [-0.07500]
o1 call [-60.98840] [6.28315] [-0.07500]
o1 call [-60.91639] [6.29458] [-0.07500]
o1 call [-60.75708] [6.31132] [-0.07500]
o1 call [-60.69010] [6.31485] [-0.07500]
o1 call [-60.46387] [6.31132] [-0.07500]
o1 call [-60.30456] [6.29458] [-0.07500]
o1 call [-60.23255] [6.28315] [-0.07500]
o1 call [-60.07324] [6.24929] [-0.07500]
o1 call [-59.99061] [6.22709] [-0.07500]
o1 call [-59.83135] [6.17533] [-0.07500]
o1 call [-59.73169] [6.13695] [-0.07500]
o1 call [-59.57238] [6.06603] [-0.07500]
o1 call [-59.44726] [6.00207] [-0.07500]
o1 call [-59.34047] [5.94040] [-0.07500]
o1 call [-59.34047] [3.52055] [-0.07500]
o1 call [-59.34047] [5.94040] [-0.07500]
o1 call [-59.23369] [6.00207] [-0.07500]
o1 call [-59.10857] [6.06603] [-0.07500]
o1 call [-58.94926] [6.13695] [-0.07500]
o1 call [-58.84959] [6.17533] [-0.07500]
o1 call [-58.69034] [6.22709] [-0.07500]
o1 call [-58.60771] [6.24929] [-0.07500]
o1 call [-58.44840] [6.28315] [-0.07500]
o1 call [-58.37639] [6.29458] [-0.07500]
o1 call [-58.21708] [6.31132] [-0.07500]
o1 call [-58.15013] [6.31485] [-0.07500]
o1 call [-57.92387] [6.31132] [-0.07500]
o1 call [-57.76456] [6.29458] [-0.07500]
o1 call [-57.69255] [6.28315] [-0.07500]
o1 call [-57.53324] [6.24929] [-0.07500]
o1 call [-57.45061] [6.22709] [-0.07500]
o1 call [-57.29135] [6.17533] [-0.07500]
o1 call [-57.19169] [6.13695] [-0.07500]
o1 call [-57.03238] [6.06603] [-0.07500]
o1 call [-56.90726] [6.00207] [-0.07500]
o1 call [-56.80047] [5.94040] [-0.07500]
o1 call [-56.80047] [3.52055] [-0.07500]
o1 call [-56.80047] [5.94040] [-0.07500]
o1 call [-56.69369] [6.00207] [-0.07500]
o1 call [-56.56857] [6.06603] [-0.07500]
o1 call [-56.40926] [6.13695] [-0.07500]
o1 call [-56.30959] [6.17533] [-0.07500]
o1 call [-56.15034] [6.22709] [-0.07500]
o1 call [-56.06771] [6.24929] [-0.07500]
o1 call [-55.90840] [6.28315] [-0.07500]
o1 call [-55.83639] [6.29458] [-0.07500]
o1 call [-55.61013] [6.31485] [-0.07500]
o1 call [-55.38387] [6.31132] [-0.07500]
o1 call [-55.22456] [6.29458] [-0.07500]
o1 call [-55.15252] [6.28315] [-0.07500]
o1 call [-54.99324] [6.24929] [-0.07500]
o1 call [-54.91069] [6.22709] [-0.07500]
o1 call [-54.75138] [6.17535] [-0.07500]
o1 call [-54.65169] [6.13695] [-0.07500]
o1 call [-54.49238] [6.06603] [-0.07500]
o1 call [-54.36726] [6.00207] [-0.07500]
o1 call [-54.26047] [5.94040] [-0.07500]
o1 call [-54.26047] [3.52055] [-0.07500]
o1 call [-54.15369] [3.45887] [-0.07500]
o1 call [-54.12549] [3.44446] [-0.07500]
o1 call [-54.02857] [3.39492] [-0.07500]
o1 call [-53.86924] [3.32400] [-0.07500]
o1 call [-53.76957] [3.28562] [-0.07500]
o1 call [-53.61034] [3.23386] [-0.07500]
o1 call [-53.52771] [3.21166] [-0.07500]
o1 call [-53.36840] [3.17780] [-0.07500]
o1 call [-53.29637] [3.16637] [-0.07500]
o1 call [-53.13706] [3.14963] [-0.07500]
o1 call [-52.91085] [3.14610] [-0.07500]
o1 call [-52.68456] [3.16637] [-0.07500]
o1 call [-52.61252] [3.17780] [-0.07500]
o1 call [-52.45324] [3.21166] [-0.07500]
o1 call [-52.37066] [3.23386] [-0.07500]
o1 call [-52.21138] [3.28560] [-0.07500]
o1 call [-52.11169] [3.32400] [-0.07500]
o1 call [-52.01019] [3.36919] [-0.07500]
o1 call [-51.95377] [3.53195] [-0.07500]
o1 call [-51.91110] [3.69123] [-0.07500]
o1 call [-51.89180] [3.78173] [-0.07500]
o1 call [-51.86655] [3.94104] [-0.07500]
o1 call [-51.85789] [4.02339] [-0.07500]
o1 call [-51.84852] [4.22250] [-0.07500]
o1 call [-51.84852] [5.23845] [-0.07500]
o1 call [-51.85789] [5.43756] [-0.07500]
o1 call [-51.86655] [5.51991] [-0.07500]
o1 call [-51.89180] [5.67922] [-0.07500]
o1 call [-51.91110] [5.76972] [-0.07500]
o1 call [-51.95377] [5.92900] [-0.07500]
o1 call [-52.01019] [6.09176] [-0.07500]
o1 call [-52.11169] [6.13695] [-0.07500]
o1 call [-52.21138] [6.17535] [-0.07500]
o1 call [-52.37066] [6.22709] [-0.07500]
o1 call [-52.45324] [6.24929] [-0.07500]
o1 call [-52.61252] [6.28315] [-0.07500]
o1 call [-52.68456] [6.29458] [-0.07500]
o1 call [-52.84387] [6.31132] [-0.07500]
o1 call [-52.91085] [6.31485] [-0.07500]
o1 call [-53.13706] [6.31132] [-0.07500]
o1 call [-53.29637] [6.29458] [-0.07500]
o1 call [-53.36840] [6.28315] [-0.07500]
o1 call [-53.52771] [6.24929] [-0.07500]
o1 call [-53.61034] [6.22709] [-0.07500]
o1 call [-53.76957] [6.17533] [-0.07500]
o1 call [-53.86924] [6.13695] [-0.07500]
o1 call [-54.02857] [6.06603] [-0.07500]
o1 call [-54.12549] [6.01649] [-0.07500]
o1 call [-54.15369] [6.00207] [-0.07500]
o1 call [-54.26047] [5.94040] [-0.07500]
o1 call [-54.26047] [3.52055] [-0.07500]
o1 call [-54.36726] [3.45887] [-0.07500]
o1 call [-54.49238] [3.39492] [-0.07500]
o1 call [-54.65169] [3.32400] [-0.07500]
o1 call [-54.75138] [3.28560] [-0.07500]
o1 call [-54.91069] [3.23386] [-0.07500]
o1 call [-54.99324] [3.21166] [-0.07500]
o1 call [-55.15252] [3.17780] [-0.07500]
o1 call [-55.22456] [3.16637] [-0.07500]
o1 call [-55.45085] [3.14610] [-0.07500]
o1 call [-55.67708] [3.14963] [-0.07500]
o1 call [-55.83639] [3.16637] [-0.07500]
o1 call [-55.90840] [3.17780] [-0.07500]
o1 call [-56.06771] [3.21166] [-0.07500]
o1 call [-56.15034] [3.23386] [-0.07500]
o1 call [-56.30959] [3.28562] [-0.07500]
o1 call [-56.40926] [3.32400] [-0.07500]
o1 call [-56.56857] [3.39492] [-0.07500]
o1 call [-56.69369] [3.45887] [-0.07500]
o1 call [-56.80047] [3.52055] [-0.07500]
o1 call [-56.90726] [3.45887] [-0.07500]
o1 call [-57.03238] [3.39492] [-0.07500]
o1 call [-57.19169] [3.32400] [-0.07500]
o1 call [-57.29135] [3.28562] [-0.07500]
o1 call [-57.45061] [3.23386] [-0.07500]
o1 call [-57.53324] [3.21166] [-0.07500]
o1 call [-57.69255] [3.17780] [-0.07500]
o1 call [-57.76456] [3.16637] [-0.07500]
o1 call [-57.99082] [3.14610] [-0.07500]
o1 call [-58.15013] [3.14610] [-0.07500]
o1 call [-58.37639] [3.16637] [-0.07500]
o1 call [-58.44840] [3.17780] [-0.07500]
o1 call [-58.60771] [3.21166] [-0.07500]
o1 call [-58.69034] [3.23386] [-0.07500]
o1 call [-58.84959] [3.28562] [-0.07500]
o1 call [-58.94926] [3.32400] [-0.07500]
o1 call [-59.10857] [3.39492] [-0.07500]
o1 call [-59.23369] [3.45887] [-0.07500]
o1 call [-59.34047] [3.52055] [-0.07500]
o1 call [-59.44726] [3.45887] [-0.07500]
o1 call [-59.57238] [3.39492] [-0.07500]
o1 call [-59.73169] [3.32400] [-0.07500]
o1 call [-59.83135] [3.28562] [-0.07500]
o1 call [-59.99061] [3.23386] [-0.07500]
o1 call [-60.07324] [3.21166] [-0.07500]
o1 call [-60.23255] [3.17780] [-0.07500]
o1 call [-60.30456] [3.16637] [-0.07500]
o1 call [-60.53085] [3.14610] [-0.07500]
o1 call [-60.69010] [3.14610] [-0.07500]
o1 call [-60.91639] [3.16637] [-0.07500]
o1 call [-60.98840] [3.17780] [-0.07500]
o1 call [-61.14771] [3.21166] [-0.07500]
o1 call [-61.23034] [3.23386] [-0.07500]
o1 call [-61.38959] [3.28562] [-0.07500]
o1 call [-61.48926] [3.32400] [-0.07500]
o1 call [-61.64857] [3.39492] [-0.07500]
o1 call [-61.77369] [3.45887] [-0.07500]
o1 call [-61.88047] [3.52055] [-0.07500]
o1 call [-61.98726] [3.45887] [-0.07500]
o1 call [-62.11238] [3.39492] [-0.07500]
o1 call [-62.27169] [3.32400] [-0.07500]
o1 call [-62.37138] [3.28560] [-0.07500]
o1 call [-62.53069] [3.23386] [-0.07500]
o1 call [-62.61324] [3.21166] [-0.07500]
o1 call [-62.77252] [3.17780] [-0.07500]
o1 call [-62.84456] [3.16637] [-0.07500]
o1 call [-62.94800] [3.15710] [-0.07500]
o1 call [-63.07085] [3.14610] [-0.07500]
o1 call [-63.23013] [3.14610] [-0.07500]
o1 call [-63.45639] [3.16637] [-0.07500]
o1 call [-63.52840] [3.17780] [-0.07500]
o1 call [-63.68771] [3.21166] [-0.07500]
o1 call [-63.77034] [3.23386] [-0.07500]
o1 call [-63.92959] [3.28562] [-0.07500]
o1 call [-64.02926] [3.32400] [-0.07500]
o1 call [-64.18857] [3.39492] [-0.07500]
o1 call [-64.31369] [3.45887] [-0.07500]
o1 call [-64.42047] [3.52055] [-0.07500]
o1 call [-64.52726] [3.45887] [-0.07500]
o1 call [-64.65238] [3.39492] [-0.07500]
o1 call [-64.81169] [3.32400] [-0.07500]
o1 call [-64.91138] [3.28560] [-0.07500]
o1 call [-65.07069] [3.23386] [-0.07500]
o1 call [-65.15324] [3.21166] [-0.07500]
o1 call [-65.31252] [3.17780] [-0.07500]
o1 call [-65.38456] [3.16637] [-0.07500]
o1 call [-65.61085] [3.14610] [-0.07500]
o1 call [-65.77013] [3.14610] [-0.07500]
o1 call [-65.99639] [3.16637] [-0.07500]
o1 call [-66.06840] [3.17780] [-0.07500]
o1 call [-66.22771] [3.21166] [-0.07500]
o1 call [-66.31034] [3.23386] [-0.07500]
o1 call [-66.46959] [3.28562] [-0.07500]
o1 call [-66.56926] [3.32400] [-0.07500]
o1 call [-66.75832] [3.40863] [-0.07500]
o1 call [-66.82880] [3.65720] [-0.07500]
o1 call [-66.85105] [3.76164] [-0.07500]
o1 call [-66.87627] [3.92095] [-0.07500]
o1 call [-66.88638] [4.01666] [-0.07500]
o1 call [-66.89596] [4.22250] [-0.07500]
o1 call [-66.89596] [5.23845] [-0.07500]
o1 call [-66.88638] [5.44429] [-0.07500]
o1 call [-66.87627] [5.54000] [-0.07500]
o1 call [-66.85105] [5.69931] [-0.07500]
o1 call [-66.82880] [5.80375] [-0.07500]
o1 call [-66.75832] [6.05232] [-0.07500]
o1 call [-66.56926] [6.13695] [-0.07500]
o1 call [-66.46959] [6.17533] [-0.07500]
o1 call [-66.31034] [6.22709] [-0.07500]
o1 call [-66.22771] [6.24929] [-0.07500]
o1 call [-66.06840] [6.28315] [-0.07500]
o1 call [-65.99639] [6.29458] [-0.07500]
o1 call [-65.77013] [6.31485] [-0.07500]
o1 call [-65.61085] [6.31485] [-0.07500]
o1 call [-65.38456] [6.29458] [-0.07500]
o1 call [-65.31252] [6.28315] [-0.07500]
o1 call [-65.15324] [6.24929] [-0.07500]
o1 call [-65.07069] [6.22709] [-0.07500]
o1 call [-64.91138] [6.17535] [-0.07500]
o1 call [-64.81169] [6.13695] [-0.07500]
o1 call [-64.65238] [6.06603] [-0.07500]
o1 call [-64.52726] [6.00207] [-0.07500]
o1 call [-64.42047] [5.94040] [-0.07500]
G04 P0 ( dwell for no time -- G64 should not smooth over this point )
G00 Z0.50000 ( retract )

G00 X-67.13477 Y9.59353 ( rapid move to begin. )
G01 F300.00000
( Mill infeed pass 1/1 )
o1 call [-67.13477] [9.59353] [-0.07500]
G04 P0 ( dwell for no time -- G64 should not smooth over this point )
G01 F600.00000
o1 call [-67.30122] [9.19074] [-0.07500]
o1 call [-67.60911] [8.88231] [-0.07500]
o1 call [-68.01160] [8.71518] [-0.07500]
o1 call [-68.44744] [8.71477] [-0.07500]
o1 call [-68.85021] [8.88119] [-0.07500]
o1 call [-69.15864] [9.18911] [-0.07500]
o1 call [-69.32577] [9.59160] [-0.07500]
o1 call [-69.32618] [10.02744] [-0.07500]
o1 call [-69.16653] [10.41381] [-0.07500]
o1 call [-69.15976] [10.43021] [-0.07500]
o1 call [-68.85186] [10.73864] [-0.07500]
o1 call [-68.44935] [10.90577] [-0.07500]
o1 call [-68.01351] [10.90618] [-0.07500]
o1 call [-67.61077] [10.73976] [-0.07500]
o1 call [-67.30231] [10.43183] [-0.07500]
o1 call [-67.29482] [10.41381] [-0.07500]
o1 call [-67.13518] [10.02935] [-0.07500]
o1 call [-67.13477] [9.59353] [-0.07500]
G04 P0 ( dwell for no time -- G64 should not smooth over this point )
G00 Z0.50000 ( retract )

G00 X-62.97938 Y12.35047 ( rapid move to begin. )
G01 F300.00000
( Mill infeed pass 1/1 )
o1 call [-62.97938] [12.35047] [-0.07500]
G04 P0 ( dwell for no time -- G64 should not smooth over this point )
G01 F600.00000
o1 call [-63.13013] [12.50006] [-0.07500]
o1 call [-63.20674] [12.56305] [-0.07500]
o1 call [-63.35073] [12.66391] [-0.07500]
o1 call [-63.48593] [12.73655] [-0.07500]
o1 call [-63.62106] [12.85553] [-0.07500]
o1 call [-63.73630] [12.97684] [-0.07500]
o1 call [-63.77996] [13.02901] [-0.07500]
o1 call [-63.86940] [13.21646] [-0.07500]
o1 call [-63.93993] [13.41197] [-0.07500]
o1 call [-63.94979] [13.64712] [-0.07500]
o1 call [-63.94026] [13.82713] [-0.07500]
o1 call [-63.86940] [14.02446] [-0.07500]
o1 call [-63.78093] [14.21031] [-0.07500]
o1 call [-63.77171] [14.22238] [-0.07500]
o1 call [-63.62109] [14.38545] [-0.07500]
o1 call [-63.48748] [14.50333] [-0.07500]
o1 call [-63.35030] [14.57717] [-0.07500]
o1 call [-63.20671] [14.67783] [-0.07500]
o1 call [-63.12944] [14.74143] [-0.07500]
o1 call [-62.97938] [14.89047] [-0.07500]
G04 P0 ( dwell for no time -- G64 should not smooth over this point )
G00 Z0.50000 ( retract )

G00 X-62.97938 Y17.43047 ( rapid move to begin. )
G01 F300.00000
( Mill infeed pass 1/1 )
o1 call [-62.97938] [17.43047] [-0.07500]
G04 P0 ( dwell for no time -- G64 should not smooth over this point )
G01 F600.00000
o1 call [-63.13013] [17.58006] [-0.07500]
o1 call [-63.20674] [17.64305] [-0.07500]
o1 call [-63.35073] [17.74391] [-0.07500]
o1 call [-63.48593] [17.81655] [-0.07500]
o1 call [-63.62106] [17.93553] [-0.07500]
o1 call [-63.73630] [18.05686] [-0.07500]
o1 call [-63.77996] [18.10904] [-0.07500]
o1 call [-63.86940] [18.29646] [-0.07500]
o1 call [-63.93993] [18.49197] [-0.07500]
o1 call [-63.94979] [18.72714] [-0.07500]
o1 call [-63.94026] [18.90713] [-0.07500]
o1 call [-63.86940] [19.10449] [-0.07500]
o1 call [-63.78093] [19.29034] [-0.07500]
o1 call [-63.77171] [19.30238] [-0.07500]
o1 call [-63.62109] [19.46545] [-0.07500]
o1 call [-63.48748] [19.58333] [-0.07500]
o1 call [-63.38748] [19.63715] [-0.07500]
o1 call [-63.35030] [19.65717] [-0.07500]
o1 call [-63.20671] [19.75783] [-0.07500]
o1 call [-63.12944] [19.82143] [-0.07500]
o1 call [-62.97938] [19.97047] [-0.07500]
G04 P0 ( dwell for no time -- G64 should not smooth over this point )
G00 Z0.50000 ( retract )

G00 X-62.97938 Y22.51047 ( rapid move to begin. )
G01 F300.00000
( Mill infeed pass 1/1 )
o1 call [-62.97938] [22.51047] [-0.07500]
G04 P0 ( dwell for no time -- G64 should not smooth over this point )
G01 F600.00000
o1 call [-63.13013] [22.66006] [-0.07500]
o1 call [-63.20674] [22.72305] [-0.07500]
o1 call [-63.35073] [22.82391] [-0.07500]
o1 call [-63.48593] [22.89655] [-0.07500]
o1 call [-63.62106] [23.01553] [-0.07500]
o1 call [-63.73630] [23.13686] [-0.07500]
o1 call [-63.77996] [23.18904] [-0.07500]
o1 call [-63.86940] [23.37646] [-0.07500]
o1 call [-63.93993] [23.57197] [-0.07500]
o1 call [-63.94979] [23.80714] [-0.07500]
o1 call [-63.94026] [23.98713] [-0.07500]
o1 call [-63.86940] [24.18449] [-0.07500]
o1 call [-63.78093] [24.37034] [-0.07500]
o1 call [-63.77171] [24.38238] [-0.07500]
o1 call [-63.62109] [24.54545] [-0.07500]
o1 call [-63.48748] [24.66333] [-0.07500]
o1 call [-63.35030] [24.73717] [-0.07500]
o1 call [-63.20671] [24.83783] [-0.07500]
o1 call [-63.12944] [24.90143] [-0.07500]
o1 call [-62.97938] [25.05047] [-0.07500]
G04 P0 ( dwell for no time -- G64 should not smooth over this point )
G00 Z0.50000 ( retract )

G00 X-69.09918 Y31.40047 ( rapid move to begin. )
G01 F300.00000
( Mill infeed pass 1/1 )
o1 call [-69.09918] [31.40047] [-0.07500]
G04 P0 ( dwell for no time -- G64 should not smooth over this point )
G01 F600.00000
o1 call [-69.16202] [31.27711] [-0.07500]
o1 call [-69.22595] [31.13403] [-0.07500]
o1 call [-69.28709] [30.97469] [-0.07500]
o1 call [-69.32610] [30.85504] [-0.07500]
o1 call [-69.36880] [30.69575] [-0.07500]
o1 call [-69.39105] [30.59131] [-0.07500]
o1 call [-69.41627] [30.43200] [-0.07500]
o1 call [-69.42638] [30.33629] [-0.07500]
o1 call [-69.43471] [30.17701] [-0.07500]
o1 call [-69.43471] [30.08399] [-0.07500]
o1 call [-69.42638] [29.92466] [-0.07500]
o1 call [-69.41627] [29.82895] [-0.07500]
o1 call [-69.39105] [29.66964] [-0.07500]
o1 call [-69.36880] [29.56520] [-0.07500]
o1 call [-69.32793] [29.41275] [-0.07500]
o1 call [-69.21272] [29.35321] [-0.07500]
o1 call [-69.05359] [29.28214] [-0.07500]
o1 call [-68.87160] [29.20965] [-0.07500]
o1 call [-68.71226] [29.12804] [-0.07500]
o1 call [-68.54818] [29.01892] [-0.07500]
o1 call [-68.45651] [28.94991] [-0.07500]
o1 call [-68.35630] [28.86049] [-0.07500]
o1 call [-68.35628] [28.86047] [-0.07500]
o1 call [-68.10464] [28.86047] [-0.07500]
o1 call [-68.10463] [28.86049] [-0.07500]
o1 call [-68.05217] [28.90840] [-0.07500]
o1 call [-67.94792] [28.99355] [-0.07500]
o1 call [-67.83408] [29.07488] [-0.07500]
o1 call [-67.74866] [29.12806] [-0.07500]
o1 call [-67.58938] [29.20965] [-0.07500]
o1 call [-67.40729] [29.28206] [-0.07500]
o1 call [-67.24798] [29.35301] [-0.07500]
o1 call [-67.13939] [29.40853] [-0.07500]
o1 call [-66.96047] [29.51201] [-0.07500]
G04 P0 ( dwell for no time -- G64 should not smooth over this point )
G00 Z0.50000 ( retract )

G00 X-62.97953 Y27.59047 ( rapid move to begin. )
G01 F300.00000
( Mill infeed pass 1/1 )
o1 call [-62.97953] [27.59047] [-0.07500]
G04 P0 ( dwell for no time -- G64 should not smooth over this point )
G01 F600.00000
o1 call [-63.13671] [27.74679] [-0.07500]
o1 call [-63.20674] [27.80305] [-0.07500]
o1 call [-63.35073] [27.90391] [-0.07500]
o1 call [-63.48593] [27.97655] [-0.07500]
o1 call [-63.62106] [28.09553] [-0.07500]
o1 call [-63.73630] [28.21684] [-0.07500]
o1 call [-63.77996] [28.26901] [-0.07500]
o1 call [-63.86940] [28.45646] [-0.07500]
o1 call [-63.93993] [28.65197] [-0.07500]
o1 call [-63.94867] [28.86049] [-0.07500]
o1 call [-63.94979] [28.88714] [-0.07500]
o1 call [-63.94026] [29.06713] [-0.07500]
o1 call [-63.86940] [29.26449] [-0.07500]
o1 call [-63.78093] [29.45034] [-0.07500]
o1 call [-63.77171] [29.46238] [-0.07500]
o1 call [-63.62109] [29.62545] [-0.07500]
o1 call [-63.48748] [29.74333] [-0.07500]
o1 call [-63.35030] [29.81717] [-0.07500]
o1 call [-63.20671] [29.91783] [-0.07500]
o1 call [-63.12944] [29.98143] [-0.07500]
o1 call [-62.97953] [30.13047] [-0.07500]
G04 P0 ( dwell for no time -- G64 should not smooth over this point )
G00 Z0.50000 ( retract )

G00 X-65.35492 Y31.40047 ( rapid move to begin. )
G01 F300.00000
( Mill infeed pass 1/1 )
o1 call [-65.35492] [31.40047] [-0.07500]
G04 P0 ( dwell for no time -- G64 should not smooth over this point )
G01 F600.00000
o1 call [-65.26574] [31.28023] [-0.07500]
o1 call [-65.16218] [31.12120] [-0.07500]
o1 call [-65.07844] [30.98259] [-0.07500]
o1 call [-64.98918] [30.86913] [-0.07500]
o1 call [-64.83922] [30.70142] [-0.07500]
o1 call [-64.75227] [30.51907] [-0.07500]
o1 call [-64.68461] [30.33146] [-0.07500]
o1 call [-64.67519] [30.15709] [-0.07500]
o1 call [-64.68428] [29.93124] [-0.07500]
o1 call [-64.75227] [29.74188] [-0.07500]
o1 call [-64.77331] [29.69288] [-0.07500]
o1 call [-64.83787] [29.56184] [-0.07500]
o1 call [-64.94582] [29.44175] [-0.07500]
o1 call [-65.06205] [29.30132] [-0.07500]
o1 call [-65.26556] [28.98034] [-0.07500]
o1 call [-65.35458] [28.86049] [-0.07500]
o1 call [-65.35459] [28.86047] [-0.07500]
o1 call [-65.26584] [28.74003] [-0.07500]
o1 call [-65.09195] [28.46370] [-0.07500]
o1 call [-65.03683] [28.38758] [-0.07500]
o1 call [-64.95974] [28.29505] [-0.07500]
o1 call [-64.88128] [28.21189] [-0.07500]
o1 call [-64.83922] [28.16142] [-0.07500]
o1 call [-64.77336] [28.02804] [-0.07500]
o1 call [-64.68461] [27.79146] [-0.07500]
o1 call [-64.67519] [27.61709] [-0.07500]
o1 call [-64.68428] [27.39124] [-0.07500]
o1 call [-64.75227] [27.20188] [-0.07500]
o1 call [-64.83787] [27.02184] [-0.07500]
o1 call [-65.02423] [26.80894] [-0.07500]
o1 call [-65.07882] [26.73645] [-0.07500]
o1 call [-65.13099] [26.65273] [-0.07500]
o1 call [-65.33952] [26.60643] [-0.07500]
o1 call [-65.55723] [26.58039] [-0.07500]
o1 call [-65.77013] [26.57760] [-0.07500]
o1 call [-65.98303] [26.59713] [-0.07500]
o1 call [-66.20071] [26.64029] [-0.07500]
o1 call [-66.34612] [26.68369] [-0.07500]
o1 call [-66.43701] [26.86320] [-0.07500]
o1 call [-66.47125] [26.91997] [-0.07500]
o1 call [-66.54028] [27.01656] [-0.07500]
o1 call [-66.64551] [27.22631] [-0.07500]
o1 call [-66.68651] [27.29680] [-0.07500]
o1 call [-66.79347] [27.44242] [-0.07500]
o1 call [-66.92202] [27.58567] [-0.07500]
o1 call [-66.81155] [27.70848] [-0.07500]
o1 call [-66.69941] [27.86165] [-0.07500]
o1 call [-66.64620] [27.95037] [-0.07500]
o1 call [-66.54056] [28.16416] [-0.07500]
o1 call [-66.45227] [28.29197] [-0.07500]
o1 call [-66.30747] [28.57516] [-0.07500]
o1 call [-66.13421] [28.86047] [-0.07500]
o1 call [-65.35459] [28.86047] [-0.07500]
o1 call [-66.13421] [28.86047] [-0.07500]
o1 call [-66.13422] [28.86049] [-0.07500]
o1 call [-66.22156] [28.96002] [-0.07500]
o1 call [-66.27467] [29.01420] [-0.07500]
o1 call [-66.39878] [29.13312] [-0.07500]
o1 call [-66.47020] [29.19278] [-0.07500]
o1 call [-66.56332] [29.26515] [-0.07500]
o1 call [-66.68199] [29.34488] [-0.07500]
o1 call [-66.96047] [29.51201] [-0.07500]
o1 call [-66.96047] [31.34703] [-0.07500]
o1 call [-66.90891] [31.40047] [-0.07500]
o1 call [-65.35492] [31.40047] [-0.07500]
o1 call [-65.26591] [31.52110] [-0.07500]
o1 call [-65.07882] [31.81648] [-0.07500]
o1 call [-64.98918] [31.93184] [-0.07500]
o1 call [-64.83848] [32.10060] [-0.07500]
o1 call [-64.75227] [32.28188] [-0.07500]
o1 call [-64.68428] [32.47124] [-0.07500]
o1 call [-64.67519] [32.69709] [-0.07500]
o1 call [-64.68461] [32.87146] [-0.07500]
o1 call [-64.75227] [33.05907] [-0.07500]
o1 call [-64.83879] [33.24058] [-0.07500]
o1 call [-64.97224] [33.38879] [-0.07500]
o1 call [-65.03683] [33.46758] [-0.07500]
o1 call [-65.09195] [33.54370] [-0.07500]
o1 call [-65.13096] [33.60819] [-0.07500]
o1 call [-65.33952] [33.65452] [-0.07500]
o1 call [-65.39792] [33.66379] [-0.07500]
o1 call [-65.61085] [33.68335] [-0.07500]
o1 call [-65.77013] [33.68335] [-0.07500]
o1 call [-65.98303] [33.66379] [-0.07500]
o1 call [-66.20071] [33.62066] [-0.07500]
o1 call [-66.26906] [33.60230] [-0.07500]
o1 call [-66.42834] [33.55053] [-0.07500]
o1 call [-66.51272] [33.51805] [-0.07500]
o1 call [-66.67203] [33.44711] [-0.07500]
o1 call [-66.78036] [33.39173] [-0.07500]
o1 call [-66.96047] [33.28752] [-0.07500]
o1 call [-66.96047] [31.45392] [-0.07500]
o1 call [-67.01204] [31.40047] [-0.07500]
o1 call [-66.96047] [31.45392] [-0.07500]
o1 call [-66.90891] [31.40047] [-0.07500]
o1 call [-66.96047] [31.34703] [-0.07500]
o1 call [-67.01204] [31.40047] [-0.07500]
o1 call [-69.09918] [31.40047] [-0.07500]
o1 call [-69.16202] [31.52384] [-0.07500]
o1 call [-69.22595] [31.66692] [-0.07500]
o1 call [-69.28709] [31.82625] [-0.07500]
o1 call [-69.32610] [31.94591] [-0.07500]
o1 call [-69.36880] [32.10520] [-0.07500]
o1 call [-69.39105] [32.20964] [-0.07500]
o1 call [-69.41627] [32.36895] [-0.07500]
o1 call [-69.42638] [32.46466] [-0.07500]
o1 call [-69.43471] [32.62399] [-0.07500]
o1 call [-69.43471] [32.71701] [-0.07500]
o1 call [-69.42638] [32.87629] [-0.07500]
o1 call [-69.41627] [32.97200] [-0.07500]
o1 call [-69.39105] [33.13131] [-0.07500]
o1 call [-69.36880] [33.23575] [-0.07500]
o1 call [-69.32821] [33.38721] [-0.07500]
o1 call [-69.21203] [33.44711] [-0.07500]
o1 call [-69.05272] [33.51805] [-0.07500]
o1 call [-68.96834] [33.55053] [-0.07500]
o1 call [-68.80906] [33.60230] [-0.07500]
o1 call [-68.74071] [33.62066] [-0.07500]
o1 call [-68.52303] [33.66379] [-0.07500]
o1 call [-68.31013] [33.68335] [-0.07500]
o1 call [-68.15082] [33.68335] [-0.07500]
o1 call [-67.93792] [33.66379] [-0.07500]
o1 call [-67.72024] [33.62066] [-0.07500]
o1 call [-67.65194] [33.60230] [-0.07500]
o1 call [-67.49266] [33.55056] [-0.07500]
o1 call [-67.40823] [33.51805] [-0.07500]
o1 call [-67.24892] [33.44711] [-0.07500]
o1 call [-67.14059] [33.39173] [-0.07500]
o1 call [-66.96047] [33.28752] [-0.07500]
G04 P0 ( dwell for no time -- G64 should not smooth over this point )
G00 Z0.50000 ( retract )

G00 X-62.97953 Y32.67047 ( rapid move to begin. )
G01 F300.00000
( Mill infeed pass 1/1 )
o1 call [-62.97953] [32.67047] [-0.07500]
G04 P0 ( dwell for no time -- G64 should not smooth over this point )
G01 F600.00000
o1 call [-63.13671] [32.82679] [-0.07500]
o1 call [-63.20674] [32.88305] [-0.07500]
o1 call [-63.35073] [32.98391] [-0.07500]
o1 call [-63.48593] [33.05655] [-0.07500]
o1 call [-63.62106] [33.17553] [-0.07500]
o1 call [-63.73630] [33.29684] [-0.07500]
o1 call [-63.77996] [33.34901] [-0.07500]
o1 call [-63.86940] [33.53646] [-0.07500]
o1 call [-63.93993] [33.73197] [-0.07500]
o1 call [-63.94979] [33.96714] [-0.07500]
o1 call [-63.94026] [34.14713] [-0.07500]
o1 call [-63.86940] [34.34449] [-0.07500]
o1 call [-63.78093] [34.53034] [-0.07500]
o1 call [-63.77171] [34.54238] [-0.07500]
o1 call [-63.62109] [34.70545] [-0.07500]
o1 call [-63.48748] [34.82333] [-0.07500]
o1 call [-63.35030] [34.89717] [-0.07500]
o1 call [-63.20671] [34.99783] [-0.07500]
o1 call [-63.12944] [35.06143] [-0.07500]
o1 call [-62.97953] [35.21047] [-0.07500]
G04 P0 ( dwell for no time -- G64 should not smooth over this point )
G00 Z0.50000 ( retract )

G00 X-67.13477 Y37.53353 ( rapid move to begin. )
G01 F300.00000
( Mill infeed pass 1/1 )
o1 call [-67.13477] [37.53353] [-0.07500]
G04 P0 ( dwell for no time -- G64 should not smooth over this point )
G01 F600.00000
o1 call [-67.30119] [37.13074] [-0.07500]
o1 call [-67.60911] [36.82231] [-0.07500]
o1 call [-68.01160] [36.65518] [-0.07500]
o1 call [-68.44744] [36.65477] [-0.07500]
o1 call [-68.85021] [36.82119] [-0.07500]
o1 call [-69.15864] [37.12911] [-0.07500]
o1 call [-69.32577] [37.53163] [-0.07500]
o1 call [-69.32618] [37.96744] [-0.07500]
o1 call [-69.27808] [38.08382] [-0.07500]
o1 call [-69.15973] [38.37021] [-0.07500]
o1 call [-68.85183] [38.67864] [-0.07500]
o1 call [-68.44935] [38.84577] [-0.07500]
o1 call [-68.01351] [38.84618] [-0.07500]
o1 call [-67.61077] [38.67976] [-0.07500]
o1 call [-67.30231] [38.37183] [-0.07500]
o1 call [-67.18271] [38.08382] [-0.07500]
o1 call [-67.13518] [37.96935] [-0.07500]
o1 call [-67.13477] [37.53353] [-0.07500]
G04 P0 ( dwell for no time -- G64 should not smooth over this point )
G00 Z0.50000 ( retract )

G00 X-62.97953 Y37.75047 ( rapid move to begin. )
G01 F300.00000
( Mill infeed pass 1/1 )
o1 call [-62.97953] [37.75047] [-0.07500]
G04 P0 ( dwell for no time -- G64 should not smooth over this point )
G01 F600.00000
o1 call [-63.13671] [37.90679] [-0.07500]
o1 call [-63.20674] [37.96305] [-0.07500]
o1 call [-63.35073] [38.06391] [-0.07500]
o1 call [-63.38779] [38.08382] [-0.07500]
o1 call [-63.48593] [38.13655] [-0.07500]
o1 call [-63.62106] [38.25553] [-0.07500]
o1 call [-63.73630] [38.37684] [-0.07500]
o1 call [-63.77996] [38.42901] [-0.07500]
o1 call [-63.86940] [38.61646] [-0.07500]
o1 call [-63.93993] [38.81197] [-0.07500]
o1 call [-63.94979] [39.04714] [-0.07500]
o1 call [-63.94026] [39.22713] [-0.07500]
o1 call [-63.86940] [39.42449] [-0.07500]
o1 call [-63.78093] [39.61034] [-0.07500]
o1 call [-63.77171] [39.62238] [-0.07500]
o1 call [-63.62109] [39.78545] [-0.07500]
o1 call [-63.48748] [39.90333] [-0.07500]
o1 call [-63.35030] [39.97717] [-0.07500]
o1 call [-63.20671] [40.07783] [-0.07500]
o1 call [-63.12944] [40.14143] [-0.07500]
o1 call [-62.97953] [40.29047] [-0.07500]
G04 P0 ( dwell for no time -- G64 should not smooth over this point )
G00 Z0.50000 ( retract )

G00 X-62.97953 Y42.83047 ( rapid move to begin. )
G01 F300.00000
( Mill infeed pass 1/1 )
o1 call [-62.97953] [42.83047] [-0.07500]
G04 P0 ( dwell for no time -- G64 should not smooth over this point )
G01 F600.00000
o1 call [-63.13671] [42.98679] [-0.07500]
o1 call [-63.20674] [43.04305] [-0.07500]
o1 call [-63.35073] [43.14391] [-0.07500]
o1 call [-63.48593] [43.21655] [-0.07500]
o1 call [-63.62106] [43.33553] [-0.07500]
o1 call [-63.73630] [43.45686] [-0.07500]
o1 call [-63.77996] [43.50904] [-0.07500]
o1 call [-63.86940] [43.69646] [-0.07500]
o1 call [-63.93993] [43.89197] [-0.07500]
o1 call [-63.94979] [44.12714] [-0.07500]
o1 call [-63.94026] [44.30713] [-0.07500]
o1 call [-63.86940] [44.50449] [-0.07500]
o1 call [-63.78093] [44.69034] [-0.07500]
o1 call [-63.77171] [44.70238] [-0.07500]
o1 call [-63.62109] [44.86545] [-0.07500]
o1 call [-63.48748] [44.98333] [-0.07500]
o1 call [-63.35030] [45.05717] [-0.07500]
o1 call [-63.20671] [45.15783] [-0.07500]
o1 call [-63.12944] [45.22143] [-0.07500]
o1 call [-62.97953] [45.37047] [-0.07500]
G04 P0 ( dwell for no time -- G64 should not smooth over this point )
G00 Z0.50000 ( retract )

G00 X-59.08647 Y49.26196 ( rapid move to begin. )
G01 F300.00000
( Mill infeed pass 1/1 )
o1 call [-59.08647] [49.26196] [-0.07500]
G04 P0 ( dwell for no time -- G64 should not smooth over this point )
G01 F600.00000
o1 call [-59.20865] [49.38525] [-0.07500]
o1 call [-59.31706] [49.51200] [-0.07500]
o1 call [-59.37032] [49.58881] [-0.07500]
o1 call [-59.42236] [49.67420] [-0.07500]
o1 call [-59.48109] [49.78248] [-0.07500]
o1 call [-59.63189] [49.94542] [-0.07500]
o1 call [-59.76697] [50.06437] [-0.07500]
o1 call [-59.85175] [50.10854] [-0.07500]
o1 call [-60.05576] [50.19302] [-0.07500]
o1 call [-60.15018] [50.22231] [-0.07500]
o1 call [-60.27286] [50.23231] [-0.07500]
o1 call [-60.44009] [50.23224] [-0.07500]
o1 call [-60.56458] [50.22193] [-0.07500]
o1 call [-60.70750] [50.17455] [-0.07500]
o1 call [-60.86117] [50.10846] [-0.07500]
o1 call [-60.94748] [50.06333] [-0.07500]
o1 call [-61.08109] [49.94542] [-0.07500]
o1 call [-61.23171] [49.78238] [-0.07500]
o1 call [-61.29046] [49.67466] [-0.07500]
o1 call [-61.34273] [49.58883] [-0.07500]
o1 call [-61.39574] [49.51233] [-0.07500]
o1 call [-61.51372] [49.37595] [-0.07500]
o1 call [-61.62647] [49.26196] [-0.07500]
G04 P0 ( dwell for no time -- G64 should not smooth over this point )
G00 Z0.50000 ( retract )

G00 X-62.97953 Y47.91047 ( rapid move to begin. )
G01 F300.00000
( Mill infeed pass 1/1 )
o1 call [-62.97953] [47.91047] [-0.07500]
G04 P0 ( dwell for no time -- G64 should not smooth over this point )
G01 F600.00000
o1 call [-63.12944] [47.76143] [-0.07500]
o1 call [-63.20671] [47.69783] [-0.07500]
o1 call [-63.35030] [47.59717] [-0.07500]
o1 call [-63.48748] [47.52333] [-0.07500]
o1 call [-63.62109] [47.40545] [-0.07500]
o1 call [-63.71187] [47.30716] [-0.07500]
o1 call [-63.77171] [47.24238] [-0.07500]
o1 call [-63.78093] [47.23034] [-0.07500]
o1 call [-63.86940] [47.04449] [-0.07500]
o1 call [-63.94026] [46.84713] [-0.07500]
o1 call [-63.94979] [46.66714] [-0.07500]
o1 call [-63.93993] [46.43197] [-0.07500]
o1 call [-63.86940] [46.23646] [-0.07500]
o1 call [-63.77996] [46.04901] [-0.07500]
o1 call [-63.73630] [45.99684] [-0.07500]
o1 call [-63.62106] [45.87553] [-0.07500]
o1 call [-63.48593] [45.75655] [-0.07500]
o1 call [-63.35073] [45.68391] [-0.07500]
o1 call [-63.20674] [45.58305] [-0.07500]
o1 call [-63.13671] [45.52679] [-0.07500]
o1 call [-62.97953] [45.37047] [-0.07500]
o1 call [-62.94800] [45.37047] [-0.07500]
o1 call [-54.12549] [45.37047] [-0.07500]
o1 call [-45.30299] [45.37047] [-0.07500]
o1 call [-36.48049] [45.37047] [-0.07500]
o1 call [-27.65798] [45.37047] [-0.07500]
