( pcb2gcode 1.3.0 )
( Gcode for LinuxCNC )


G94 ( Millimeters per minute feed rate. )
G21 ( Units == Millimeters. )

G90 ( Absolute coordinates. )
S10000 ( RPM spindle speed. )
G64 P0.00200 ( set maximum deviation from commanded toolpath )
F600.00000 ( Feedrate. )

o2 sub ( G01 with Z-correction subroutine )
    #3 = [ #5211 - #107 ] ( x-tile offset [minus the initial offset] )
    #4 = [ #5212 - #108 ] ( y-tile offset [minus the initial offset] )
    #5 = [ FIX[ [ #1 - 1.76708 + #3 ] / 10.22230 ] ] ( Lower left point X index )
    #6 = [ FIX[ [ #2 - 1.32258 + #4 ] / 10.20119 ] ] ( Lower left point Y index )
    #7 = [ #5 * 12 + [ #6 + 1 ] + 500 ] ( Upper left point parameter number )
    #8 = [ [ #5 + 1 ] *12 + [ #6 + 1 ] + 500 ] ( Upper right point parameter number )
    #9 = [ #5 * 12 + #6 + 500 ] ( Lower left point parameter number )
    #10 = [ [ #5 + 1 ] * 12 + #6 + 500 ] ( Lower right point parameter number )
    #11 = [ [ #2 + #4 - 1.32258 - #6 * 10.20119 ] / 10.20119 ] ( Distance between the point and the left border of the rectangle, normalized to 1 )
    #12 = [ [ #1 + #3 - 1.76708 - #5 * 10.22230 ] / 10.22230 ] ( Distance between the point and the bottom border of the rectangle, normalized to 1 ) 
    #13 = [ ##9 + [ ##7 - ##9 ] * #11 ] ( Linear interpolation of the x-min elements )
    #14 = [ ##10 + [ ##8 - ##10 ] * #11 ] ( Linear interpolation of the x-max elements )
    #15 = [ #13 + [ #14 - #13 ] * #12 ] ( Linear interpolation of previously interpolated points )
    G01 X#1 Y#2 Z[-0.07500+#15]
o2 endsub

o3 sub ( Y probe subroutine )
    G0 Z0.500 ( Move to probe height )
    X[#101 * 10.22230 + 1.76708] Y[#102 * 10.20119 + 1.32258] ( Move to the current probe point )
    G38.2 Z-3 F100.000000 ( Probe it )
    #[#101 * 12 + #102 + 500] = #5063 ( Save the probe in the correct parameter )
    #102 = [#102 + #103] ( Increment/decrement by 1 the Y counter )
o3 endsub

o4 sub ( X probe subroutine )
    o7 repeat [#104]
        o3 call
    o7 endrepeat
    #104 = 12
    #103 = [0 - #103]
    #102 = [#102 + #103]
    #101 = [#101 + 1] ( Increment by 1 the X counter )
o4 endsub

#107 = #5211
#108 = #5212

(MSG, Attach the probe tool)
M0 ( Temporary machine stop. )
G0 Z0.500 ( Move Z to safe height )
G0 X1.76708 Y1.32258 ( Move XY to start point )
G0 Z0.500 ( Move Z to probe height )
(PROBEOPEN RawProbeLog.txt) ( Record all probes in RawProbeLog.txt )
G38.2 Z-3 F100.000000 ( Z-probe )
#500 = 0 ( Probe point [0, 0] is our reference )
G10 L20 P0 Z0 ( Set the current Z as zero-value )

( We now start the real probing: move the Z axis to the probing height, move to )
( the probing XY position, probe it and save the result, parameter #5063, )
( in a numbered parameter; we will make 15 probes on the X-axis and )
( 12 probes on the Y-axis, for a grand total of 180 probes )

#101 = 0 ( X iterator )
#102 = 1 ( Y iterator )
#103 = 1 ( UP or DOWN increment )
#104 = 11 ( number of Y points; the 1st Y row can be done one time less )
o8 repeat [15]
    o4 call
o8 endrepeat

G0 Z0.500 ( Move Z to safe height )
(PROBECLOSE) ( Close the probe log file )
( Probing has ended, each Z-coordinate will be corrected with a bilinear interpolation )
(MSG, Detach the probe tool)
M0 ( Temporary machine stop. )

F600.00000 ( Feedrate. )
M3 ( Spindle on clockwise. )

o1 sub ( Main subroutine )

G04 P0 ( dwell for no time -- G64 should not smooth over this point )
G00 Z0.50000 ( retract )

G00 X6.13080 Y9.44550 ( rapid move to begin. )
F300.00000
o2 call [6.1308] [9.4455]
G04 P0 ( dwell for no time -- G64 should not smooth over this point )
F600.00000
o2 call [6.1308] [6.9055]
o2 call [3.6924] [6.8801]
o2 call [3.54] [6.9055]
o2 call [3.3876] [7.0325]
o2 call [3.286] [7.0579]
o2 call [3.286] [7.1087]
o2 call [3.1336] [7.2611]
o2 call [3.0574] [7.4643]
o2 call [3.0828] [9.9281]
o2 call [6.1308] [9.9281]
o2 call [6.1308] [9.4455]
G04 P0 ( dwell for no time -- G64 should not smooth over this point )
G00 Z0.50000 ( retract )

G00 X8.67080 Y9.44550 ( rapid move to begin. )
F300.00000
o2 call [8.6708] [9.4455]
G04 P0 ( dwell for no time -- G64 should not smooth over this point )
F600.00000
o2 call [8.6708] [6.9055]
o2 call [6.1308] [6.9055]
o2 call [6.1308] [9.9281]
o2 call [8.6708] [9.9281]
o2 call [8.6708] [9.4455]
G04 P0 ( dwell for no time -- G64 should not smooth over this point )
G00 Z0.50000 ( retract )

G00 X11.21080 Y9.44550 ( rapid move to begin. )
F300.00000
o2 call [11.2108] [9.4455]
G04 P0 ( dwell for no time -- G64 should not smooth over this point )
F600.00000
o2 call [11.2108] [6.9055]
o2 call [8.6708] [6.9055]
o2 call [8.6708] [9.9281]
o2 call [11.2108] [9.9281]
o2 call [11.2108] [9.4455]
G04 P0 ( dwell for no time -- G64 should not smooth over this point )
G00 Z0.50000 ( retract )

G00 X13.75080 Y9.44550 ( rapid move to begin. )
F300.00000
o2 call [13.7508] [9.4455]
G04 P0 ( dwell for no time -- G64 should not smooth over this point )
F600.00000
o2 call [13.7508] [6.9055]
o2 call [11.2108] [6.9055]
o2 call [11.2108] [9.9281]
o2 call [13.7508] [9.9281]
o2 call [13.7508] [9.4455]
G04 P0 ( dwell for no time -- G64 should not smooth over this point )
G00 Z0.50000 ( retract )

G00 X16.29080 Y9.44550 ( rapid move to begin. )
F300.00000
o2 call [16.2908] [9.4455]
G04 P0 ( dwell for no time -- G64 should not smooth over this point )
F600.00000
o2 call [16.2908] [6.9055]
o2 call [13.7508] [6.9055]
o2 call [13.7508] [9.9281]
o2 call [16.2908] [9.9281]
o2 call [16.2908] [9.4455]
G04 P0 ( dwell for no time -- G64 should not smooth over this point )
G00 Z0.50000 ( retract )

G00 X18.83080 Y9.44550 ( rapid move to begin. )
F300.00000
o2 call [18.8308] [9.4455]
G04 P0 ( dwell for no time -- G64 should not smooth over this point )
F600.00000
o2 call [18.8308] [6.9055]
o2 call [16.2908] [6.9055]
o2 call [16.2908] [9.9281]
o2 call [18.8308] [9.9281]
o2 call [18.8308] [9.4455]
G04 P0 ( dwell for no time -- G64 should not smooth over this point )
G00 Z0.50000 ( retract )

G00 X21.37080 Y9.44550 ( rapid move to begin. )
F300.00000
o2 call [21.3708] [9.4455]
G04 P0 ( dwell for no time -- G64 should not smooth over this point )
F600.00000
o2 call [21.3708] [6.9055]
o2 call [18.8308] [6.9055]
o2 call [18.8308] [9.9281]
o2 call [21.3708] [9.9281]
o2 call [21.3708] [9.4455]
G04 P0 ( dwell for no time -- G64 should not smooth over this point )
G00 Z0.50000 ( retract )

G00 X23.91080 Y9.44550 ( rapid move to begin. )
F300.00000
o2 call [23.9108] [9.4455]
G04 P0 ( dwell for no time -- G64 should not smooth over this point )
F600.00000
o2 call [23.9108] [6.9055]
o2 call [21.3708] [6.9055]
o2 call [21.3708] [9.9281]
o2 call [23.9108] [9.9281]
o2 call [23.9108] [9.4455]
G04 P0 ( dwell for no time -- G64 should not smooth over this point )
G00 Z0.50000 ( retract )

G00 X26.45080 Y9.44550 ( rapid move to begin. )
F300.00000
o2 call [26.4508] [9.4455]
G04 P0 ( dwell for no time -- G64 should not smooth over this point )
F600.00000
o2 call [26.4508] [6.9055]
o2 call [23.9108] [6.9055]
o2 call [23.9108] [9.9281]
o2 call [26.4508] [9.9281]
o2 call [26.4508] [9.4455]
G04 P0 ( dwell for no time -- G64 should not smooth over this point )
G00 Z0.50000 ( retract )

G00 X28.99080 Y9.44550 ( rapid move to begin. )
F300.00000
o2 call [28.9908] [9.4455]
G04 P0 ( dwell for no time -- G64 should not smooth over this point )
F600.00000
o2 call [28.9908] [6.9055]
o2 call [26.4508] [6.9055]
o2 call [26.4508] [9.9281]
o2 call [28.9908] [9.9281]
o2 call [28.9908] [9.4455]
G04 P0 ( dwell for no time -- G64 should not smooth over this point )
G00 Z0.50000 ( retract )

G00 X31.53080 Y9.44550 ( rapid move to begin. )
F300.00000
o2 call [31.5308] [9.4455]
G04 P0 ( dwell for no time -- G64 should not smooth over this point )
F600.00000
o2 call [31.5308] [7.0071]
o2 call [29.5496] [7.0071]
o2 call [29.2956] [6.9817]
o2 call [29.194] [6.9309]
o2 call [28.9908] [6.9309]
o2 call [28.9908] [9.9281]
o2 call [31.5308] [9.9281]
o2 call [31.5308] [9.4455]
G04 P0 ( dwell for no time -- G64 should not smooth over this point )
G00 Z0.50000 ( retract )

G00 X34.07080 Y9.44550 ( rapid move to begin. )
F300.00000
o2 call [34.0708] [9.4455]
G04 P0 ( dwell for no time -- G64 should not smooth over this point )
F600.00000
o2 call [34.0708] [7.0071]
o2 call [32.0896] [7.0071]
o2 call [31.8356] [6.9563]
o2 call [31.5308] [7.0071]
o2 call [31.5308] [9.9281]
o2 call [34.0708] [9.9281]
o2 call [34.0708] [9.4455]
G04 P0 ( dwell for no time -- G64 should not smooth over this point )
G00 Z0.50000 ( retract )

G00 X36.61080 Y9.44550 ( rapid move to begin. )
F300.00000
o2 call [36.6108] [9.4455]
G04 P0 ( dwell for no time -- G64 should not smooth over this point )
F600.00000
o2 call [36.6108] [7.0071]
o2 call [34.6296] [7.0071]
o2 call [34.3756] [6.9563]
o2 call [34.0708] [7.0071]
o2 call [34.0708] [9.9281]
o2 call [36.6108] [9.9281]
o2 call [36.6108] [9.4455]
G04 P0 ( dwell for no time -- G64 should not smooth over this point )
G00 Z0.50000 ( retract )

G00 X39.15080 Y9.44550 ( rapid move to begin. )
F300.00000
o2 call [39.1508] [9.4455]
G04 P0 ( dwell for no time -- G64 should not smooth over this point )
F600.00000
o2 call [39.1508] [7.0071]
o2 call [37.1696] [7.0071]
o2 call [36.9156] [6.9563]
o2 call [36.6108] [7.0071]
o2 call [36.6108] [9.9281]
o2 call [39.1508] [9.9281]
o2 call [39.1508] [9.4455]
G04 P0 ( dwell for no time -- G64 should not smooth over this point )
G00 Z0.50000 ( retract )

G00 X41.69080 Y9.44550 ( rapid move to begin. )
F300.00000
o2 call [41.6908] [9.4455]
G04 P0 ( dwell for no time -- G64 should not smooth over this point )
F600.00000
o2 call [41.6908] [7.0071]
o2 call [39.7096] [7.0071]
o2 call [39.4556] [6.9563]
o2 call [39.1508] [7.0071]
o2 call [39.1508] [9.9281]
o2 call [41.6908] [9.9281]
o2 call [41.6908] [9.4455]
G04 P0 ( dwell for no time -- G64 should not smooth over this point )
G00 Z0.50000 ( retract )

G00 X44.23080 Y9.44550 ( rapid move to begin. )
F300.00000
o2 call [44.2308] [9.4455]
G04 P0 ( dwell for no time -- G64 should not smooth over this point )
F600.00000
o2 call [44.2308] [7.0071]
o2 call [42.2496] [7.0071]
o2 call [41.9956] [6.9563]
o2 call [41.6908] [7.0071]
o2 call [41.6908] [9.9281]
o2 call [44.2308] [9.9281]
o2 call [44.2308] [9.4455]
G04 P0 ( dwell for no time -- G64 should not smooth over this point )
G00 Z0.50000 ( retract )

G00 X46.77080 Y9.44550 ( rapid move to begin. )
F300.00000
o2 call [46.7708] [9.4455]
G04 P0 ( dwell for no time -- G64 should not smooth over this point )
F600.00000
o2 call [46.7708] [7.0071]
o2 call [44.7896] [7.0071]
o2 call [44.5356] [6.9563]
o2 call [44.2308] [7.0071]
o2 call [44.2308] [9.9281]
o2 call [46.7708] [9.9281]
o2 call [46.7708] [9.4455]
G04 P0 ( dwell for no time -- G64 should not smooth over this point )
G00 Z0.50000 ( retract )

G00 X49.31080 Y9.44550 ( rapid move to begin. )
F300.00000
o2 call [49.3108] [9.4455]
G04 P0 ( dwell for no time -- G64 should not smooth over this point )
F600.00000
o2 call [49.3108] [7.0071]
o2 call [47.3296] [7.0071]
o2 call [47.0756] [6.9563]
o2 call [46.7708] [7.0071]
o2 call [46.7708] [9.9281]
o2 call [49.3108] [9.9281]
o2 call [49.3108] [9.4455]
G04 P0 ( dwell for no time -- G64 should not smooth over this point )
G00 Z0.50000 ( retract )

G00 X51.85080 Y9.44550 ( rapid move to begin. )
F300.00000
o2 call [51.8508] [9.4455]
G04 P0 ( dwell for no time -- G64 should not smooth over this point )
F600.00000
o2 call [51.8508] [6.9055]
o2 call [49.7934] [6.8801]
o2 call [49.7172] [6.9309]
o2 call [49.3108] [7.0071]
o2 call [49.3108] [9.9281]
o2 call [51.8508] [9.9281]
o2 call [51.8508] [9.4455]
G04 P0 ( dwell for no time -- G64 should not smooth over this point )
G00 Z0.50000 ( retract )

G00 X54.39080 Y9.44550 ( rapid move to begin. )
F300.00000
o2 call [54.3908] [9.4455]
G04 P0 ( dwell for no time -- G64 should not smooth over this point )
F600.00000
o2 call [54.3908] [7.0071]
o2 call [52.4096] [7.0071]
o2 call [52.1556] [6.9817]
o2 call [52.054] [6.9309]
o2 call [51.8508] [6.9309]
o2 call [51.8508] [9.9281]
o2 call [54.3908] [9.9281]
o2 call [54.3908] [9.4455]
G04 P0 ( dwell for no time -- G64 should not smooth over this point )
G00 Z0.50000 ( retract )

G00 X56.93080 Y9.44550 ( rapid move to begin. )
F300.00000
o2 call [56.9308] [9.4455]
G04 P0 ( dwell for no time -- G64 should not smooth over this point )
F600.00000
o2 call [56.9308] [7.0071]
o2 call [54.9496] [7.0071]
o2 call [54.6956] [6.9563]
o2 call [54.3908] [7.0071]
o2 call [54.3908] [9.9281]
o2 call [56.9308] [9.9281]
o2 call [56.9308] [9.4455]
G04 P0 ( dwell for no time -- G64 should not smooth over this point )
G00 Z0.50000 ( retract )

G00 X59.47080 Y9.44550 ( rapid move to begin. )
F300.00000
o2 call [59.4708] [9.4455]
G04 P0 ( dwell for no time -- G64 should not smooth over this point )
F600.00000
o2 call [59.4708] [7.0071]
o2 call [57.4896] [7.0071]
o2 call [57.2356] [6.9563]
o2 call [56.9308] [7.0071]
o2 call [56.9308] [9.9281]
o2 call [59.4708] [9.9281]
o2 call [59.4708] [9.4455]
G04 P0 ( dwell for no time -- G64 should not smooth over this point )
G00 Z0.50000 ( retract )

G00 X62.01080 Y9.44550 ( rapid move to begin. )
F300.00000
o2 call [62.0108] [9.4455]
G04 P0 ( dwell for no time -- G64 should not smooth over this point )
F600.00000
o2 call [62.0108] [7.0071]
o2 call [60.0296] [7.0071]
o2 call [59.7756] [6.9563]
o2 call [59.4708] [7.0071]
o2 call [59.4708] [9.9281]
o2 call [62.0108] [9.9281]
o2 call [62.0108] [9.4455]
G04 P0 ( dwell for no time -- G64 should not smooth over this point )
G00 Z0.50000 ( retract )

G00 X62.01080 Y11.98550 ( rapid move to begin. )
F300.00000
o2 call [62.0108] [11.9855]
G04 P0 ( dwell for no time -- G64 should not smooth over this point )
F600.00000
o2 call [62.0108] [9.9281]
o2 call [59.4708] [9.9281]
o2 call [59.4708] [12.4681]
o2 call [62.0108] [12.4681]
o2 call [62.0108] [11.9855]
G04 P0 ( dwell for no time -- G64 should not smooth over this point )
G00 Z0.50000 ( retract )

G00 X59.47080 Y11.98550 ( rapid move to begin. )
F300.00000
o2 call [59.4708] [11.9855]
G04 P0 ( dwell for no time -- G64 should not smooth over this point )
F600.00000
o2 call [59.4708] [9.9281]
o2 call [56.9308] [9.9281]
o2 call [56.9308] [12.4681]
o2 call [59.4708] [12.4681]
o2 call [59.4708] [11.9855]
G04 P0 ( dwell for no time -- G64 should not smooth over this point )
G00 Z0.50000 ( retract )

G00 X56.93080 Y11.98550 ( rapid move to begin. )
F300.00000
o2 call [56.9308] [11.9855]
G04 P0 ( dwell for no time -- G64 should not smooth over this point )
F600.00000
o2 call [56.9308] [9.9281]
o2 call [54.3908] [9.9281]
o2 call [54.3908] [12.4681]
o2 call [56.9308] [12.4681]
o2 call [56.9308] [11.9855]
G04 P0 ( dwell for no time -- G64 should not smooth over this point )
G00 Z0.50000 ( retract )

G00 X54.39080 Y11.98550 ( rapid move to begin. )
F300.00000
o2 call [54.3908] [11.9855]
G04 P0 ( dwell for no time -- G64 should not smooth over this point )
F600.00000
o2 call [54.3908] [9.9281]
o2 call [51.8508] [9.9281]
o2 call [51.8508] [12.4681]
o2 call [54.3908] [12.4681]
o2 call [54.3908] [11.9855]
G04 P0 ( dwell for no time -- G64 should not smooth over this point )
G00 Z0.50000 ( retract )

G00 X51.85080 Y11.98550 ( rapid move to begin. )
F300.00000
o2 call [51.8508] [11.9855]
G04 P0 ( dwell for no time -- G64 should not smooth over this point )
F600.00000
o2 call [51.8508] [9.9281]
o2 call [49.3108] [9.9281]
o2 call [49.3108] [12.4681]
o2 call [51.8508] [12.4681]
o2 call [51.8508] [11.9855]
G04 P0 ( dwell for no time -- G64 should not smooth over this point )
G00 Z0.50000 ( retract )

G00 X49.31080 Y11.98550 ( rapid move to begin. )
F300.00000
o2 call [49.3108] [11.9855]
G04 P0 ( dwell for no time -- G64 should not smooth over this point )
F600.00000
o2 call [49.3108] [9.9281]
o2 call [46.7708] [9.9281]
o2 call [46.7708] [12.4681]
o2 call [49.3108] [12.4681]
o2 call [49.3108] [11.9855]
G04 P0 ( dwell for no time -- G64 should not smooth over this point )
G00 Z0.50000 ( retract )

G00 X46.77080 Y11.98550 ( rapid move to begin. )
F300.00000
o2 call [46.7708] [11.9855]
G04 P0 ( dwell for no time -- G64 should not smooth over this point )
F600.00000
o2 call [46.7708] [9.9281]
o2 call [44.2308] [9.9281]
o2 call [44.2308] [12.4681]
o2 call [46.7708] [12.4681]
o2 call [46.7708] [11.9855]
G04 P0 ( dwell for no time -- G64 should not smooth over this point )
G00 Z0.50000 ( retract )

G00 X44.23080 Y11.98550 ( rapid move to begin. )
F300.00000
o2 call [44.2308] [11.9855]
G04 P0 ( dwell for no time -- G64 should not smooth over this point )
F600.00000
o2 call [44.2308] [9.9281]
o2 call [41.6908] [9.9281]
o2 call [41.6908] [12.4681]
o2 call [44.2308] [12.4681]
o2 call [44.2308] [11.9855]
G04 P0 ( dwell for no time -- G64 should not smooth over this point )
G00 Z0.50000 ( retract )

G00 X41.69080 Y11.98550 ( rapid move to begin. )
F300.00000
o2 call [41.6908] [11.9855]
G04 P0 ( dwell for no time -- G64 should not smooth over this point )
F600.00000
o2 call [41.6908] [9.9281]
o2 call [39.1508] [9.9281]
o2 call [39.1508] [12.4681]
o2 call [41.6908] [12.4681]
o2 call [41.6908] [11.9855]
G04 P0 ( dwell for no time -- G64 should not smooth over this point )
G00 Z0.50000 ( retract )

G00 X39.15080 Y11.98550 ( rapid move to begin. )
F300.00000
o2 call [39.1508] [11.9855]
G04 P0 ( dwell for no time -- G64 should not smooth over this point )
F600.00000
o2 call [39.1508] [9.9281]
o2 call [36.6108] [9.9281]
o2 call [36.6108] [12.4681]
o2 call [39.1508] [12.4681]
o2 call [39.1508] [11.9855]
G04 P0 ( dwell for no time -- G64 should not smooth over this point )
G00 Z0.50000 ( retract )

G00 X36.61080 Y11.98550 ( rapid move to begin. )
F300.00000
o2 call [36.6108] [11.9855]
G04 P0 ( dwell for no time -- G64 should not smooth over this point )
F600.00000
o2 call [36.6108] [9.9281]
o2 call [34.0708] [9.9281]
o2 call [34.0708] [12.4681]
o2 call [36.6108] [12.4681]
o2 call [36.6108] [11.9855]
G04 P0 ( dwell for no time -- G64 should not smooth over this point )
G00 Z0.50000 ( retract )

G00 X34.07080 Y11.98550 ( rapid move to begin. )
F300.00000
o2 call [34.0708] [11.9855]
G04 P0 ( dwell for no time -- G64 should not smooth over this point )
F600.00000
o2 call [34.0708] [9.9281]
o2 call [31.5308] [9.9281]
o2 call [31.5308] [12.4681]
o2 call [34.0708] [12.4681]
o2 call [34.0708] [11.9855]
G04 P0 ( dwell for no time -- G64 should not smooth over this point )
G00 Z0.50000 ( retract )

G00 X31.53080 Y11.98550 ( rapid move to begin. )
F300.00000
o2 call [31.5308] [11.9855]
G04 P0 ( dwell for no time -- G64 should not smooth over this point )
F600.00000
o2 call [31.5308] [9.9281]
o2 call [28.9908] [9.9281]
o2 call [28.9908] [12.4681]
o2 call [31.5308] [12.4681]
o2 call [31.5308] [11.9855]
G04 P0 ( dwell for no time -- G64 should not smooth over this point )
G00 Z0.50000 ( retract )

G00 X28.99080 Y11.98550 ( rapid move to begin. )
F300.00000
o2 call [28.9908] [11.9855]
G04 P0 ( dwell for no time -- G64 should not smooth over this point )
F600.00000
o2 call [28.9908] [9.9281]
o2 call [26.4508] [9.9281]
o2 call [26.4508] [12.4681]
o2 call [28.9908] [12.4681]
o2 call [28.9908] [11.9855]
G04 P0 ( dwell for no time -- G64 should not smooth over this point )
G00 Z0.50000 ( retract )

G00 X26.45080 Y11.98550 ( rapid move to begin. )
F300.00000
o2 call [26.4508] [11.9855]
G04 P0 ( dwell for no time -- G64 should not smooth over this point )
F600.00000
o2 call [26.4508] [9.9281]
o2 call [23.9108] [9.9281]
o2 call [23.9108] [12.4681]
o2 call [26.4508] [12.4681]
o2 call [26.4508] [11.9855]
G04 P0 ( dwell for no time -- G64 should not smooth over this point )
G00 Z0.50000 ( retract )

G00 X23.91080 Y11.98550 ( rapid move to begin. )
F300.00000
o2 call [23.9108] [11.9855]
G04 P0 ( dwell for no time -- G64 should not smooth over this point )
F600.00000
o2 call [23.9108] [9.9281]
o2 call [21.3708] [9.9281]
o2 call [21.3708] [12.4681]
o2 call [23.9108] [12.4681]
o2 call [23.9108] [11.9855]
G04 P0 ( dwell for no time -- G64 should not smooth over this point )
G00 Z0.50000 ( retract )

G00 X21.37080 Y11.98550 ( rapid move to begin. )
F300.00000
o2 call [21.3708] [11.9855]
G04 P0 ( dwell for no time -- G64 should not smooth over this point )
F600.00000
o2 call [21.3708] [9.9281]
o2 call [18.8308] [9.9281]
o2 call [18.8308] [12.4681]
o2 call [21.3708] [12.4681]
o2 call [21.3708] [11.9855]
G04 P0 ( dwell for no time -- G64 should not smooth over this point )
G00 Z0.50000 ( retract )

G00 X18.83080 Y11.98550 ( rapid move to begin. )
F300.00000
o2 call [18.8308] [11.9855]
G04 P0 ( dwell for no time -- G64 should not smooth over this point )
F600.00000
o2 call [18.8308] [9.9281]
o2 call [16.2908] [9.9281]
o2 call [16.2908] [12.4681]
o2 call [18.8308] [12.4681]
o2 call [18.8308] [11.9855]
G04 P0 ( dwell for no time -- G64 should not smooth over this point )
G00 Z0.50000 ( retract )

G00 X16.29080 Y11.98550 ( rapid move to begin. )
F300.00000
o2 call [16.2908] [11.9855]
G04 P0 ( dwell for no time -- G64 should not smooth over this point )
F600.00000
o2 call [16.2908] [9.9281]
o2 call [13.7508] [9.9281]
o2 call [13.7508] [12.4681]
o2 call [16.2908] [12.4681]
o2 call [16.2908] [11.9855]
G04 P0 ( dwell for no time -- G64 should not smooth over this point )
G00 Z0.50000 ( retract )

G00 X13.75080 Y11.98550 ( rapid move to begin. )
F300.00000
o2 call [13.7508] [11.9855]
G04 P0 ( dwell for no time -- G64 should not smooth over this point )
F600.00000
o2 call [13.7508] [9.9281]
o2 call [11.2108] [9.9281]
o2 call [11.2108] [12.4681]
o2 call [13.7508] [12.4681]
o2 call [13.7508] [11.9855]
G04 P0 ( dwell for no time -- G64 should not smooth over this point )
G00 Z0.50000 ( retract )

G00 X11.21080 Y11.98550 ( rapid move to begin. )
F300.00000
o2 call [11.2108] [11.9855]
G04 P0 ( dwell for no time -- G64 should not smooth over this point )
F600.00000
o2 call [11.2108] [9.9281]
o2 call [8.6708] [9.9281]
o2 call [8.6708] [12.4681]
o2 call [11.2108] [12.4681]
o2 call [11.2108] [11.9855]
G04 P0 ( dwell for no time -- G64 should not smooth over this point )
G00 Z0.50000 ( retract )

G00 X8.67080 Y11.98550 ( rapid move to begin. )
F300.00000
o2 call [8.6708] [11.9855]
G04 P0 ( dwell for no time -- G64 should not smooth over this point )
F600.00000
o2 call [8.6708] [9.9281]
o2 call [6.1308] [9.9281]
o2 call [6.1308] [12.4681]
o2 call [8.6708] [12.4681]
o2 call [8.6708] [11.9855]
G04 P0 ( dwell for no time -- G64 should not smooth over this point )
G00 Z0.50000 ( retract )

G00 X6.13080 Y11.98550 ( rapid move to begin. )
F300.00000
o2 call [6.1308] [11.9855]
G04 P0 ( dwell for no time -- G64 should not smooth over this point )
F600.00000
o2 call [6.1308] [9.9281]
o2 call [3.0828] [9.9281]
o2 call [3.0574] [10.0043]
o2 call [3.0828] [12.4681]
o2 call [6.1308] [12.4681]
o2 call [6.1308] [11.9855]
G04 P0 ( dwell for no time -- G64 should not smooth over this point )
G00 Z0.50000 ( retract )

G00 X6.13080 Y14.52550 ( rapid move to begin. )
F300.00000
o2 call [6.1308] [14.5255]
G04 P0 ( dwell for no time -- G64 should not smooth over this point )
F600.00000
o2 call [6.1308] [12.4681]
o2 call [3.0828] [12.4681]
o2 call [3.0574] [12.5443]
o2 call [3.0828] [15.0081]
o2 call [6.1308] [15.0081]
o2 call [6.1308] [14.5255]
G04 P0 ( dwell for no time -- G64 should not smooth over this point )
G00 Z0.50000 ( retract )

G00 X8.67080 Y14.52550 ( rapid move to begin. )
F300.00000
o2 call [8.6708] [14.5255]
G04 P0 ( dwell for no time -- G64 should not smooth over this point )
F600.00000
o2 call [8.6708] [12.4681]
o2 call [6.1308] [12.4681]
o2 call [6.1308] [15.0081]
o2 call [8.6708] [15.0081]
o2 call [8.6708] [14.5255]
G04 P0 ( dwell for no time -- G64 should not smooth over this point )
G00 Z0.50000 ( retract )

G00 X11.21080 Y14.52550 ( rapid move to begin. )
F300.00000
o2 call [11.2108] [14.5255]
G04 P0 ( dwell for no time -- G64 should not smooth over this point )
F600.00000
o2 call [11.2108] [12.4681]
o2 call [8.6708] [12.4681]
o2 call [8.6708] [15.0081]
o2 call [11.2108] [15.0081]
o2 call [11.2108] [14.5255]
G04 P0 ( dwell for no time -- G64 should not smooth over this point )
G00 Z0.50000 ( retract )

G00 X13.75080 Y14.52550 ( rapid move to begin. )
F300.00000
o2 call [13.7508] [14.5255]
G04 P0 ( dwell for no time -- G64 should not smooth over this point )
F600.00000
o2 call [13.7508] [12.4681]
o2 call [11.2108] [12.4681]
o2 call [11.2108] [15.0081]
o2 call [13.7508] [15.0081]
o2 call [13.7508] [14.5255]
G04 P0 ( dwell for no time -- G64 should not smooth over this point )
G00 Z0.50000 ( retract )

G00 X16.29080 Y14.52550 ( rapid move to begin. )
F300.00000
o2 call [16.2908] [14.5255]
G04 P0 ( dwell for no time -- G64 should not smooth over this point )
F600.00000
o2 call [16.2908] [12.4681]
o2 call [13.7508] [12.4681]
o2 call [13.7508] [15.0081]
o2 call [16.2908] [15.0081]
o2 call [16.2908] [14.5255]
G04 P0 ( dwell for no time -- G64 should not smooth over this point )
G00 Z0.50000 ( retract )

G00 X18.83080 Y14.52550 ( rapid move to begin. )
F300.00000
o2 call [18.8308] [14.5255]
G04 P0 ( dwell for no time -- G64 should not smooth over this point )
F600.00000
o2 call [18.8308] [12.4681]
o2 call [16.2908] [12.4681]
o2 call [16.2908] [15.0081]
o2 call [18.8308] [15.0081]
o2 call [18.8308] [14.5255]
G04 P0 ( dwell for no time -- G64 should not smooth over this point )
G00 Z0.50000 ( retract )

G00 X21.37080 Y14.52550 ( rapid move to begin. )
F300.00000
o2 call [21.3708] [14.5255]
G04 P0 ( dwell for no time -- G64 should not smooth over this point )
F600.00000
o2 call [21.3708] [12.4681]
o2 call [18.8308] [12.4681]
o2 call [18.8308] [15.0081]
o2 call [21.3708] [15.0081]
o2 call [21.3708] [14.5255]
G04 P0 ( dwell for no time -- G64 should not smooth over this point )
G00 Z0.50000 ( retract )

G00 X23.91080 Y14.52550 ( rapid move to begin. )
F300.00000
o2 call [23.9108] [14.5255]
G04 P0 ( dwell for no time -- G64 should not smooth over this point )
F600.00000
o2 call [23.9108] [12.4681]
o2 call [21.3708] [12.4681]
o2 call [21.3708] [15.0081]
o2 call [23.9108] [15.0081]
o2 call [23.9108] [14.5255]
G04 P0 ( dwell for no time -- G64 should not smooth over this point )
G00 Z0.50000 ( retract )

G00 X26.45080 Y14.52550 ( rapid move to begin. )
F300.00000
o2 call [26.4508] [14.5255]
G04 P0 ( dwell for no time -- G64 should not smooth over this point )
F600.00000
o2 call [26.4508] [12.4681]
o2 call [23.9108] [12.4681]
o2 call [23.9108] [15.0081]
o2 call [26.4508] [15.0081]
o2 call [26.4508] [14.5255]
G04 P0 ( dwell for no time -- G64 should not smooth over this point )
G00 Z0.50000 ( retract )

G00 X28.99080 Y14.52550 ( rapid move to begin. )
F300.00000
o2 call [28.9908] [14.5255]
G04 P0 ( dwell for no time -- G64 should not smooth over this point )
F600.00000
o2 call [28.9908] [12.4681]
o2 call [26.4508] [12.4681]
o2 call [26.4508] [15.0081]
o2 call [28.9908] [15.0081]
o2 call [28.9908] [14.5255]
G04 P0 ( dwell for no time -- G64 should not smooth over this point )
G00 Z0.50000 ( retract )

G00 X31.53080 Y14.52550 ( rapid move to begin. )
F300.00000
o2 call [31.5308] [14.5255]
G04 P0 ( dwell for no time -- G64 should not smooth over this point )
F600.00000
o2 call [31.5308] [12.4681]
o2 call [28.9908] [12.4681]
o2 call [28.9908] [15.0081]
o2 call [31.5308] [15.0081]
o2 call [31.5308] [14.5255]
G04 P0 ( dwell for no time -- G64 should not smooth over this point )
G00 Z0.50000 ( retract )

G00 X34.07080 Y14.52550 ( rapid move to begin. )
F300.00000
o2 call [34.0708] [14.5255]
G04 P0 ( dwell for no time -- G64 should not smooth over this point )
F600.00000
o2 call [34.0708] [12.4681]
o2 call [31.5308] [12.4681]
o2 call [31.5308] [15.0081]
o2 call [34.0708] [15.0081]
o2 call [34.0708] [14.5255]
G04 P0 ( dwell for no time -- G64 should not smooth over this point )
G00 Z0.50000 ( retract )

G00 X36.61080 Y14.52550 ( rapid move to begin. )
F300.00000
o2 call [36.6108] [14.5255]
G04 P0 ( dwell for no time -- G64 should not smooth over this point )
F600.00000
o2 call [36.6108] [12.4681]
o2 call [34.0708] [12.4681]
o2 call [34.0708] [15.0081]
o2 call [36.6108] [15.0081]
o2 call [36.6108] [14.5255]
G04 P0 ( dwell for no time -- G64 should not smooth over this point )
G00 Z0.50000 ( retract )

G00 X39.15080 Y14.52550 ( rapid move to begin. )
F300.00000
o2 call [39.1508] [14.5255]
G04 P0 ( dwell for no time -- G64 should not smooth over this point )
F600.00000
o2 call [39.1508] [12.4681]
o2 call [36.6108] [12.4681]
o2 call [36.6108] [15.0081]
o2 call [39.1508] [15.0081]
o2 call [39.1508] [14.5255]
G04 P0 ( dwell for no time -- G64 should not smooth over this point )
G00 Z0.50000 ( retract )

G00 X41.69080 Y14.52550 ( rapid move to begin. )
F300.00000
o2 call [41.6908] [14.5255]
G04 P0 ( dwell for no time -- G64 should not smooth over this point )
F600.00000
o2 call [41.6908] [12.4681]
o2 call [39.1508] [12.4681]
o2 call [39.1508] [15.0081]
o2 call [41.6908] [15.0081]
o2 call [41.6908] [14.5255]
G04 P0 ( dwell for no time -- G64 should not smooth over this point )
G00 Z0.50000 ( retract )

G00 X44.23080 Y14.52550 ( rapid move to begin. )
F300.00000
o2 call [44.2308] [14.5255]
G04 P0 ( dwell for no time -- G64 should not smooth over this point )
F600.00000
o2 call [44.2308] [12.4681]
o2 call [41.6908] [12.4681]
o2 call [41.6908] [15.0081]
o2 call [44.2308] [15.0081]
o2 call [44.2308] [14.5255]
G04 P0 ( dwell for no time -- G64 should not smooth over this point )
G00 Z0.50000 ( retract )

G00 X46.77080 Y14.52550 ( rapid move to begin. )
F300.00000
o2 call [46.7708] [14.5255]
G04 P0 ( dwell for no time -- G64 should not smooth over this point )
F600.00000
o2 call [46.7708] [12.4681]
o2 call [44.2308] [12.4681]
o2 call [44.2308] [15.0081]
o2 call [46.7708] [15.0081]
o2 call [46.7708] [14.5255]
G04 P0 ( dwell for no time -- G64 should not smooth over this point )
G00 Z0.50000 ( retract )

G00 X49.31080 Y14.52550 ( rapid move to begin. )
F300.00000
o2 call [49.3108] [14.5255]
G04 P0 ( dwell for no time -- G64 should not smooth over this point )
F600.00000
o2 call [49.3108] [12.4681]
o2 call [46.7708] [12.4681]
o2 call [46.7708] [15.0081]
o2 call [49.3108] [15.0081]
o2 call [49.3108] [14.5255]
G04 P0 ( dwell for no time -- G64 should not smooth over this point )
G00 Z0.50000 ( retract )

G00 X51.85080 Y14.52550 ( rapid move to begin. )
F300.00000
o2 call [51.8508] [14.5255]
G04 P0 ( dwell for no time -- G64 should not smooth over this point )
F600.00000
o2 call [51.8508] [12.4681]
o2 call [49.3108] [12.4681]
o2 call [49.3108] [15.0081]
o2 call [51.8508] [15.0081]
o2 call [51.8508] [14.5255]
G04 P0 ( dwell for no time -- G64 should not smooth over this point )
G00 Z0.50000 ( retract )

G00 X54.39080 Y14.52550 ( rapid move to begin. )
F300.00000
o2 call [54.3908] [14.5255]
G04 P0 ( dwell for no time -- G64 should not smooth over this point )
F600.00000
o2 call [54.3908] [12.4681]
o2 call [51.8508] [12.4681]
o2 call [51.8508] [15.0081]
o2 call [54.3908] [15.0081]
o2 call [54.3908] [14.5255]
G04 P0 ( dwell for no time -- G64 should not smooth over this point )
G00 Z0.50000 ( retract )

G00 X56.93080 Y14.52550 ( rapid move to begin. )
F300.00000
o2 call [56.9308] [14.5255]
G04 P0 ( dwell for no time -- G64 should not smooth over this point )
F600.00000
o2 call [56.9308] [12.4681]
o2 call [54.3908] [12.4681]
o2 call [54.3908] [15.0081]
o2 call [56.9308] [15.0081]
o2 call [56.9308] [14.5255]
G04 P0 ( dwell for no time -- G64 should not smooth over this point )
G00 Z0.50000 ( retract )

G00 X59.47080 Y14.52550 ( rapid move to begin. )
F300.00000
o2 call [59.4708] [14.5255]
G04 P0 ( dwell for no time -- G64 should not smooth over this point )
F600.00000
o2 call [59.4708] [12.4681]
o2 call [56.9308] [12.4681]
o2 call [56.9308] [15.0081]
o2 call [59.4708] [15.0081]
o2 call [59.4708] [14.5255]
G04 P0 ( dwell for no time -- G64 should not smooth over this point )
G00 Z0.50000 ( retract )

G00 X62.01080 Y14.52550 ( rapid move to begin. )
F300.00000
o2 call [62.0108] [14.5255]
G04 P0 ( dwell for no time -- G64 should not smooth over this point )
F600.00000
o2 call [62.0108] [12.4681]
o2 call [59.4708] [12.4681]
o2 call [59.4708] [15.0081]
o2 call [62.0108] [15.0081]
o2 call [62.0108] [14.5255]
G04 P0 ( dwell for no time -- G64 should not smooth over this point )
G00 Z0.50000 ( retract )

G00 X62.01080 Y17.06550 ( rapid move to begin. )
F300.00000
o2 call [62.0108] [17.0655]
G04 P0 ( dwell for no time -- G64 should not smooth over this point )
F600.00000
o2 call [62.0108] [15.0081]
o2 call [59.4708] [15.0081]
o2 call [59.4708] [17.5481]
o2 call [62.0108] [17.5481]
o2 call [62.0108] [17.0655]
G04 P0 ( dwell for no time -- G64 should not smooth over this point )
G00 Z0.50000 ( retract )

G00 X59.47080 Y17.06550 ( rapid move to begin. )
F300.00000
o2 call [59.4708] [17.0655]
G04 P0 ( dwell for no time -- G64 should not smooth over this point )
F600.00000
o2 call [59.4708] [15.0081]
o2 call [56.9308] [15.0081]
o2 call [56.9308] [17.5481]
o2 call [59.4708] [17.5481]
o2 call [59.4708] [17.0655]
G04 P0 ( dwell for no time -- G64 should not smooth over this point )
G00 Z0.50000 ( retract )

G00 X56.93080 Y17.06550 ( rapid move to begin. )
F300.00000
o2 call [56.9308] [17.0655]
G04 P0 ( dwell for no time -- G64 should not smooth over this point )
F600.00000
o2 call [56.9308] [15.0081]
o2 call [54.3908] [15.0081]
o2 call [54.3908] [17.5481]
o2 call [56.9308] [17.5481]
o2 call [56.9308] [17.0655]
G04 P0 ( dwell for no time -- G64 should not smooth over this point )
G00 Z0.50000 ( retract )

G00 X54.39080 Y17.06550 ( rapid move to begin. )
F300.00000
o2 call [54.3908] [17.0655]
G04 P0 ( dwell for no time -- G64 should not smooth over this point )
F600.00000
o2 call [54.3908] [15.0081]
o2 call [51.8508] [15.0081]
o2 call [51.8508] [17.5481]
o2 call [54.3908] [17.5481]
o2 call [54.3908] [17.0655]
G04 P0 ( dwell for no time -- G64 should not smooth over this point )
G00 Z0.50000 ( retract )

G00 X51.85080 Y17.06550 ( rapid move to begin. )
F300.00000
o2 call [51.8508] [17.0655]
G04 P0 ( dwell for no time -- G64 should not smooth over this point )
F600.00000
o2 call [51.8508] [15.0081]
o2 call [49.3108] [15.0081]
o2 call [49.3108] [17.5481]
o2 call [51.8508] [17.5481]
o2 call [51.8508] [17.0655]
G04 P0 ( dwell for no time -- G64 should not smooth over this point )
G00 Z0.50000 ( retract )

G00 X49.31080 Y17.06550 ( rapid move to begin. )
F300.00000
o2 call [49.3108] [17.0655]
G04 P0 ( dwell for no time -- G64 should not smooth over this point )
F600.00000
o2 call [49.3108] [15.0081]
o2 call [46.7708] [15.0081]
o2 call [46.7708] [17.5481]
o2 call [49.3108] [17.5481]
o2 call [49.3108] [17.0655]
G04 P0 ( dwell for no time -- G64 should not smooth over this point )
G00 Z0.50000 ( retract )

G00 X46.77080 Y17.06550 ( rapid move to begin. )
F300.00000
o2 call [46.7708] [17.0655]
G04 P0 ( dwell for no time -- G64 should not smooth over this point )
F600.00000
o2 call [46.7708] [15.0081]
o2 call [44.2308] [15.0081]
o2 call [44.2308] [17.5481]
o2 call [46.7708] [17.5481]
o2 call [46.7708] [17.0655]
G04 P0 ( dwell for no time -- G64 should not smooth over this point )
G00 Z0.50000 ( retract )

G00 X44.23080 Y17.06550 ( rapid move to begin. )
F300.00000
o2 call [44.2308] [17.0655]
G04 P0 ( dwell for no time -- G64 should not smooth over this point )
F600.00000
o2 call [44.2308] [15.0081]
o2 call [41.6908] [15.0081]
o2 call [41.6908] [17.5481]
o2 call [44.2308] [17.5481]
o2 call [44.2308] [17.0655]
G04 P0 ( dwell for no time -- G64 should not smooth over this point )
G00 Z0.50000 ( retract )

G00 X41.69080 Y17.06550 ( rapid move to begin. )
F300.00000
o2 call [41.6908] [17.0655]
G04 P0 ( dwell for no time -- G64 should not smooth over this point )
F600.00000
o2 call [41.6908] [15.0081]
o2 call [39.1508] [15.0081]
o2 call [39.1508] [17.5481]
o2 call [41.6908] [17.5481]
o2 call [41.6908] [17.0655]
G04 P0 ( dwell for no time -- G64 should not smooth over this point )
G00 Z0.50000 ( retract )

G00 X39.15080 Y17.06550 ( rapid move to begin. )
F300.00000
o2 call [39.1508] [17.0655]
G04 P0 ( dwell for no time -- G64 should not smooth over this point )
F600.00000
o2 call [39.1508] [15.0081]
o2 call [36.6108] [15.0081]
o2 call [36.6108] [17.5481]
o2 call [39.1508] [17.5481]
o2 call [39.1508] [17.0655]
G04 P0 ( dwell for no time -- G64 should not smooth over this point )
G00 Z0.50000 ( retract )

G00 X36.61080 Y17.06550 ( rapid move to begin. )
F300.00000
o2 call [36.6108] [17.0655]
G04 P0 ( dwell for no time -- G64 should not smooth over this point )
F600.00000
o2 call [36.6108] [15.0081]
o2 call [34.0708] [15.0081]
o2 call [34.0708] [17.5481]
o2 call [36.6108] [17.5481]
o2 call [36.6108] [17.0655]
G04 P0 ( dwell for no time -- G64 should not smooth over this point )
G00 Z0.50000 ( retract )

G00 X34.07080 Y17.06550 ( rapid move to begin. )
F300.00000
o2 call [34.0708] [17.0655]
G04 P0 ( dwell for no time -- G64 should not smooth over this point )
F600.00000
o2 call [34.0708] [15.0081]
o2 call [31.5308] [15.0081]
o2 call [31.5308] [17.5481]
o2 call [34.0708] [17.5481]
o2 call [34.0708] [17.0655]
G04 P0 ( dwell for no time -- G64 should not smooth over this point )
G00 Z0.50000 ( retract )

G00 X31.53080 Y17.06550 ( rapid move to begin. )
F300.00000
o2 call [31.5308] [17.0655]
G04 P0 ( dwell for no time -- G64 should not smooth over this point )
F600.00000
o2 call [31.5308] [15.0081]
o2 call [28.9908] [15.0081]
o2 call [28.9908] [17.5481]
o2 call [31.5308] [17.5481]
o2 call [31.5308] [17.0655]
G04 P0 ( dwell for no time -- G64 should not smooth over this point )
G00 Z0.50000 ( retract )

G00 X28.99080 Y17.06550 ( rapid move to begin. )
F300.00000
o2 call [28.9908] [17.0655]
G04 P0 ( dwell for no time -- G64 should not smooth over this point )
F600.00000
o2 call [28.9908] [15.0081]
o2 call [26.4508] [15.0081]
o2 call [26.4508] [17.5481]
o2 call [28.9908] [17.5481]
o2 call [28.9908] [17.0655]
G04 P0 ( dwell for no time -- G64 should not smooth over this point )
G00 Z0.50000 ( retract )

G00 X26.45080 Y17.06550 ( rapid move to begin. )
F300.00000
o2 call [26.4508] [17.0655]
G04 P0 ( dwell for no time -- G64 should not smooth over this point )
F600.00000
o2 call [26.4508] [15.0081]
o2 call [23.9108] [15.0081]
o2 call [23.9108] [17.5481]
o2 call [26.4508] [17.5481]
o2 call [26.4508] [17.0655]
G04 P0 ( dwell for no time -- G64 should not smooth over this point )
G00 Z0.50000 ( retract )

G00 X23.91080 Y17.06550 ( rapid move to begin. )
F300.00000
o2 call [23.9108] [17.0655]
G04 P0 ( dwell for no time -- G64 should not smooth over this point )
F600.00000
o2 call [23.9108] [15.0081]
o2 call [21.3708] [15.0081]
o2 call [21.3708] [17.5481]
o2 call [23.9108] [17.5481]
o2 call [23.9108] [17.0655]
G04 P0 ( dwell for no time -- G64 should not smooth over this point )
G00 Z0.50000 ( retract )

G00 X21.37080 Y17.06550 ( rapid move to begin. )
F300.00000
o2 call [21.3708] [17.0655]
G04 P0 ( dwell for no time -- G64 should not smooth over this point )
F600.00000
o2 call [21.3708] [15.0081]
o2 call [18.8308] [15.0081]
o2 call [18.8308] [17.5481]
o2 call [21.3708] [17.5481]
o2 call [21.3708] [17.0655]
G04 P0 ( dwell for no time -- G64 should not smooth over this point )
G00 Z0.50000 ( retract )

G00 X18.83080 Y17.06550 ( rapid move to begin. )
F300.00000
o2 call [18.8308] [17.0655]
G04 P0 ( dwell for no time -- G64 should not smooth over this point )
F600.00000
o2 call [18.8308] [15.0081]
o2 call [16.2908] [15.0081]
o2 call [16.2908] [17.5481]
o2 call [18.8308] [17.5481]
o2 call [18.8308] [17.0655]
G04 P0 ( dwell for no time -- G64 should not smooth over this point )
G00 Z0.50000 ( retract )

G00 X16.29080 Y17.06550 ( rapid move to begin. )
F300.00000
o2 call [16.2908] [17.0655]
G04 P0 ( dwell for no time -- G64 should not smooth over this point )
F600.00000
o2 call [16.2908] [15.0081]
o2 call [13.7508] [15.0081]
o2 call [13.7508] [17.5481]
o2 call [16.2908] [17.5481]
o2 call [16.2908] [17.0655]
G04 P0 ( dwell for no time -- G64 should not smooth over this point )
G00 Z0.50000 ( retract )

G00 X13.75080 Y17.06550 ( rapid move to begin. )
F300.00000
o2 call [13.7508] [17.0655]
G04 P0 ( dwell for no time -- G64 should not smooth over this point )
F600.00000
o2 call [13.7508] [15.0081]
o2 call [11.2108] [15.0081]
o2 call [11.2108] [17.5481]
o2 call [13.7508] [17.5481]
o2 call [13.7508] [17.0655]
G04 P0 ( dwell for no time -- G64 should not smooth over this point )
G00 Z0.50000 ( retract )

G00 X11.21080 Y17.06550 ( rapid move to begin. )
F300.00000
o2 call [11.2108] [17.0655]
G04 P0 ( dwell for no time -- G64 should not smooth over this point )
F600.00000
o2 call [11.2108] [15.0081]
o2 call [8.6708] [15.0081]
o2 call [8.6708] [17.5481]
o2 call [11.2108] [17.5481]
o2 call [11.2108] [17.0655]
G04 P0 ( dwell for no time -- G64 should not smooth over this point )
G00 Z0.50000 ( retract )

G00 X8.67080 Y17.06550 ( rapid move to begin. )
F300.00000
o2 call [8.6708] [17.0655]
G04 P0 ( dwell for no time -- G64 should not smooth over this point )
F600.00000
o2 call [8.6708] [15.0081]
o2 call [6.1308] [15.0081]
o2 call [6.1308] [17.5481]
o2 call [8.6708] [17.5481]
o2 call [8.6708] [17.0655]
G04 P0 ( dwell for no time -- G64 should not smooth over this point )
G00 Z0.50000 ( retract )

G00 X6.13080 Y17.06550 ( rapid move to begin. )
F300.00000
o2 call [6.1308] [17.0655]
G04 P0 ( dwell for no time -- G64 should not smooth over this point )
F600.00000
o2 call [6.1308] [15.0081]
o2 call [3.0828] [15.0081]
o2 call [3.0574] [15.0843]
o2 call [3.0828] [17.5481]
o2 call [6.1308] [17.5481]
o2 call [6.1308] [17.0655]
G04 P0 ( dwell for no time -- G64 should not smooth over this point )
G00 Z0.50000 ( retract )

G00 X6.13080 Y19.60550 ( rapid move to begin. )
F300.00000
o2 call [6.1308] [19.6055]
G04 P0 ( dwell for no time -- G64 should not smooth over this point )
F600.00000
o2 call [6.1308] [17.5481]
o2 call [3.0828] [17.5481]
o2 call [3.0574] [17.6243]
o2 call [3.0828] [20.0881]
o2 call [6.1308] [20.0881]
o2 call [6.1308] [19.6055]
G04 P0 ( dwell for no time -- G64 should not smooth over this point )
G00 Z0.50000 ( retract )

G00 X8.67080 Y19.60550 ( rapid move to begin. )
F300.00000
o2 call [8.6708] [19.6055]
G04 P0 ( dwell for no time -- G64 should not smooth over this point )
F600.00000
o2 call [8.6708] [17.5481]
o2 call [6.1308] [17.5481]
o2 call [6.1308] [20.0881]
o2 call [8.6708] [20.0881]
o2 call [8.6708] [19.6055]
G04 P0 ( dwell for no time -- G64 should not smooth over this point )
G00 Z0.50000 ( retract )

G00 X11.21080 Y19.60550 ( rapid move to begin. )
F300.00000
o2 call [11.2108] [19.6055]
G04 P0 ( dwell for no time -- G64 should not smooth over this point )
F600.00000
o2 call [11.2108] [17.5481]
o2 call [8.6708] [17.5481]
o2 call [8.6708] [20.0881]
o2 call [11.2108] [20.0881]
o2 call [11.2108] [19.6055]
G04 P0 ( dwell for no time -- G64 should not smooth over this point )
G00 Z0.50000 ( retract )

G00 X13.75080 Y19.60550 ( rapid move to begin. )
F300.00000
o2 call [13.7508] [19.6055]
G04 P0 ( dwell for no time -- G64 should not smooth over this point )
F600.00000
o2 call [13.7508] [17.5481]
o2 call [11.2108] [17.5481]
o2 call [11.2108] [20.0881]
o2 call [13.7508] [20.0881]
o2 call [13.7508] [19.6055]
G04 P0 ( dwell for no time -- G64 should not smooth over this point )
G00 Z0.50000 ( retract )

G00 X16.29080 Y19.60550 ( rapid move to begin. )
F300.00000
o2 call [16.2908] [19.6055]
G04 P0 ( dwell for no time -- G64 should not smooth over this point )
F600.00000
o2 call [16.2908] [17.5481]
o2 call [13.7508] [17.5481]
o2 call [13.7508] [20.0881]
o2 call [16.2908] [20.0881]
o2 call [16.2908] [19.6055]
G04 P0 ( dwell for no time -- G64 should not smooth over this point )
G00 Z0.50000 ( retract )

G00 X18.83080 Y19.60550 ( rapid move to begin. )
F300.00000
o2 call [18.8308] [19.6055]
G04 P0 ( dwell for no time -- G64 should not smooth over this point )
F600.00000
o2 call [18.8308] [17.5481]
o2 call [16.2908] [17.5481]
o2 call [16.2908] [20.0881]
o2 call [18.8308] [20.0881]
o2 call [18.8308] [19.6055]
G04 P0 ( dwell for no time -- G64 should not smooth over this point )
G00 Z0.50000 ( retract )

G00 X21.37080 Y19.60550 ( rapid move to begin. )
F300.00000
o2 call [21.3708] [19.6055]
G04 P0 ( dwell for no time -- G64 should not smooth over this point )
F600.00000
o2 call [21.3708] [17.5481]
o2 call [18.8308] [17.5481]
o2 call [18.8308] [20.0881]
o2 call [21.3708] [20.0881]
o2 call [21.3708] [19.6055]
G04 P0 ( dwell for no time -- G64 should not smooth over this point )
G00 Z0.50000 ( retract )

G00 X23.91080 Y19.60550 ( rapid move to begin. )
F300.00000
o2 call [23.9108] [19.6055]
G04 P0 ( dwell for no time -- G64 should not smooth over this point )
F600.00000
o2 call [23.9108] [17.5481]
o2 call [21.3708] [17.5481]
o2 call [21.3708] [20.0881]
o2 call [23.9108] [20.0881]
o2 call [23.9108] [19.6055]
G04 P0 ( dwell for no time -- G64 should not smooth over this point )
G00 Z0.50000 ( retract )

G00 X26.45080 Y19.60550 ( rapid move to begin. )
F300.00000
o2 call [26.4508] [19.6055]
G04 P0 ( dwell for no time -- G64 should not smooth over this point )
F600.00000
o2 call [26.4508] [17.5481]
o2 call [23.9108] [17.5481]
o2 call [23.9108] [20.0881]
o2 call [26.4508] [20.0881]
o2 call [26.4508] [19.6055]
G04 P0 ( dwell for no time -- G64 should not smooth over this point )
G00 Z0.50000 ( retract )

G00 X28.99080 Y19.60550 ( rapid move to begin. )
F300.00000
o2 call [28.9908] [19.6055]
G04 P0 ( dwell for no time -- G64 should not smooth over this point )
F600.00000
o2 call [28.9908] [17.5481]
o2 call [26.4508] [17.5481]
o2 call [26.4508] [20.0881]
o2 call [28.9908] [20.0881]
o2 call [28.9908] [19.6055]
G04 P0 ( dwell for no time -- G64 should not smooth over this point )
G00 Z0.50000 ( retract )

G00 X31.53080 Y19.60550 ( rapid move to begin. )
F300.00000
o2 call [31.5308] [19.6055]
G04 P0 ( dwell for no time -- G64 should not smooth over this point )
F600.00000
o2 call [31.5308] [17.5481]
o2 call [28.9908] [17.5481]
o2 call [28.9908] [20.0881]
o2 call [31.5308] [20.0881]
o2 call [31.5308] [19.6055]
G04 P0 ( dwell for no time -- G64 should not smooth over this point )
G00 Z0.50000 ( retract )

G00 X34.07080 Y19.60550 ( rapid move to begin. )
F300.00000
o2 call [34.0708] [19.6055]
G04 P0 ( dwell for no time -- G64 should not smooth over this point )
F600.00000
o2 call [34.0708] [17.5481]
o2 call [31.5308] [17.5481]
o2 call [31.5308] [20.0881]
o2 call [34.0708] [20.0881]
o2 call [34.0708] [19.6055]
G04 P0 ( dwell for no time -- G64 should not smooth over this point )
G00 Z0.50000 ( retract )

G00 X36.61080 Y19.60550 ( rapid move to begin. )
F300.00000
o2 call [36.6108] [19.6055]
G04 P0 ( dwell for no time -- G64 should not smooth over this point )
F600.00000
o2 call [36.6108] [17.5481]
o2 call [34.0708] [17.5481]
o2 call [34.0708] [20.0881]
o2 call [36.6108] [20.0881]
o2 call [36.6108] [19.6055]
G04 P0 ( dwell for no time -- G64 should not smooth over this point )
G00 Z0.50000 ( retract )

G00 X39.15080 Y19.60550 ( rapid move to begin. )
F300.00000
o2 call [39.1508] [19.6055]
G04 P0 ( dwell for no time -- G64 should not smooth over this point )
F600.00000
o2 call [39.1508] [17.5481]
o2 call [36.6108] [17.5481]
o2 call [36.6108] [20.0881]
o2 call [39.1508] [20.0881]
o2 call [39.1508] [19.6055]
G04 P0 ( dwell for no time -- G64 should not smooth over this point )
G00 Z0.50000 ( retract )

G00 X41.69080 Y19.60550 ( rapid move to begin. )
F300.00000
o2 call [41.6908] [19.6055]
G04 P0 ( dwell for no time -- G64 should not smooth over this point )
F600.00000
o2 call [41.6908] [17.5481]
o2 call [39.1508] [17.5481]
o2 call [39.1508] [20.0881]
o2 call [41.6908] [20.0881]
o2 call [41.6908] [19.6055]
G04 P0 ( dwell for no time -- G64 should not smooth over this point )
G00 Z0.50000 ( retract )

G00 X44.23080 Y19.60550 ( rapid move to begin. )
F300.00000
o2 call [44.2308] [19.6055]
G04 P0 ( dwell for no time -- G64 should not smooth over this point )
F600.00000
o2 call [44.2308] [17.5481]
o2 call [41.6908] [17.5481]
o2 call [41.6908] [20.0881]
o2 call [44.2308] [20.0881]
o2 call [44.2308] [19.6055]
G04 P0 ( dwell for no time -- G64 should not smooth over this point )
G00 Z0.50000 ( retract )

G00 X46.77080 Y19.60550 ( rapid move to begin. )
F300.00000
o2 call [46.7708] [19.6055]
G04 P0 ( dwell for no time -- G64 should not smooth over this point )
F600.00000
o2 call [46.7708] [17.5481]
o2 call [44.2308] [17.5481]
o2 call [44.2308] [20.0881]
o2 call [46.7708] [20.0881]
o2 call [46.7708] [19.6055]
G04 P0 ( dwell for no time -- G64 should not smooth over this point )
G00 Z0.50000 ( retract )

G00 X49.31080 Y19.60550 ( rapid move to begin. )
F300.00000
o2 call [49.3108] [19.6055]
G04 P0 ( dwell for no time -- G64 should not smooth over this point )
F600.00000
o2 call [49.3108] [17.5481]
o2 call [46.7708] [17.5481]
o2 call [46.7708] [20.0881]
o2 call [49.3108] [20.0881]
o2 call [49.3108] [19.6055]
G04 P0 ( dwell for no time -- G64 should not smooth over this point )
G00 Z0.50000 ( retract )

G00 X51.85080 Y19.60550 ( rapid move to begin. )
F300.00000
o2 call [51.8508] [19.6055]
G04 P0 ( dwell for no time -- G64 should not smooth over this point )
F600.00000
o2 call [51.8508] [17.5481]
o2 call [49.3108] [17.5481]
o2 call [49.3108] [20.0881]
o2 call [51.8508] [20.0881]
o2 call [51.8508] [19.6055]
G04 P0 ( dwell for no time -- G64 should not smooth over this point )
G00 Z0.50000 ( retract )

G00 X54.39080 Y19.60550 ( rapid move to begin. )
F300.00000
o2 call [54.3908] [19.6055]
G04 P0 ( dwell for no time -- G64 should not smooth over this point )
F600.00000
o2 call [54.3908] [17.5481]
o2 call [51.8508] [17.5481]
o2 call [51.8508] [20.0881]
o2 call [54.3908] [20.0881]
o2 call [54.3908] [19.6055]
G04 P0 ( dwell for no time -- G64 should not smooth over this point )
G00 Z0.50000 ( retract )

G00 X56.93080 Y19.60550 ( rapid move to begin. )
F300.00000
o2 call [56.9308] [19.6055]
G04 P0 ( dwell for no time -- G64 should not smooth over this point )
F600.00000
o2 call [56.9308] [17.5481]
o2 call [54.3908] [17.5481]
o2 call [54.3908] [20.0881]
o2 call [56.9308] [20.0881]
o2 call [56.9308] [19.6055]
G04 P0 ( dwell for no time -- G64 should not smooth over this point )
G00 Z0.50000 ( retract )

G00 X59.47080 Y19.60550 ( rapid move to begin. )
F300.00000
o2 call [59.4708] [19.6055]
G04 P0 ( dwell for no time -- G64 should not smooth over this point )
F600.00000
o2 call [59.4708] [17.5481]
o2 call [56.9308] [17.5481]
o2 call [56.9308] [20.0881]
o2 call [59.4708] [20.0881]
o2 call [59.4708] [19.6055]
G04 P0 ( dwell for no time -- G64 should not smooth over this point )
G00 Z0.50000 ( retract )

G00 X62.01080 Y19.60550 ( rapid move to begin. )
F300.00000
o2 call [62.0108] [19.6055]
G04 P0 ( dwell for no time -- G64 should not smooth over this point )
F600.00000
o2 call [62.0108] [17.5481]
o2 call [59.4708] [17.5481]
o2 call [59.4708] [20.0881]
o2 call [62.0108] [20.0881]
o2 call [62.0108] [19.6055]
G04 P0 ( dwell for no time -- G64 should not smooth over this point )
G00 Z0.50000 ( retract )

G00 X62.01080 Y22.14550 ( rapid move to begin. )
F300.00000
o2 call [62.0108] [22.1455]
G04 P0 ( dwell for no time -- G64 should not smooth over this point )
F600.00000
o2 call [62.0108] [20.0881]
o2 call [59.4708] [20.0881]
o2 call [59.4708] [22.6281]
o2 call [62.0108] [22.6281]
o2 call [62.0108] [22.1455]
G04 P0 ( dwell for no time -- G64 should not smooth over this point )
G00 Z0.50000 ( retract )

G00 X59.47080 Y22.14550 ( rapid move to begin. )
F300.00000
o2 call [59.4708] [22.1455]
G04 P0 ( dwell for no time -- G64 should not smooth over this point )
F600.00000
o2 call [59.4708] [20.0881]
o2 call [56.9308] [20.0881]
o2 call [56.9308] [22.6281]
o2 call [59.4708] [22.6281]
o2 call [59.4708] [22.1455]
G04 P0 ( dwell for no time -- G64 should not smooth over this point )
G00 Z0.50000 ( retract )

G00 X56.93080 Y22.14550 ( rapid move to begin. )
F300.00000
o2 call [56.9308] [22.1455]
G04 P0 ( dwell for no time -- G64 should not smooth over this point )
F600.00000
o2 call [56.9308] [20.0881]
o2 call [54.3908] [20.0881]
o2 call [54.3908] [22.6281]
o2 call [56.9308] [22.6281]
o2 call [56.9308] [22.1455]
G04 P0 ( dwell for no time -- G64 should not smooth over this point )
G00 Z0.50000 ( retract )

G00 X54.39080 Y22.14550 ( rapid move to begin. )
F300.00000
o2 call [54.3908] [22.1455]
G04 P0 ( dwell for no time -- G64 should not smooth over this point )
F600.00000
o2 call [54.3908] [20.0881]
o2 call [51.8508] [20.0881]
o2 call [51.8508] [22.6281]
o2 call [54.3908] [22.6281]
o2 call [54.3908] [22.1455]
G04 P0 ( dwell for no time -- G64 should not smooth over this point )
G00 Z0.50000 ( retract )

G00 X51.85080 Y22.14550 ( rapid move to begin. )
F300.00000
o2 call [51.8508] [22.1455]
G04 P0 ( dwell for no time -- G64 should not smooth over this point )
F600.00000
o2 call [51.8508] [20.0881]
o2 call [49.3108] [20.0881]
o2 call [49.3108] [22.6281]
o2 call [51.8508] [22.6281]
o2 call [51.8508] [22.1455]
G04 P0 ( dwell for no time -- G64 should not smooth over this point )
G00 Z0.50000 ( retract )

G00 X49.31080 Y22.14550 ( rapid move to begin. )
F300.00000
o2 call [49.3108] [22.1455]
G04 P0 ( dwell for no time -- G64 should not smooth over this point )
F600.00000
o2 call [49.3108] [20.0881]
o2 call [46.7708] [20.0881]
o2 call [46.7708] [22.6281]
o2 call [49.3108] [22.6281]
o2 call [49.3108] [22.1455]
G04 P0 ( dwell for no time -- G64 should not smooth over this point )
G00 Z0.50000 ( retract )

G00 X46.77080 Y22.14550 ( rapid move to begin. )
F300.00000
o2 call [46.7708] [22.1455]
G04 P0 ( dwell for no time -- G64 should not smooth over this point )
F600.00000
o2 call [46.7708] [20.0881]
o2 call [44.2308] [20.0881]
o2 call [44.2308] [22.6281]
o2 call [46.7708] [22.6281]
o2 call [46.7708] [22.1455]
G04 P0 ( dwell for no time -- G64 should not smooth over this point )
G00 Z0.50000 ( retract )

G00 X44.23080 Y22.14550 ( rapid move to begin. )
F300.00000
o2 call [44.2308] [22.1455]
G04 P0 ( dwell for no time -- G64 should not smooth over this point )
F600.00000
o2 call [44.2308] [20.0881]
o2 call [41.6908] [20.0881]
o2 call [41.6908] [22.6281]
o2 call [44.2308] [22.6281]
o2 call [44.2308] [22.1455]
G04 P0 ( dwell for no time -- G64 should not smooth over this point )
G00 Z0.50000 ( retract )

G00 X41.69080 Y22.14550 ( rapid move to begin. )
F300.00000
o2 call [41.6908] [22.1455]
G04 P0 ( dwell for no time -- G64 should not smooth over this point )
F600.00000
o2 call [41.6908] [20.0881]
o2 call [39.1508] [20.0881]
o2 call [39.1508] [22.6281]
o2 call [41.6908] [22.6281]
o2 call [41.6908] [22.1455]
G04 P0 ( dwell for no time -- G64 should not smooth over this point )
G00 Z0.50000 ( retract )

G00 X39.15080 Y22.14550 ( rapid move to begin. )
F300.00000
o2 call [39.1508] [22.1455]
G04 P0 ( dwell for no time -- G64 should not smooth over this point )
F600.00000
o2 call [39.1508] [20.0881]
o2 call [36.6108] [20.0881]
o2 call [36.6108] [22.6281]
o2 call [39.1508] [22.6281]
o2 call [39.1508] [22.1455]
G04 P0 ( dwell for no time -- G64 should not smooth over this point )
G00 Z0.50000 ( retract )

G00 X36.61080 Y22.14550 ( rapid move to begin. )
F300.00000
o2 call [36.6108] [22.1455]
G04 P0 ( dwell for no time -- G64 should not smooth over this point )
F600.00000
o2 call [36.6108] [20.0881]
o2 call [34.0708] [20.0881]
o2 call [34.0708] [22.6281]
o2 call [36.6108] [22.6281]
o2 call [36.6108] [22.1455]
G04 P0 ( dwell for no time -- G64 should not smooth over this point )
G00 Z0.50000 ( retract )

G00 X34.07080 Y22.14550 ( rapid move to begin. )
F300.00000
o2 call [34.0708] [22.1455]
G04 P0 ( dwell for no time -- G64 should not smooth over this point )
F600.00000
o2 call [34.0708] [20.0881]
o2 call [31.5308] [20.0881]
o2 call [31.5308] [22.6281]
o2 call [34.0708] [22.6281]
o2 call [34.0708] [22.1455]
G04 P0 ( dwell for no time -- G64 should not smooth over this point )
G00 Z0.50000 ( retract )

G00 X31.53080 Y22.14550 ( rapid move to begin. )
F300.00000
o2 call [31.5308] [22.1455]
G04 P0 ( dwell for no time -- G64 should not smooth over this point )
F600.00000
o2 call [31.5308] [20.0881]
o2 call [28.9908] [20.0881]
o2 call [28.9908] [22.6281]
o2 call [31.5308] [22.6281]
o2 call [31.5308] [22.1455]
G04 P0 ( dwell for no time -- G64 should not smooth over this point )
G00 Z0.50000 ( retract )

G00 X28.99080 Y22.14550 ( rapid move to begin. )
F300.00000
o2 call [28.9908] [22.1455]
G04 P0 ( dwell for no time -- G64 should not smooth over this point )
F600.00000
o2 call [28.9908] [20.0881]
o2 call [26.4508] [20.0881]
o2 call [26.4508] [22.6281]
o2 call [28.9908] [22.6281]
o2 call [28.9908] [22.1455]
G04 P0 ( dwell for no time -- G64 should not smooth over this point )
G00 Z0.50000 ( retract )

G00 X26.45080 Y22.14550 ( rapid move to begin. )
F300.00000
o2 call [26.4508] [22.1455]
G04 P0 ( dwell for no time -- G64 should not smooth over this point )
F600.00000
o2 call [26.4508] [20.0881]
o2 call [23.9108] [20.0881]
o2 call [23.9108] [22.6281]
o2 call [26.4508] [22.6281]
o2 call [26.4508] [22.1455]
G04 P0 ( dwell for no time -- G64 should not smooth over this point )
G00 Z0.50000 ( retract )

G00 X23.91080 Y22.14550 ( rapid move to begin. )
F300.00000
o2 call [23.9108] [22.1455]
G04 P0 ( dwell for no time -- G64 should not smooth over this point )
F600.00000
o2 call [23.9108] [20.0881]
o2 call [21.3708] [20.0881]
o2 call [21.3708] [22.6281]
o2 call [23.9108] [22.6281]
o2 call [23.9108] [22.1455]
G04 P0 ( dwell for no time -- G64 should not smooth over this point )
G00 Z0.50000 ( retract )

G00 X21.37080 Y22.14550 ( rapid move to begin. )
F300.00000
o2 call [21.3708] [22.1455]
G04 P0 ( dwell for no time -- G64 should not smooth over this point )
F600.00000
o2 call [21.3708] [20.0881]
o2 call [18.8308] [20.0881]
o2 call [18.8308] [22.6281]
o2 call [21.3708] [22.6281]
o2 call [21.3708] [22.1455]
G04 P0 ( dwell for no time -- G64 should not smooth over this point )
G00 Z0.50000 ( retract )

G00 X18.83080 Y22.14550 ( rapid move to begin. )
F300.00000
o2 call [18.8308] [22.1455]
G04 P0 ( dwell for no time -- G64 should not smooth over this point )
F600.00000
o2 call [18.8308] [20.0881]
o2 call [16.2908] [20.0881]
o2 call [16.2908] [22.6281]
o2 call [18.8308] [22.6281]
o2 call [18.8308] [22.1455]
G04 P0 ( dwell for no time -- G64 should not smooth over this point )
G00 Z0.50000 ( retract )

G00 X16.29080 Y22.14550 ( rapid move to begin. )
F300.00000
o2 call [16.2908] [22.1455]
G04 P0 ( dwell for no time -- G64 should not smooth over this point )
F600.00000
o2 call [16.2908] [20.0881]
o2 call [13.7508] [20.0881]
o2 call [13.7508] [22.6281]
o2 call [16.2908] [22.6281]
o2 call [16.2908] [22.1455]
G04 P0 ( dwell for no time -- G64 should not smooth over this point )
G00 Z0.50000 ( retract )

G00 X13.75080 Y22.14550 ( rapid move to begin. )
F300.00000
o2 call [13.7508] [22.1455]
G04 P0 ( dwell for no time -- G64 should not smooth over this point )
F600.00000
o2 call [13.7508] [20.0881]
o2 call [11.2108] [20.0881]
o2 call [11.2108] [22.6281]
o2 call [13.7508] [22.6281]
o2 call [13.7508] [22.1455]
G04 P0 ( dwell for no time -- G64 should not smooth over this point )
G00 Z0.50000 ( retract )

G00 X11.21080 Y22.14550 ( rapid move to begin. )
F300.00000
o2 call [11.2108] [22.1455]
G04 P0 ( dwell for no time -- G64 should not smooth over this point )
F600.00000
o2 call [11.2108] [20.0881]
o2 call [8.6708] [20.0881]
o2 call [8.6708] [22.6281]
o2 call [11.2108] [22.6281]
o2 call [11.2108] [22.1455]
G04 P0 ( dwell for no time -- G64 should not smooth over this point )
G00 Z0.50000 ( retract )

G00 X8.67080 Y22.14550 ( rapid move to begin. )
F300.00000
o2 call [8.6708] [22.1455]
G04 P0 ( dwell for no time -- G64 should not smooth over this point )
F600.00000
o2 call [8.6708] [20.0881]
o2 call [6.1308] [20.0881]
o2 call [6.1308] [22.6281]
o2 call [8.6708] [22.6281]
o2 call [8.6708] [22.1455]
G04 P0 ( dwell for no time -- G64 should not smooth over this point )
G00 Z0.50000 ( retract )

G00 X6.13080 Y22.14550 ( rapid move to begin. )
F300.00000
o2 call [6.1308] [22.1455]
G04 P0 ( dwell for no time -- G64 should not smooth over this point )
F600.00000
o2 call [6.1308] [20.0881]
o2 call [3.0828] [20.0881]
o2 call [3.0574] [20.1643]
o2 call [3.0828] [22.6281]
o2 call [6.1308] [22.6281]
o2 call [6.1308] [22.1455]
G04 P0 ( dwell for no time -- G64 should not smooth over this point )
G00 Z0.50000 ( retract )

G00 X6.13080 Y24.68550 ( rapid move to begin. )
F300.00000
o2 call [6.1308] [24.6855]
G04 P0 ( dwell for no time -- G64 should not smooth over this point )
F600.00000
o2 call [6.1308] [22.6281]
o2 call [3.0828] [22.6281]
o2 call [3.0574] [22.7043]
o2 call [3.0828] [25.1681]
o2 call [6.1308] [25.1681]
o2 call [6.1308] [24.6855]
G04 P0 ( dwell for no time -- G64 should not smooth over this point )
G00 Z0.50000 ( retract )

G00 X8.67080 Y24.68550 ( rapid move to begin. )
F300.00000
o2 call [8.6708] [24.6855]
G04 P0 ( dwell for no time -- G64 should not smooth over this point )
F600.00000
o2 call [8.6708] [22.6281]
o2 call [6.1308] [22.6281]
o2 call [6.1308] [25.1681]
o2 call [8.6708] [25.1681]
o2 call [8.6708] [24.6855]
G04 P0 ( dwell for no time -- G64 should not smooth over this point )
G00 Z0.50000 ( retract )

G00 X11.21080 Y24.68550 ( rapid move to begin. )
F300.00000
o2 call [11.2108] [24.6855]
G04 P0 ( dwell for no time -- G64 should not smooth over this point )
F600.00000
o2 call [11.2108] [22.6281]
o2 call [8.6708] [22.6281]
o2 call [8.6708] [25.1681]
o2 call [11.2108] [25.1681]
o2 call [11.2108] [24.6855]
G04 P0 ( dwell for no time -- G64 should not smooth over this point )
G00 Z0.50000 ( retract )

G00 X13.75080 Y24.68550 ( rapid move to begin. )
F300.00000
o2 call [13.7508] [24.6855]
G04 P0 ( dwell for no time -- G64 should not smooth over this point )
F600.00000
o2 call [13.7508] [22.6281]
o2 call [11.2108] [22.6281]
o2 call [11.2108] [25.1681]
o2 call [13.7508] [25.1681]
o2 call [13.7508] [24.6855]
G04 P0 ( dwell for no time -- G64 should not smooth over this point )
G00 Z0.50000 ( retract )

G00 X16.29080 Y24.68550 ( rapid move to begin. )
F300.00000
o2 call [16.2908] [24.6855]
G04 P0 ( dwell for no time -- G64 should not smooth over this point )
F600.00000
o2 call [16.2908] [22.6281]
o2 call [13.7508] [22.6281]
o2 call [13.7508] [25.1681]
o2 call [16.2908] [25.1681]
o2 call [16.2908] [24.6855]
G04 P0 ( dwell for no time -- G64 should not smooth over this point )
G00 Z0.50000 ( retract )

G00 X18.83080 Y24.68550 ( rapid move to begin. )
F300.00000
o2 call [18.8308] [24.6855]
G04 P0 ( dwell for no time -- G64 should not smooth over this point )
F600.00000
o2 call [18.8308] [22.6281]
o2 call [16.2908] [22.6281]
o2 call [16.2908] [25.1681]
o2 call [18.8308] [25.1681]
o2 call [18.8308] [24.6855]
G04 P0 ( dwell for no time -- G64 should not smooth over this point )
G00 Z0.50000 ( retract )

G00 X21.37080 Y24.68550 ( rapid move to begin. )
F300.00000
o2 call [21.3708] [24.6855]
G04 P0 ( dwell for no time -- G64 should not smooth over this point )
F600.00000
o2 call [21.3708] [22.6281]
o2 call [18.8308] [22.6281]
o2 call [18.8308] [25.1681]
o2 call [21.3708] [25.1681]
o2 call [21.3708] [24.6855]
G04 P0 ( dwell for no time -- G64 should not smooth over this point )
G00 Z0.50000 ( retract )

G00 X23.91080 Y24.68550 ( rapid move to begin. )
F300.00000
o2 call [23.9108] [24.6855]
G04 P0 ( dwell for no time -- G64 should not smooth over this point )
F600.00000
o2 call [23.9108] [22.6281]
o2 call [21.3708] [22.6281]
o2 call [21.3708] [25.1681]
o2 call [23.9108] [25.1681]
o2 call [23.9108] [24.6855]
G04 P0 ( dwell for no time -- G64 should not smooth over this point )
G00 Z0.50000 ( retract )

G00 X26.45080 Y24.68550 ( rapid move to begin. )
F300.00000
o2 call [26.4508] [24.6855]
G04 P0 ( dwell for no time -- G64 should not smooth over this point )
F600.00000
o2 call [26.4508] [22.6281]
o2 call [23.9108] [22.6281]
o2 call [23.9108] [25.1681]
o2 call [26.4508] [25.1681]
o2 call [26.4508] [24.6855]
G04 P0 ( dwell for no time -- G64 should not smooth over this point )
G00 Z0.50000 ( retract )

G00 X28.99080 Y24.68550 ( rapid move to begin. )
F300.00000
o2 call [28.9908] [24.6855]
G04 P0 ( dwell for no time -- G64 should not smooth over this point )
F600.00000
o2 call [28.9908] [22.6281]
o2 call [26.4508] [22.6281]
o2 call [26.4508] [25.1681]
o2 call [28.9908] [25.1681]
o2 call [28.9908] [24.6855]
G04 P0 ( dwell for no time -- G64 should not smooth over this point )
G00 Z0.50000 ( retract )

G00 X31.53080 Y24.68550 ( rapid move to begin. )
F300.00000
o2 call [31.5308] [24.6855]
G04 P0 ( dwell for no time -- G64 should not smooth over this point )
F600.00000
o2 call [31.5308] [22.6281]
o2 call [28.9908] [22.6281]
o2 call [28.9908] [25.1681]
o2 call [31.5308] [25.1681]
o2 call [31.5308] [24.6855]
G04 P0 ( dwell for no time -- G64 should not smooth over this point )
G00 Z0.50000 ( retract )

G00 X34.07080 Y24.68550 ( rapid move to begin. )
F300.00000
o2 call [34.0708] [24.6855]
G04 P0 ( dwell for no time -- G64 should not smooth over this point )
F600.00000
o2 call [34.0708] [22.6281]
o2 call [31.5308] [22.6281]
o2 call [31.5308] [25.1681]
o2 call [34.0708] [25.1681]
o2 call [34.0708] [24.6855]
G04 P0 ( dwell for no time -- G64 should not smooth over this point )
G00 Z0.50000 ( retract )

G00 X36.61080 Y24.68550 ( rapid move to begin. )
F300.00000
o2 call [36.6108] [24.6855]
G04 P0 ( dwell for no time -- G64 should not smooth over this point )
F600.00000
o2 call [36.6108] [22.6281]
o2 call [34.0708] [22.6281]
o2 call [34.0708] [25.1681]
o2 call [36.6108] [25.1681]
o2 call [36.6108] [24.6855]
G04 P0 ( dwell for no time -- G64 should not smooth over this point )
G00 Z0.50000 ( retract )

G00 X39.15080 Y24.68550 ( rapid move to begin. )
F300.00000
o2 call [39.1508] [24.6855]
G04 P0 ( dwell for no time -- G64 should not smooth over this point )
F600.00000
o2 call [39.1508] [22.6281]
o2 call [36.6108] [22.6281]
o2 call [36.6108] [25.1681]
o2 call [39.1508] [25.1681]
o2 call [39.1508] [24.6855]
G04 P0 ( dwell for no time -- G64 should not smooth over this point )
G00 Z0.50000 ( retract )

G00 X41.69080 Y24.68550 ( rapid move to begin. )
F300.00000
o2 call [41.6908] [24.6855]
G04 P0 ( dwell for no time -- G64 should not smooth over this point )
F600.00000
o2 call [41.6908] [22.6281]
o2 call [39.1508] [22.6281]
o2 call [39.1508] [25.1681]
o2 call [41.6908] [25.1681]
o2 call [41.6908] [24.6855]
G04 P0 ( dwell for no time -- G64 should not smooth over this point )
G00 Z0.50000 ( retract )

G00 X44.23080 Y24.68550 ( rapid move to begin. )
F300.00000
o2 call [44.2308] [24.6855]
G04 P0 ( dwell for no time -- G64 should not smooth over this point )
F600.00000
o2 call [44.2308] [22.6281]
o2 call [41.6908] [22.6281]
o2 call [41.6908] [25.1681]
o2 call [44.2308] [25.1681]
o2 call [44.2308] [24.6855]
G04 P0 ( dwell for no time -- G64 should not smooth over this point )
G00 Z0.50000 ( retract )

G00 X46.77080 Y24.68550 ( rapid move to begin. )
F300.00000
o2 call [46.7708] [24.6855]
G04 P0 ( dwell for no time -- G64 should not smooth over this point )
F600.00000
o2 call [46.7708] [22.6281]
o2 call [44.2308] [22.6281]
o2 call [44.2308] [25.1681]
o2 call [46.7708] [25.1681]
o2 call [46.7708] [24.6855]
G04 P0 ( dwell for no time -- G64 should not smooth over this point )
G00 Z0.50000 ( retract )

G00 X49.31080 Y24.68550 ( rapid move to begin. )
F300.00000
o2 call [49.3108] [24.6855]
G04 P0 ( dwell for no time -- G64 should not smooth over this point )
F600.00000
o2 call [49.3108] [22.6281]
o2 call [46.7708] [22.6281]
o2 call [46.7708] [25.1681]
o2 call [49.3108] [25.1681]
o2 call [49.3108] [24.6855]
G04 P0 ( dwell for no time -- G64 should not smooth over this point )
G00 Z0.50000 ( retract )

G00 X51.85080 Y24.68550 ( rapid move to begin. )
F300.00000
o2 call [51.8508] [24.6855]
G04 P0 ( dwell for no time -- G64 should not smooth over this point )
F600.00000
o2 call [51.8508] [22.6281]
o2 call [49.3108] [22.6281]
o2 call [49.3108] [25.1681]
o2 call [51.8508] [25.1681]
o2 call [51.8508] [24.6855]
G04 P0 ( dwell for no time -- G64 should not smooth over this point )
G00 Z0.50000 ( retract )

G00 X54.39080 Y24.68550 ( rapid move to begin. )
F300.00000
o2 call [54.3908] [24.6855]
G04 P0 ( dwell for no time -- G64 should not smooth over this point )
F600.00000
o2 call [54.3908] [22.6281]
o2 call [51.8508] [22.6281]
o2 call [51.8508] [25.1681]
o2 call [54.3908] [25.1681]
o2 call [54.3908] [24.6855]
G04 P0 ( dwell for no time -- G64 should not smooth over this point )
G00 Z0.50000 ( retract )

G00 X56.93080 Y24.68550 ( rapid move to begin. )
F300.00000
o2 call [56.9308] [24.6855]
G04 P0 ( dwell for no time -- G64 should not smooth over this point )
F600.00000
o2 call [56.9308] [22.6281]
o2 call [54.3908] [22.6281]
o2 call [54.3908] [25.1681]
o2 call [56.9308] [25.1681]
o2 call [56.9308] [24.6855]
G04 P0 ( dwell for no time -- G64 should not smooth over this point )
G00 Z0.50000 ( retract )

G00 X59.47080 Y24.68550 ( rapid move to begin. )
F300.00000
o2 call [59.4708] [24.6855]
G04 P0 ( dwell for no time -- G64 should not smooth over this point )
F600.00000
o2 call [59.4708] [22.6281]
o2 call [56.9308] [22.6281]
o2 call [56.9308] [25.1681]
o2 call [59.4708] [25.1681]
o2 call [59.4708] [24.6855]
G04 P0 ( dwell for no time -- G64 should not smooth over this point )
G00 Z0.50000 ( retract )

G00 X62.01080 Y24.68550 ( rapid move to begin. )
F300.00000
o2 call [62.0108] [24.6855]
G04 P0 ( dwell for no time -- G64 should not smooth over this point )
F600.00000
o2 call [62.0108] [22.6281]
o2 call [59.4708] [22.6281]
o2 call [59.4708] [25.1681]
o2 call [62.0108] [25.1681]
o2 call [62.0108] [24.6855]
G04 P0 ( dwell for no time -- G64 should not smooth over this point )
G00 Z0.50000 ( retract )

G00 X62.01080 Y27.22550 ( rapid move to begin. )
F300.00000
o2 call [62.0108] [27.2255]
G04 P0 ( dwell for no time -- G64 should not smooth over this point )
F600.00000
o2 call [62.0108] [25.1681]
o2 call [59.4708] [25.1681]
o2 call [59.4708] [27.7081]
o2 call [62.0108] [27.7081]
o2 call [62.0108] [27.2255]
G04 P0 ( dwell for no time -- G64 should not smooth over this point )
G00 Z0.50000 ( retract )

G00 X64.67780 Y27.22550 ( rapid move to begin. )
F300.00000
o2 call [64.6778] [27.2255]
G04 P0 ( dwell for no time -- G64 should not smooth over this point )
F600.00000
o2 call [64.6778] [26.8699]
o2 call [64.7794] [26.3873]
o2 call [64.9318] [26.0825]
o2 call [65.0588] [25.9555]
o2 call [65.0334] [25.1681]
o2 call [62.0108] [25.1681]
o2 call [62.0108] [27.7081]
o2 call [64.5762] [27.7081]
o2 call [64.6778] [27.2255]
G04 P0 ( dwell for no time -- G64 should not smooth over this point )
G00 Z0.50000 ( retract )

G00 X65.05880 Y24.68550 ( rapid move to begin. )
F300.00000
o2 call [65.0588] [24.6855]
G04 P0 ( dwell for no time -- G64 should not smooth over this point )
F600.00000
o2 call [65.0334] [22.6281]
o2 call [62.0108] [22.6281]
o2 call [62.0108] [25.1681]
o2 call [65.0334] [25.1681]
o2 call [65.0588] [24.6855]
G04 P0 ( dwell for no time -- G64 should not smooth over this point )
G00 Z0.50000 ( retract )

G00 X65.05880 Y22.14550 ( rapid move to begin. )
F300.00000
o2 call [65.0588] [22.1455]
G04 P0 ( dwell for no time -- G64 should not smooth over this point )
F600.00000
o2 call [65.0334] [20.0881]
o2 call [62.0108] [20.0881]
o2 call [62.0108] [22.6281]
o2 call [65.0334] [22.6281]
o2 call [65.0588] [22.1455]
G04 P0 ( dwell for no time -- G64 should not smooth over this point )
G00 Z0.50000 ( retract )

G00 X65.05880 Y19.60550 ( rapid move to begin. )
F300.00000
o2 call [65.0588] [19.6055]
G04 P0 ( dwell for no time -- G64 should not smooth over this point )
F600.00000
o2 call [65.0334] [17.5481]
o2 call [62.0108] [17.5481]
o2 call [62.0108] [20.0881]
o2 call [65.0334] [20.0881]
o2 call [65.0588] [19.6055]
G04 P0 ( dwell for no time -- G64 should not smooth over this point )
G00 Z0.50000 ( retract )

G00 X65.05880 Y17.06550 ( rapid move to begin. )
F300.00000
o2 call [65.0588] [17.0655]
G04 P0 ( dwell for no time -- G64 should not smooth over this point )
F600.00000
o2 call [65.0334] [15.0081]
o2 call [62.0108] [15.0081]
o2 call [62.0108] [17.5481]
o2 call [65.0334] [17.5481]
o2 call [65.0588] [17.0655]
G04 P0 ( dwell for no time -- G64 should not smooth over this point )
G00 Z0.50000 ( retract )

G00 X65.05880 Y14.52550 ( rapid move to begin. )
F300.00000
o2 call [65.0588] [14.5255]
G04 P0 ( dwell for no time -- G64 should not smooth over this point )
F600.00000
o2 call [65.0334] [12.4681]
o2 call [62.0108] [12.4681]
o2 call [62.0108] [15.0081]
o2 call [65.0334] [15.0081]
o2 call [65.0588] [14.5255]
G04 P0 ( dwell for no time -- G64 should not smooth over this point )
G00 Z0.50000 ( retract )

G00 X65.05880 Y11.98550 ( rapid move to begin. )
F300.00000
o2 call [65.0588] [11.9855]
G04 P0 ( dwell for no time -- G64 should not smooth over this point )
F600.00000
o2 call [65.0334] [9.9281]
o2 call [62.0108] [9.9281]
o2 call [62.0108] [12.4681]
o2 call [65.0334] [12.4681]
o2 call [65.0588] [11.9855]
G04 P0 ( dwell for no time -- G64 should not smooth over this point )
G00 Z0.50000 ( retract )

G00 X65.05880 Y9.44550 ( rapid move to begin. )
F300.00000
o2 call [65.0588] [9.4455]
G04 P0 ( dwell for no time -- G64 should not smooth over this point )
F600.00000
o2 call [65.0588] [7.4643]
o2 call [64.9826] [7.2611]
o2 call [64.9064] [7.2103]
o2 call [64.8302] [7.0579]
o2 call [64.6524] [7.0579]
o2 call [64.5254] [7.0071]
o2 call [62.5696] [7.0071]
o2 call [62.3156] [6.9563]
o2 call [62.0108] [7.0071]
o2 call [62.0108] [9.9281]
o2 call [65.0334] [9.9281]
o2 call [65.0588] [9.4455]
G04 P0 ( dwell for no time -- G64 should not smooth over this point )
G00 Z0.50000 ( retract )

G00 X64.80480 Y6.11810 ( rapid move to begin. )
F300.00000
o2 call [64.8048] [6.1181]
G04 P0 ( dwell for no time -- G64 should not smooth over this point )
F600.00000
o2 call [64.8048] [2.6383]
o2 call [62.2902] [2.6129]
o2 call [62.2648] [6.9563]
o2 call [62.5696] [7.0071]
o2 call [64.5254] [7.0071]
o2 call [64.6524] [7.0579]
o2 call [64.8048] [7.0579]
o2 call [64.8048] [6.1181]
G04 P0 ( dwell for no time -- G64 should not smooth over this point )
G00 Z0.50000 ( retract )

G00 X62.26480 Y6.11810 ( rapid move to begin. )
F300.00000
o2 call [62.2648] [6.1181]
G04 P0 ( dwell for no time -- G64 should not smooth over this point )
F600.00000
o2 call [62.2648] [2.6383]
o2 call [59.7502] [2.6129]
o2 call [59.7248] [6.9563]
o2 call [60.0296] [7.0071]
o2 call [62.1124] [7.0071]
o2 call [62.2648] [6.9563]
o2 call [62.2648] [6.1181]
G04 P0 ( dwell for no time -- G64 should not smooth over this point )
G00 Z0.50000 ( retract )

G00 X59.72480 Y6.11810 ( rapid move to begin. )
F300.00000
o2 call [59.7248] [6.1181]
G04 P0 ( dwell for no time -- G64 should not smooth over this point )
F600.00000
o2 call [59.7248] [2.6383]
o2 call [57.2102] [2.6129]
o2 call [57.1848] [6.9563]
o2 call [57.4896] [7.0071]
o2 call [59.5724] [7.0071]
o2 call [59.7248] [6.9563]
o2 call [59.7248] [6.1181]
G04 P0 ( dwell for no time -- G64 should not smooth over this point )
G00 Z0.50000 ( retract )

G00 X57.18480 Y6.11810 ( rapid move to begin. )
F300.00000
o2 call [57.1848] [6.1181]
G04 P0 ( dwell for no time -- G64 should not smooth over this point )
F600.00000
o2 call [57.1848] [2.6383]
o2 call [54.6702] [2.6129]
o2 call [54.6448] [6.9563]
o2 call [54.9496] [7.0071]
o2 call [57.0324] [7.0071]
o2 call [57.1848] [6.9563]
o2 call [57.1848] [6.1181]
G04 P0 ( dwell for no time -- G64 should not smooth over this point )
G00 Z0.50000 ( retract )

G00 X54.64480 Y6.11810 ( rapid move to begin. )
F300.00000
o2 call [54.6448] [6.1181]
G04 P0 ( dwell for no time -- G64 should not smooth over this point )
F600.00000
o2 call [54.6448] [2.6383]
o2 call [52.1302] [2.6129]
o2 call [51.8254] [2.7653]
o2 call [51.8254] [2.8161]
o2 call [51.6476] [3.0193]
o2 call [51.5968] [3.2733]
o2 call [51.5968] [6.4483]
o2 call [51.6476] [6.7023]
o2 call [51.7492] [6.8039]
o2 call [51.7492] [6.8547]
o2 call [51.8508] [6.9309]
o2 call [52.054] [6.9309]
o2 call [52.1556] [6.9817]
o2 call [52.4096] [7.0071]
o2 call [54.4924] [7.0071]
o2 call [54.6448] [6.9563]
o2 call [54.6448] [6.1181]
G04 P0 ( dwell for no time -- G64 should not smooth over this point )
G00 Z0.50000 ( retract )

G00 X50.04740 Y6.11810 ( rapid move to begin. )
F300.00000
o2 call [50.0474] [6.1181]
G04 P0 ( dwell for no time -- G64 should not smooth over this point )
F600.00000
o2 call [50.0474] [3.2733]
o2 call [49.9966] [3.0193]
o2 call [49.8188] [2.8161]
o2 call [49.8188] [2.7653]
o2 call [49.514] [2.6129]
o2 call [47.0502] [2.6129]
o2 call [47.0248] [6.9563]
o2 call [47.3296] [7.0071]
o2 call [49.4124] [7.0071]
o2 call [49.4886] [6.9563]
o2 call [49.7172] [6.9309]
o2 call [49.8696] [6.8801]
o2 call [49.9458] [6.7277]
o2 call [49.9966] [6.7023]
o2 call [50.0474] [6.4483]
o2 call [50.0474] [6.1181]
G04 P0 ( dwell for no time -- G64 should not smooth over this point )
G00 Z0.50000 ( retract )

G00 X47.02480 Y6.11810 ( rapid move to begin. )
F300.00000
o2 call [47.0248] [6.1181]
G04 P0 ( dwell for no time -- G64 should not smooth over this point )
F600.00000
o2 call [47.0248] [2.6383]
o2 call [44.5102] [2.6129]
o2 call [44.4848] [6.9563]
o2 call [44.7896] [7.0071]
o2 call [46.8724] [7.0071]
o2 call [47.0248] [6.9563]
o2 call [47.0248] [6.1181]
G04 P0 ( dwell for no time -- G64 should not smooth over this point )
G00 Z0.50000 ( retract )

G00 X44.48480 Y6.11810 ( rapid move to begin. )
F300.00000
o2 call [44.4848] [6.1181]
G04 P0 ( dwell for no time -- G64 should not smooth over this point )
F600.00000
o2 call [44.4848] [2.6383]
o2 call [41.9702] [2.6129]
o2 call [41.9448] [6.9563]
o2 call [42.2496] [7.0071]
o2 call [44.3324] [7.0071]
o2 call [44.4848] [6.9563]
o2 call [44.4848] [6.1181]
G04 P0 ( dwell for no time -- G64 should not smooth over this point )
G00 Z0.50000 ( retract )

G00 X41.94480 Y6.11810 ( rapid move to begin. )
F300.00000
o2 call [41.9448] [6.1181]
G04 P0 ( dwell for no time -- G64 should not smooth over this point )
F600.00000
o2 call [41.9448] [2.6383]
o2 call [39.4302] [2.6129]
o2 call [39.4048] [6.9563]
o2 call [39.7096] [7.0071]
o2 call [41.7924] [7.0071]
o2 call [41.9448] [6.9563]
o2 call [41.9448] [6.1181]
G04 P0 ( dwell for no time -- G64 should not smooth over this point )
G00 Z0.50000 ( retract )

G00 X39.40480 Y6.11810 ( rapid move to begin. )
F300.00000
o2 call [39.4048] [6.1181]
G04 P0 ( dwell for no time -- G64 should not smooth over this point )
F600.00000
o2 call [39.4048] [2.6383]
o2 call [36.8902] [2.6129]
o2 call [36.8648] [6.9563]
o2 call [37.1696] [7.0071]
o2 call [39.2524] [7.0071]
o2 call [39.4048] [6.9563]
o2 call [39.4048] [6.1181]
G04 P0 ( dwell for no time -- G64 should not smooth over this point )
G00 Z0.50000 ( retract )

G00 X36.86480 Y6.11810 ( rapid move to begin. )
F300.00000
o2 call [36.8648] [6.1181]
G04 P0 ( dwell for no time -- G64 should not smooth over this point )
F600.00000
o2 call [36.8648] [2.6383]
o2 call [34.3502] [2.6129]
o2 call [34.3248] [6.9563]
o2 call [34.6296] [7.0071]
o2 call [36.7124] [7.0071]
o2 call [36.8648] [6.9563]
o2 call [36.8648] [6.1181]
G04 P0 ( dwell for no time -- G64 should not smooth over this point )
G00 Z0.50000 ( retract )

G00 X34.32480 Y6.11810 ( rapid move to begin. )
F300.00000
o2 call [34.3248] [6.1181]
G04 P0 ( dwell for no time -- G64 should not smooth over this point )
F600.00000
o2 call [34.3248] [2.6383]
o2 call [31.8102] [2.6129]
o2 call [31.7848] [6.9563]
o2 call [32.0896] [7.0071]
o2 call [34.1724] [7.0071]
o2 call [34.3248] [6.9563]
o2 call [34.3248] [6.1181]
G04 P0 ( dwell for no time -- G64 should not smooth over this point )
G00 Z0.50000 ( retract )

G00 X31.78480 Y6.11810 ( rapid move to begin. )
F300.00000
o2 call [31.7848] [6.1181]
G04 P0 ( dwell for no time -- G64 should not smooth over this point )
F600.00000
o2 call [31.7848] [2.6383]
o2 call [29.2702] [2.6129]
o2 call [28.9654] [2.7653]
o2 call [28.9654] [2.8161]
o2 call [28.7876] [3.0193]
o2 call [28.7368] [3.2733]
o2 call [28.7368] [6.4483]
o2 call [28.7876] [6.7023]
o2 call [28.8892] [6.8039]
o2 call [28.8892] [6.8547]
o2 call [28.9908] [6.9309]
o2 call [29.194] [6.9309]
o2 call [29.2956] [6.9817]
o2 call [29.5496] [7.0071]
o2 call [31.6324] [7.0071]
o2 call [31.7848] [6.9563]
o2 call [31.7848] [6.1181]
G04 P0 ( dwell for no time -- G64 should not smooth over this point )
G00 Z0.50000 ( retract )

G00 X31.53080 Y27.22550 ( rapid move to begin. )
F300.00000
o2 call [31.5308] [27.2255]
G04 P0 ( dwell for no time -- G64 should not smooth over this point )
F600.00000
o2 call [31.5308] [25.1681]
o2 call [28.9908] [25.1681]
o2 call [28.9908] [27.7081]
o2 call [31.5308] [27.7081]
o2 call [31.5308] [27.2255]
G04 P0 ( dwell for no time -- G64 should not smooth over this point )
G00 Z0.50000 ( retract )

G00 X34.07080 Y27.22550 ( rapid move to begin. )
F300.00000
o2 call [34.0708] [27.2255]
G04 P0 ( dwell for no time -- G64 should not smooth over this point )
F600.00000
o2 call [34.0708] [25.1681]
o2 call [31.5308] [25.1681]
o2 call [31.5308] [27.7081]
o2 call [34.0708] [27.7081]
o2 call [34.0708] [27.2255]
G04 P0 ( dwell for no time -- G64 should not smooth over this point )
G00 Z0.50000 ( retract )

G00 X36.61080 Y27.22550 ( rapid move to begin. )
F300.00000
o2 call [36.6108] [27.2255]
G04 P0 ( dwell for no time -- G64 should not smooth over this point )
F600.00000
o2 call [36.6108] [25.1681]
o2 call [34.0708] [25.1681]
o2 call [34.0708] [27.7081]
o2 call [36.6108] [27.7081]
o2 call [36.6108] [27.2255]
G04 P0 ( dwell for no time -- G64 should not smooth over this point )
G00 Z0.50000 ( retract )

G00 X39.15080 Y27.22550 ( rapid move to begin. )
F300.00000
o2 call [39.1508] [27.2255]
G04 P0 ( dwell for no time -- G64 should not smooth over this point )
F600.00000
o2 call [39.1508] [25.1681]
o2 call [36.6108] [25.1681]
o2 call [36.6108] [27.7081]
o2 call [39.1508] [27.7081]
o2 call [39.1508] [27.2255]
G04 P0 ( dwell for no time -- G64 should not smooth over this point )
G00 Z0.50000 ( retract )

G00 X41.69080 Y27.22550 ( rapid move to begin. )
F300.00000
o2 call [41.6908] [27.2255]
G04 P0 ( dwell for no time -- G64 should not smooth over this point )
F600.00000
o2 call [41.6908] [25.1681]
o2 call [39.1508] [25.1681]
o2 call [39.1508] [27.7081]
o2 call [41.6908] [27.7081]
o2 call [41.6908] [27.2255]
G04 P0 ( dwell for no time -- G64 should not smooth over this point )
G00 Z0.50000 ( retract )

G00 X44.23080 Y27.22550 ( rapid move to begin. )
F300.00000
o2 call [44.2308] [27.2255]
G04 P0 ( dwell for no time -- G64 should not smooth over this point )
F600.00000
o2 call [44.2308] [25.1681]
o2 call [41.6908] [25.1681]
o2 call [41.6908] [27.7081]
o2 call [44.2308] [27.7081]
o2 call [44.2308] [27.2255]
G04 P0 ( dwell for no time -- G64 should not smooth over this point )
G00 Z0.50000 ( retract )

G00 X46.77080 Y27.22550 ( rapid move to begin. )
F300.00000
o2 call [46.7708] [27.2255]
G04 P0 ( dwell for no time -- G64 should not smooth over this point )
F600.00000
o2 call [46.7708] [25.1681]
o2 call [44.2308] [25.1681]
o2 call [44.2308] [27.7081]
o2 call [46.7708] [27.7081]
o2 call [46.7708] [27.2255]
G04 P0 ( dwell for no time -- G64 should not smooth over this point )
G00 Z0.50000 ( retract )

G00 X49.31080 Y27.22550 ( rapid move to begin. )
F300.00000
o2 call [49.3108] [27.2255]
G04 P0 ( dwell for no time -- G64 should not smooth over this point )
F600.00000
o2 call [49.3108] [25.1681]
o2 call [46.7708] [25.1681]
o2 call [46.7708] [27.7081]
o2 call [49.3108] [27.7081]
o2 call [49.3108] [27.2255]
G04 P0 ( dwell for no time -- G64 should not smooth over this point )
G00 Z0.50000 ( retract )

G00 X51.85080 Y27.22550 ( rapid move to begin. )
F300.00000
o2 call [51.8508] [27.2255]
G04 P0 ( dwell for no time -- G64 should not smooth over this point )
F600.00000
o2 call [51.8508] [25.1681]
o2 call [49.3108] [25.1681]
o2 call [49.3108] [27.7081]
o2 call [51.8508] [27.7081]
o2 call [51.8508] [27.2255]
G04 P0 ( dwell for no time -- G64 should not smooth over this point )
G00 Z0.50000 ( retract )

G00 X54.39080 Y27.22550 ( rapid move to begin. )
F300.00000
o2 call [54.3908] [27.2255]
G04 P0 ( dwell for no time -- G64 should not smooth over this point )
F600.00000
o2 call [54.3908] [25.1681]
o2 call [51.8508] [25.1681]
o2 call [51.8508] [27.7081]
o2 call [54.3908] [27.7081]
o2 call [54.3908] [27.2255]
G04 P0 ( dwell for no time -- G64 should not smooth over this point )
G00 Z0.50000 ( retract )

G00 X56.93080 Y27.22550 ( rapid move to begin. )
F300.00000
o2 call [56.9308] [27.2255]
G04 P0 ( dwell for no time -- G64 should not smooth over this point )
F600.00000
o2 call [56.9308] [25.1681]
o2 call [54.3908] [25.1681]
o2 call [54.3908] [27.7081]
o2 call [56.9308] [27.7081]
o2 call [56.9308] [27.2255]
G04 P0 ( dwell for no time -- G64 should not smooth over this point )
G00 Z0.50000 ( retract )

G00 X59.47080 Y27.22550 ( rapid move to begin. )
F300.00000
o2 call [59.4708] [27.2255]
G04 P0 ( dwell for no time -- G64 should not smooth over this point )
F600.00000
o2 call [59.4708] [25.1681]
o2 call [56.9308] [25.1681]
o2 call [56.9308] [27.7081]
o2 call [59.4708] [27.7081]
o2 call [59.4708] [27.2255]
G04 P0 ( dwell for no time -- G64 should not smooth over this point )
G00 Z0.50000 ( retract )

G00 X59.47080 Y29.76550 ( rapid move to begin. )
F300.00000
o2 call [59.4708] [29.7655]
G04 P0 ( dwell for no time -- G64 should not smooth over this point )
F600.00000
o2 call [59.4708] [27.7081]
o2 call [56.9308] [27.7081]
o2 call [56.9308] [30.2481]
o2 call [59.4708] [30.2481]
o2 call [59.4708] [29.7655]
G04 P0 ( dwell for no time -- G64 should not smooth over this point )
G00 Z0.50000 ( retract )

G00 X62.01080 Y29.76550 ( rapid move to begin. )
F300.00000
o2 call [62.0108] [29.7655]
G04 P0 ( dwell for no time -- G64 should not smooth over this point )
F600.00000
o2 call [62.0108] [27.7081]
o2 call [59.4708] [27.7081]
o2 call [59.4708] [30.2481]
o2 call [62.0108] [30.2481]
o2 call [62.0108] [29.7655]
G04 P0 ( dwell for no time -- G64 should not smooth over this point )
G00 Z0.50000 ( retract )

G00 X64.67780 Y29.76550 ( rapid move to begin. )
F300.00000
o2 call [64.6778] [29.7655]
G04 P0 ( dwell for no time -- G64 should not smooth over this point )
F600.00000
o2 call [64.6778] [29.4099]
o2 call [64.7794] [28.9019]
o2 call [64.7032] [28.6987]
o2 call [64.6778] [28.0637]
o2 call [64.5762] [27.7081]
o2 call [62.0108] [27.7081]
o2 call [62.0108] [30.2481]
o2 call [64.5762] [30.2481]
o2 call [64.6778] [29.7655]
G04 P0 ( dwell for no time -- G64 should not smooth over this point )
G00 Z0.50000 ( retract )

G00 X64.67780 Y32.30550 ( rapid move to begin. )
F300.00000
o2 call [64.6778] [32.3055]
G04 P0 ( dwell for no time -- G64 should not smooth over this point )
F600.00000
o2 call [64.6778] [31.9499]
o2 call [64.7794] [31.4419]
o2 call [64.7032] [31.2387]
o2 call [64.6778] [30.6037]
o2 call [64.5762] [30.2481]
o2 call [62.0108] [30.2481]
o2 call [62.0108] [32.7881]
o2 call [64.5762] [32.7881]
o2 call [64.6778] [32.3055]
G04 P0 ( dwell for no time -- G64 should not smooth over this point )
G00 Z0.50000 ( retract )

G00 X62.01080 Y32.30550 ( rapid move to begin. )
F300.00000
o2 call [62.0108] [32.3055]
G04 P0 ( dwell for no time -- G64 should not smooth over this point )
F600.00000
o2 call [62.0108] [30.2481]
o2 call [59.4708] [30.2481]
o2 call [59.4708] [32.7881]
o2 call [62.0108] [32.7881]
o2 call [62.0108] [32.3055]
G04 P0 ( dwell for no time -- G64 should not smooth over this point )
G00 Z0.50000 ( retract )

G00 X59.47080 Y32.30550 ( rapid move to begin. )
F300.00000
o2 call [59.4708] [32.3055]
G04 P0 ( dwell for no time -- G64 should not smooth over this point )
F600.00000
o2 call [59.4708] [30.2481]
o2 call [56.9308] [30.2481]
o2 call [56.9308] [32.7881]
o2 call [59.4708] [32.7881]
o2 call [59.4708] [32.3055]
G04 P0 ( dwell for no time -- G64 should not smooth over this point )
G00 Z0.50000 ( retract )

G00 X56.93080 Y32.30550 ( rapid move to begin. )
F300.00000
o2 call [56.9308] [32.3055]
G04 P0 ( dwell for no time -- G64 should not smooth over this point )
F600.00000
o2 call [56.9308] [30.2481]
o2 call [54.3908] [30.2481]
o2 call [54.3908] [32.7881]
o2 call [56.9308] [32.7881]
o2 call [56.9308] [32.3055]
G04 P0 ( dwell for no time -- G64 should not smooth over this point )
G00 Z0.50000 ( retract )

G00 X56.93080 Y29.76550 ( rapid move to begin. )
F300.00000
o2 call [56.9308] [29.7655]
G04 P0 ( dwell for no time -- G64 should not smooth over this point )
F600.00000
o2 call [56.9308] [27.7081]
o2 call [54.3908] [27.7081]
o2 call [54.3908] [30.2481]
o2 call [56.9308] [30.2481]
o2 call [56.9308] [29.7655]
G04 P0 ( dwell for no time -- G64 should not smooth over this point )
G00 Z0.50000 ( retract )

G00 X54.39080 Y29.76550 ( rapid move to begin. )
F300.00000
o2 call [54.3908] [29.7655]
G04 P0 ( dwell for no time -- G64 should not smooth over this point )
F600.00000
o2 call [54.3908] [27.7081]
o2 call [51.8508] [27.7081]
o2 call [51.8508] [30.2481]
o2 call [54.3908] [30.2481]
o2 call [54.3908] [29.7655]
G04 P0 ( dwell for no time -- G64 should not smooth over this point )
G00 Z0.50000 ( retract )

G00 X51.85080 Y29.76550 ( rapid move to begin. )
F300.00000
o2 call [51.8508] [29.7655]
G04 P0 ( dwell for no time -- G64 should not smooth over this point )
F600.00000
o2 call [51.8508] [27.7081]
o2 call [49.3108] [27.7081]
o2 call [49.3108] [30.2481]
o2 call [51.8508] [30.2481]
o2 call [51.8508] [29.7655]
G04 P0 ( dwell for no time -- G64 should not smooth over this point )
G00 Z0.50000 ( retract )

G00 X49.31080 Y29.76550 ( rapid move to begin. )
F300.00000
o2 call [49.3108] [29.7655]
G04 P0 ( dwell for no time -- G64 should not smooth over this point )
F600.00000
o2 call [49.3108] [27.7081]
o2 call [46.7708] [27.7081]
o2 call [46.7708] [30.2481]
o2 call [49.3108] [30.2481]
o2 call [49.3108] [29.7655]
G04 P0 ( dwell for no time -- G64 should not smooth over this point )
G00 Z0.50000 ( retract )

G00 X46.77080 Y29.76550 ( rapid move to begin. )
F300.00000
o2 call [46.7708] [29.7655]
G04 P0 ( dwell for no time -- G64 should not smooth over this point )
F600.00000
o2 call [46.7708] [27.7081]
o2 call [44.2308] [27.7081]
o2 call [44.2308] [30.2481]
o2 call [46.7708] [30.2481]
o2 call [46.7708] [29.7655]
G04 P0 ( dwell for no time -- G64 should not smooth over this point )
G00 Z0.50000 ( retract )

G00 X44.23080 Y29.76550 ( rapid move to begin. )
F300.00000
o2 call [44.2308] [29.7655]
G04 P0 ( dwell for no time -- G64 should not smooth over this point )
F600.00000
o2 call [44.2308] [27.7081]
o2 call [41.6908] [27.7081]
o2 call [41.6908] [30.2481]
o2 call [44.2308] [30.2481]
o2 call [44.2308] [29.7655]
G04 P0 ( dwell for no time -- G64 should not smooth over this point )
G00 Z0.50000 ( retract )

G00 X41.69080 Y29.76550 ( rapid move to begin. )
F300.00000
o2 call [41.6908] [29.7655]
G04 P0 ( dwell for no time -- G64 should not smooth over this point )
F600.00000
o2 call [41.6908] [27.7081]
o2 call [39.1508] [27.7081]
o2 call [39.1508] [30.2481]
o2 call [41.6908] [30.2481]
o2 call [41.6908] [29.7655]
G04 P0 ( dwell for no time -- G64 should not smooth over this point )
G00 Z0.50000 ( retract )

G00 X39.15080 Y29.76550 ( rapid move to begin. )
F300.00000
o2 call [39.1508] [29.7655]
G04 P0 ( dwell for no time -- G64 should not smooth over this point )
F600.00000
o2 call [39.1508] [27.7081]
o2 call [36.6108] [27.7081]
o2 call [36.6108] [30.2481]
o2 call [39.1508] [30.2481]
o2 call [39.1508] [29.7655]
G04 P0 ( dwell for no time -- G64 should not smooth over this point )
G00 Z0.50000 ( retract )

G00 X36.61080 Y29.76550 ( rapid move to begin. )
F300.00000
o2 call [36.6108] [29.7655]
G04 P0 ( dwell for no time -- G64 should not smooth over this point )
F600.00000
o2 call [36.6108] [27.7081]
o2 call [34.0708] [27.7081]
o2 call [34.0708] [30.2481]
o2 call [36.6108] [30.2481]
o2 call [36.6108] [29.7655]
G04 P0 ( dwell for no time -- G64 should not smooth over this point )
G00 Z0.50000 ( retract )

G00 X34.07080 Y29.76550 ( rapid move to begin. )
F300.00000
o2 call [34.0708] [29.7655]
G04 P0 ( dwell for no time -- G64 should not smooth over this point )
F600.00000
o2 call [34.0708] [27.7081]
o2 call [31.5308] [27.7081]
o2 call [31.5308] [30.2481]
o2 call [34.0708] [30.2481]
o2 call [34.0708] [29.7655]
G04 P0 ( dwell for no time -- G64 should not smooth over this point )
G00 Z0.50000 ( retract )

G00 X31.53080 Y29.76550 ( rapid move to begin. )
F300.00000
o2 call [31.5308] [29.7655]
G04 P0 ( dwell for no time -- G64 should not smooth over this point )
F600.00000
o2 call [31.5308] [27.7081]
o2 call [28.9908] [27.7081]
o2 call [28.9908] [30.2481]
o2 call [31.5308] [30.2481]
o2 call [31.5308] [29.7655]
G04 P0 ( dwell for no time -- G64 should not smooth over this point )
G00 Z0.50000 ( retract )

G00 X28.99080 Y29.76550 ( rapid move to begin. )
F300.00000
o2 call [28.9908] [29.7655]
G04 P0 ( dwell for no time -- G64 should not smooth over this point )
F600.00000
o2 call [28.9908] [27.7081]
o2 call [26.4508] [27.7081]
o2 call [26.4508] [30.2481]
o2 call [28.9908] [30.2481]
o2 call [28.9908] [29.7655]
G04 P0 ( dwell for no time -- G64 should not smooth over this point )
G00 Z0.50000 ( retract )

G00 X28.99080 Y27.22550 ( rapid move to begin. )
F300.00000
o2 call [28.9908] [27.2255]
G04 P0 ( dwell for no time -- G64 should not smooth over this point )
F600.00000
o2 call [28.9908] [25.1681]
o2 call [26.4508] [25.1681]
o2 call [26.4508] [27.7081]
o2 call [28.9908] [27.7081]
o2 call [28.9908] [27.2255]
G04 P0 ( dwell for no time -- G64 should not smooth over this point )
G00 Z0.50000 ( retract )

G00 X26.45080 Y27.22550 ( rapid move to begin. )
F300.00000
o2 call [26.4508] [27.2255]
G04 P0 ( dwell for no time -- G64 should not smooth over this point )
F600.00000
o2 call [26.4508] [25.1681]
o2 call [23.9108] [25.1681]
o2 call [23.9108] [27.7081]
o2 call [26.4508] [27.7081]
o2 call [26.4508] [27.2255]
G04 P0 ( dwell for no time -- G64 should not smooth over this point )
G00 Z0.50000 ( retract )

G00 X23.91080 Y27.22550 ( rapid move to begin. )
F300.00000
o2 call [23.9108] [27.2255]
G04 P0 ( dwell for no time -- G64 should not smooth over this point )
F600.00000
o2 call [23.9108] [25.1681]
o2 call [21.3708] [25.1681]
o2 call [21.3708] [27.7081]
o2 call [23.9108] [27.7081]
o2 call [23.9108] [27.2255]
G04 P0 ( dwell for no time -- G64 should not smooth over this point )
G00 Z0.50000 ( retract )

G00 X21.37080 Y27.22550 ( rapid move to begin. )
F300.00000
o2 call [21.3708] [27.2255]
G04 P0 ( dwell for no time -- G64 should not smooth over this point )
F600.00000
o2 call [21.3708] [25.1681]
o2 call [18.8308] [25.1681]
o2 call [18.8308] [27.7081]
o2 call [21.3708] [27.7081]
o2 call [21.3708] [27.2255]
G04 P0 ( dwell for no time -- G64 should not smooth over this point )
G00 Z0.50000 ( retract )

G00 X18.83080 Y27.22550 ( rapid move to begin. )
F300.00000
o2 call [18.8308] [27.2255]
G04 P0 ( dwell for no time -- G64 should not smooth over this point )
F600.00000
o2 call [18.8308] [25.1681]
o2 call [16.2908] [25.1681]
o2 call [16.2908] [27.7081]
o2 call [18.8308] [27.7081]
o2 call [18.8308] [27.2255]
G04 P0 ( dwell for no time -- G64 should not smooth over this point )
G00 Z0.50000 ( retract )

G00 X16.29080 Y27.22550 ( rapid move to begin. )
F300.00000
o2 call [16.2908] [27.2255]
G04 P0 ( dwell for no time -- G64 should not smooth over this point )
F600.00000
o2 call [16.2908] [25.1681]
o2 call [13.7508] [25.1681]
o2 call [13.7508] [27.7081]
o2 call [16.2908] [27.7081]
o2 call [16.2908] [27.2255]
G04 P0 ( dwell for no time -- G64 should not smooth over this point )
G00 Z0.50000 ( retract )

G00 X13.75080 Y27.22550 ( rapid move to begin. )
F300.00000
o2 call [13.7508] [27.2255]
G04 P0 ( dwell for no time -- G64 should not smooth over this point )
F600.00000
o2 call [13.7508] [25.1681]
o2 call [11.2108] [25.1681]
o2 call [11.2108] [27.7081]
o2 call [13.7508] [27.7081]
o2 call [13.7508] [27.2255]
G04 P0 ( dwell for no time -- G64 should not smooth over this point )
G00 Z0.50000 ( retract )

G00 X11.21080 Y27.22550 ( rapid move to begin. )
F300.00000
o2 call [11.2108] [27.2255]
G04 P0 ( dwell for no time -- G64 should not smooth over this point )
F600.00000
o2 call [11.2108] [25.1681]
o2 call [8.6708] [25.1681]
o2 call [8.6708] [27.7081]
o2 call [11.2108] [27.7081]
o2 call [11.2108] [27.2255]
G04 P0 ( dwell for no time -- G64 should not smooth over this point )
G00 Z0.50000 ( retract )

G00 X8.67080 Y27.22550 ( rapid move to begin. )
F300.00000
o2 call [8.6708] [27.2255]
G04 P0 ( dwell for no time -- G64 should not smooth over this point )
F600.00000
o2 call [8.6708] [25.1681]
o2 call [6.1308] [25.1681]
o2 call [6.1308] [27.7081]
o2 call [8.6708] [27.7081]
o2 call [8.6708] [27.2255]
G04 P0 ( dwell for no time -- G64 should not smooth over this point )
G00 Z0.50000 ( retract )

G00 X6.13080 Y27.22550 ( rapid move to begin. )
F300.00000
o2 call [6.1308] [27.2255]
G04 P0 ( dwell for no time -- G64 should not smooth over this point )
F600.00000
o2 call [6.1308] [25.1681]
o2 call [3.0828] [25.1681]
o2 call [3.0574] [25.2443]
o2 call [3.0828] [27.7081]
o2 call [6.1308] [27.7081]
o2 call [6.1308] [27.2255]
G04 P0 ( dwell for no time -- G64 should not smooth over this point )
G00 Z0.50000 ( retract )

G00 X6.13080 Y29.76550 ( rapid move to begin. )
F300.00000
o2 call [6.1308] [29.7655]
G04 P0 ( dwell for no time -- G64 should not smooth over this point )
F600.00000
o2 call [6.1308] [27.7081]
o2 call [3.0828] [27.7081]
o2 call [3.0574] [27.7843]
o2 call [3.0828] [30.2481]
o2 call [6.1308] [30.2481]
o2 call [6.1308] [29.7655]
G04 P0 ( dwell for no time -- G64 should not smooth over this point )
G00 Z0.50000 ( retract )

G00 X8.67080 Y29.76550 ( rapid move to begin. )
F300.00000
o2 call [8.6708] [29.7655]
G04 P0 ( dwell for no time -- G64 should not smooth over this point )
F600.00000
o2 call [8.6708] [27.7081]
o2 call [6.1308] [27.7081]
o2 call [6.1308] [30.2481]
o2 call [8.6708] [30.2481]
o2 call [8.6708] [29.7655]
G04 P0 ( dwell for no time -- G64 should not smooth over this point )
G00 Z0.50000 ( retract )

G00 X11.21080 Y29.76550 ( rapid move to begin. )
F300.00000
o2 call [11.2108] [29.7655]
G04 P0 ( dwell for no time -- G64 should not smooth over this point )
F600.00000
o2 call [11.2108] [27.7081]
o2 call [8.6708] [27.7081]
o2 call [8.6708] [30.2481]
o2 call [11.2108] [30.2481]
o2 call [11.2108] [29.7655]
G04 P0 ( dwell for no time -- G64 should not smooth over this point )
G00 Z0.50000 ( retract )

G00 X13.75080 Y29.76550 ( rapid move to begin. )
F300.00000
o2 call [13.7508] [29.7655]
G04 P0 ( dwell for no time -- G64 should not smooth over this point )
F600.00000
o2 call [13.7508] [27.7081]
o2 call [11.2108] [27.7081]
o2 call [11.2108] [30.2481]
o2 call [13.7508] [30.2481]
o2 call [13.7508] [29.7655]
G04 P0 ( dwell for no time -- G64 should not smooth over this point )
G00 Z0.50000 ( retract )

G00 X16.29080 Y29.76550 ( rapid move to begin. )
F300.00000
o2 call [16.2908] [29.7655]
G04 P0 ( dwell for no time -- G64 should not smooth over this point )
F600.00000
o2 call [16.2908] [27.7081]
o2 call [13.7508] [27.7081]
o2 call [13.7508] [30.2481]
o2 call [16.2908] [30.2481]
o2 call [16.2908] [29.7655]
G04 P0 ( dwell for no time -- G64 should not smooth over this point )
G00 Z0.50000 ( retract )

G00 X18.83080 Y29.76550 ( rapid move to begin. )
F300.00000
o2 call [18.8308] [29.7655]
G04 P0 ( dwell for no time -- G64 should not smooth over this point )
F600.00000
o2 call [18.8308] [27.7081]
o2 call [16.2908] [27.7081]
o2 call [16.2908] [30.2481]
o2 call [18.8308] [30.2481]
o2 call [18.8308] [29.7655]
G04 P0 ( dwell for no time -- G64 should not smooth over this point )
G00 Z0.50000 ( retract )

G00 X21.37080 Y29.76550 ( rapid move to begin. )
F300.00000
o2 call [21.3708] [29.7655]
G04 P0 ( dwell for no time -- G64 should not smooth over this point )
F600.00000
o2 call [21.3708] [27.7081]
o2 call [18.8308] [27.7081]
o2 call [18.8308] [30.2481]
o2 call [21.3708] [30.2481]
o2 call [21.3708] [29.7655]
G04 P0 ( dwell for no time -- G64 should not smooth over this point )
G00 Z0.50000 ( retract )

G00 X23.91080 Y29.76550 ( rapid move to begin. )
F300.00000
o2 call [23.9108] [29.7655]
G04 P0 ( dwell for no time -- G64 should not smooth over this point )
F600.00000
o2 call [23.9108] [27.7081]
o2 call [21.3708] [27.7081]
o2 call [21.3708] [30.2481]
o2 call [23.9108] [30.2481]
o2 call [23.9108] [29.7655]
