( pcb2gcode 1.2.1 )
( Gcode for LinuxCNC )
      

G94 ( Millimeters per minute feed rate. )
G21 ( Units == Millimeters. )

G90 ( Absolute coordinates. )
S10000 ( RPM spindle speed. )
G64 P0.05080 ( set maximum deviation from commanded toolpath )
F600.00000 ( Feedrate. )

o5 sub ( Bilinear interpolation macro )
    #7 = [ #3 + [ #1 - #3 ] * #5 ] ( Linear interpolation of the x-min elements )
    #8 = [ #4 + [ #2 - #4 ] * #5 ] ( Linear interpolation of the x-max elements )
    #100 = [ #7 + [ #8 - #7 ] * #6 ] ( Linear interpolation of previously interpolated points )
o5 endsub

o6 sub ( Z-correction subroutine )
    #3 = [ FIX[ [ #1 - 1.69088 ] / 5.14956 ] ] ( Lower left point X index )
    #4 = [ FIX[ [ #2 - 4.82778 ] / 5.21106 ] ] ( Lower left point Y index )
    #5 = [ #3 * 11 + [ #4 + 1 ] + 500 ] ( Upper left point parameter number )
    #6 = [ [ #3 + 1 ] *11 + [ #4 + 1 ] + 500 ] ( Upper right point parameter number )
    #7 = [ #3 * 11 + #4 + 500 ] ( Lower left point parameter number )
    #8 = [ [ #3 + 1 ] * 11 + #4 + 500 ] ( Lower right point parameter number )
    #9 = [ [ #2 - 4.82778 - #4 * 5.21106 ] / 5.21106 ] ( Distance between the point and the left border of the rectangle, normalized to 1 )
    #10 = [ [ #1 - 1.69088 - #3 * 5.14956 ] / 5.14956 ] ( Distance between the point and the down border of the rectangle, normalized to 1 ) 
    o5 call [##5] [##6] [##7] [##8] [#9] [#10]
o6 endsub

o7 sub ( G01 with Z-correction subroutine )
    o6 call [#1] [#2]
    G01 X#1 Y#2 Z[-0.07500+#100]
o7 endsub

o8 sub ( Y probe subroutine )
    G0 Z0.500 ( Move to probe height )
    X[#110 * 5.14956 + 1.69088] Y[#111 * 5.21106 + 4.82778]  ( Move to the current probe point )
    G38.2 Z-5 F100 ( Probe it )
    #[#110 * 11 + #111 + 500] = #5063 ( Save the probe in the correct parameter )
    #111 = [#111 + #112] ( Increment/decrement by 1 the Y counter )
o8 endsub

o9 sub ( X probe subroutine )
    o10 repeat [#113]
        o8 call
    o10 endrepeat
    #113 = 11
    #112 = [0 - #112]
    #111 = [#111 + #112]
    #110 = [#110 + 1] ( Increment by 1 the X counter )
o9 endsub

(MSG, Attach the probe tool)
M0 ( Temporary machine stop. )
G0 Z0.500 ( Move Z to safe height )
G0 X1.69088 Y4.82778 ( Move XY to start point )
G0 Z0.500 ( Move Z to probe height )
(PROBEOPEN RawProbeLog.txt) ( Record all probes in RawProbeLog.txt )
G38.2 Z-5 F100 ( Z-probe )
#500 = 0 ( Probe point [0, 0] is our reference )
G10 L20 P0 Z0 ( Set the current Z as zero-value )

( We now start the real probing: move the Z axis to the probing height, move to )
( the probing XY position, probe it and save the result, parameter #5063, )
( in a numbered parameter; we will make 14 probes on the X-axis and )
( 11 probes on the Y-axis, for a grand total of 154 probes )

#110 = 0 ( X iterator )
#111 = 1 ( Y iterator )
#112 = 1 ( UP or DOWN increment )
#113 = 10 ( number of Y points; the 1st Y row can be done one time less )
o11 repeat [14]
    o9 call
o11 endrepeat

G0 Z0.500 ( Move Z to safe height )
(PROBECLOSE) ( Close the probe log file )
( Probing has ended, each Z-coordinate will be corrected with a bilinear interpolation )
(MSG, Detach the probe tool)
M0 ( Temporary machine stop. )

F600.00000 ( Feedrate. )
M3 ( Spindle on clockwise. )
G04 P0 ( dwell for no time -- G64 should not smooth over this point )
G00 Z0.50000 ( retract )

G00 X5.74980 Y55.64810 ( rapid move to begin. )
F300.00000
o7 call [5.7498] [55.6481]
G04 P0 ( dwell for no time -- G64 should not smooth over this point )
F600.00000
G04 P0 ( dwell for no time -- G64 should not smooth over this point )
G00 Z0.50000 ( retract )

G00 X50.86020 Y54.37810 ( rapid move to begin. )
F300.00000
o7 call [50.8602] [54.3781]
G04 P0 ( dwell for no time -- G64 should not smooth over this point )
F600.00000
G04 P0 ( dwell for no time -- G64 should not smooth over this point )
G00 Z0.50000 ( retract )

G00 X48.32020 Y54.37810 ( rapid move to begin. )
F300.00000
o7 call [48.3202] [54.3781]
G04 P0 ( dwell for no time -- G64 should not smooth over this point )
F600.00000
G04 P0 ( dwell for no time -- G64 should not smooth over this point )
G00 Z0.50000 ( retract )

G00 X45.78020 Y54.37810 ( rapid move to begin. )
F300.00000
o7 call [45.7802] [54.3781]
G04 P0 ( dwell for no time -- G64 should not smooth over this point )
F600.00000
G04 P0 ( dwell for no time -- G64 should not smooth over this point )
G00 Z0.50000 ( retract )

G00 X43.24020 Y54.37810 ( rapid move to begin. )
F300.00000
o7 call [43.2402] [54.3781]
G04 P0 ( dwell for no time -- G64 should not smooth over this point )
F600.00000
G04 P0 ( dwell for no time -- G64 should not smooth over this point )
G00 Z0.50000 ( retract )

G00 X40.70020 Y54.37810 ( rapid move to begin. )
F300.00000
o7 call [40.7002] [54.3781]
G04 P0 ( dwell for no time -- G64 should not smooth over this point )
F600.00000
G04 P0 ( dwell for no time -- G64 should not smooth over this point )
G00 Z0.50000 ( retract )

G00 X38.16020 Y54.37810 ( rapid move to begin. )
F300.00000
o7 call [38.1602] [54.3781]
G04 P0 ( dwell for no time -- G64 should not smooth over this point )
F600.00000
G04 P0 ( dwell for no time -- G64 should not smooth over this point )
G00 Z0.50000 ( retract )

G00 X35.62020 Y54.37810 ( rapid move to begin. )
F300.00000
o7 call [35.6202] [54.3781]
G04 P0 ( dwell for no time -- G64 should not smooth over this point )
F600.00000
G04 P0 ( dwell for no time -- G64 should not smooth over this point )
G00 Z0.50000 ( retract )

G00 X33.08020 Y54.37810 ( rapid move to begin. )
F300.00000
o7 call [33.0802] [54.3781]
G04 P0 ( dwell for no time -- G64 should not smooth over this point )
F600.00000
G04 P0 ( dwell for no time -- G64 should not smooth over this point )
G00 Z0.50000 ( retract )

G00 X30.54020 Y54.37810 ( rapid move to begin. )
F300.00000
o7 call [30.5402] [54.3781]
G04 P0 ( dwell for no time -- G64 should not smooth over this point )
F600.00000
G04 P0 ( dwell for no time -- G64 should not smooth over this point )
G00 Z0.50000 ( retract )

G00 X28.00020 Y54.37810 ( rapid move to begin. )
F300.00000
o7 call [28.0002] [54.3781]
G04 P0 ( dwell for no time -- G64 should not smooth over this point )
F600.00000
G04 P0 ( dwell for no time -- G64 should not smooth over this point )
G00 Z0.50000 ( retract )

G00 X23.93620 Y54.37810 ( rapid move to begin. )
F300.00000
o7 call [23.9362] [54.3781]
G04 P0 ( dwell for no time -- G64 should not smooth over this point )
F600.00000
G04 P0 ( dwell for no time -- G64 should not smooth over this point )
G00 Z0.50000 ( retract )

G00 X21.39620 Y54.37810 ( rapid move to begin. )
F300.00000
o7 call [21.3962] [54.3781]
G04 P0 ( dwell for no time -- G64 should not smooth over this point )
F600.00000
G04 P0 ( dwell for no time -- G64 should not smooth over this point )
G00 Z0.50000 ( retract )

G00 X18.85620 Y54.37810 ( rapid move to begin. )
F300.00000
o7 call [18.8562] [54.3781]
G04 P0 ( dwell for no time -- G64 should not smooth over this point )
F600.00000
G04 P0 ( dwell for no time -- G64 should not smooth over this point )
G00 Z0.50000 ( retract )

G00 X16.31620 Y54.37810 ( rapid move to begin. )
F300.00000
o7 call [16.3162] [54.3781]
G04 P0 ( dwell for no time -- G64 should not smooth over this point )
F600.00000
G04 P0 ( dwell for no time -- G64 should not smooth over this point )
G00 Z0.50000 ( retract )

G00 X13.77620 Y54.37810 ( rapid move to begin. )
F300.00000
o7 call [13.7762] [54.3781]
G04 P0 ( dwell for no time -- G64 should not smooth over this point )
F600.00000
G04 P0 ( dwell for no time -- G64 should not smooth over this point )
G00 Z0.50000 ( retract )

G00 X11.23620 Y54.37810 ( rapid move to begin. )
F300.00000
o7 call [11.2362] [54.3781]
G04 P0 ( dwell for no time -- G64 should not smooth over this point )
F600.00000
G04 P0 ( dwell for no time -- G64 should not smooth over this point )
G00 Z0.50000 ( retract )

G00 X8.69620 Y54.37810 ( rapid move to begin. )
F300.00000
o7 call [8.6962] [54.3781]
G04 P0 ( dwell for no time -- G64 should not smooth over this point )
F600.00000
G04 P0 ( dwell for no time -- G64 should not smooth over this point )
G00 Z0.50000 ( retract )

G00 X6.15620 Y54.37810 ( rapid move to begin. )
F300.00000
o7 call [6.1562] [54.3781]
G04 P0 ( dwell for no time -- G64 should not smooth over this point )
F600.00000
G04 P0 ( dwell for no time -- G64 should not smooth over this point )
G00 Z0.50000 ( retract )

G00 X67.34480 Y50.08550 ( rapid move to begin. )
F300.00000
o7 call [67.3448] [50.0855]
G04 P0 ( dwell for no time -- G64 should not smooth over this point )
F600.00000
G04 P0 ( dwell for no time -- G64 should not smooth over this point )
G00 Z0.50000 ( retract )

G00 X64.80480 Y50.08550 ( rapid move to begin. )
F300.00000
o7 call [64.8048] [50.0855]
G04 P0 ( dwell for no time -- G64 should not smooth over this point )
F600.00000
G04 P0 ( dwell for no time -- G64 should not smooth over this point )
G00 Z0.50000 ( retract )

G00 X62.26480 Y50.08550 ( rapid move to begin. )
F300.00000
o7 call [62.2648] [50.0855]
G04 P0 ( dwell for no time -- G64 should not smooth over this point )
F600.00000
G04 P0 ( dwell for no time -- G64 should not smooth over this point )
G00 Z0.50000 ( retract )

G00 X59.72480 Y50.08550 ( rapid move to begin. )
F300.00000
o7 call [59.7248] [50.0855]
G04 P0 ( dwell for no time -- G64 should not smooth over this point )
F600.00000
G04 P0 ( dwell for no time -- G64 should not smooth over this point )
G00 Z0.50000 ( retract )

G00 X57.18480 Y50.08550 ( rapid move to begin. )
F300.00000
o7 call [57.1848] [50.0855]
G04 P0 ( dwell for no time -- G64 should not smooth over this point )
F600.00000
G04 P0 ( dwell for no time -- G64 should not smooth over this point )
G00 Z0.50000 ( retract )

G00 X54.64480 Y50.08550 ( rapid move to begin. )
F300.00000
o7 call [54.6448] [50.0855]
G04 P0 ( dwell for no time -- G64 should not smooth over this point )
F600.00000
G04 P0 ( dwell for no time -- G64 should not smooth over this point )
G00 Z0.50000 ( retract )

G00 X52.10480 Y50.08550 ( rapid move to begin. )
F300.00000
o7 call [52.1048] [50.0855]
G04 P0 ( dwell for no time -- G64 should not smooth over this point )
F600.00000
G04 P0 ( dwell for no time -- G64 should not smooth over this point )
G00 Z0.50000 ( retract )

G00 X49.56480 Y50.08550 ( rapid move to begin. )
F300.00000
o7 call [49.5648] [50.0855]
G04 P0 ( dwell for no time -- G64 should not smooth over this point )
F600.00000
G04 P0 ( dwell for no time -- G64 should not smooth over this point )
G00 Z0.50000 ( retract )

G00 X47.02480 Y50.08550 ( rapid move to begin. )
F300.00000
o7 call [47.0248] [50.0855]
G04 P0 ( dwell for no time -- G64 should not smooth over this point )
F600.00000
G04 P0 ( dwell for no time -- G64 should not smooth over this point )
G00 Z0.50000 ( retract )

G00 X44.48480 Y50.08550 ( rapid move to begin. )
F300.00000
o7 call [44.4848] [50.0855]
G04 P0 ( dwell for no time -- G64 should not smooth over this point )
F600.00000
G04 P0 ( dwell for no time -- G64 should not smooth over this point )
G00 Z0.50000 ( retract )

G00 X41.94480 Y50.08550 ( rapid move to begin. )
F300.00000
o7 call [41.9448] [50.0855]
G04 P0 ( dwell for no time -- G64 should not smooth over this point )
F600.00000
G04 P0 ( dwell for no time -- G64 should not smooth over this point )
G00 Z0.50000 ( retract )

G00 X39.40480 Y50.08550 ( rapid move to begin. )
F300.00000
o7 call [39.4048] [50.0855]
G04 P0 ( dwell for no time -- G64 should not smooth over this point )
F600.00000
G04 P0 ( dwell for no time -- G64 should not smooth over this point )
G00 Z0.50000 ( retract )

G00 X36.86480 Y50.08550 ( rapid move to begin. )
F300.00000
o7 call [36.8648] [50.0855]
G04 P0 ( dwell for no time -- G64 should not smooth over this point )
F600.00000
G04 P0 ( dwell for no time -- G64 should not smooth over this point )
G00 Z0.50000 ( retract )

G00 X34.32480 Y50.08550 ( rapid move to begin. )
F300.00000
o7 call [34.3248] [50.0855]
G04 P0 ( dwell for no time -- G64 should not smooth over this point )
F600.00000
G04 P0 ( dwell for no time -- G64 should not smooth over this point )
G00 Z0.50000 ( retract )

G00 X31.78480 Y50.08550 ( rapid move to begin. )
F300.00000
o7 call [31.7848] [50.0855]
G04 P0 ( dwell for no time -- G64 should not smooth over this point )
F600.00000
G04 P0 ( dwell for no time -- G64 should not smooth over this point )
G00 Z0.50000 ( retract )

G00 X29.24480 Y50.08550 ( rapid move to begin. )
F300.00000
o7 call [29.2448] [50.0855]
G04 P0 ( dwell for no time -- G64 should not smooth over this point )
F600.00000
G04 P0 ( dwell for no time -- G64 should not smooth over this point )
G00 Z0.50000 ( retract )

G00 X26.70480 Y50.08550 ( rapid move to begin. )
F300.00000
o7 call [26.7048] [50.0855]
G04 P0 ( dwell for no time -- G64 should not smooth over this point )
F600.00000
G04 P0 ( dwell for no time -- G64 should not smooth over this point )
G00 Z0.50000 ( retract )

G00 X24.16480 Y50.08550 ( rapid move to begin. )
F300.00000
o7 call [24.1648] [50.0855]
G04 P0 ( dwell for no time -- G64 should not smooth over this point )
F600.00000
G04 P0 ( dwell for no time -- G64 should not smooth over this point )
G00 Z0.50000 ( retract )

G00 X21.62480 Y50.08550 ( rapid move to begin. )
F300.00000
o7 call [21.6248] [50.0855]
G04 P0 ( dwell for no time -- G64 should not smooth over this point )
F600.00000
G04 P0 ( dwell for no time -- G64 should not smooth over this point )
G00 Z0.50000 ( retract )

G00 X19.08480 Y50.08550 ( rapid move to begin. )
F300.00000
o7 call [19.0848] [50.0855]
G04 P0 ( dwell for no time -- G64 should not smooth over this point )
F600.00000
G04 P0 ( dwell for no time -- G64 should not smooth over this point )
G00 Z0.50000 ( retract )

G00 X16.54480 Y50.08550 ( rapid move to begin. )
F300.00000
o7 call [16.5448] [50.0855]
G04 P0 ( dwell for no time -- G64 should not smooth over this point )
F600.00000
G04 P0 ( dwell for no time -- G64 should not smooth over this point )
G00 Z0.50000 ( retract )

G00 X14.00480 Y50.08550 ( rapid move to begin. )
F300.00000
o7 call [14.0048] [50.0855]
G04 P0 ( dwell for no time -- G64 should not smooth over this point )
F600.00000
G04 P0 ( dwell for no time -- G64 should not smooth over this point )
G00 Z0.50000 ( retract )

G00 X11.46480 Y50.08550 ( rapid move to begin. )
F300.00000
o7 call [11.4648] [50.0855]
G04 P0 ( dwell for no time -- G64 should not smooth over this point )
F600.00000
G04 P0 ( dwell for no time -- G64 should not smooth over this point )
G00 Z0.50000 ( retract )

G00 X8.92480 Y50.08550 ( rapid move to begin. )
F300.00000
o7 call [8.9248] [50.0855]
G04 P0 ( dwell for no time -- G64 should not smooth over this point )
F600.00000
G04 P0 ( dwell for no time -- G64 should not smooth over this point )
G00 Z0.50000 ( retract )

G00 X67.09080 Y47.54550 ( rapid move to begin. )
F300.00000
o7 call [67.0908] [47.5455]
G04 P0 ( dwell for no time -- G64 should not smooth over this point )
F600.00000
G04 P0 ( dwell for no time -- G64 should not smooth over this point )
G00 Z0.50000 ( retract )

G00 X64.55080 Y47.54550 ( rapid move to begin. )
F300.00000
o7 call [64.5508] [47.5455]
G04 P0 ( dwell for no time -- G64 should not smooth over this point )
F600.00000
G04 P0 ( dwell for no time -- G64 should not smooth over this point )
G00 Z0.50000 ( retract )

G00 X62.01080 Y47.54550 ( rapid move to begin. )
F300.00000
o7 call [62.0108] [47.5455]
G04 P0 ( dwell for no time -- G64 should not smooth over this point )
F600.00000
G04 P0 ( dwell for no time -- G64 should not smooth over this point )
G00 Z0.50000 ( retract )

G00 X59.47080 Y47.54550 ( rapid move to begin. )
F300.00000
o7 call [59.4708] [47.5455]
G04 P0 ( dwell for no time -- G64 should not smooth over this point )
F600.00000
G04 P0 ( dwell for no time -- G64 should not smooth over this point )
G00 Z0.50000 ( retract )

G00 X56.93080 Y47.54550 ( rapid move to begin. )
F300.00000
o7 call [56.9308] [47.5455]
G04 P0 ( dwell for no time -- G64 should not smooth over this point )
F600.00000
G04 P0 ( dwell for no time -- G64 should not smooth over this point )
G00 Z0.50000 ( retract )

G00 X54.39080 Y47.54550 ( rapid move to begin. )
F300.00000
o7 call [54.3908] [47.5455]
G04 P0 ( dwell for no time -- G64 should not smooth over this point )
F600.00000
G04 P0 ( dwell for no time -- G64 should not smooth over this point )
G00 Z0.50000 ( retract )

G00 X51.85080 Y47.54550 ( rapid move to begin. )
F300.00000
o7 call [51.8508] [47.5455]
G04 P0 ( dwell for no time -- G64 should not smooth over this point )
F600.00000
G04 P0 ( dwell for no time -- G64 should not smooth over this point )
G00 Z0.50000 ( retract )

G00 X49.31080 Y47.54550 ( rapid move to begin. )
F300.00000
o7 call [49.3108] [47.5455]
G04 P0 ( dwell for no time -- G64 should not smooth over this point )
F600.00000
G04 P0 ( dwell for no time -- G64 should not smooth over this point )
G00 Z0.50000 ( retract )

G00 X46.77080 Y47.54550 ( rapid move to begin. )
F300.00000
o7 call [46.7708] [47.5455]
G04 P0 ( dwell for no time -- G64 should not smooth over this point )
F600.00000
G04 P0 ( dwell for no time -- G64 should not smooth over this point )
G00 Z0.50000 ( retract )

G00 X44.23080 Y47.54550 ( rapid move to begin. )
F300.00000
o7 call [44.2308] [47.5455]
G04 P0 ( dwell for no time -- G64 should not smooth over this point )
F600.00000
G04 P0 ( dwell for no time -- G64 should not smooth over this point )
G00 Z0.50000 ( retract )

G00 X41.69080 Y47.54550 ( rapid move to begin. )
F300.00000
o7 call [41.6908] [47.5455]
G04 P0 ( dwell for no time -- G64 should not smooth over this point )
F600.00000
G04 P0 ( dwell for no time -- G64 should not smooth over this point )
G00 Z0.50000 ( retract )

G00 X39.15080 Y47.54550 ( rapid move to begin. )
F300.00000
o7 call [39.1508] [47.5455]
G04 P0 ( dwell for no time -- G64 should not smooth over this point )
F600.00000
G04 P0 ( dwell for no time -- G64 should not smooth over this point )
G00 Z0.50000 ( retract )

G00 X36.61080 Y47.54550 ( rapid move to begin. )
F300.00000
o7 call [36.6108] [47.5455]
G04 P0 ( dwell for no time -- G64 should not smooth over this point )
F600.00000
G04 P0 ( dwell for no time -- G64 should not smooth over this point )
G00 Z0.50000 ( retract )

G00 X34.07080 Y47.54550 ( rapid move to begin. )
F300.00000
o7 call [34.0708] [47.5455]
G04 P0 ( dwell for no time -- G64 should not smooth over this point )
F600.00000
G04 P0 ( dwell for no time -- G64 should not smooth over this point )
G00 Z0.50000 ( retract )

G00 X31.53080 Y47.54550 ( rapid move to begin. )
F300.00000
o7 call [31.5308] [47.5455]
G04 P0 ( dwell for no time -- G64 should not smooth over this point )
F600.00000
G04 P0 ( dwell for no time -- G64 should not smooth over this point )
G00 Z0.50000 ( retract )

G00 X28.99080 Y47.54550 ( rapid move to begin. )
F300.00000
o7 call [28.9908] [47.5455]
G04 P0 ( dwell for no time -- G64 should not smooth over this point )
F600.00000
G04 P0 ( dwell for no time -- G64 should not smooth over this point )
G00 Z0.50000 ( retract )

G00 X26.45080 Y47.54550 ( rapid move to begin. )
F300.00000
o7 call [26.4508] [47.5455]
G04 P0 ( dwell for no time -- G64 should not smooth over this point )
F600.00000
G04 P0 ( dwell for no time -- G64 should not smooth over this point )
G00 Z0.50000 ( retract )

G00 X23.91080 Y47.54550 ( rapid move to begin. )
F300.00000
o7 call [23.9108] [47.5455]
G04 P0 ( dwell for no time -- G64 should not smooth over this point )
F600.00000
G04 P0 ( dwell for no time -- G64 should not smooth over this point )
G00 Z0.50000 ( retract )

G00 X21.37080 Y47.54550 ( rapid move to begin. )
F300.00000
o7 call [21.3708] [47.5455]
G04 P0 ( dwell for no time -- G64 should not smooth over this point )
F600.00000
G04 P0 ( dwell for no time -- G64 should not smooth over this point )
G00 Z0.50000 ( retract )

G00 X18.83080 Y47.54550 ( rapid move to begin. )
F300.00000
o7 call [18.8308] [47.5455]
G04 P0 ( dwell for no time -- G64 should not smooth over this point )
F600.00000
G04 P0 ( dwell for no time -- G64 should not smooth over this point )
G00 Z0.50000 ( retract )

G00 X16.29080 Y47.54550 ( rapid move to begin. )
F300.00000
o7 call [16.2908] [47.5455]
G04 P0 ( dwell for no time -- G64 should not smooth over this point )
F600.00000
G04 P0 ( dwell for no time -- G64 should not smooth over this point )
G00 Z0.50000 ( retract )

G00 X13.75080 Y47.54550 ( rapid move to begin. )
F300.00000
o7 call [13.7508] [47.5455]
G04 P0 ( dwell for no time -- G64 should not smooth over this point )
F600.00000
G04 P0 ( dwell for no time -- G64 should not smooth over this point )
G00 Z0.50000 ( retract )

G00 X11.21080 Y47.54550 ( rapid move to begin. )
F300.00000
o7 call [11.2108] [47.5455]
G04 P0 ( dwell for no time -- G64 should not smooth over this point )
F600.00000
G04 P0 ( dwell for no time -- G64 should not smooth over this point )
G00 Z0.50000 ( retract )

G00 X8.92480 Y47.54550 ( rapid move to begin. )
F300.00000
o7 call [8.9248] [47.5455]
G04 P0 ( dwell for no time -- G64 should not smooth over this point )
F600.00000
G04 P0 ( dwell for no time -- G64 should not smooth over this point )
G00 Z0.50000 ( retract )

G00 X67.09080 Y45.00550 ( rapid move to begin. )
F300.00000
o7 call [67.0908] [45.0055]
G04 P0 ( dwell for no time -- G64 should not smooth over this point )
F600.00000
G04 P0 ( dwell for no time -- G64 should not smooth over this point )
G00 Z0.50000 ( retract )

G00 X64.55080 Y45.00550 ( rapid move to begin. )
F300.00000
o7 call [64.5508] [45.0055]
G04 P0 ( dwell for no time -- G64 should not smooth over this point )
F600.00000
G04 P0 ( dwell for no time -- G64 should not smooth over this point )
G00 Z0.50000 ( retract )

G00 X62.01080 Y45.00550 ( rapid move to begin. )
F300.00000
o7 call [62.0108] [45.0055]
G04 P0 ( dwell for no time -- G64 should not smooth over this point )
F600.00000
G04 P0 ( dwell for no time -- G64 should not smooth over this point )
G00 Z0.50000 ( retract )

G00 X59.47080 Y45.00550 ( rapid move to begin. )
F300.00000
o7 call [59.4708] [45.0055]
G04 P0 ( dwell for no time -- G64 should not smooth over this point )
F600.00000
G04 P0 ( dwell for no time -- G64 should not smooth over this point )
G00 Z0.50000 ( retract )

G00 X56.93080 Y45.00550 ( rapid move to begin. )
F300.00000
o7 call [56.9308] [45.0055]
G04 P0 ( dwell for no time -- G64 should not smooth over this point )
F600.00000
G04 P0 ( dwell for no time -- G64 should not smooth over this point )
G00 Z0.50000 ( retract )

G00 X54.39080 Y45.00550 ( rapid move to begin. )
F300.00000
o7 call [54.3908] [45.0055]
G04 P0 ( dwell for no time -- G64 should not smooth over this point )
F600.00000
G04 P0 ( dwell for no time -- G64 should not smooth over this point )
G00 Z0.50000 ( retract )

G00 X51.85080 Y45.00550 ( rapid move to begin. )
F300.00000
o7 call [51.8508] [45.0055]
G04 P0 ( dwell for no time -- G64 should not smooth over this point )
F600.00000
G04 P0 ( dwell for no time -- G64 should not smooth over this point )
G00 Z0.50000 ( retract )

G00 X49.31080 Y45.00550 ( rapid move to begin. )
F300.00000
o7 call [49.3108] [45.0055]
G04 P0 ( dwell for no time -- G64 should not smooth over this point )
F600.00000
G04 P0 ( dwell for no time -- G64 should not smooth over this point )
G00 Z0.50000 ( retract )

G00 X46.77080 Y45.00550 ( rapid move to begin. )
F300.00000
o7 call [46.7708] [45.0055]
G04 P0 ( dwell for no time -- G64 should not smooth over this point )
F600.00000
G04 P0 ( dwell for no time -- G64 should not smooth over this point )
G00 Z0.50000 ( retract )

G00 X44.23080 Y45.00550 ( rapid move to begin. )
F300.00000
o7 call [44.2308] [45.0055]
G04 P0 ( dwell for no time -- G64 should not smooth over this point )
F600.00000
G04 P0 ( dwell for no time -- G64 should not smooth over this point )
G00 Z0.50000 ( retract )

G00 X41.69080 Y45.00550 ( rapid move to begin. )
F300.00000
o7 call [41.6908] [45.0055]
G04 P0 ( dwell for no time -- G64 should not smooth over this point )
F600.00000
G04 P0 ( dwell for no time -- G64 should not smooth over this point )
G00 Z0.50000 ( retract )

G00 X39.15080 Y45.00550 ( rapid move to begin. )
F300.00000
o7 call [39.1508] [45.0055]
G04 P0 ( dwell for no time -- G64 should not smooth over this point )
F600.00000
G04 P0 ( dwell for no time -- G64 should not smooth over this point )
G00 Z0.50000 ( retract )

G00 X36.61080 Y45.00550 ( rapid move to begin. )
F300.00000
o7 call [36.6108] [45.0055]
G04 P0 ( dwell for no time -- G64 should not smooth over this point )
F600.00000
G04 P0 ( dwell for no time -- G64 should not smooth over this point )
G00 Z0.50000 ( retract )

G00 X34.07080 Y45.00550 ( rapid move to begin. )
F300.00000
o7 call [34.0708] [45.0055]
G04 P0 ( dwell for no time -- G64 should not smooth over this point )
F600.00000
G04 P0 ( dwell for no time -- G64 should not smooth over this point )
G00 Z0.50000 ( retract )

G00 X31.53080 Y45.00550 ( rapid move to begin. )
F300.00000
o7 call [31.5308] [45.0055]
G04 P0 ( dwell for no time -- G64 should not smooth over this point )
F600.00000
G04 P0 ( dwell for no time -- G64 should not smooth over this point )
G00 Z0.50000 ( retract )

G00 X28.99080 Y45.00550 ( rapid move to begin. )
F300.00000
o7 call [28.9908] [45.0055]
G04 P0 ( dwell for no time -- G64 should not smooth over this point )
F600.00000
G04 P0 ( dwell for no time -- G64 should not smooth over this point )
G00 Z0.50000 ( retract )

G00 X26.45080 Y45.00550 ( rapid move to begin. )
F300.00000
o7 call [26.4508] [45.0055]
G04 P0 ( dwell for no time -- G64 should not smooth over this point )
F600.00000
G04 P0 ( dwell for no time -- G64 should not smooth over this point )
G00 Z0.50000 ( retract )

G00 X23.91080 Y45.00550 ( rapid move to begin. )
F300.00000
o7 call [23.9108] [45.0055]
G04 P0 ( dwell for no time -- G64 should not smooth over this point )
F600.00000
G04 P0 ( dwell for no time -- G64 should not smooth over this point )
G00 Z0.50000 ( retract )

G00 X21.37080 Y45.00550 ( rapid move to begin. )
F300.00000
o7 call [21.3708] [45.0055]
G04 P0 ( dwell for no time -- G64 should not smooth over this point )
F600.00000
G04 P0 ( dwell for no time -- G64 should not smooth over this point )
G00 Z0.50000 ( retract )

G00 X18.83080 Y45.00550 ( rapid move to begin. )
F300.00000
o7 call [18.8308] [45.0055]
G04 P0 ( dwell for no time -- G64 should not smooth over this point )
F600.00000
G04 P0 ( dwell for no time -- G64 should not smooth over this point )
G00 Z0.50000 ( retract )

G00 X16.29080 Y45.00550 ( rapid move to begin. )
F300.00000
o7 call [16.2908] [45.0055]
G04 P0 ( dwell for no time -- G64 should not smooth over this point )
F600.00000
G04 P0 ( dwell for no time -- G64 should not smooth over this point )
G00 Z0.50000 ( retract )

G00 X13.75080 Y45.00550 ( rapid move to begin. )
F300.00000
o7 call [13.7508] [45.0055]
G04 P0 ( dwell for no time -- G64 should not smooth over this point )
F600.00000
G04 P0 ( dwell for no time -- G64 should not smooth over this point )
G00 Z0.50000 ( retract )

G00 X11.21080 Y45.00550 ( rapid move to begin. )
F300.00000
o7 call [11.2108] [45.0055]
G04 P0 ( dwell for no time -- G64 should not smooth over this point )
F600.00000
G04 P0 ( dwell for no time -- G64 should not smooth over this point )
G00 Z0.50000 ( retract )

G00 X8.92480 Y45.00550 ( rapid move to begin. )
F300.00000
o7 call [8.9248] [45.0055]
G04 P0 ( dwell for no time -- G64 should not smooth over this point )
F600.00000
G04 P0 ( dwell for no time -- G64 should not smooth over this point )
G00 Z0.50000 ( retract )

G00 X67.09080 Y42.46550 ( rapid move to begin. )
F300.00000
o7 call [67.0908] [42.4655]
G04 P0 ( dwell for no time -- G64 should not smooth over this point )
F600.00000
G04 P0 ( dwell for no time -- G64 should not smooth over this point )
G00 Z0.50000 ( retract )

G00 X64.55080 Y42.46550 ( rapid move to begin. )
F300.00000
o7 call [64.5508] [42.4655]
G04 P0 ( dwell for no time -- G64 should not smooth over this point )
F600.00000
G04 P0 ( dwell for no time -- G64 should not smooth over this point )
G00 Z0.50000 ( retract )

G00 X62.01080 Y42.46550 ( rapid move to begin. )
F300.00000
o7 call [62.0108] [42.4655]
G04 P0 ( dwell for no time -- G64 should not smooth over this point )
F600.00000
G04 P0 ( dwell for no time -- G64 should not smooth over this point )
G00 Z0.50000 ( retract )

G00 X59.47080 Y42.46550 ( rapid move to begin. )
F300.00000
o7 call [59.4708] [42.4655]
G04 P0 ( dwell for no time -- G64 should not smooth over this point )
F600.00000
G04 P0 ( dwell for no time -- G64 should not smooth over this point )
G00 Z0.50000 ( retract )

G00 X56.93080 Y42.46550 ( rapid move to begin. )
F300.00000
o7 call [56.9308] [42.4655]
G04 P0 ( dwell for no time -- G64 should not smooth over this point )
F600.00000
G04 P0 ( dwell for no time -- G64 should not smooth over this point )
G00 Z0.50000 ( retract )

G00 X54.39080 Y42.46550 ( rapid move to begin. )
F300.00000
o7 call [54.3908] [42.4655]
G04 P0 ( dwell for no time -- G64 should not smooth over this point )
F600.00000
G04 P0 ( dwell for no time -- G64 should not smooth over this point )
G00 Z0.50000 ( retract )

G00 X51.85080 Y42.46550 ( rapid move to begin. )
F300.00000
o7 call [51.8508] [42.4655]
G04 P0 ( dwell for no time -- G64 should not smooth over this point )
F600.00000
G04 P0 ( dwell for no time -- G64 should not smooth over this point )
G00 Z0.50000 ( retract )

G00 X49.31080 Y42.46550 ( rapid move to begin. )
F300.00000
o7 call [49.3108] [42.4655]
G04 P0 ( dwell for no time -- G64 should not smooth over this point )
F600.00000
G04 P0 ( dwell for no time -- G64 should not smooth over this point )
G00 Z0.50000 ( retract )

G00 X46.77080 Y42.46550 ( rapid move to begin. )
F300.00000
o7 call [46.7708] [42.4655]
G04 P0 ( dwell for no time -- G64 should not smooth over this point )
F600.00000
G04 P0 ( dwell for no time -- G64 should not smooth over this point )
G00 Z0.50000 ( retract )

G00 X44.23080 Y42.46550 ( rapid move to begin. )
F300.00000
o7 call [44.2308] [42.4655]
G04 P0 ( dwell for no time -- G64 should not smooth over this point )
F600.00000
G04 P0 ( dwell for no time -- G64 should not smooth over this point )
G00 Z0.50000 ( retract )

G00 X41.69080 Y42.46550 ( rapid move to begin. )
F300.00000
o7 call [41.6908] [42.4655]
G04 P0 ( dwell for no time -- G64 should not smooth over this point )
F600.00000
G04 P0 ( dwell for no time -- G64 should not smooth over this point )
G00 Z0.50000 ( retract )

G00 X39.15080 Y42.46550 ( rapid move to begin. )
F300.00000
o7 call [39.1508] [42.4655]
G04 P0 ( dwell for no time -- G64 should not smooth over this point )
F600.00000
G04 P0 ( dwell for no time -- G64 should not smooth over this point )
G00 Z0.50000 ( retract )

G00 X36.61080 Y42.46550 ( rapid move to begin. )
F300.00000
o7 call [36.6108] [42.4655]
G04 P0 ( dwell for no time -- G64 should not smooth over this point )
F600.00000
G04 P0 ( dwell for no time -- G64 should not smooth over this point )
G00 Z0.50000 ( retract )

G00 X34.07080 Y42.46550 ( rapid move to begin. )
F300.00000
o7 call [34.0708] [42.4655]
G04 P0 ( dwell for no time -- G64 should not smooth over this point )
F600.00000
G04 P0 ( dwell for no time -- G64 should not smooth over this point )
G00 Z0.50000 ( retract )

G00 X31.53080 Y42.46550 ( rapid move to begin. )
F300.00000
o7 call [31.5308] [42.4655]
G04 P0 ( dwell for no time -- G64 should not smooth over this point )
F600.00000
G04 P0 ( dwell for no time -- G64 should not smooth over this point )
G00 Z0.50000 ( retract )

G00 X28.99080 Y42.46550 ( rapid move to begin. )
F300.00000
o7 call [28.9908] [42.4655]
G04 P0 ( dwell for no time -- G64 should not smooth over this point )
F600.00000
G04 P0 ( dwell for no time -- G64 should not smooth over this point )
G00 Z0.50000 ( retract )

G00 X26.45080 Y42.46550 ( rapid move to begin. )
F300.00000
o7 call [26.4508] [42.4655]
G04 P0 ( dwell for no time -- G64 should not smooth over this point )
F600.00000
G04 P0 ( dwell for no time -- G64 should not smooth over this point )
G00 Z0.50000 ( retract )

G00 X23.91080 Y42.46550 ( rapid move to begin. )
F300.00000
o7 call [23.9108] [42.4655]
G04 P0 ( dwell for no time -- G64 should not smooth over this point )
F600.00000
G04 P0 ( dwell for no time -- G64 should not smooth over this point )
G00 Z0.50000 ( retract )

G00 X21.37080 Y42.46550 ( rapid move to begin. )
F300.00000
o7 call [21.3708] [42.4655]
G04 P0 ( dwell for no time -- G64 should not smooth over this point )
F600.00000
G04 P0 ( dwell for no time -- G64 should not smooth over this point )
G00 Z0.50000 ( retract )

G00 X18.83080 Y42.46550 ( rapid move to begin. )
F300.00000
o7 call [18.8308] [42.4655]
G04 P0 ( dwell for no time -- G64 should not smooth over this point )
F600.00000
G04 P0 ( dwell for no time -- G64 should not smooth over this point )
G00 Z0.50000 ( retract )

G00 X16.29080 Y42.46550 ( rapid move to begin. )
F300.00000
o7 call [16.2908] [42.4655]
G04 P0 ( dwell for no time -- G64 should not smooth over this point )
F600.00000
G04 P0 ( dwell for no time -- G64 should not smooth over this point )
G00 Z0.50000 ( retract )

G00 X13.75080 Y42.46550 ( rapid move to begin. )
F300.00000
o7 call [13.7508] [42.4655]
G04 P0 ( dwell for no time -- G64 should not smooth over this point )
F600.00000
G04 P0 ( dwell for no time -- G64 should not smooth over this point )
G00 Z0.50000 ( retract )

G00 X11.21080 Y42.46550 ( rapid move to begin. )
F300.00000
o7 call [11.2108] [42.4655]
G04 P0 ( dwell for no time -- G64 should not smooth over this point )
F600.00000
G04 P0 ( dwell for no time -- G64 should not smooth over this point )
G00 Z0.50000 ( retract )

G00 X8.92480 Y42.46550 ( rapid move to begin. )
F300.00000
o7 call [8.9248] [42.4655]
G04 P0 ( dwell for no time -- G64 should not smooth over this point )
F600.00000
G04 P0 ( dwell for no time -- G64 should not smooth over this point )
G00 Z0.50000 ( retract )

G00 X67.09080 Y39.92550 ( rapid move to begin. )
F300.00000
o7 call [67.0908] [39.9255]
G04 P0 ( dwell for no time -- G64 should not smooth over this point )
F600.00000
G04 P0 ( dwell for no time -- G64 should not smooth over this point )
G00 Z0.50000 ( retract )

G00 X64.55080 Y39.92550 ( rapid move to begin. )
F300.00000
o7 call [64.5508] [39.9255]
G04 P0 ( dwell for no time -- G64 should not smooth over this point )
F600.00000
G04 P0 ( dwell for no time -- G64 should not smooth over this point )
G00 Z0.50000 ( retract )

G00 X62.01080 Y39.92550 ( rapid move to begin. )
F300.00000
o7 call [62.0108] [39.9255]
G04 P0 ( dwell for no time -- G64 should not smooth over this point )
F600.00000
G04 P0 ( dwell for no time -- G64 should not smooth over this point )
G00 Z0.50000 ( retract )

G00 X59.47080 Y39.92550 ( rapid move to begin. )
F300.00000
o7 call [59.4708] [39.9255]
G04 P0 ( dwell for no time -- G64 should not smooth over this point )
F600.00000
G04 P0 ( dwell for no time -- G64 should not smooth over this point )
G00 Z0.50000 ( retract )

G00 X56.93080 Y39.92550 ( rapid move to begin. )
F300.00000
o7 call [56.9308] [39.9255]
G04 P0 ( dwell for no time -- G64 should not smooth over this point )
F600.00000
G04 P0 ( dwell for no time -- G64 should not smooth over this point )
G00 Z0.50000 ( retract )

G00 X54.39080 Y39.92550 ( rapid move to begin. )
F300.00000
o7 call [54.3908] [39.9255]
G04 P0 ( dwell for no time -- G64 should not smooth over this point )
F600.00000
G04 P0 ( dwell for no time -- G64 should not smooth over this point )
G00 Z0.50000 ( retract )

G00 X51.85080 Y39.92550 ( rapid move to begin. )
F300.00000
o7 call [51.8508] [39.9255]
G04 P0 ( dwell for no time -- G64 should not smooth over this point )
F600.00000
G04 P0 ( dwell for no time -- G64 should not smooth over this point )
G00 Z0.50000 ( retract )

G00 X49.31080 Y39.92550 ( rapid move to begin. )
F300.00000
o7 call [49.3108] [39.9255]
G04 P0 ( dwell for no time -- G64 should not smooth over this point )
F600.00000
G04 P0 ( dwell for no time -- G64 should not smooth over this point )
G00 Z0.50000 ( retract )

G00 X46.77080 Y39.92550 ( rapid move to begin. )
F300.00000
o7 call [46.7708] [39.9255]
G04 P0 ( dwell for no time -- G64 should not smooth over this point )
F600.00000
G04 P0 ( dwell for no time -- G64 should not smooth over this point )
G00 Z0.50000 ( retract )

G00 X44.23080 Y39.92550 ( rapid move to begin. )
F300.00000
o7 call [44.2308] [39.9255]
G04 P0 ( dwell for no time -- G64 should not smooth over this point )
F600.00000
G04 P0 ( dwell for no time -- G64 should not smooth over this point )
G00 Z0.50000 ( retract )

G00 X41.69080 Y39.92550 ( rapid move to begin. )
F300.00000
o7 call [41.6908] [39.9255]
G04 P0 ( dwell for no time -- G64 should not smooth over this point )
F600.00000
G04 P0 ( dwell for no time -- G64 should not smooth over this point )
G00 Z0.50000 ( retract )

G00 X39.15080 Y39.92550 ( rapid move to begin. )
F300.00000
o7 call [39.1508] [39.9255]
G04 P0 ( dwell for no time -- G64 should not smooth over this point )
F600.00000
G04 P0 ( dwell for no time -- G64 should not smooth over this point )
G00 Z0.50000 ( retract )

G00 X36.61080 Y39.92550 ( rapid move to begin. )
F300.00000
o7 call [36.6108] [39.9255]
G04 P0 ( dwell for no time -- G64 should not smooth over this point )
F600.00000
G04 P0 ( dwell for no time -- G64 should not smooth over this point )
G00 Z0.50000 ( retract )

G00 X34.07080 Y39.92550 ( rapid move to begin. )
F300.00000
o7 call [34.0708] [39.9255]
G04 P0 ( dwell for no time -- G64 should not smooth over this point )
F600.00000
G04 P0 ( dwell for no time -- G64 should not smooth over this point )
G00 Z0.50000 ( retract )

G00 X31.53080 Y39.92550 ( rapid move to begin. )
F300.00000
o7 call [31.5308] [39.9255]
G04 P0 ( dwell for no time -- G64 should not smooth over this point )
F600.00000
G04 P0 ( dwell for no time -- G64 should not smooth over this point )
G00 Z0.50000 ( retract )

G00 X28.99080 Y39.92550 ( rapid move to begin. )
F300.00000
o7 call [28.9908] [39.9255]
G04 P0 ( dwell for no time -- G64 should not smooth over this point )
F600.00000
G04 P0 ( dwell for no time -- G64 should not smooth over this point )
G00 Z0.50000 ( retract )

G00 X26.45080 Y39.92550 ( rapid move to begin. )
F300.00000
o7 call [26.4508] [39.9255]
G04 P0 ( dwell for no time -- G64 should not smooth over this point )
F600.00000
G04 P0 ( dwell for no time -- G64 should not smooth over this point )
G00 Z0.50000 ( retract )

G00 X23.91080 Y39.92550 ( rapid move to begin. )
F300.00000
o7 call [23.9108] [39.9255]
G04 P0 ( dwell for no time -- G64 should not smooth over this point )
F600.00000
G04 P0 ( dwell for no time -- G64 should not smooth over this point )
G00 Z0.50000 ( retract )

G00 X21.37080 Y39.92550 ( rapid move to begin. )
F300.00000
o7 call [21.3708] [39.9255]
G04 P0 ( dwell for no time -- G64 should not smooth over this point )
F600.00000
G04 P0 ( dwell for no time -- G64 should not smooth over this point )
G00 Z0.50000 ( retract )

G00 X18.83080 Y39.92550 ( rapid move to begin. )
F300.00000
o7 call [18.8308] [39.9255]
G04 P0 ( dwell for no time -- G64 should not smooth over this point )
F600.00000
G04 P0 ( dwell for no time -- G64 should not smooth over this point )
G00 Z0.50000 ( retract )

G00 X16.29080 Y39.92550 ( rapid move to begin. )
F300.00000
o7 call [16.2908] [39.9255]
G04 P0 ( dwell for no time -- G64 should not smooth over this point )
F600.00000
G04 P0 ( dwell for no time -- G64 should not smooth over this point )
G00 Z0.50000 ( retract )

G00 X13.75080 Y39.92550 ( rapid move to begin. )
F300.00000
o7 call [13.7508] [39.9255]
G04 P0 ( dwell for no time -- G64 should not smooth over this point )
F600.00000
G04 P0 ( dwell for no time -- G64 should not smooth over this point )
G00 Z0.50000 ( retract )

G00 X11.21080 Y39.92550 ( rapid move to begin. )
F300.00000
o7 call [11.2108] [39.9255]
G04 P0 ( dwell for no time -- G64 should not smooth over this point )
F600.00000
G04 P0 ( dwell for no time -- G64 should not smooth over this point )
G00 Z0.50000 ( retract )

G00 X8.92480 Y39.92550 ( rapid move to begin. )
F300.00000
o7 call [8.9248] [39.9255]
G04 P0 ( dwell for no time -- G64 should not smooth over this point )
F600.00000
G04 P0 ( dwell for no time -- G64 should not smooth over this point )
G00 Z0.50000 ( retract )

G00 X67.09080 Y37.38550 ( rapid move to begin. )
F300.00000
o7 call [67.0908] [37.3855]
G04 P0 ( dwell for no time -- G64 should not smooth over this point )
F600.00000
G04 P0 ( dwell for no time -- G64 should not smooth over this point )
G00 Z0.50000 ( retract )

G00 X64.55080 Y37.38550 ( rapid move to begin. )
F300.00000
o7 call [64.5508] [37.3855]
G04 P0 ( dwell for no time -- G64 should not smooth over this point )
F600.00000
G04 P0 ( dwell for no time -- G64 should not smooth over this point )
G00 Z0.50000 ( retract )

G00 X62.01080 Y37.38550 ( rapid move to begin. )
F300.00000
o7 call [62.0108] [37.3855]
G04 P0 ( dwell for no time -- G64 should not smooth over this point )
F600.00000
G04 P0 ( dwell for no time -- G64 should not smooth over this point )
G00 Z0.50000 ( retract )

G00 X59.47080 Y37.38550 ( rapid move to begin. )
F300.00000
o7 call [59.4708] [37.3855]
G04 P0 ( dwell for no time -- G64 should not smooth over this point )
F600.00000
G04 P0 ( dwell for no time -- G64 should not smooth over this point )
G00 Z0.50000 ( retract )

G00 X56.93080 Y37.38550 ( rapid move to begin. )
F300.00000
o7 call [56.9308] [37.3855]
G04 P0 ( dwell for no time -- G64 should not smooth over this point )
F600.00000
G04 P0 ( dwell for no time -- G64 should not smooth over this point )
G00 Z0.50000 ( retract )

G00 X54.39080 Y37.38550 ( rapid move to begin. )
F300.00000
o7 call [54.3908] [37.3855]
G04 P0 ( dwell for no time -- G64 should not smooth over this point )
F600.00000
G04 P0 ( dwell for no time -- G64 should not smooth over this point )
G00 Z0.50000 ( retract )

G00 X51.85080 Y37.38550 ( rapid move to begin. )
F300.00000
o7 call [51.8508] [37.3855]
G04 P0 ( dwell for no time -- G64 should not smooth over this point )
F600.00000
G04 P0 ( dwell for no time -- G64 should not smooth over this point )
G00 Z0.50000 ( retract )

G00 X49.31080 Y37.38550 ( rapid move to begin. )
F300.00000
o7 call [49.3108] [37.3855]
G04 P0 ( dwell for no time -- G64 should not smooth over this point )
F600.00000
G04 P0 ( dwell for no time -- G64 should not smooth over this point )
G00 Z0.50000 ( retract )

G00 X46.77080 Y37.38550 ( rapid move to begin. )
F300.00000
o7 call [46.7708] [37.3855]
G04 P0 ( dwell for no time -- G64 should not smooth over this point )
F600.00000
G04 P0 ( dwell for no time -- G64 should not smooth over this point )
G00 Z0.50000 ( retract )

G00 X44.23080 Y37.38550 ( rapid move to begin. )
F300.00000
o7 call [44.2308] [37.3855]
G04 P0 ( dwell for no time -- G64 should not smooth over this point )
F600.00000
G04 P0 ( dwell for no time -- G64 should not smooth over this point )
G00 Z0.50000 ( retract )

G00 X41.69080 Y37.38550 ( rapid move to begin. )
F300.00000
o7 call [41.6908] [37.3855]
G04 P0 ( dwell for no time -- G64 should not smooth over this point )
F600.00000
G04 P0 ( dwell for no time -- G64 should not smooth over this point )
G00 Z0.50000 ( retract )

G00 X39.15080 Y37.38550 ( rapid move to begin. )
F300.00000
o7 call [39.1508] [37.3855]
G04 P0 ( dwell for no time -- G64 should not smooth over this point )
F600.00000
G04 P0 ( dwell for no time -- G64 should not smooth over this point )
G00 Z0.50000 ( retract )

G00 X36.61080 Y37.38550 ( rapid move to begin. )
F300.00000
o7 call [36.6108] [37.3855]
G04 P0 ( dwell for no time -- G64 should not smooth over this point )
F600.00000
G04 P0 ( dwell for no time -- G64 should not smooth over this point )
G00 Z0.50000 ( retract )

G00 X34.07080 Y37.38550 ( rapid move to begin. )
F300.00000
o7 call [34.0708] [37.3855]
G04 P0 ( dwell for no time -- G64 should not smooth over this point )
F600.00000
G04 P0 ( dwell for no time -- G64 should not smooth over this point )
G00 Z0.50000 ( retract )

G00 X31.53080 Y37.38550 ( rapid move to begin. )
F300.00000
o7 call [31.5308] [37.3855]
G04 P0 ( dwell for no time -- G64 should not smooth over this point )
F600.00000
G04 P0 ( dwell for no time -- G64 should not smooth over this point )
G00 Z0.50000 ( retract )

G00 X28.99080 Y37.38550 ( rapid move to begin. )
F300.00000
o7 call [28.9908] [37.3855]
G04 P0 ( dwell for no time -- G64 should not smooth over this point )
F600.00000
G04 P0 ( dwell for no time -- G64 should not smooth over this point )
G00 Z0.50000 ( retract )

G00 X26.45080 Y37.38550 ( rapid move to begin. )
F300.00000
o7 call [26.4508] [37.3855]
G04 P0 ( dwell for no time -- G64 should not smooth over this point )
F600.00000
G04 P0 ( dwell for no time -- G64 should not smooth over this point )
G00 Z0.50000 ( retract )

G00 X23.91080 Y37.38550 ( rapid move to begin. )
F300.00000
o7 call [23.9108] [37.3855]
G04 P0 ( dwell for no time -- G64 should not smooth over this point )
F600.00000
G04 P0 ( dwell for no time -- G64 should not smooth over this point )
G00 Z0.50000 ( retract )

G00 X21.37080 Y37.38550 ( rapid move to begin. )
F300.00000
o7 call [21.3708] [37.3855]
G04 P0 ( dwell for no time -- G64 should not smooth over this point )
F600.00000
G04 P0 ( dwell for no time -- G64 should not smooth over this point )
G00 Z0.50000 ( retract )

G00 X18.83080 Y37.38550 ( rapid move to begin. )
F300.00000
o7 call [18.8308] [37.3855]
G04 P0 ( dwell for no time -- G64 should not smooth over this point )
F600.00000
G04 P0 ( dwell for no time -- G64 should not smooth over this point )
G00 Z0.50000 ( retract )

G00 X16.29080 Y37.38550 ( rapid move to begin. )
F300.00000
o7 call [16.2908] [37.3855]
G04 P0 ( dwell for no time -- G64 should not smooth over this point )
F600.00000
G04 P0 ( dwell for no time -- G64 should not smooth over this point )
G00 Z0.50000 ( retract )

G00 X13.75080 Y37.38550 ( rapid move to begin. )
F300.00000
o7 call [13.7508] [37.3855]
G04 P0 ( dwell for no time -- G64 should not smooth over this point )
F600.00000
G04 P0 ( dwell for no time -- G64 should not smooth over this point )
G00 Z0.50000 ( retract )

G00 X11.21080 Y37.38550 ( rapid move to begin. )
F300.00000
o7 call [11.2108] [37.3855]
G04 P0 ( dwell for no time -- G64 should not smooth over this point )
F600.00000
G04 P0 ( dwell for no time -- G64 should not smooth over this point )
G00 Z0.50000 ( retract )

G00 X8.92480 Y37.38550 ( rapid move to begin. )
F300.00000
o7 call [8.9248] [37.3855]
G04 P0 ( dwell for no time -- G64 should not smooth over this point )
F600.00000
G04 P0 ( dwell for no time -- G64 should not smooth over this point )
G00 Z0.50000 ( retract )

G00 X67.09080 Y34.84550 ( rapid move to begin. )
F300.00000
o7 call [67.0908] [34.8455]
G04 P0 ( dwell for no time -- G64 should not smooth over this point )
F600.00000
G04 P0 ( dwell for no time -- G64 should not smooth over this point )
G00 Z0.50000 ( retract )

G00 X64.55080 Y34.84550 ( rapid move to begin. )
F300.00000
o7 call [64.5508] [34.8455]
G04 P0 ( dwell for no time -- G64 should not smooth over this point )
F600.00000
G04 P0 ( dwell for no time -- G64 should not smooth over this point )
G00 Z0.50000 ( retract )

G00 X62.01080 Y34.84550 ( rapid move to begin. )
F300.00000
o7 call [62.0108] [34.8455]
G04 P0 ( dwell for no time -- G64 should not smooth over this point )
F600.00000
G04 P0 ( dwell for no time -- G64 should not smooth over this point )
G00 Z0.50000 ( retract )

G00 X59.47080 Y34.84550 ( rapid move to begin. )
F300.00000
o7 call [59.4708] [34.8455]
G04 P0 ( dwell for no time -- G64 should not smooth over this point )
F600.00000
G04 P0 ( dwell for no time -- G64 should not smooth over this point )
G00 Z0.50000 ( retract )

G00 X56.93080 Y34.84550 ( rapid move to begin. )
F300.00000
o7 call [56.9308] [34.8455]
G04 P0 ( dwell for no time -- G64 should not smooth over this point )
F600.00000
G04 P0 ( dwell for no time -- G64 should not smooth over this point )
G00 Z0.50000 ( retract )

G00 X54.39080 Y34.84550 ( rapid move to begin. )
F300.00000
o7 call [54.3908] [34.8455]
G04 P0 ( dwell for no time -- G64 should not smooth over this point )
F600.00000
G04 P0 ( dwell for no time -- G64 should not smooth over this point )
G00 Z0.50000 ( retract )

G00 X51.85080 Y34.84550 ( rapid move to begin. )
F300.00000
o7 call [51.8508] [34.8455]
G04 P0 ( dwell for no time -- G64 should not smooth over this point )
F600.00000
G04 P0 ( dwell for no time -- G64 should not smooth over this point )
G00 Z0.50000 ( retract )

G00 X49.31080 Y34.84550 ( rapid move to begin. )
F300.00000
o7 call [49.3108] [34.8455]
G04 P0 ( dwell for no time -- G64 should not smooth over this point )
F600.00000
G04 P0 ( dwell for no time -- G64 should not smooth over this point )
G00 Z0.50000 ( retract )

G00 X46.77080 Y34.84550 ( rapid move to begin. )
F300.00000
o7 call [46.7708] [34.8455]
G04 P0 ( dwell for no time -- G64 should not smooth over this point )
F600.00000
G04 P0 ( dwell for no time -- G64 should not smooth over this point )
G00 Z0.50000 ( retract )

G00 X44.23080 Y34.84550 ( rapid move to begin. )
F300.00000
o7 call [44.2308] [34.8455]
G04 P0 ( dwell for no time -- G64 should not smooth over this point )
F600.00000
G04 P0 ( dwell for no time -- G64 should not smooth over this point )
G00 Z0.50000 ( retract )

G00 X41.69080 Y34.84550 ( rapid move to begin. )
F300.00000
o7 call [41.6908] [34.8455]
G04 P0 ( dwell for no time -- G64 should not smooth over this point )
F600.00000
G04 P0 ( dwell for no time -- G64 should not smooth over this point )
G00 Z0.50000 ( retract )

G00 X39.15080 Y34.84550 ( rapid move to begin. )
F300.00000
o7 call [39.1508] [34.8455]
G04 P0 ( dwell for no time -- G64 should not smooth over this point )
F600.00000
G04 P0 ( dwell for no time -- G64 should not smooth over this point )
G00 Z0.50000 ( retract )

G00 X36.61080 Y34.84550 ( rapid move to begin. )
F300.00000
o7 call [36.6108] [34.8455]
G04 P0 ( dwell for no time -- G64 should not smooth over this point )
F600.00000
G04 P0 ( dwell for no time -- G64 should not smooth over this point )
G00 Z0.50000 ( retract )

G00 X34.07080 Y34.84550 ( rapid move to begin. )
F300.00000
o7 call [34.0708] [34.8455]
G04 P0 ( dwell for no time -- G64 should not smooth over this point )
F600.00000
G04 P0 ( dwell for no time -- G64 should not smooth over this point )
G00 Z0.50000 ( retract )

G00 X31.53080 Y34.84550 ( rapid move to begin. )
F300.00000
o7 call [31.5308] [34.8455]
G04 P0 ( dwell for no time -- G64 should not smooth over this point )
F600.00000
G04 P0 ( dwell for no time -- G64 should not smooth over this point )
G00 Z0.50000 ( retract )

G00 X28.99080 Y34.84550 ( rapid move to begin. )
F300.00000
o7 call [28.9908] [34.8455]
G04 P0 ( dwell for no time -- G64 should not smooth over this point )
F600.00000
G04 P0 ( dwell for no time -- G64 should not smooth over this point )
G00 Z0.50000 ( retract )

G00 X26.45080 Y34.84550 ( rapid move to begin. )
F300.00000
o7 call [26.4508] [34.8455]
G04 P0 ( dwell for no time -- G64 should not smooth over this point )
F600.00000
G04 P0 ( dwell for no time -- G64 should not smooth over this point )
G00 Z0.50000 ( retract )

G00 X23.91080 Y34.84550 ( rapid move to begin. )
F300.00000
o7 call [23.9108] [34.8455]
G04 P0 ( dwell for no time -- G64 should not smooth over this point )
F600.00000
G04 P0 ( dwell for no time -- G64 should not smooth over this point )
G00 Z0.50000 ( retract )

G00 X21.37080 Y34.84550 ( rapid move to begin. )
F300.00000
o7 call [21.3708] [34.8455]
G04 P0 ( dwell for no time -- G64 should not smooth over this point )
F600.00000
G04 P0 ( dwell for no time -- G64 should not smooth over this point )
G00 Z0.50000 ( retract )

G00 X18.83080 Y34.84550 ( rapid move to begin. )
F300.00000
o7 call [18.8308] [34.8455]
G04 P0 ( dwell for no time -- G64 should not smooth over this point )
F600.00000
G04 P0 ( dwell for no time -- G64 should not smooth over this point )
G00 Z0.50000 ( retract )

G00 X16.29080 Y34.84550 ( rapid move to begin. )
F300.00000
o7 call [16.2908] [34.8455]
G04 P0 ( dwell for no time -- G64 should not smooth over this point )
F600.00000
G04 P0 ( dwell for no time -- G64 should not smooth over this point )
G00 Z0.50000 ( retract )

G00 X13.75080 Y34.84550 ( rapid move to begin. )
F300.00000
o7 call [13.7508] [34.8455]
G04 P0 ( dwell for no time -- G64 should not smooth over this point )
F600.00000
G04 P0 ( dwell for no time -- G64 should not smooth over this point )
G00 Z0.50000 ( retract )

G00 X11.21080 Y34.84550 ( rapid move to begin. )
F300.00000
o7 call [11.2108] [34.8455]
G04 P0 ( dwell for no time -- G64 should not smooth over this point )
F600.00000
G04 P0 ( dwell for no time -- G64 should not smooth over this point )
G00 Z0.50000 ( retract )

G00 X8.92480 Y34.84550 ( rapid move to begin. )
F300.00000
o7 call [8.9248] [34.8455]
G04 P0 ( dwell for no time -- G64 should not smooth over this point )
F600.00000
G04 P0 ( dwell for no time -- G64 should not smooth over this point )
G00 Z0.50000 ( retract )

G00 X5.87680 Y33.55010 ( rapid move to begin. )
F300.00000
o7 call [5.8768] [33.5501]
G04 P0 ( dwell for no time -- G64 should not smooth over this point )
F600.00000
G04 P0 ( dwell for no time -- G64 should not smooth over this point )
G00 Z0.50000 ( retract )

G00 X2.98120 Y33.55010 ( rapid move to begin. )
F300.00000
o7 call [2.9812] [33.5501]
G04 P0 ( dwell for no time -- G64 should not smooth over this point )
F600.00000
G04 P0 ( dwell for no time -- G64 should not smooth over this point )
G00 Z0.50000 ( retract )

G00 X67.09080 Y32.30550 ( rapid move to begin. )
F300.00000
o7 call [67.0908] [32.3055]
G04 P0 ( dwell for no time -- G64 should not smooth over this point )
F600.00000
G04 P0 ( dwell for no time -- G64 should not smooth over this point )
G00 Z0.50000 ( retract )

G00 X64.55080 Y32.30550 ( rapid move to begin. )
F300.00000
o7 call [64.5508] [32.3055]
G04 P0 ( dwell for no time -- G64 should not smooth over this point )
F600.00000
G04 P0 ( dwell for no time -- G64 should not smooth over this point )
G00 Z0.50000 ( retract )

G00 X62.01080 Y32.30550 ( rapid move to begin. )
F300.00000
o7 call [62.0108] [32.3055]
G04 P0 ( dwell for no time -- G64 should not smooth over this point )
F600.00000
G04 P0 ( dwell for no time -- G64 should not smooth over this point )
G00 Z0.50000 ( retract )

G00 X59.47080 Y32.30550 ( rapid move to begin. )
F300.00000
o7 call [59.4708] [32.3055]
G04 P0 ( dwell for no time -- G64 should not smooth over this point )
F600.00000
G04 P0 ( dwell for no time -- G64 should not smooth over this point )
G00 Z0.50000 ( retract )

G00 X56.93080 Y32.30550 ( rapid move to begin. )
F300.00000
o7 call [56.9308] [32.3055]
G04 P0 ( dwell for no time -- G64 should not smooth over this point )
F600.00000
G04 P0 ( dwell for no time -- G64 should not smooth over this point )
G00 Z0.50000 ( retract )

G00 X54.39080 Y32.30550 ( rapid move to begin. )
F300.00000
o7 call [54.3908] [32.3055]
G04 P0 ( dwell for no time -- G64 should not smooth over this point )
F600.00000
G04 P0 ( dwell for no time -- G64 should not smooth over this point )
G00 Z0.50000 ( retract )

G00 X51.85080 Y32.30550 ( rapid move to begin. )
F300.00000
o7 call [51.8508] [32.3055]
G04 P0 ( dwell for no time -- G64 should not smooth over this point )
F600.00000
G04 P0 ( dwell for no time -- G64 should not smooth over this point )
G00 Z0.50000 ( retract )

G00 X49.31080 Y32.30550 ( rapid move to begin. )
F300.00000
o7 call [49.3108] [32.3055]
G04 P0 ( dwell for no time -- G64 should not smooth over this point )
F600.00000
G04 P0 ( dwell for no time -- G64 should not smooth over this point )
G00 Z0.50000 ( retract )

G00 X46.77080 Y32.30550 ( rapid move to begin. )
F300.00000
o7 call [46.7708] [32.3055]
G04 P0 ( dwell for no time -- G64 should not smooth over this point )
F600.00000
G04 P0 ( dwell for no time -- G64 should not smooth over this point )
G00 Z0.50000 ( retract )

G00 X44.23080 Y32.30550 ( rapid move to begin. )
F300.00000
o7 call [44.2308] [32.3055]
G04 P0 ( dwell for no time -- G64 should not smooth over this point )
F600.00000
G04 P0 ( dwell for no time -- G64 should not smooth over this point )
G00 Z0.50000 ( retract )

G00 X41.69080 Y32.30550 ( rapid move to begin. )
F300.00000
o7 call [41.6908] [32.3055]
G04 P0 ( dwell for no time -- G64 should not smooth over this point )
F600.00000
G04 P0 ( dwell for no time -- G64 should not smooth over this point )
G00 Z0.50000 ( retract )

G00 X39.15080 Y32.30550 ( rapid move to begin. )
F300.00000
o7 call [39.1508] [32.3055]
G04 P0 ( dwell for no time -- G64 should not smooth over this point )
F600.00000
G04 P0 ( dwell for no time -- G64 should not smooth over this point )
G00 Z0.50000 ( retract )

G00 X36.61080 Y32.30550 ( rapid move to begin. )
F300.00000
o7 call [36.6108] [32.3055]
G04 P0 ( dwell for no time -- G64 should not smooth over this point )
F600.00000
G04 P0 ( dwell for no time -- G64 should not smooth over this point )
G00 Z0.50000 ( retract )

G00 X34.07080 Y32.30550 ( rapid move to begin. )
F300.00000
o7 call [34.0708] [32.3055]
G04 P0 ( dwell for no time -- G64 should not smooth over this point )
F600.00000
G04 P0 ( dwell for no time -- G64 should not smooth over this point )
G00 Z0.50000 ( retract )

G00 X31.53080 Y32.30550 ( rapid move to begin. )
F300.00000
o7 call [31.5308] [32.3055]
G04 P0 ( dwell for no time -- G64 should not smooth over this point )
F600.00000
G04 P0 ( dwell for no time -- G64 should not smooth over this point )
G00 Z0.50000 ( retract )

G00 X28.99080 Y32.30550 ( rapid move to begin. )
F300.00000
o7 call [28.9908] [32.3055]
G04 P0 ( dwell for no time -- G64 should not smooth over this point )
F600.00000
G04 P0 ( dwell for no time -- G64 should not smooth over this point )
G00 Z0.50000 ( retract )

G00 X26.45080 Y32.30550 ( rapid move to begin. )
F300.00000
o7 call [26.4508] [32.3055]
G04 P0 ( dwell for no time -- G64 should not smooth over this point )
F600.00000
G04 P0 ( dwell for no time -- G64 should not smooth over this point )
G00 Z0.50000 ( retract )

G00 X23.91080 Y32.30550 ( rapid move to begin. )
F300.00000
o7 call [23.9108] [32.3055]
G04 P0 ( dwell for no time -- G64 should not smooth over this point )
F600.00000
G04 P0 ( dwell for no time -- G64 should not smooth over this point )
G00 Z0.50000 ( retract )

G00 X21.37080 Y32.30550 ( rapid move to begin. )
F300.00000
o7 call [21.3708] [32.3055]
G04 P0 ( dwell for no time -- G64 should not smooth over this point )
F600.00000
G04 P0 ( dwell for no time -- G64 should not smooth over this point )
G00 Z0.50000 ( retract )

G00 X18.83080 Y32.30550 ( rapid move to begin. )
F300.00000
o7 call [18.8308] [32.3055]
G04 P0 ( dwell for no time -- G64 should not smooth over this point )
F600.00000
G04 P0 ( dwell for no time -- G64 should not smooth over this point )
G00 Z0.50000 ( retract )

G00 X16.29080 Y32.30550 ( rapid move to begin. )
F300.00000
o7 call [16.2908] [32.3055]
G04 P0 ( dwell for no time -- G64 should not smooth over this point )
F600.00000
G04 P0 ( dwell for no time -- G64 should not smooth over this point )
G00 Z0.50000 ( retract )

G00 X13.75080 Y32.30550 ( rapid move to begin. )
F300.00000
o7 call [13.7508] [32.3055]
G04 P0 ( dwell for no time -- G64 should not smooth over this point )
F600.00000
G04 P0 ( dwell for no time -- G64 should not smooth over this point )
G00 Z0.50000 ( retract )

G00 X11.21080 Y32.30550 ( rapid move to begin. )
F300.00000
o7 call [11.2108] [32.3055]
G04 P0 ( dwell for no time -- G64 should not smooth over this point )
F600.00000
G04 P0 ( dwell for no time -- G64 should not smooth over this point )
G00 Z0.50000 ( retract )

G00 X8.92480 Y32.30550 ( rapid move to begin. )
F300.00000
o7 call [8.9248] [32.3055]
G04 P0 ( dwell for no time -- G64 should not smooth over this point )
F600.00000
G04 P0 ( dwell for no time -- G64 should not smooth over this point )
G00 Z0.50000 ( retract )

G00 X5.87680 Y31.01010 ( rapid move to begin. )
F300.00000
o7 call [5.8768] [31.0101]
G04 P0 ( dwell for no time -- G64 should not smooth over this point )
F600.00000
G04 P0 ( dwell for no time -- G64 should not smooth over this point )
G00 Z0.50000 ( retract )

G00 X2.98120 Y31.01010 ( rapid move to begin. )
F300.00000
o7 call [2.9812] [31.0101]
G04 P0 ( dwell for no time -- G64 should not smooth over this point )
F600.00000
G04 P0 ( dwell for no time -- G64 should not smooth over this point )
G00 Z0.50000 ( retract )

G00 X67.09080 Y29.76550 ( rapid move to begin. )
F300.00000
o7 call [67.0908] [29.7655]
G04 P0 ( dwell for no time -- G64 should not smooth over this point )
F600.00000
G04 P0 ( dwell for no time -- G64 should not smooth over this point )
G00 Z0.50000 ( retract )

G00 X64.55080 Y29.76550 ( rapid move to begin. )
F300.00000
o7 call [64.5508] [29.7655]
G04 P0 ( dwell for no time -- G64 should not smooth over this point )
F600.00000
G04 P0 ( dwell for no time -- G64 should not smooth over this point )
G00 Z0.50000 ( retract )

G00 X62.01080 Y29.76550 ( rapid move to begin. )
F300.00000
o7 call [62.0108] [29.7655]
G04 P0 ( dwell for no time -- G64 should not smooth over this point )
F600.00000
G04 P0 ( dwell for no time -- G64 should not smooth over this point )
G00 Z0.50000 ( retract )

G00 X59.47080 Y29.76550 ( rapid move to begin. )
F300.00000
o7 call [59.4708] [29.7655]
G04 P0 ( dwell for no time -- G64 should not smooth over this point )
F600.00000
G04 P0 ( dwell for no time -- G64 should not smooth over this point )
G00 Z0.50000 ( retract )

G00 X56.93080 Y29.76550 ( rapid move to begin. )
F300.00000
o7 call [56.9308] [29.7655]
G04 P0 ( dwell for no time -- G64 should not smooth over this point )
F600.00000
G04 P0 ( dwell for no time -- G64 should not smooth over this point )
G00 Z0.50000 ( retract )

G00 X54.39080 Y29.76550 ( rapid move to begin. )
F300.00000
o7 call [54.3908] [29.7655]
G04 P0 ( dwell for no time -- G64 should not smooth over this point )
F600.00000
G04 P0 ( dwell for no time -- G64 should not smooth over this point )
G00 Z0.50000 ( retract )

G00 X51.85080 Y29.76550 ( rapid move to begin. )
F300.00000
o7 call [51.8508] [29.7655]
G04 P0 ( dwell for no time -- G64 should not smooth over this point )
F600.00000
G04 P0 ( dwell for no time -- G64 should not smooth over this point )
G00 Z0.50000 ( retract )

G00 X49.31080 Y29.76550 ( rapid move to begin. )
F300.00000
o7 call [49.3108] [29.7655]
G04 P0 ( dwell for no time -- G64 should not smooth over this point )
F600.00000
G04 P0 ( dwell for no time -- G64 should not smooth over this point )
G00 Z0.50000 ( retract )

G00 X46.77080 Y29.76550 ( rapid move to begin. )
F300.00000
o7 call [46.7708] [29.7655]
G04 P0 ( dwell for no time -- G64 should not smooth over this point )
F600.00000
G04 P0 ( dwell for no time -- G64 should not smooth over this point )
G00 Z0.50000 ( retract )

G00 X44.23080 Y29.76550 ( rapid move to begin. )
F300.00000
o7 call [44.2308] [29.7655]
G04 P0 ( dwell for no time -- G64 should not smooth over this point )
F600.00000
G04 P0 ( dwell for no time -- G64 should not smooth over this point )
G00 Z0.50000 ( retract )

G00 X41.69080 Y29.76550 ( rapid move to begin. )
F300.00000
o7 call [41.6908] [29.7655]
G04 P0 ( dwell for no time -- G64 should not smooth over this point )
F600.00000
G04 P0 ( dwell for no time -- G64 should not smooth over this point )
G00 Z0.50000 ( retract )

G00 X39.15080 Y29.76550 ( rapid move to begin. )
F300.00000
o7 call [39.1508] [29.7655]
G04 P0 ( dwell for no time -- G64 should not smooth over this point )
F600.00000
G04 P0 ( dwell for no time -- G64 should not smooth over this point )
G00 Z0.50000 ( retract )

G00 X36.61080 Y29.76550 ( rapid move to begin. )
F300.00000
o7 call [36.6108] [29.7655]
G04 P0 ( dwell for no time -- G64 should not smooth over this point )
F600.00000
G04 P0 ( dwell for no time -- G64 should not smooth over this point )
G00 Z0.50000 ( retract )

G00 X34.07080 Y29.76550 ( rapid move to begin. )
F300.00000
o7 call [34.0708] [29.7655]
G04 P0 ( dwell for no time -- G64 should not smooth over this point )
F600.00000
G04 P0 ( dwell for no time -- G64 should not smooth over this point )
G00 Z0.50000 ( retract )

G00 X31.53080 Y29.76550 ( rapid move to begin. )
F300.00000
o7 call [31.5308] [29.7655]
G04 P0 ( dwell for no time -- G64 should not smooth over this point )
F600.00000
G04 P0 ( dwell for no time -- G64 should not smooth over this point )
G00 Z0.50000 ( retract )

G00 X28.99080 Y29.76550 ( rapid move to begin. )
F300.00000
o7 call [28.9908] [29.7655]
G04 P0 ( dwell for no time -- G64 should not smooth over this point )
F600.00000
G04 P0 ( dwell for no time -- G64 should not smooth over this point )
G00 Z0.50000 ( retract )

G00 X26.45080 Y29.76550 ( rapid move to begin. )
F300.00000
o7 call [26.4508] [29.7655]
G04 P0 ( dwell for no time -- G64 should not smooth over this point )
F600.00000
G04 P0 ( dwell for no time -- G64 should not smooth over this point )
G00 Z0.50000 ( retract )

G00 X23.91080 Y29.76550 ( rapid move to begin. )
F300.00000
o7 call [23.9108] [29.7655]
G04 P0 ( dwell for no time -- G64 should not smooth over this point )
F600.00000
G04 P0 ( dwell for no time -- G64 should not smooth over this point )
G00 Z0.50000 ( retract )

G00 X21.37080 Y29.76550 ( rapid move to begin. )
F300.00000
o7 call [21.3708] [29.7655]
G04 P0 ( dwell for no time -- G64 should not smooth over this point )
F600.00000
G04 P0 ( dwell for no time -- G64 should not smooth over this point )
G00 Z0.50000 ( retract )

G00 X18.83080 Y29.76550 ( rapid move to begin. )
F300.00000
o7 call [18.8308] [29.7655]
G04 P0 ( dwell for no time -- G64 should not smooth over this point )
F600.00000
G04 P0 ( dwell for no time -- G64 should not smooth over this point )
G00 Z0.50000 ( retract )

G00 X16.29080 Y29.76550 ( rapid move to begin. )
F300.00000
o7 call [16.2908] [29.7655]
G04 P0 ( dwell for no time -- G64 should not smooth over this point )
F600.00000
G04 P0 ( dwell for no time -- G64 should not smooth over this point )
G00 Z0.50000 ( retract )

G00 X13.75080 Y29.76550 ( rapid move to begin. )
F300.00000
o7 call [13.7508] [29.7655]
G04 P0 ( dwell for no time -- G64 should not smooth over this point )
F600.00000
G04 P0 ( dwell for no time -- G64 should not smooth over this point )
G00 Z0.50000 ( retract )

G00 X11.21080 Y29.76550 ( rapid move to begin. )
F300.00000
o7 call [11.2108] [29.7655]
G04 P0 ( dwell for no time -- G64 should not smooth over this point )
F600.00000
G04 P0 ( dwell for no time -- G64 should not smooth over this point )
G00 Z0.50000 ( retract )

G00 X8.92480 Y29.76550 ( rapid move to begin. )
F300.00000
o7 call [8.9248] [29.7655]
G04 P0 ( dwell for no time -- G64 should not smooth over this point )
F600.00000
G04 P0 ( dwell for no time -- G64 should not smooth over this point )
G00 Z0.50000 ( retract )

G00 X6.13080 Y28.47010 ( rapid move to begin. )
F300.00000
o7 call [6.1308] [28.4701]
G04 P0 ( dwell for no time -- G64 should not smooth over this point )
F600.00000
G04 P0 ( dwell for no time -- G64 should not smooth over this point )
G00 Z0.50000 ( retract )

G00 X67.09080 Y27.22550 ( rapid move to begin. )
F300.00000
o7 call [67.0908] [27.2255]
G04 P0 ( dwell for no time -- G64 should not smooth over this point )
F600.00000
G04 P0 ( dwell for no time -- G64 should not smooth over this point )
G00 Z0.50000 ( retract )

G00 X64.55080 Y27.22550 ( rapid move to begin. )
F300.00000
o7 call [64.5508] [27.2255]
G04 P0 ( dwell for no time -- G64 should not smooth over this point )
F600.00000
G04 P0 ( dwell for no time -- G64 should not smooth over this point )
G00 Z0.50000 ( retract )

G00 X62.01080 Y27.22550 ( rapid move to begin. )
F300.00000
o7 call [62.0108] [27.2255]
G04 P0 ( dwell for no time -- G64 should not smooth over this point )
F600.00000
G04 P0 ( dwell for no time -- G64 should not smooth over this point )
G00 Z0.50000 ( retract )

G00 X59.47080 Y27.22550 ( rapid move to begin. )
F300.00000
o7 call [59.4708] [27.2255]
G04 P0 ( dwell for no time -- G64 should not smooth over this point )
F600.00000
G04 P0 ( dwell for no time -- G64 should not smooth over this point )
G00 Z0.50000 ( retract )

G00 X56.93080 Y27.22550 ( rapid move to begin. )
F300.00000
o7 call [56.9308] [27.2255]
G04 P0 ( dwell for no time -- G64 should not smooth over this point )
F600.00000
G04 P0 ( dwell for no time -- G64 should not smooth over this point )
G00 Z0.50000 ( retract )

G00 X54.39080 Y27.22550 ( rapid move to begin. )
F300.00000
o7 call [54.3908] [27.2255]
G04 P0 ( dwell for no time -- G64 should not smooth over this point )
F600.00000
G04 P0 ( dwell for no time -- G64 should not smooth over this point )
G00 Z0.50000 ( retract )

G00 X51.85080 Y27.22550 ( rapid move to begin. )
F300.00000
o7 call [51.8508] [27.2255]
G04 P0 ( dwell for no time -- G64 should not smooth over this point )
F600.00000
G04 P0 ( dwell for no time -- G64 should not smooth over this point )
G00 Z0.50000 ( retract )

G00 X49.31080 Y27.22550 ( rapid move to begin. )
F300.00000
o7 call [49.3108] [27.2255]
G04 P0 ( dwell for no time -- G64 should not smooth over this point )
F600.00000
G04 P0 ( dwell for no time -- G64 should not smooth over this point )
G00 Z0.50000 ( retract )

G00 X46.77080 Y27.22550 ( rapid move to begin. )
F300.00000
o7 call [46.7708] [27.2255]
G04 P0 ( dwell for no time -- G64 should not smooth over this point )
F600.00000
G04 P0 ( dwell for no time -- G64 should not smooth over this point )
G00 Z0.50000 ( retract )

G00 X44.23080 Y27.22550 ( rapid move to begin. )
F300.00000
o7 call [44.2308] [27.2255]
G04 P0 ( dwell for no time -- G64 should not smooth over this point )
F600.00000
G04 P0 ( dwell for no time -- G64 should not smooth over this point )
G00 Z0.50000 ( retract )

G00 X41.69080 Y27.22550 ( rapid move to begin. )
F300.00000
o7 call [41.6908] [27.2255]
G04 P0 ( dwell for no time -- G64 should not smooth over this point )
F600.00000
G04 P0 ( dwell for no time -- G64 should not smooth over this point )
G00 Z0.50000 ( retract )

G00 X39.15080 Y27.22550 ( rapid move to begin. )
F300.00000
o7 call [39.1508] [27.2255]
G04 P0 ( dwell for no time -- G64 should not smooth over this point )
F600.00000
G04 P0 ( dwell for no time -- G64 should not smooth over this point )
G00 Z0.50000 ( retract )

G00 X36.61080 Y27.22550 ( rapid move to begin. )
F300.00000
o7 call [36.6108] [27.2255]
G04 P0 ( dwell for no time -- G64 should not smooth over this point )
F600.00000
G04 P0 ( dwell for no time -- G64 should not smooth over this point )
G00 Z0.50000 ( retract )

G00 X34.07080 Y27.22550 ( rapid move to begin. )
F300.00000
o7 call [34.0708] [27.2255]
G04 P0 ( dwell for no time -- G64 should not smooth over this point )
F600.00000
G04 P0 ( dwell for no time -- G64 should not smooth over this point )
G00 Z0.50000 ( retract )

G00 X31.53080 Y27.22550 ( rapid move to begin. )
F300.00000
o7 call [31.5308] [27.2255]
G04 P0 ( dwell for no time -- G64 should not smooth over this point )
F600.00000
G04 P0 ( dwell for no time -- G64 should not smooth over this point )
G00 Z0.50000 ( retract )

G00 X28.99080 Y27.22550 ( rapid move to begin. )
F300.00000
o7 call [28.9908] [27.2255]
G04 P0 ( dwell for no time -- G64 should not smooth over this point )
F600.00000
G04 P0 ( dwell for no time -- G64 should not smooth over this point )
G00 Z0.50000 ( retract )

G00 X26.45080 Y27.22550 ( rapid move to begin. )
F300.00000
o7 call [26.4508] [27.2255]
G04 P0 ( dwell for no time -- G64 should not smooth over this point )
F600.00000
G04 P0 ( dwell for no time -- G64 should not smooth over this point )
G00 Z0.50000 ( retract )

G00 X23.91080 Y27.22550 ( rapid move to begin. )
F300.00000
o7 call [23.9108] [27.2255]
G04 P0 ( dwell for no time -- G64 should not smooth over this point )
F600.00000
G04 P0 ( dwell for no time -- G64 should not smooth over this point )
G00 Z0.50000 ( retract )

G00 X21.37080 Y27.22550 ( rapid move to begin. )
F300.00000
o7 call [21.3708] [27.2255]
G04 P0 ( dwell for no time -- G64 should not smooth over this point )
F600.00000
G04 P0 ( dwell for no time -- G64 should not smooth over this point )
G00 Z0.50000 ( retract )

G00 X18.83080 Y27.22550 ( rapid move to begin. )
F300.00000
o7 call [18.8308] [27.2255]
G04 P0 ( dwell for no time -- G64 should not smooth over this point )
F600.00000
G04 P0 ( dwell for no time -- G64 should not smooth over this point )
G00 Z0.50000 ( retract )

G00 X16.29080 Y27.22550 ( rapid move to begin. )
F300.00000
o7 call [16.2908] [27.2255]
G04 P0 ( dwell for no time -- G64 should not smooth over this point )
F600.00000
G04 P0 ( dwell for no time -- G64 should not smooth over this point )
G00 Z0.50000 ( retract )

G00 X13.75080 Y27.22550 ( rapid move to begin. )
F300.00000
o7 call [13.7508] [27.2255]
G04 P0 ( dwell for no time -- G64 should not smooth over this point )
F600.00000
G04 P0 ( dwell for no time -- G64 should not smooth over this point )
G00 Z0.50000 ( retract )

G00 X11.21080 Y27.22550 ( rapid move to begin. )
F300.00000
o7 call [11.2108] [27.2255]
G04 P0 ( dwell for no time -- G64 should not smooth over this point )
F600.00000
G04 P0 ( dwell for no time -- G64 should not smooth over this point )
G00 Z0.50000 ( retract )

G00 X8.92480 Y27.22550 ( rapid move to begin. )
F300.00000
o7 call [8.9248] [27.2255]
G04 P0 ( dwell for no time -- G64 should not smooth over this point )
F600.00000
G04 P0 ( dwell for no time -- G64 should not smooth over this point )
G00 Z0.50000 ( retract )

G00 X67.09080 Y24.68550 ( rapid move to begin. )
F300.00000
o7 call [67.0908] [24.6855]
G04 P0 ( dwell for no time -- G64 should not smooth over this point )
F600.00000
G04 P0 ( dwell for no time -- G64 should not smooth over this point )
G00 Z0.50000 ( retract )

G00 X64.55080 Y24.68550 ( rapid move to begin. )
F300.00000
o7 call [64.5508] [24.6855]
G04 P0 ( dwell for no time -- G64 should not smooth over this point )
F600.00000
G04 P0 ( dwell for no time -- G64 should not smooth over this point )
G00 Z0.50000 ( retract )

G00 X62.01080 Y24.68550 ( rapid move to begin. )
F300.00000
o7 call [62.0108] [24.6855]
G04 P0 ( dwell for no time -- G64 should not smooth over this point )
F600.00000
G04 P0 ( dwell for no time -- G64 should not smooth over this point )
G00 Z0.50000 ( retract )

G00 X59.47080 Y24.68550 ( rapid move to begin. )
F300.00000
o7 call [59.4708] [24.6855]
G04 P0 ( dwell for no time -- G64 should not smooth over this point )
F600.00000
G04 P0 ( dwell for no time -- G64 should not smooth over this point )
G00 Z0.50000 ( retract )

G00 X56.93080 Y24.68550 ( rapid move to begin. )
F300.00000
o7 call [56.9308] [24.6855]
G04 P0 ( dwell for no time -- G64 should not smooth over this point )
F600.00000
G04 P0 ( dwell for no time -- G64 should not smooth over this point )
G00 Z0.50000 ( retract )

G00 X54.39080 Y24.68550 ( rapid move to begin. )
F300.00000
o7 call [54.3908] [24.6855]
G04 P0 ( dwell for no time -- G64 should not smooth over this point )
F600.00000
G04 P0 ( dwell for no time -- G64 should not smooth over this point )
G00 Z0.50000 ( retract )

G00 X51.85080 Y24.68550 ( rapid move to begin. )
F300.00000
o7 call [51.8508] [24.6855]
G04 P0 ( dwell for no time -- G64 should not smooth over this point )
F600.00000
G04 P0 ( dwell for no time -- G64 should not smooth over this point )
G00 Z0.50000 ( retract )

G00 X49.31080 Y24.68550 ( rapid move to begin. )
F300.00000
o7 call [49.3108] [24.6855]
G04 P0 ( dwell for no time -- G64 should not smooth over this point )
F600.00000
G04 P0 ( dwell for no time -- G64 should not smooth over this point )
G00 Z0.50000 ( retract )

G00 X46.77080 Y24.68550 ( rapid move to begin. )
F300.00000
o7 call [46.7708] [24.6855]
G04 P0 ( dwell for no time -- G64 should not smooth over this point )
F600.00000
G04 P0 ( dwell for no time -- G64 should not smooth over this point )
G00 Z0.50000 ( retract )

G00 X44.23080 Y24.68550 ( rapid move to begin. )
F300.00000
o7 call [44.2308] [24.6855]
G04 P0 ( dwell for no time -- G64 should not smooth over this point )
F600.00000
G04 P0 ( dwell for no time -- G64 should not smooth over this point )
G00 Z0.50000 ( retract )

G00 X41.69080 Y24.68550 ( rapid move to begin. )
F300.00000
o7 call [41.6908] [24.6855]
G04 P0 ( dwell for no time -- G64 should not smooth over this point )
F600.00000
G04 P0 ( dwell for no time -- G64 should not smooth over this point )
G00 Z0.50000 ( retract )

G00 X39.15080 Y24.68550 ( rapid move to begin. )
F300.00000
o7 call [39.1508] [24.6855]
G04 P0 ( dwell for no time -- G64 should not smooth over this point )
F600.00000
G04 P0 ( dwell for no time -- G64 should not smooth over this point )
G00 Z0.50000 ( retract )

G00 X36.61080 Y24.68550 ( rapid move to begin. )
F300.00000
o7 call [36.6108] [24.6855]
G04 P0 ( dwell for no time -- G64 should not smooth over this point )
F600.00000
G04 P0 ( dwell for no time -- G64 should not smooth over this point )
G00 Z0.50000 ( retract )

G00 X34.07080 Y24.68550 ( rapid move to begin. )
F300.00000
o7 call [34.0708] [24.6855]
G04 P0 ( dwell for no time -- G64 should not smooth over this point )
F600.00000
G04 P0 ( dwell for no time -- G64 should not smooth over this point )
G00 Z0.50000 ( retract )

G00 X31.53080 Y24.68550 ( rapid move to begin. )
F300.00000
o7 call [31.5308] [24.6855]
G04 P0 ( dwell for no time -- G64 should not smooth over this point )
F600.00000
G04 P0 ( dwell for no time -- G64 should not smooth over this point )
G00 Z0.50000 ( retract )

G00 X28.99080 Y24.68550 ( rapid move to begin. )
F300.00000
o7 call [28.9908] [24.6855]
G04 P0 ( dwell for no time -- G64 should not smooth over this point )
F600.00000
G04 P0 ( dwell for no time -- G64 should not smooth over this point )
G00 Z0.50000 ( retract )

G00 X26.45080 Y24.68550 ( rapid move to begin. )
F300.00000
o7 call [26.4508] [24.6855]
G04 P0 ( dwell for no time -- G64 should not smooth over this point )
F600.00000
G04 P0 ( dwell for no time -- G64 should not smooth over this point )
G00 Z0.50000 ( retract )

G00 X23.91080 Y24.68550 ( rapid move to begin. )
F300.00000
o7 call [23.9108] [24.6855]
G04 P0 ( dwell for no time -- G64 should not smooth over this point )
F600.00000
G04 P0 ( dwell for no time -- G64 should not smooth over this point )
G00 Z0.50000 ( retract )

G00 X21.37080 Y24.68550 ( rapid move to begin. )
F300.00000
o7 call [21.3708] [24.6855]
G04 P0 ( dwell for no time -- G64 should not smooth over this point )
F600.00000
G04 P0 ( dwell for no time -- G64 should not smooth over this point )
G00 Z0.50000 ( retract )

G00 X18.83080 Y24.68550 ( rapid move to begin. )
F300.00000
o7 call [18.8308] [24.6855]
G04 P0 ( dwell for no time -- G64 should not smooth over this point )
F600.00000
G04 P0 ( dwell for no time -- G64 should not smooth over this point )
G00 Z0.50000 ( retract )

G00 X16.29080 Y24.68550 ( rapid move to begin. )
F300.00000
o7 call [16.2908] [24.6855]
G04 P0 ( dwell for no time -- G64 should not smooth over this point )
F600.00000
G04 P0 ( dwell for no time -- G64 should not smooth over this point )
G00 Z0.50000 ( retract )

G00 X13.75080 Y24.68550 ( rapid move to begin. )
F300.00000
o7 call [13.7508] [24.6855]
G04 P0 ( dwell for no time -- G64 should not smooth over this point )
F600.00000
G04 P0 ( dwell for no time -- G64 should not smooth over this point )
G00 Z0.50000 ( retract )

G00 X11.21080 Y24.68550 ( rapid move to begin. )
F300.00000
o7 call [11.2108] [24.6855]
G04 P0 ( dwell for no time -- G64 should not smooth over this point )
F600.00000
G04 P0 ( dwell for no time -- G64 should not smooth over this point )
G00 Z0.50000 ( retract )

G00 X8.92480 Y24.68550 ( rapid move to begin. )
F300.00000
o7 call [8.9248] [24.6855]
G04 P0 ( dwell for no time -- G64 should not smooth over this point )
F600.00000
G04 P0 ( dwell for no time -- G64 should not smooth over this point )
G00 Z0.50000 ( retract )

G00 X67.09080 Y22.14550 ( rapid move to begin. )
F300.00000
o7 call [67.0908] [22.1455]
G04 P0 ( dwell for no time -- G64 should not smooth over this point )
F600.00000
G04 P0 ( dwell for no time -- G64 should not smooth over this point )
G00 Z0.50000 ( retract )

G00 X64.55080 Y22.14550 ( rapid move to begin. )
F300.00000
o7 call [64.5508] [22.1455]
G04 P0 ( dwell for no time -- G64 should not smooth over this point )
F600.00000
G04 P0 ( dwell for no time -- G64 should not smooth over this point )
G00 Z0.50000 ( retract )

G00 X62.01080 Y22.14550 ( rapid move to begin. )
F300.00000
o7 call [62.0108] [22.1455]
G04 P0 ( dwell for no time -- G64 should not smooth over this point )
F600.00000
G04 P0 ( dwell for no time -- G64 should not smooth over this point )
G00 Z0.50000 ( retract )

G00 X59.47080 Y22.14550 ( rapid move to begin. )
F300.00000
o7 call [59.4708] [22.1455]
G04 P0 ( dwell for no time -- G64 should not smooth over this point )
F600.00000
G04 P0 ( dwell for no time -- G64 should not smooth over this point )
G00 Z0.50000 ( retract )

G00 X56.93080 Y22.14550 ( rapid move to begin. )
F300.00000
o7 call [56.9308] [22.1455]
G04 P0 ( dwell for no time -- G64 should not smooth over this point )
F600.00000
G04 P0 ( dwell for no time -- G64 should not smooth over this point )
G00 Z0.50000 ( retract )

G00 X54.39080 Y22.14550 ( rapid move to begin. )
F300.00000
o7 call [54.3908] [22.1455]
G04 P0 ( dwell for no time -- G64 should not smooth over this point )
F600.00000
G04 P0 ( dwell for no time -- G64 should not smooth over this point )
G00 Z0.50000 ( retract )

G00 X51.85080 Y22.14550 ( rapid move to begin. )
F300.00000
o7 call [51.8508] [22.1455]
G04 P0 ( dwell for no time -- G64 should not smooth over this point )
F600.00000
G04 P0 ( dwell for no time -- G64 should not smooth over this point )
G00 Z0.50000 ( retract )

G00 X49.31080 Y22.14550 ( rapid move to begin. )
F300.00000
o7 call [49.3108] [22.1455]
G04 P0 ( dwell for no time -- G64 should not smooth over this point )
F600.00000
G04 P0 ( dwell for no time -- G64 should not smooth over this point )
G00 Z0.50000 ( retract )

G00 X46.77080 Y22.14550 ( rapid move to begin. )
F300.00000
o7 call [46.7708] [22.1455]
G04 P0 ( dwell for no time -- G64 should not smooth over this point )
F600.00000
G04 P0 ( dwell for no time -- G64 should not smooth over this point )
G00 Z0.50000 ( retract )

G00 X44.23080 Y22.14550 ( rapid move to begin. )
F300.00000
o7 call [44.2308] [22.1455]
G04 P0 ( dwell for no time -- G64 should not smooth over this point )
F600.00000
G04 P0 ( dwell for no time -- G64 should not smooth over this point )
G00 Z0.50000 ( retract )

G00 X41.69080 Y22.14550 ( rapid move to begin. )
F300.00000
o7 call [41.6908] [22.1455]
G04 P0 ( dwell for no time -- G64 should not smooth over this point )
F600.00000
G04 P0 ( dwell for no time -- G64 should not smooth over this point )
G00 Z0.50000 ( retract )

G00 X39.15080 Y22.14550 ( rapid move to begin. )
F300.00000
o7 call [39.1508] [22.1455]
G04 P0 ( dwell for no time -- G64 should not smooth over this point )
F600.00000
G04 P0 ( dwell for no time -- G64 should not smooth over this point )
G00 Z0.50000 ( retract )

G00 X36.61080 Y22.14550 ( rapid move to begin. )
F300.00000
o7 call [36.6108] [22.1455]
G04 P0 ( dwell for no time -- G64 should not smooth over this point )
F600.00000
G04 P0 ( dwell for no time -- G64 should not smooth over this point )
G00 Z0.50000 ( retract )

G00 X34.07080 Y22.14550 ( rapid move to begin. )
F300.00000
o7 call [34.0708] [22.1455]
G04 P0 ( dwell for no time -- G64 should not smooth over this point )
F600.00000
G04 P0 ( dwell for no time -- G64 should not smooth over this point )
G00 Z0.50000 ( retract )

G00 X31.53080 Y22.14550 ( rapid move to begin. )
F300.00000
o7 call [31.5308] [22.1455]
G04 P0 ( dwell for no time -- G64 should not smooth over this point )
F600.00000
G04 P0 ( dwell for no time -- G64 should not smooth over this point )
G00 Z0.50000 ( retract )

G00 X28.99080 Y22.14550 ( rapid move to begin. )
F300.00000
o7 call [28.9908] [22.1455]
G04 P0 ( dwell for no time -- G64 should not smooth over this point )
F600.00000
G04 P0 ( dwell for no time -- G64 should not smooth over this point )
G00 Z0.50000 ( retract )

G00 X26.45080 Y22.14550 ( rapid move to begin. )
F300.00000
o7 call [26.4508] [22.1455]
G04 P0 ( dwell for no time -- G64 should not smooth over this point )
F600.00000
G04 P0 ( dwell for no time -- G64 should not smooth over this point )
G00 Z0.50000 ( retract )

G00 X23.91080 Y22.14550 ( rapid move to begin. )
F300.00000
o7 call [23.9108] [22.1455]
G04 P0 ( dwell for no time -- G64 should not smooth over this point )
F600.00000
G04 P0 ( dwell for no time -- G64 should not smooth over this point )
G00 Z0.50000 ( retract )

G00 X21.37080 Y22.14550 ( rapid move to begin. )
F300.00000
o7 call [21.3708] [22.1455]
G04 P0 ( dwell for no time -- G64 should not smooth over this point )
F600.00000
G04 P0 ( dwell for no time -- G64 should not smooth over this point )
G00 Z0.50000 ( retract )

G00 X18.83080 Y22.14550 ( rapid move to begin. )
F300.00000
o7 call [18.8308] [22.1455]
G04 P0 ( dwell for no time -- G64 should not smooth over this point )
F600.00000
G04 P0 ( dwell for no time -- G64 should not smooth over this point )
G00 Z0.50000 ( retract )

G00 X16.29080 Y22.14550 ( rapid move to begin. )
F300.00000
o7 call [16.2908] [22.1455]
G04 P0 ( dwell for no time -- G64 should not smooth over this point )
F600.00000
G04 P0 ( dwell for no time -- G64 should not smooth over this point )
G00 Z0.50000 ( retract )

G00 X13.75080 Y22.14550 ( rapid move to begin. )
F300.00000
o7 call [13.7508] [22.1455]
G04 P0 ( dwell for no time -- G64 should not smooth over this point )
F600.00000
G04 P0 ( dwell for no time -- G64 should not smooth over this point )
G00 Z0.50000 ( retract )

G00 X11.21080 Y22.14550 ( rapid move to begin. )
F300.00000
o7 call [11.2108] [22.1455]
G04 P0 ( dwell for no time -- G64 should not smooth over this point )
F600.00000
G04 P0 ( dwell for no time -- G64 should not smooth over this point )
G00 Z0.50000 ( retract )

G00 X8.92480 Y22.14550 ( rapid move to begin. )
F300.00000
o7 call [8.9248] [22.1455]
G04 P0 ( dwell for no time -- G64 should not smooth over this point )
F600.00000
G04 P0 ( dwell for no time -- G64 should not smooth over this point )
G00 Z0.50000 ( retract )

G00 X67.09080 Y19.60550 ( rapid move to begin. )
F300.00000
o7 call [67.0908] [19.6055]
G04 P0 ( dwell for no time -- G64 should not smooth over this point )
F600.00000
G04 P0 ( dwell for no time -- G64 should not smooth over this point )
G00 Z0.50000 ( retract )

G00 X64.55080 Y19.60550 ( rapid move to begin. )
F300.00000
o7 call [64.5508] [19.6055]
G04 P0 ( dwell for no time -- G64 should not smooth over this point )
F600.00000
G04 P0 ( dwell for no time -- G64 should not smooth over this point )
G00 Z0.50000 ( retract )

G00 X62.01080 Y19.60550 ( rapid move to begin. )
F300.00000
o7 call [62.0108] [19.6055]
G04 P0 ( dwell for no time -- G64 should not smooth over this point )
F600.00000
G04 P0 ( dwell for no time -- G64 should not smooth over this point )
G00 Z0.50000 ( retract )

G00 X59.47080 Y19.60550 ( rapid move to begin. )
F300.00000
o7 call [59.4708] [19.6055]
G04 P0 ( dwell for no time -- G64 should not smooth over this point )
F600.00000
G04 P0 ( dwell for no time -- G64 should not smooth over this point )
G00 Z0.50000 ( retract )

G00 X56.93080 Y19.60550 ( rapid move to begin. )
F300.00000
o7 call [56.9308] [19.6055]
G04 P0 ( dwell for no time -- G64 should not smooth over this point )
F600.00000
G04 P0 ( dwell for no time -- G64 should not smooth over this point )
G00 Z0.50000 ( retract )

G00 X54.39080 Y19.60550 ( rapid move to begin. )
F300.00000
o7 call [54.3908] [19.6055]
G04 P0 ( dwell for no time -- G64 should not smooth over this point )
F600.00000
G04 P0 ( dwell for no time -- G64 should not smooth over this point )
G00 Z0.50000 ( retract )

G00 X51.85080 Y19.60550 ( rapid move to begin. )
F300.00000
o7 call [51.8508] [19.6055]
G04 P0 ( dwell for no time -- G64 should not smooth over this point )
F600.00000
G04 P0 ( dwell for no time -- G64 should not smooth over this point )
G00 Z0.50000 ( retract )

G00 X49.31080 Y19.60550 ( rapid move to begin. )
F300.00000
o7 call [49.3108] [19.6055]
G04 P0 ( dwell for no time -- G64 should not smooth over this point )
F600.00000
G04 P0 ( dwell for no time -- G64 should not smooth over this point )
G00 Z0.50000 ( retract )

G00 X46.77080 Y19.60550 ( rapid move to begin. )
F300.00000
o7 call [46.7708] [19.6055]
G04 P0 ( dwell for no time -- G64 should not smooth over this point )
F600.00000
G04 P0 ( dwell for no time -- G64 should not smooth over this point )
G00 Z0.50000 ( retract )

G00 X44.23080 Y19.60550 ( rapid move to begin. )
F300.00000
o7 call [44.2308] [19.6055]
G04 P0 ( dwell for no time -- G64 should not smooth over this point )
F600.00000
G04 P0 ( dwell for no time -- G64 should not smooth over this point )
G00 Z0.50000 ( retract )

G00 X41.69080 Y19.60550 ( rapid move to begin. )
F300.00000
o7 call [41.6908] [19.6055]
G04 P0 ( dwell for no time -- G64 should not smooth over this point )
F600.00000
G04 P0 ( dwell for no time -- G64 should not smooth over this point )
G00 Z0.50000 ( retract )

G00 X39.15080 Y19.60550 ( rapid move to begin. )
F300.00000
o7 call [39.1508] [19.6055]
G04 P0 ( dwell for no time -- G64 should not smooth over this point )
F600.00000
G04 P0 ( dwell for no time -- G64 should not smooth over this point )
G00 Z0.50000 ( retract )

G00 X36.61080 Y19.60550 ( rapid move to begin. )
F300.00000
o7 call [36.6108] [19.6055]
G04 P0 ( dwell for no time -- G64 should not smooth over this point )
F600.00000
G04 P0 ( dwell for no time -- G64 should not smooth over this point )
G00 Z0.50000 ( retract )

G00 X34.07080 Y19.60550 ( rapid move to begin. )
F300.00000
o7 call [34.0708] [19.6055]
G04 P0 ( dwell for no time -- G64 should not smooth over this point )
F600.00000
G04 P0 ( dwell for no time -- G64 should not smooth over this point )
G00 Z0.50000 ( retract )

G00 X31.53080 Y19.60550 ( rapid move to begin. )
F300.00000
o7 call [31.5308] [19.6055]
G04 P0 ( dwell for no time -- G64 should not smooth over this point )
F600.00000
G04 P0 ( dwell for no time -- G64 should not smooth over this point )
G00 Z0.50000 ( retract )

G00 X28.99080 Y19.60550 ( rapid move to begin. )
F300.00000
o7 call [28.9908] [19.6055]
G04 P0 ( dwell for no time -- G64 should not smooth over this point )
F600.00000
G04 P0 ( dwell for no time -- G64 should not smooth over this point )
G00 Z0.50000 ( retract )

G00 X26.45080 Y19.60550 ( rapid move to begin. )
F300.00000
o7 call [26.4508] [19.6055]
G04 P0 ( dwell for no time -- G64 should not smooth over this point )
F600.00000
G04 P0 ( dwell for no time -- G64 should not smooth over this point )
G00 Z0.50000 ( retract )

G00 X23.91080 Y19.60550 ( rapid move to begin. )
F300.00000
o7 call [23.9108] [19.6055]
G04 P0 ( dwell for no time -- G64 should not smooth over this point )
F600.00000
G04 P0 ( dwell for no time -- G64 should not smooth over this point )
G00 Z0.50000 ( retract )

G00 X21.37080 Y19.60550 ( rapid move to begin. )
F300.00000
o7 call [21.3708] [19.6055]
G04 P0 ( dwell for no time -- G64 should not smooth over this point )
F600.00000
G04 P0 ( dwell for no time -- G64 should not smooth over this point )
G00 Z0.50000 ( retract )

G00 X18.83080 Y19.60550 ( rapid move to begin. )
F300.00000
o7 call [18.8308] [19.6055]
G04 P0 ( dwell for no time -- G64 should not smooth over this point )
F600.00000
G04 P0 ( dwell for no time -- G64 should not smooth over this point )
G00 Z0.50000 ( retract )

G00 X16.29080 Y19.60550 ( rapid move to begin. )
F300.00000
o7 call [16.2908] [19.6055]
G04 P0 ( dwell for no time -- G64 should not smooth over this point )
F600.00000
G04 P0 ( dwell for no time -- G64 should not smooth over this point )
G00 Z0.50000 ( retract )

G00 X13.75080 Y19.60550 ( rapid move to begin. )
F300.00000
o7 call [13.7508] [19.6055]
G04 P0 ( dwell for no time -- G64 should not smooth over this point )
F600.00000
G04 P0 ( dwell for no time -- G64 should not smooth over this point )
G00 Z0.50000 ( retract )

G00 X11.21080 Y19.60550 ( rapid move to begin. )
F300.00000
o7 call [11.2108] [19.6055]
G04 P0 ( dwell for no time -- G64 should not smooth over this point )
F600.00000
G04 P0 ( dwell for no time -- G64 should not smooth over this point )
G00 Z0.50000 ( retract )

G00 X8.92480 Y19.60550 ( rapid move to begin. )
F300.00000
o7 call [8.9248] [19.6055]
G04 P0 ( dwell for no time -- G64 should not smooth over this point )
F600.00000
G04 P0 ( dwell for no time -- G64 should not smooth over this point )
G00 Z0.50000 ( retract )

G00 X67.09080 Y17.06550 ( rapid move to begin. )
F300.00000
o7 call [67.0908] [17.0655]
G04 P0 ( dwell for no time -- G64 should not smooth over this point )
F600.00000
G04 P0 ( dwell for no time -- G64 should not smooth over this point )
G00 Z0.50000 ( retract )

G00 X64.55080 Y17.06550 ( rapid move to begin. )
F300.00000
o7 call [64.5508] [17.0655]
G04 P0 ( dwell for no time -- G64 should not smooth over this point )
F600.00000
G04 P0 ( dwell for no time -- G64 should not smooth over this point )
G00 Z0.50000 ( retract )

G00 X62.01080 Y17.06550 ( rapid move to begin. )
F300.00000
o7 call [62.0108] [17.0655]
G04 P0 ( dwell for no time -- G64 should not smooth over this point )
F600.00000
G04 P0 ( dwell for no time -- G64 should not smooth over this point )
G00 Z0.50000 ( retract )

G00 X59.47080 Y17.06550 ( rapid move to begin. )
F300.00000
o7 call [59.4708] [17.0655]
G04 P0 ( dwell for no time -- G64 should not smooth over this point )
F600.00000
G04 P0 ( dwell for no time -- G64 should not smooth over this point )
G00 Z0.50000 ( retract )

G00 X56.93080 Y17.06550 ( rapid move to begin. )
F300.00000
o7 call [56.9308] [17.0655]
G04 P0 ( dwell for no time -- G64 should not smooth over this point )
F600.00000
G04 P0 ( dwell for no time -- G64 should not smooth over this point )
G00 Z0.50000 ( retract )

G00 X54.39080 Y17.06550 ( rapid move to begin. )
F300.00000
o7 call [54.3908] [17.0655]
G04 P0 ( dwell for no time -- G64 should not smooth over this point )
F600.00000
G04 P0 ( dwell for no time -- G64 should not smooth over this point )
G00 Z0.50000 ( retract )

G00 X51.85080 Y17.06550 ( rapid move to begin. )
F300.00000
o7 call [51.8508] [17.0655]
G04 P0 ( dwell for no time -- G64 should not smooth over this point )
F600.00000
G04 P0 ( dwell for no time -- G64 should not smooth over this point )
G00 Z0.50000 ( retract )

G00 X49.31080 Y17.06550 ( rapid move to begin. )
F300.00000
o7 call [49.3108] [17.0655]
G04 P0 ( dwell for no time -- G64 should not smooth over this point )
F600.00000
G04 P0 ( dwell for no time -- G64 should not smooth over this point )
G00 Z0.50000 ( retract )

G00 X46.77080 Y17.06550 ( rapid move to begin. )
F300.00000
o7 call [46.7708] [17.0655]
G04 P0 ( dwell for no time -- G64 should not smooth over this point )
F600.00000
G04 P0 ( dwell for no time -- G64 should not smooth over this point )
G00 Z0.50000 ( retract )

G00 X44.23080 Y17.06550 ( rapid move to begin. )
F300.00000
o7 call [44.2308] [17.0655]
G04 P0 ( dwell for no time -- G64 should not smooth over this point )
F600.00000
G04 P0 ( dwell for no time -- G64 should not smooth over this point )
G00 Z0.50000 ( retract )

G00 X41.69080 Y17.06550 ( rapid move to begin. )
F300.00000
o7 call [41.6908] [17.0655]
G04 P0 ( dwell for no time -- G64 should not smooth over this point )
F600.00000
G04 P0 ( dwell for no time -- G64 should not smooth over this point )
G00 Z0.50000 ( retract )

G00 X39.15080 Y17.06550 ( rapid move to begin. )
F300.00000
o7 call [39.1508] [17.0655]
G04 P0 ( dwell for no time -- G64 should not smooth over this point )
F600.00000
G04 P0 ( dwell for no time -- G64 should not smooth over this point )
G00 Z0.50000 ( retract )

G00 X36.61080 Y17.06550 ( rapid move to begin. )
F300.00000
o7 call [36.6108] [17.0655]
G04 P0 ( dwell for no time -- G64 should not smooth over this point )
F600.00000
G04 P0 ( dwell for no time -- G64 should not smooth over this point )
G00 Z0.50000 ( retract )

G00 X34.07080 Y17.06550 ( rapid move to begin. )
F300.00000
o7 call [34.0708] [17.0655]
G04 P0 ( dwell for no time -- G64 should not smooth over this point )
F600.00000
G04 P0 ( dwell for no time -- G64 should not smooth over this point )
G00 Z0.50000 ( retract )

G00 X31.53080 Y17.06550 ( rapid move to begin. )
F300.00000
o7 call [31.5308] [17.0655]
G04 P0 ( dwell for no time -- G64 should not smooth over this point )
F600.00000
G04 P0 ( dwell for no time -- G64 should not smooth over this point )
G00 Z0.50000 ( retract )

G00 X28.99080 Y17.06550 ( rapid move to begin. )
F300.00000
o7 call [28.9908] [17.0655]
G04 P0 ( dwell for no time -- G64 should not smooth over this point )
F600.00000
G04 P0 ( dwell for no time -- G64 should not smooth over this point )
G00 Z0.50000 ( retract )

G00 X26.45080 Y17.06550 ( rapid move to begin. )
F300.00000
o7 call [26.4508] [17.0655]
G04 P0 ( dwell for no time -- G64 should not smooth over this point )
F600.00000
G04 P0 ( dwell for no time -- G64 should not smooth over this point )
G00 Z0.50000 ( retract )

G00 X23.91080 Y17.06550 ( rapid move to begin. )
F300.00000
o7 call [23.9108] [17.0655]
G04 P0 ( dwell for no time -- G64 should not smooth over this point )
F600.00000
G04 P0 ( dwell for no time -- G64 should not smooth over this point )
G00 Z0.50000 ( retract )

G00 X21.37080 Y17.06550 ( rapid move to begin. )
F300.00000
o7 call [21.3708] [17.0655]
G04 P0 ( dwell for no time -- G64 should not smooth over this point )
F600.00000
G04 P0 ( dwell for no time -- G64 should not smooth over this point )
G00 Z0.50000 ( retract )

G00 X18.83080 Y17.06550 ( rapid move to begin. )
F300.00000
o7 call [18.8308] [17.0655]
G04 P0 ( dwell for no time -- G64 should not smooth over this point )
F600.00000
G04 P0 ( dwell for no time -- G64 should not smooth over this point )
G00 Z0.50000 ( retract )

G00 X16.29080 Y17.06550 ( rapid move to begin. )
F300.00000
o7 call [16.2908] [17.0655]
G04 P0 ( dwell for no time -- G64 should not smooth over this point )
F600.00000
G04 P0 ( dwell for no time -- G64 should not smooth over this point )
G00 Z0.50000 ( retract )

G00 X13.75080 Y17.06550 ( rapid move to begin. )
F300.00000
o7 call [13.7508] [17.0655]
G04 P0 ( dwell for no time -- G64 should not smooth over this point )
F600.00000
G04 P0 ( dwell for no time -- G64 should not smooth over this point )
G00 Z0.50000 ( retract )

G00 X11.21080 Y17.06550 ( rapid move to begin. )
F300.00000
o7 call [11.2108] [17.0655]
G04 P0 ( dwell for no time -- G64 should not smooth over this point )
F600.00000
G04 P0 ( dwell for no time -- G64 should not smooth over this point )
G00 Z0.50000 ( retract )

G00 X8.92480 Y17.06550 ( rapid move to begin. )
F300.00000
o7 call [8.9248] [17.0655]
G04 P0 ( dwell for no time -- G64 should not smooth over this point )
F600.00000
G04 P0 ( dwell for no time -- G64 should not smooth over this point )
G00 Z0.50000 ( retract )

G00 X67.09080 Y14.52550 ( rapid move to begin. )
F300.00000
o7 call [67.0908] [14.5255]
G04 P0 ( dwell for no time -- G64 should not smooth over this point )
F600.00000
G04 P0 ( dwell for no time -- G64 should not smooth over this point )
G00 Z0.50000 ( retract )

G00 X64.55080 Y14.52550 ( rapid move to begin. )
F300.00000
o7 call [64.5508] [14.5255]
G04 P0 ( dwell for no time -- G64 should not smooth over this point )
F600.00000
G04 P0 ( dwell for no time -- G64 should not smooth over this point )
G00 Z0.50000 ( retract )

G00 X62.01080 Y14.52550 ( rapid move to begin. )
F300.00000
o7 call [62.0108] [14.5255]
G04 P0 ( dwell for no time -- G64 should not smooth over this point )
F600.00000
G04 P0 ( dwell for no time -- G64 should not smooth over this point )
G00 Z0.50000 ( retract )

G00 X59.47080 Y14.52550 ( rapid move to begin. )
F300.00000
o7 call [59.4708] [14.5255]
G04 P0 ( dwell for no time -- G64 should not smooth over this point )
F600.00000
G04 P0 ( dwell for no time -- G64 should not smooth over this point )
G00 Z0.50000 ( retract )

G00 X56.93080 Y14.52550 ( rapid move to begin. )
F300.00000
o7 call [56.9308] [14.5255]
G04 P0 ( dwell for no time -- G64 should not smooth over this point )
F600.00000
