( pcb2gcode 1.3.0 )
( Gcode for LinuxCNC )


G94 ( Millimeters per minute feed rate. )
G21 ( Units == Millimeters. )

G90 ( Absolute coordinates. )
S10000 ( RPM spindle speed. )
G64 P0.00200 ( set maximum deviation from commanded toolpath )
F600.00000 ( Feedrate. )

o2 sub ( G01 with Z-correction subroutine )
    #3 = [ #5211 - #107 ] ( x-tile offset [minus the initial offset] )
    #4 = [ #5212 - #108 ] ( y-tile offset [minus the initial offset] )
    #5 = [ FIX[ [ #1 - 1.05588 + #3 ] / 10.27310 ] ] ( Lower left point X index )
    #6 = [ FIX[ [ #2 - 1.29718 + #4 ] / 10.20350 ] ] ( Lower left point Y index )
    #7 = [ #5 * 12 + [ #6 + 1 ] + 500 ] ( Upper left point parameter number )
    #8 = [ [ #5 + 1 ] *12 + [ #6 + 1 ] + 500 ] ( Upper right point parameter number )
    #9 = [ #5 * 12 + #6 + 500 ] ( Lower left point parameter number )
    #10 = [ [ #5 + 1 ] * 12 + #6 + 500 ] ( Lower right point parameter number )
    #11 = [ [ #2 + #4 - 1.29718 - #6 * 10.20350 ] / 10.20350 ] ( Distance between the point and the left border of the rectangle, normalized to 1 )
    #12 = [ [ #1 + #3 - 1.05588 - #5 * 10.27310 ] / 10.27310 ] ( Distance between the point and the bottom border of the rectangle, normalized to 1 ) 
    #13 = [ ##9 + [ ##7 - ##9 ] * #11 ] ( Linear interpolation of the x-min elements )
    #14 = [ ##10 + [ ##8 - ##10 ] * #11 ] ( Linear interpolation of the x-max elements )
    #15 = [ #13 + [ #14 - #13 ] * #12 ] ( Linear interpolation of previously interpolated points )
    G01 X#1 Y#2 Z[-0.07500+#15]
o2 endsub

o3 sub ( Y probe subroutine )
    G0 Z0.500 ( Move to probe height )
    X[#101 * 10.27310 + 1.05588] Y[#102 * 10.20350 + 1.29718] ( Move to the current probe point )
    G38.2 Z-3 F100.000000 ( Probe it )
    #[#101 * 12 + #102 + 500] = #5063 ( Save the probe in the correct parameter )
    #102 = [#102 + #103] ( Increment/decrement by 1 the Y counter )
o3 endsub

o4 sub ( X probe subroutine )
    o5 repeat [#104]
        o3 call
    o5 endrepeat
    #104 = 12
    #103 = [0 - #103]
    #102 = [#102 + #103]
    #101 = [#101 + 1] ( Increment by 1 the X counter )
o4 endsub

#107 = #5211
#108 = #5212

(MSG, Attach the probe tool)
M0 ( Temporary machine stop. )
G0 Z0.500 ( Move Z to safe height )
G0 X1.05588 Y1.29718 ( Move XY to start point )
G0 Z0.500 ( Move Z to probe height )
(PROBEOPEN RawProbeLog.txt) ( Record all probes in RawProbeLog.txt )
G38.2 Z-3 F100.000000 ( Z-probe )
#500 = 0 ( Probe point [0, 0] is our reference )
G10 L20 P0 Z0 ( Set the current Z as zero-value )

( We now start the real probing: move the Z axis to the probing height, move to )
( the probing XY position, probe it and save the result, parameter #5063, )
( in a numbered parameter; we will make 15 probes on the X-axis and )
( 12 probes on the Y-axis, for a grand total of 180 probes )

#101 = 0 ( X iterator )
#102 = 1 ( Y iterator )
#103 = 1 ( UP or DOWN increment )
#104 = 11 ( number of Y points; the 1st Y row can be done one time less )
o6 repeat [15]
    o4 call
o6 endrepeat

G0 Z0.500 ( Move Z to safe height )
(PROBECLOSE) ( Close the probe log file )
( Probing has ended, each Z-coordinate will be corrected with a bilinear interpolation )
(MSG, Detach the probe tool)
M0 ( Temporary machine stop. )

F600.00000 ( Feedrate. )
M3 ( Spindle on clockwise. )

o1 sub ( Main subroutine )

G04 P0 ( dwell for no time -- G64 should not smooth over this point )
G00 Z0.50000 ( retract )

G00 X5.52120 Y6.11810 ( rapid move to begin. )
F300.00000
o2 call [5.5212] [6.1181]
G04 P0 ( dwell for no time -- G64 should not smooth over this point )
F600.00000
o2 call [5.5212] [2.9685]
o2 call [8.4168] [2.9685]
o2 call [8.4168] [6.7531]
o2 call [5.5212] [6.7531]
o2 call [5.5212] [6.1181]
G04 P0 ( dwell for no time -- G64 should not smooth over this point )
G00 Z0.50000 ( retract )

G00 X8.41680 Y6.11810 ( rapid move to begin. )
F300.00000
o2 call [8.4168] [6.1181]
G04 P0 ( dwell for no time -- G64 should not smooth over this point )
F600.00000
o2 call [8.4168] [2.9685]
o2 call [10.9568] [2.9685]
o2 call [10.9568] [6.7531]
o2 call [8.4168] [6.7531]
o2 call [8.4168] [6.1181]
G04 P0 ( dwell for no time -- G64 should not smooth over this point )
G00 Z0.50000 ( retract )

G00 X10.95680 Y6.11810 ( rapid move to begin. )
F300.00000
o2 call [10.9568] [6.1181]
G04 P0 ( dwell for no time -- G64 should not smooth over this point )
F600.00000
o2 call [10.9568] [2.9685]
o2 call [13.4968] [2.9685]
o2 call [13.4968] [6.7531]
o2 call [10.9568] [6.7531]
o2 call [10.9568] [6.1181]
G04 P0 ( dwell for no time -- G64 should not smooth over this point )
G00 Z0.50000 ( retract )

G00 X13.49680 Y6.11810 ( rapid move to begin. )
F300.00000
o2 call [13.4968] [6.1181]
G04 P0 ( dwell for no time -- G64 should not smooth over this point )
F600.00000
o2 call [13.4968] [2.9685]
o2 call [16.0368] [2.9685]
o2 call [16.0368] [6.7531]
o2 call [13.4968] [6.7531]
o2 call [13.4968] [6.1181]
G04 P0 ( dwell for no time -- G64 should not smooth over this point )
G00 Z0.50000 ( retract )

G00 X16.03680 Y6.11810 ( rapid move to begin. )
F300.00000
o2 call [16.0368] [6.1181]
G04 P0 ( dwell for no time -- G64 should not smooth over this point )
F600.00000
o2 call [16.0368] [2.9685]
o2 call [18.5768] [2.9685]
o2 call [18.5768] [6.7531]
o2 call [16.0368] [6.7531]
o2 call [16.0368] [6.1181]
G04 P0 ( dwell for no time -- G64 should not smooth over this point )
G00 Z0.50000 ( retract )

G00 X18.57680 Y6.11810 ( rapid move to begin. )
F300.00000
o2 call [18.5768] [6.1181]
G04 P0 ( dwell for no time -- G64 should not smooth over this point )
F600.00000
o2 call [18.5768] [2.9685]
o2 call [21.3454] [2.9685]
o2 call [21.3708] [6.7531]
o2 call [18.5768] [6.7531]
o2 call [18.5768] [6.1181]
G04 P0 ( dwell for no time -- G64 should not smooth over this point )
G00 Z0.50000 ( retract )

G00 X18.83080 Y9.44550 ( rapid move to begin. )
F300.00000
o2 call [18.8308] [9.4455]
G04 P0 ( dwell for no time -- G64 should not smooth over this point )
F600.00000
o2 call [18.8308] [8.1247]
o2 call [18.907] [8.1247]
o2 call [18.9832] [8.0485]
o2 call [19.0086] [7.9469]
o2 call [19.3896] [7.5659]
o2 call [19.8214] [7.3881]
o2 call [20.3802] [7.3881]
o2 call [20.431] [7.4389]
o2 call [20.5072] [7.4389]
o2 call [20.6088] [7.5151]
o2 call [20.685] [7.5151]
o2 call [20.8882] [7.6167]
o2 call [21.2184] [7.9469]
o2 call [21.2438] [8.0485]
o2 call [21.32] [8.1247]
o2 call [21.3708] [8.1247]
o2 call [21.3708] [9.9281]
o2 call [18.8308] [9.9281]
o2 call [18.8308] [9.4455]
G04 P0 ( dwell for no time -- G64 should not smooth over this point )
G00 Z0.50000 ( retract )

G00 X16.29080 Y9.44550 ( rapid move to begin. )
F300.00000
o2 call [16.2908] [9.4455]
G04 P0 ( dwell for no time -- G64 should not smooth over this point )
F600.00000
o2 call [16.2908] [8.1247]
o2 call [16.367] [8.1247]
o2 call [16.4178] [8.0739]
o2 call [16.4686] [7.9469]
o2 call [16.8496] [7.5659]
o2 call [17.2814] [7.3881]
o2 call [17.8402] [7.3881]
o2 call [17.891] [7.4389]
o2 call [17.9672] [7.4389]
o2 call [18.0688] [7.5151]
o2 call [18.145] [7.5151]
o2 call [18.3482] [7.6167]
o2 call [18.6784] [7.9469]
o2 call [18.7038] [8.0485]
o2 call [18.78] [8.1247]
o2 call [18.8308] [8.1247]
o2 call [18.8308] [9.9281]
o2 call [16.2908] [9.9281]
o2 call [16.2908] [9.4455]
G04 P0 ( dwell for no time -- G64 should not smooth over this point )
G00 Z0.50000 ( retract )

G00 X13.75080 Y9.44550 ( rapid move to begin. )
F300.00000
o2 call [13.7508] [9.4455]
G04 P0 ( dwell for no time -- G64 should not smooth over this point )
F600.00000
o2 call [13.7508] [8.1247]
o2 call [13.8524] [8.0993]
o2 call [13.9286] [7.9469]
o2 call [14.3096] [7.5659]
o2 call [14.7414] [7.3881]
o2 call [15.3002] [7.3881]
o2 call [15.351] [7.4389]
o2 call [15.4272] [7.4389]
o2 call [15.5288] [7.5151]
o2 call [15.605] [7.5151]
o2 call [15.8082] [7.6167]
o2 call [16.1384] [7.9469]
o2 call [16.1638] [8.0485]
o2 call [16.24] [8.1247]
o2 call [16.2908] [8.1247]
o2 call [16.2908] [9.9281]
o2 call [13.7508] [9.9281]
o2 call [13.7508] [9.4455]
G04 P0 ( dwell for no time -- G64 should not smooth over this point )
G00 Z0.50000 ( retract )

G00 X11.21080 Y9.44550 ( rapid move to begin. )
F300.00000
o2 call [11.2108] [9.4455]
G04 P0 ( dwell for no time -- G64 should not smooth over this point )
F600.00000
o2 call [11.2108] [8.1247]
o2 call [11.287] [8.1247]
o2 call [11.3632] [8.0485]
o2 call [11.3886] [7.9469]
o2 call [11.7696] [7.5659]
o2 call [12.2014] [7.3881]
o2 call [12.7602] [7.3881]
o2 call [12.811] [7.4389]
o2 call [12.8872] [7.4389]
o2 call [12.9888] [7.5151]
o2 call [13.065] [7.5151]
o2 call [13.2682] [7.6167]
o2 call [13.5984] [7.9469]
o2 call [13.6238] [8.0485]
o2 call [13.7] [8.1247]
o2 call [13.7508] [8.1247]
o2 call [13.7508] [9.9281]
o2 call [11.2108] [9.9281]
o2 call [11.2108] [9.4455]
G04 P0 ( dwell for no time -- G64 should not smooth over this point )
G00 Z0.50000 ( retract )

G00 X8.92480 Y9.44550 ( rapid move to begin. )
F300.00000
o2 call [8.9248] [9.4455]
G04 P0 ( dwell for no time -- G64 should not smooth over this point )
F600.00000
o2 call [8.8232] [9.3693]
o2 call [8.8232] [9.2931]
o2 call [8.6454] [8.9629]
o2 call [8.6454] [8.4041]
o2 call [8.6962] [8.3533]
o2 call [8.6962] [8.2771]
o2 call [8.7724] [8.1755]
o2 call [8.8486] [7.9469]
o2 call [9.2296] [7.5659]
o2 call [9.6614] [7.3881]
o2 call [10.2202] [7.3881]
o2 call [10.271] [7.4389]
o2 call [10.3472] [7.4389]
o2 call [10.4488] [7.5151]
o2 call [10.525] [7.5151]
o2 call [10.7282] [7.6167]
o2 call [11.0584] [7.9469]
o2 call [11.0838] [8.0485]
o2 call [11.16] [8.1247]
o2 call [11.2108] [8.1247]
o2 call [11.2108] [9.9281]
o2 call [9.4074] [9.9281]
o2 call [9.3566] [9.8265]
o2 call [9.2296] [9.7757]
o2 call [8.9248] [9.4455]
G04 P0 ( dwell for no time -- G64 should not smooth over this point )
G00 Z0.50000 ( retract )

G00 X8.92480 Y11.98550 ( rapid move to begin. )
F300.00000
o2 call [8.9248] [11.9855]
G04 P0 ( dwell for no time -- G64 should not smooth over this point )
F600.00000
o2 call [8.8232] [11.9093]
o2 call [8.8232] [11.8331]
o2 call [8.6454] [11.5029]
o2 call [8.6454] [10.9441]
o2 call [8.6962] [10.8933]
o2 call [8.6962] [10.8171]
o2 call [8.7724] [10.7155]
o2 call [8.8486] [10.4869]
o2 call [9.2296] [10.1059]
o2 call [9.3566] [10.0551]
o2 call [9.4074] [10.0043]
o2 call [9.4074] [9.9281]
o2 call [11.2108] [9.9281]
o2 call [11.2108] [12.4681]
o2 call [9.4074] [12.4681]
o2 call [9.382] [12.3919]
o2 call [9.2296] [12.3157]
o2 call [8.9248] [11.9855]
G04 P0 ( dwell for no time -- G64 should not smooth over this point )
G00 Z0.50000 ( retract )

G00 X11.21080 Y11.98550 ( rapid move to begin. )
F300.00000
o2 call [11.2108] [11.9855]
G04 P0 ( dwell for no time -- G64 should not smooth over this point )
F600.00000
o2 call [11.2108] [9.9281]
o2 call [13.7508] [9.9281]
o2 call [13.7508] [12.4681]
o2 call [11.2108] [12.4681]
o2 call [11.2108] [11.9855]
G04 P0 ( dwell for no time -- G64 should not smooth over this point )
G00 Z0.50000 ( retract )

G00 X13.75080 Y11.98550 ( rapid move to begin. )
F300.00000
o2 call [13.7508] [11.9855]
G04 P0 ( dwell for no time -- G64 should not smooth over this point )
F600.00000
o2 call [13.7508] [9.9281]
o2 call [16.2908] [9.9281]
o2 call [16.2908] [12.4681]
o2 call [13.7508] [12.4681]
o2 call [13.7508] [11.9855]
G04 P0 ( dwell for no time -- G64 should not smooth over this point )
G00 Z0.50000 ( retract )

G00 X16.29080 Y11.98550 ( rapid move to begin. )
F300.00000
o2 call [16.2908] [11.9855]
G04 P0 ( dwell for no time -- G64 should not smooth over this point )
F600.00000
o2 call [16.2908] [9.9281]
o2 call [18.8308] [9.9281]
o2 call [18.8308] [12.4681]
o2 call [16.2908] [12.4681]
o2 call [16.2908] [11.9855]
G04 P0 ( dwell for no time -- G64 should not smooth over this point )
G00 Z0.50000 ( retract )

G00 X18.83080 Y11.98550 ( rapid move to begin. )
F300.00000
o2 call [18.8308] [11.9855]
G04 P0 ( dwell for no time -- G64 should not smooth over this point )
F600.00000
o2 call [18.8308] [9.9281]
o2 call [21.3708] [9.9281]
o2 call [21.3708] [12.4681]
o2 call [18.8308] [12.4681]
o2 call [18.8308] [11.9855]
G04 P0 ( dwell for no time -- G64 should not smooth over this point )
G00 Z0.50000 ( retract )

G00 X21.37080 Y11.98550 ( rapid move to begin. )
F300.00000
o2 call [21.3708] [11.9855]
G04 P0 ( dwell for no time -- G64 should not smooth over this point )
F600.00000
o2 call [21.3708] [9.9281]
o2 call [23.9108] [9.9281]
o2 call [23.9108] [12.4681]
o2 call [21.3708] [12.4681]
o2 call [21.3708] [11.9855]
G04 P0 ( dwell for no time -- G64 should not smooth over this point )
G00 Z0.50000 ( retract )

G00 X21.37080 Y9.44550 ( rapid move to begin. )
F300.00000
o2 call [21.3708] [9.4455]
G04 P0 ( dwell for no time -- G64 should not smooth over this point )
F600.00000
o2 call [21.3708] [8.1247]
o2 call [21.4724] [8.0993]
o2 call [21.5486] [7.9469]
o2 call [21.9296] [7.5659]
o2 call [22.3614] [7.3881]
o2 call [22.9202] [7.3881]
o2 call [22.971] [7.4389]
o2 call [23.0472] [7.4389]
o2 call [23.1488] [7.5151]
o2 call [23.225] [7.5151]
o2 call [23.4282] [7.6167]
o2 call [23.7584] [7.9469]
o2 call [23.7838] [8.0485]
o2 call [23.86] [8.1247]
o2 call [23.9108] [8.1247]
o2 call [23.9108] [9.9281]
o2 call [21.3708] [9.9281]
o2 call [21.3708] [9.4455]
G04 P0 ( dwell for no time -- G64 should not smooth over this point )
G00 Z0.50000 ( retract )

G00 X23.91080 Y9.44550 ( rapid move to begin. )
F300.00000
o2 call [23.9108] [9.4455]
G04 P0 ( dwell for no time -- G64 should not smooth over this point )
F600.00000
o2 call [23.9108] [8.1247]
o2 call [24.0124] [8.0993]
o2 call [24.0886] [7.9469]
o2 call [24.4696] [7.5659]
o2 call [24.9014] [7.3881]
o2 call [25.4602] [7.3881]
o2 call [25.511] [7.4389]
o2 call [25.5872] [7.4389]
o2 call [25.6888] [7.5151]
o2 call [25.765] [7.5151]
o2 call [25.9682] [7.6167]
o2 call [26.2984] [7.9469]
o2 call [26.3238] [8.0485]
o2 call [26.4] [8.1247]
o2 call [26.4508] [8.1247]
o2 call [26.4508] [9.9281]
o2 call [23.9108] [9.9281]
o2 call [23.9108] [9.4455]
G04 P0 ( dwell for no time -- G64 should not smooth over this point )
G00 Z0.50000 ( retract )

G00 X26.45080 Y9.44550 ( rapid move to begin. )
F300.00000
o2 call [26.4508] [9.4455]
G04 P0 ( dwell for no time -- G64 should not smooth over this point )
F600.00000
o2 call [26.4508] [8.1247]
o2 call [26.527] [8.1247]
o2 call [26.6032] [8.0485]
o2 call [26.6286] [7.9469]
o2 call [27.0096] [7.5659]
o2 call [27.4414] [7.3881]
o2 call [28.0002] [7.3881]
o2 call [28.051] [7.4389]
o2 call [28.1272] [7.4389]
o2 call [28.2288] [7.5151]
o2 call [28.305] [7.5151]
o2 call [28.5082] [7.6167]
o2 call [28.8384] [7.9469]
o2 call [28.8638] [8.0485]
o2 call [28.94] [8.1247]
o2 call [28.9908] [8.1247]
o2 call [28.9908] [9.9281]
o2 call [26.4508] [9.9281]
o2 call [26.4508] [9.4455]
G04 P0 ( dwell for no time -- G64 should not smooth over this point )
G00 Z0.50000 ( retract )

G00 X28.99080 Y9.44550 ( rapid move to begin. )
F300.00000
o2 call [28.9908] [9.4455]
G04 P0 ( dwell for no time -- G64 should not smooth over this point )
F600.00000
o2 call [28.9908] [8.1247]
o2 call [29.0924] [8.0993]
o2 call [29.1686] [7.9469]
o2 call [29.5496] [7.5659]
o2 call [29.9814] [7.3881]
o2 call [30.5402] [7.3881]
o2 call [30.591] [7.4389]
o2 call [30.6672] [7.4389]
o2 call [30.7688] [7.5151]
o2 call [30.845] [7.5151]
o2 call [31.0482] [7.6167]
o2 call [31.3784] [7.9469]
o2 call [31.4038] [8.0485]
o2 call [31.48] [8.1247]
o2 call [31.5308] [8.1247]
o2 call [31.5308] [9.9281]
o2 call [28.9908] [9.9281]
o2 call [28.9908] [9.4455]
G04 P0 ( dwell for no time -- G64 should not smooth over this point )
G00 Z0.50000 ( retract )

G00 X31.53080 Y9.44550 ( rapid move to begin. )
F300.00000
o2 call [31.5308] [9.4455]
G04 P0 ( dwell for no time -- G64 should not smooth over this point )
F600.00000
o2 call [31.5308] [8.1247]
o2 call [31.607] [8.1247]
o2 call [31.6832] [8.0485]
o2 call [31.7086] [7.9469]
o2 call [32.0896] [7.5659]
o2 call [32.5214] [7.3881]
o2 call [33.0802] [7.3881]
o2 call [33.131] [7.4389]
o2 call [33.2072] [7.4389]
o2 call [33.3088] [7.5151]
o2 call [33.385] [7.5151]
o2 call [33.5882] [7.6167]
o2 call [33.9184] [7.9469]
o2 call [33.9438] [8.0485]
o2 call [34.02] [8.1247]
o2 call [34.0708] [8.1247]
o2 call [34.0708] [9.9281]
o2 call [31.5308] [9.9281]
o2 call [31.5308] [9.4455]
G04 P0 ( dwell for no time -- G64 should not smooth over this point )
G00 Z0.50000 ( retract )

G00 X34.07080 Y9.44550 ( rapid move to begin. )
F300.00000
o2 call [34.0708] [9.4455]
G04 P0 ( dwell for no time -- G64 should not smooth over this point )
F600.00000
o2 call [34.0708] [8.1247]
o2 call [34.1724] [8.0993]
o2 call [34.2486] [7.9469]
o2 call [34.6296] [7.5659]
o2 call [35.0614] [7.3881]
o2 call [35.6202] [7.3881]
o2 call [35.671] [7.4389]
o2 call [35.7472] [7.4389]
o2 call [35.8488] [7.5151]
o2 call [35.925] [7.5151]
o2 call [36.1282] [7.6167]
o2 call [36.4584] [7.9469]
o2 call [36.4838] [8.0485]
o2 call [36.56] [8.1247]
o2 call [36.6108] [8.1247]
o2 call [36.6108] [9.9281]
o2 call [34.0708] [9.9281]
o2 call [34.0708] [9.4455]
G04 P0 ( dwell for no time -- G64 should not smooth over this point )
G00 Z0.50000 ( retract )

G00 X36.61080 Y9.44550 ( rapid move to begin. )
F300.00000
o2 call [36.6108] [9.4455]
G04 P0 ( dwell for no time -- G64 should not smooth over this point )
F600.00000
o2 call [36.6108] [8.1247]
o2 call [36.7124] [8.0993]
o2 call [36.7886] [7.9469]
o2 call [37.1696] [7.5659]
o2 call [37.6014] [7.3881]
o2 call [38.1602] [7.3881]
o2 call [38.211] [7.4389]
o2 call [38.2872] [7.4389]
o2 call [38.3888] [7.5151]
o2 call [38.465] [7.5151]
o2 call [38.6682] [7.6167]
o2 call [38.9984] [7.9469]
o2 call [39.0238] [8.0485]
o2 call [39.1] [8.1247]
o2 call [39.1508] [8.1247]
o2 call [39.1508] [9.9281]
o2 call [36.6108] [9.9281]
o2 call [36.6108] [9.4455]
G04 P0 ( dwell for no time -- G64 should not smooth over this point )
G00 Z0.50000 ( retract )

G00 X39.15080 Y9.44550 ( rapid move to begin. )
F300.00000
o2 call [39.1508] [9.4455]
G04 P0 ( dwell for no time -- G64 should not smooth over this point )
F600.00000
o2 call [39.1508] [8.1247]
o2 call [39.227] [8.1247]
o2 call [39.3032] [8.0485]
o2 call [39.3286] [7.9469]
o2 call [39.7096] [7.5659]
o2 call [40.1414] [7.3881]
o2 call [40.7002] [7.3881]
o2 call [40.751] [7.4389]
o2 call [40.8272] [7.4389]
o2 call [40.9288] [7.5151]
o2 call [41.005] [7.5151]
o2 call [41.2082] [7.6167]
o2 call [41.5384] [7.9469]
o2 call [41.5638] [8.0485]
o2 call [41.64] [8.1247]
o2 call [41.6908] [8.1247]
o2 call [41.6908] [9.9281]
o2 call [39.1508] [9.9281]
o2 call [39.1508] [9.4455]
G04 P0 ( dwell for no time -- G64 should not smooth over this point )
G00 Z0.50000 ( retract )

G00 X41.69080 Y9.44550 ( rapid move to begin. )
F300.00000
o2 call [41.6908] [9.4455]
G04 P0 ( dwell for no time -- G64 should not smooth over this point )
F600.00000
o2 call [41.6908] [8.1247]
o2 call [41.7924] [8.0993]
o2 call [41.8686] [7.9469]
o2 call [42.2496] [7.5659]
o2 call [42.6814] [7.3881]
o2 call [43.2402] [7.3881]
o2 call [43.291] [7.4389]
o2 call [43.3672] [7.4389]
o2 call [43.4688] [7.5151]
o2 call [43.545] [7.5151]
o2 call [43.7482] [7.6167]
o2 call [44.0784] [7.9469]
o2 call [44.1038] [8.0485]
o2 call [44.18] [8.1247]
o2 call [44.2308] [8.1247]
o2 call [44.2308] [9.9281]
o2 call [41.6908] [9.9281]
o2 call [41.6908] [9.4455]
G04 P0 ( dwell for no time -- G64 should not smooth over this point )
G00 Z0.50000 ( retract )

G00 X44.23080 Y9.44550 ( rapid move to begin. )
F300.00000
o2 call [44.2308] [9.4455]
G04 P0 ( dwell for no time -- G64 should not smooth over this point )
F600.00000
o2 call [44.2308] [8.1247]
o2 call [44.307] [8.1247]
o2 call [44.3832] [8.0485]
o2 call [44.4086] [7.9469]
o2 call [44.7896] [7.5659]
o2 call [45.2214] [7.3881]
o2 call [45.7802] [7.3881]
o2 call [45.831] [7.4389]
o2 call [45.9072] [7.4389]
o2 call [46.0088] [7.5151]
o2 call [46.085] [7.5151]
o2 call [46.2882] [7.6167]
o2 call [46.6184] [7.9469]
o2 call [46.6438] [8.0485]
o2 call [46.72] [8.1247]
o2 call [46.7708] [8.1247]
o2 call [46.7708] [9.9281]
o2 call [44.2308] [9.9281]
o2 call [44.2308] [9.4455]
G04 P0 ( dwell for no time -- G64 should not smooth over this point )
G00 Z0.50000 ( retract )

G00 X46.77080 Y9.44550 ( rapid move to begin. )
F300.00000
o2 call [46.7708] [9.4455]
G04 P0 ( dwell for no time -- G64 should not smooth over this point )
F600.00000
o2 call [46.7708] [8.1247]
o2 call [46.847] [8.1247]
o2 call [46.9232] [8.0485]
o2 call [46.9486] [7.9469]
o2 call [47.3296] [7.5659]
o2 call [47.7614] [7.3881]
o2 call [48.3202] [7.3881]
o2 call [48.371] [7.4389]
o2 call [48.4472] [7.4389]
o2 call [48.5488] [7.5151]
o2 call [48.625] [7.5151]
o2 call [48.8282] [7.6167]
o2 call [49.1584] [7.9469]
o2 call [49.1838] [8.0485]
o2 call [49.26] [8.1247]
o2 call [49.3108] [8.1247]
o2 call [49.3108] [9.9281]
o2 call [46.7708] [9.9281]
o2 call [46.7708] [9.4455]
G04 P0 ( dwell for no time -- G64 should not smooth over this point )
G00 Z0.50000 ( retract )

G00 X49.31080 Y9.44550 ( rapid move to begin. )
F300.00000
o2 call [49.3108] [9.4455]
G04 P0 ( dwell for no time -- G64 should not smooth over this point )
F600.00000
o2 call [49.3108] [8.1247]
o2 call [49.4124] [8.0993]
o2 call [49.4886] [7.9469]
o2 call [49.8696] [7.5659]
o2 call [50.3014] [7.3881]
o2 call [50.8602] [7.3881]
o2 call [50.911] [7.4389]
o2 call [50.9872] [7.4389]
o2 call [51.0888] [7.5151]
o2 call [51.165] [7.5151]
o2 call [51.3682] [7.6167]
o2 call [51.6984] [7.9469]
o2 call [51.7238] [8.0485]
o2 call [51.8] [8.1247]
o2 call [51.8508] [8.1247]
o2 call [51.8508] [9.9281]
o2 call [49.3108] [9.9281]
o2 call [49.3108] [9.4455]
G04 P0 ( dwell for no time -- G64 should not smooth over this point )
G00 Z0.50000 ( retract )

G00 X51.85080 Y9.44550 ( rapid move to begin. )
F300.00000
o2 call [51.8508] [9.4455]
G04 P0 ( dwell for no time -- G64 should not smooth over this point )
F600.00000
o2 call [51.8508] [8.1247]
o2 call [51.9524] [8.0993]
o2 call [52.0286] [7.9469]
o2 call [52.4096] [7.5659]
o2 call [52.8414] [7.3881]
o2 call [53.4002] [7.3881]
o2 call [53.451] [7.4389]
o2 call [53.5272] [7.4389]
o2 call [53.6288] [7.5151]
o2 call [53.705] [7.5151]
o2 call [53.9082] [7.6167]
o2 call [54.2384] [7.9469]
o2 call [54.2638] [8.0485]
o2 call [54.34] [8.1247]
o2 call [54.3908] [8.1247]
o2 call [54.3908] [9.9281]
o2 call [51.8508] [9.9281]
o2 call [51.8508] [9.4455]
G04 P0 ( dwell for no time -- G64 should not smooth over this point )
G00 Z0.50000 ( retract )

G00 X54.39080 Y9.44550 ( rapid move to begin. )
F300.00000
o2 call [54.3908] [9.4455]
G04 P0 ( dwell for no time -- G64 should not smooth over this point )
F600.00000
o2 call [54.3908] [8.1247]
o2 call [54.467] [8.1247]
o2 call [54.5178] [8.0739]
o2 call [54.5686] [7.9469]
o2 call [54.9496] [7.5659]
o2 call [55.3814] [7.3881]
o2 call [55.9402] [7.3881]
o2 call [55.991] [7.4389]
o2 call [56.0672] [7.4389]
o2 call [56.1688] [7.5151]
o2 call [56.245] [7.5151]
o2 call [56.4482] [7.6167]
o2 call [56.7784] [7.9469]
o2 call [56.8038] [8.0485]
o2 call [56.88] [8.1247]
o2 call [56.9308] [8.1247]
o2 call [56.9308] [9.9281]
o2 call [54.3908] [9.9281]
o2 call [54.3908] [9.4455]
G04 P0 ( dwell for no time -- G64 should not smooth over this point )
G00 Z0.50000 ( retract )

G00 X56.93080 Y9.44550 ( rapid move to begin. )
F300.00000
o2 call [56.9308] [9.4455]
G04 P0 ( dwell for no time -- G64 should not smooth over this point )
F600.00000
o2 call [56.9308] [8.1247]
o2 call [57.007] [8.1247]
o2 call [57.0832] [8.0485]
o2 call [57.1086] [7.9469]
o2 call [57.4896] [7.5659]
o2 call [57.9214] [7.3881]
o2 call [58.4802] [7.3881]
o2 call [58.531] [7.4389]
o2 call [58.6072] [7.4389]
o2 call [58.7088] [7.5151]
o2 call [58.785] [7.5151]
o2 call [58.9882] [7.6167]
o2 call [59.3184] [7.9469]
o2 call [59.3438] [8.0485]
o2 call [59.42] [8.1247]
o2 call [59.4708] [8.1247]
o2 call [59.4708] [9.9281]
o2 call [56.9308] [9.9281]
o2 call [56.9308] [9.4455]
G04 P0 ( dwell for no time -- G64 should not smooth over this point )
G00 Z0.50000 ( retract )

G00 X59.47080 Y9.44550 ( rapid move to begin. )
F300.00000
o2 call [59.4708] [9.4455]
G04 P0 ( dwell for no time -- G64 should not smooth over this point )
F600.00000
o2 call [59.4708] [8.1247]
o2 call [59.547] [8.1247]
o2 call [59.6232] [8.0485]
o2 call [59.6486] [7.9469]
o2 call [60.0296] [7.5659]
o2 call [60.4614] [7.3881]
o2 call [61.0202] [7.3881]
o2 call [61.071] [7.4389]
o2 call [61.1472] [7.4389]
o2 call [61.2488] [7.5151]
o2 call [61.325] [7.5151]
o2 call [61.5282] [7.6167]
o2 call [61.8584] [7.9469]
o2 call [61.8838] [8.0485]
o2 call [61.96] [8.1247]
o2 call [62.0108] [8.1247]
o2 call [62.0108] [9.9281]
o2 call [59.4708] [9.9281]
o2 call [59.4708] [9.4455]
G04 P0 ( dwell for no time -- G64 should not smooth over this point )
G00 Z0.50000 ( retract )

G00 X62.01080 Y9.44550 ( rapid move to begin. )
F300.00000
o2 call [62.0108] [9.4455]
G04 P0 ( dwell for no time -- G64 should not smooth over this point )
F600.00000
o2 call [62.0108] [8.1247]
o2 call [62.087] [8.1247]
o2 call [62.1632] [8.0485]
o2 call [62.1886] [7.9469]
o2 call [62.5696] [7.5659]
o2 call [63.0014] [7.3881]
o2 call [63.5602] [7.3881]
o2 call [63.611] [7.4389]
o2 call [63.6872] [7.4389]
o2 call [63.7888] [7.5151]
o2 call [63.865] [7.5151]
o2 call [64.0682] [7.6167]
o2 call [64.3984] [7.9469]
o2 call [64.4238] [8.0485]
o2 call [64.5] [8.1247]
o2 call [64.5508] [8.1247]
o2 call [64.5508] [9.9281]
o2 call [62.0108] [9.9281]
o2 call [62.0108] [9.4455]
G04 P0 ( dwell for no time -- G64 should not smooth over this point )
G00 Z0.50000 ( retract )

G00 X64.55080 Y9.44550 ( rapid move to begin. )
F300.00000
o2 call [64.5508] [9.4455]
G04 P0 ( dwell for no time -- G64 should not smooth over this point )
F600.00000
o2 call [64.5508] [8.1247]
o2 call [64.6524] [8.0993]
o2 call [64.7286] [7.9469]
o2 call [65.1096] [7.5659]
o2 call [65.5414] [7.3881]
o2 call [66.1002] [7.3881]
o2 call [66.151] [7.4389]
o2 call [66.2272] [7.4389]
o2 call [66.3288] [7.5151]
o2 call [66.405] [7.5151]
o2 call [66.6082] [7.6167]
o2 call [66.9384] [7.9469]
o2 call [66.9638] [8.0485]
o2 call [67.04] [8.1247]
o2 call [67.0908] [8.1247]
o2 call [67.0908] [9.9281]
o2 call [64.5508] [9.9281]
o2 call [64.5508] [9.4455]
G04 P0 ( dwell for no time -- G64 should not smooth over this point )
G00 Z0.50000 ( retract )

G00 X67.09080 Y9.44550 ( rapid move to begin. )
F300.00000
o2 call [67.0908] [9.4455]
G04 P0 ( dwell for no time -- G64 should not smooth over this point )
F600.00000
o2 call [67.0908] [8.1247]
o2 call [67.167] [8.1247]
o2 call [67.2178] [8.0739]
o2 call [67.2686] [7.9469]
o2 call [67.6496] [7.5659]
o2 call [68.0814] [7.3881]
o2 call [68.6402] [7.3881]
o2 call [68.691] [7.4389]
o2 call [68.7672] [7.4389]
o2 call [68.8688] [7.5151]
o2 call [68.945] [7.5151]
o2 call [69.1482] [7.6167]
o2 call [69.4784] [7.9469]
o2 call [69.6562] [8.4041]
o2 call [69.6562] [8.9629]
o2 call [69.4276] [9.4455]
o2 call [69.0974] [9.7757]
o2 call [68.9958] [9.8011]
o2 call [68.9196] [9.8773]
o2 call [68.9196] [9.9281]
o2 call [67.0908] [9.9281]
o2 call [67.0908] [9.4455]
G04 P0 ( dwell for no time -- G64 should not smooth over this point )
G00 Z0.50000 ( retract )

G00 X67.09080 Y11.98550 ( rapid move to begin. )
F300.00000
o2 call [67.0908] [11.9855]
G04 P0 ( dwell for no time -- G64 should not smooth over this point )
F600.00000
o2 call [67.0908] [9.9281]
o2 call [68.9196] [9.9281]
o2 call [68.9196] [10.0043]
o2 call [69.0212] [10.1059]
o2 call [69.1482] [10.1567]
o2 call [69.4784] [10.4869]
o2 call [69.6562] [10.9441]
o2 call [69.6562] [11.5029]
o2 call [69.4276] [11.9855]
o2 call [69.0974] [12.3157]
o2 call [68.9958] [12.3411]
o2 call [68.9196] [12.4173]
o2 call [68.9196] [12.4681]
o2 call [67.0908] [12.4681]
o2 call [67.0908] [11.9855]
G04 P0 ( dwell for no time -- G64 should not smooth over this point )
G00 Z0.50000 ( retract )

G00 X64.55080 Y11.98550 ( rapid move to begin. )
F300.00000
o2 call [64.5508] [11.9855]
G04 P0 ( dwell for no time -- G64 should not smooth over this point )
F600.00000
o2 call [64.5508] [9.9281]
o2 call [67.0908] [9.9281]
o2 call [67.0908] [12.4681]
o2 call [64.5508] [12.4681]
o2 call [64.5508] [11.9855]
G04 P0 ( dwell for no time -- G64 should not smooth over this point )
G00 Z0.50000 ( retract )

G00 X62.01080 Y11.98550 ( rapid move to begin. )
F300.00000
o2 call [62.0108] [11.9855]
G04 P0 ( dwell for no time -- G64 should not smooth over this point )
F600.00000
o2 call [62.0108] [9.9281]
o2 call [64.5508] [9.9281]
o2 call [64.5508] [12.4681]
o2 call [62.0108] [12.4681]
o2 call [62.0108] [11.9855]
G04 P0 ( dwell for no time -- G64 should not smooth over this point )
G00 Z0.50000 ( retract )

G00 X59.47080 Y11.98550 ( rapid move to begin. )
F300.00000
o2 call [59.4708] [11.9855]
G04 P0 ( dwell for no time -- G64 should not smooth over this point )
F600.00000
o2 call [59.4708] [9.9281]
o2 call [62.0108] [9.9281]
o2 call [62.0108] [12.4681]
o2 call [59.4708] [12.4681]
o2 call [59.4708] [11.9855]
G04 P0 ( dwell for no time -- G64 should not smooth over this point )
G00 Z0.50000 ( retract )

G00 X56.93080 Y11.98550 ( rapid move to begin. )
F300.00000
o2 call [56.9308] [11.9855]
G04 P0 ( dwell for no time -- G64 should not smooth over this point )
F600.00000
o2 call [56.9308] [9.9281]
o2 call [59.4708] [9.9281]
o2 call [59.4708] [12.4681]
o2 call [56.9308] [12.4681]
o2 call [56.9308] [11.9855]
G04 P0 ( dwell for no time -- G64 should not smooth over this point )
G00 Z0.50000 ( retract )

G00 X54.39080 Y11.98550 ( rapid move to begin. )
F300.00000
o2 call [54.3908] [11.9855]
G04 P0 ( dwell for no time -- G64 should not smooth over this point )
F600.00000
o2 call [54.3908] [9.9281]
o2 call [56.9308] [9.9281]
o2 call [56.9308] [12.4681]
o2 call [54.3908] [12.4681]
o2 call [54.3908] [11.9855]
G04 P0 ( dwell for no time -- G64 should not smooth over this point )
G00 Z0.50000 ( retract )

G00 X51.85080 Y11.98550 ( rapid move to begin. )
F300.00000
o2 call [51.8508] [11.9855]
G04 P0 ( dwell for no time -- G64 should not smooth over this point )
F600.00000
o2 call [51.8508] [9.9281]
o2 call [54.3908] [9.9281]
o2 call [54.3908] [12.4681]
o2 call [51.8508] [12.4681]
o2 call [51.8508] [11.9855]
G04 P0 ( dwell for no time -- G64 should not smooth over this point )
G00 Z0.50000 ( retract )

G00 X49.31080 Y11.98550 ( rapid move to begin. )
F300.00000
o2 call [49.3108] [11.9855]
G04 P0 ( dwell for no time -- G64 should not smooth over this point )
F600.00000
o2 call [49.3108] [9.9281]
o2 call [51.8508] [9.9281]
o2 call [51.8508] [12.4681]
o2 call [49.3108] [12.4681]
o2 call [49.3108] [11.9855]
G04 P0 ( dwell for no time -- G64 should not smooth over this point )
G00 Z0.50000 ( retract )

G00 X46.77080 Y11.98550 ( rapid move to begin. )
F300.00000
o2 call [46.7708] [11.9855]
G04 P0 ( dwell for no time -- G64 should not smooth over this point )
F600.00000
o2 call [46.7708] [9.9281]
o2 call [49.3108] [9.9281]
o2 call [49.3108] [12.4681]
o2 call [46.7708] [12.4681]
o2 call [46.7708] [11.9855]
G04 P0 ( dwell for no time -- G64 should not smooth over this point )
G00 Z0.50000 ( retract )

G00 X44.23080 Y11.98550 ( rapid move to begin. )
F300.00000
o2 call [44.2308] [11.9855]
G04 P0 ( dwell for no time -- G64 should not smooth over this point )
F600.00000
o2 call [44.2308] [9.9281]
o2 call [46.7708] [9.9281]
o2 call [46.7708] [12.4681]
o2 call [44.2308] [12.4681]
o2 call [44.2308] [11.9855]
G04 P0 ( dwell for no time -- G64 should not smooth over this point )
G00 Z0.50000 ( retract )

G00 X41.69080 Y11.98550 ( rapid move to begin. )
F300.00000
o2 call [41.6908] [11.9855]
G04 P0 ( dwell for no time -- G64 should not smooth over this point )
F600.00000
o2 call [41.6908] [9.9281]
o2 call [44.2308] [9.9281]
o2 call [44.2308] [12.4681]
o2 call [41.6908] [12.4681]
o2 call [41.6908] [11.9855]
G04 P0 ( dwell for no time -- G64 should not smooth over this point )
G00 Z0.50000 ( retract )

G00 X39.15080 Y11.98550 ( rapid move to begin. )
F300.00000
o2 call [39.1508] [11.9855]
G04 P0 ( dwell for no time -- G64 should not smooth over this point )
F600.00000
o2 call [39.1508] [9.9281]
o2 call [41.6908] [9.9281]
o2 call [41.6908] [12.4681]
o2 call [39.1508] [12.4681]
o2 call [39.1508] [11.9855]
G04 P0 ( dwell for no time -- G64 should not smooth over this point )
G00 Z0.50000 ( retract )

G00 X36.61080 Y11.98550 ( rapid move to begin. )
F300.00000
o2 call [36.6108] [11.9855]
G04 P0 ( dwell for no time -- G64 should not smooth over this point )
F600.00000
o2 call [36.6108] [9.9281]
o2 call [39.1508] [9.9281]
o2 call [39.1508] [12.4681]
o2 call [36.6108] [12.4681]
o2 call [36.6108] [11.9855]
G04 P0 ( dwell for no time -- G64 should not smooth over this point )
G00 Z0.50000 ( retract )

G00 X34.07080 Y11.98550 ( rapid move to begin. )
F300.00000
o2 call [34.0708] [11.9855]
G04 P0 ( dwell for no time -- G64 should not smooth over this point )
F600.00000
o2 call [34.0708] [9.9281]
o2 call [36.6108] [9.9281]
o2 call [36.6108] [12.4681]
o2 call [34.0708] [12.4681]
o2 call [34.0708] [11.9855]
G04 P0 ( dwell for no time -- G64 should not smooth over this point )
G00 Z0.50000 ( retract )

G00 X31.53080 Y11.98550 ( rapid move to begin. )
F300.00000
o2 call [31.5308] [11.9855]
G04 P0 ( dwell for no time -- G64 should not smooth over this point )
F600.00000
o2 call [31.5308] [9.9281]
o2 call [34.0708] [9.9281]
o2 call [34.0708] [12.4681]
o2 call [31.5308] [12.4681]
o2 call [31.5308] [11.9855]
G04 P0 ( dwell for no time -- G64 should not smooth over this point )
G00 Z0.50000 ( retract )

G00 X28.99080 Y11.98550 ( rapid move to begin. )
F300.00000
o2 call [28.9908] [11.9855]
G04 P0 ( dwell for no time -- G64 should not smooth over this point )
F600.00000
o2 call [28.9908] [9.9281]
o2 call [31.5308] [9.9281]
o2 call [31.5308] [12.4681]
o2 call [28.9908] [12.4681]
o2 call [28.9908] [11.9855]
G04 P0 ( dwell for no time -- G64 should not smooth over this point )
G00 Z0.50000 ( retract )

G00 X26.45080 Y11.98550 ( rapid move to begin. )
F300.00000
o2 call [26.4508] [11.9855]
G04 P0 ( dwell for no time -- G64 should not smooth over this point )
F600.00000
o2 call [26.4508] [9.9281]
o2 call [28.9908] [9.9281]
o2 call [28.9908] [12.4681]
o2 call [26.4508] [12.4681]
o2 call [26.4508] [11.9855]
G04 P0 ( dwell for no time -- G64 should not smooth over this point )
G00 Z0.50000 ( retract )

G00 X23.91080 Y11.98550 ( rapid move to begin. )
F300.00000
o2 call [23.9108] [11.9855]
G04 P0 ( dwell for no time -- G64 should not smooth over this point )
F600.00000
o2 call [23.9108] [9.9281]
o2 call [26.4508] [9.9281]
o2 call [26.4508] [12.4681]
o2 call [23.9108] [12.4681]
o2 call [23.9108] [11.9855]
G04 P0 ( dwell for no time -- G64 should not smooth over this point )
G00 Z0.50000 ( retract )

G00 X23.91080 Y14.52550 ( rapid move to begin. )
F300.00000
o2 call [23.9108] [14.5255]
G04 P0 ( dwell for no time -- G64 should not smooth over this point )
F600.00000
o2 call [23.9108] [12.4681]
o2 call [26.4508] [12.4681]
o2 call [26.4508] [15.0081]
o2 call [23.9108] [15.0081]
o2 call [23.9108] [14.5255]
G04 P0 ( dwell for no time -- G64 should not smooth over this point )
G00 Z0.50000 ( retract )

G00 X21.37080 Y14.52550 ( rapid move to begin. )
F300.00000
o2 call [21.3708] [14.5255]
G04 P0 ( dwell for no time -- G64 should not smooth over this point )
F600.00000
o2 call [21.3708] [12.4681]
o2 call [23.9108] [12.4681]
o2 call [23.9108] [15.0081]
o2 call [21.3708] [15.0081]
o2 call [21.3708] [14.5255]
G04 P0 ( dwell for no time -- G64 should not smooth over this point )
G00 Z0.50000 ( retract )

G00 X18.83080 Y14.52550 ( rapid move to begin. )
F300.00000
o2 call [18.8308] [14.5255]
G04 P0 ( dwell for no time -- G64 should not smooth over this point )
F600.00000
o2 call [18.8308] [12.4681]
o2 call [21.3708] [12.4681]
o2 call [21.3708] [15.0081]
o2 call [18.8308] [15.0081]
o2 call [18.8308] [14.5255]
G04 P0 ( dwell for no time -- G64 should not smooth over this point )
G00 Z0.50000 ( retract )

G00 X16.29080 Y14.52550 ( rapid move to begin. )
F300.00000
o2 call [16.2908] [14.5255]
G04 P0 ( dwell for no time -- G64 should not smooth over this point )
F600.00000
o2 call [16.2908] [12.4681]
o2 call [18.8308] [12.4681]
o2 call [18.8308] [15.0081]
o2 call [16.2908] [15.0081]
o2 call [16.2908] [14.5255]
G04 P0 ( dwell for no time -- G64 should not smooth over this point )
G00 Z0.50000 ( retract )

G00 X13.75080 Y14.52550 ( rapid move to begin. )
F300.00000
o2 call [13.7508] [14.5255]
G04 P0 ( dwell for no time -- G64 should not smooth over this point )
F600.00000
o2 call [13.7508] [12.4681]
o2 call [16.2908] [12.4681]
o2 call [16.2908] [15.0081]
o2 call [13.7508] [15.0081]
o2 call [13.7508] [14.5255]
G04 P0 ( dwell for no time -- G64 should not smooth over this point )
G00 Z0.50000 ( retract )

G00 X11.21080 Y14.52550 ( rapid move to begin. )
F300.00000
o2 call [11.2108] [14.5255]
G04 P0 ( dwell for no time -- G64 should not smooth over this point )
F600.00000
o2 call [11.2108] [12.4681]
o2 call [13.7508] [12.4681]
o2 call [13.7508] [15.0081]
o2 call [11.2108] [15.0081]
o2 call [11.2108] [14.5255]
G04 P0 ( dwell for no time -- G64 should not smooth over this point )
G00 Z0.50000 ( retract )

G00 X8.92480 Y14.52550 ( rapid move to begin. )
F300.00000
o2 call [8.9248] [14.5255]
G04 P0 ( dwell for no time -- G64 should not smooth over this point )
F600.00000
o2 call [8.8232] [14.4493]
o2 call [8.8232] [14.3731]
o2 call [8.6454] [14.0429]
o2 call [8.6454] [13.4841]
o2 call [8.6962] [13.4333]
o2 call [8.6962] [13.3571]
o2 call [8.7724] [13.2555]
o2 call [8.8486] [13.0269]
o2 call [9.2296] [12.6459]
o2 call [9.3566] [12.5951]
o2 call [9.4074] [12.5443]
o2 call [9.4074] [12.4681]
o2 call [11.2108] [12.4681]
o2 call [11.2108] [15.0081]
o2 call [9.4074] [15.0081]
o2 call [9.3566] [14.9065]
o2 call [9.2296] [14.8557]
o2 call [8.9248] [14.5255]
G04 P0 ( dwell for no time -- G64 should not smooth over this point )
G00 Z0.50000 ( retract )

G00 X8.92480 Y17.06550 ( rapid move to begin. )
F300.00000
o2 call [8.9248] [17.0655]
G04 P0 ( dwell for no time -- G64 should not smooth over this point )
F600.00000
o2 call [8.8232] [16.9893]
o2 call [8.8232] [16.9131]
o2 call [8.6454] [16.5829]
o2 call [8.6454] [16.0241]
o2 call [8.6962] [15.9733]
o2 call [8.6962] [15.8971]
o2 call [8.7724] [15.7955]
o2 call [8.8486] [15.5669]
o2 call [9.2296] [15.1859]
o2 call [9.3566] [15.1351]
o2 call [9.4074] [15.0843]
o2 call [9.4074] [15.0081]
o2 call [11.2108] [15.0081]
o2 call [11.2108] [17.5481]
o2 call [9.4074] [17.5481]
o2 call [9.3566] [17.4465]
o2 call [9.2296] [17.3957]
o2 call [8.9248] [17.0655]
G04 P0 ( dwell for no time -- G64 should not smooth over this point )
G00 Z0.50000 ( retract )

G00 X11.21080 Y17.06550 ( rapid move to begin. )
F300.00000
o2 call [11.2108] [17.0655]
G04 P0 ( dwell for no time -- G64 should not smooth over this point )
F600.00000
o2 call [11.2108] [15.0081]
o2 call [13.7508] [15.0081]
o2 call [13.7508] [17.5481]
o2 call [11.2108] [17.5481]
o2 call [11.2108] [17.0655]
G04 P0 ( dwell for no time -- G64 should not smooth over this point )
G00 Z0.50000 ( retract )

G00 X13.75080 Y17.06550 ( rapid move to begin. )
F300.00000
o2 call [13.7508] [17.0655]
G04 P0 ( dwell for no time -- G64 should not smooth over this point )
F600.00000
o2 call [13.7508] [15.0081]
o2 call [16.2908] [15.0081]
o2 call [16.2908] [17.5481]
o2 call [13.7508] [17.5481]
o2 call [13.7508] [17.0655]
G04 P0 ( dwell for no time -- G64 should not smooth over this point )
G00 Z0.50000 ( retract )

G00 X16.29080 Y17.06550 ( rapid move to begin. )
F300.00000
o2 call [16.2908] [17.0655]
G04 P0 ( dwell for no time -- G64 should not smooth over this point )
F600.00000
o2 call [16.2908] [15.0081]
o2 call [18.8308] [15.0081]
o2 call [18.8308] [17.5481]
o2 call [16.2908] [17.5481]
o2 call [16.2908] [17.0655]
G04 P0 ( dwell for no time -- G64 should not smooth over this point )
G00 Z0.50000 ( retract )

G00 X18.83080 Y17.06550 ( rapid move to begin. )
F300.00000
o2 call [18.8308] [17.0655]
G04 P0 ( dwell for no time -- G64 should not smooth over this point )
F600.00000
o2 call [18.8308] [15.0081]
o2 call [21.3708] [15.0081]
o2 call [21.3708] [17.5481]
o2 call [18.8308] [17.5481]
o2 call [18.8308] [17.0655]
G04 P0 ( dwell for no time -- G64 should not smooth over this point )
G00 Z0.50000 ( retract )

G00 X21.37080 Y17.06550 ( rapid move to begin. )
F300.00000
o2 call [21.3708] [17.0655]
G04 P0 ( dwell for no time -- G64 should not smooth over this point )
F600.00000
o2 call [21.3708] [15.0081]
o2 call [23.9108] [15.0081]
o2 call [23.9108] [17.5481]
o2 call [21.3708] [17.5481]
o2 call [21.3708] [17.0655]
G04 P0 ( dwell for no time -- G64 should not smooth over this point )
G00 Z0.50000 ( retract )

G00 X23.91080 Y17.06550 ( rapid move to begin. )
F300.00000
o2 call [23.9108] [17.0655]
G04 P0 ( dwell for no time -- G64 should not smooth over this point )
F600.00000
o2 call [23.9108] [15.0081]
o2 call [26.4508] [15.0081]
o2 call [26.4508] [17.5481]
o2 call [23.9108] [17.5481]
o2 call [23.9108] [17.0655]
G04 P0 ( dwell for no time -- G64 should not smooth over this point )
G00 Z0.50000 ( retract )

G00 X26.45080 Y17.06550 ( rapid move to begin. )
F300.00000
o2 call [26.4508] [17.0655]
G04 P0 ( dwell for no time -- G64 should not smooth over this point )
F600.00000
o2 call [26.4508] [15.0081]
o2 call [28.9908] [15.0081]
o2 call [28.9908] [17.5481]
o2 call [26.4508] [17.5481]
o2 call [26.4508] [17.0655]
G04 P0 ( dwell for no time -- G64 should not smooth over this point )
G00 Z0.50000 ( retract )

G00 X26.45080 Y14.52550 ( rapid move to begin. )
F300.00000
o2 call [26.4508] [14.5255]
G04 P0 ( dwell for no time -- G64 should not smooth over this point )
F600.00000
o2 call [26.4508] [12.4681]
o2 call [28.9908] [12.4681]
o2 call [28.9908] [15.0081]
o2 call [26.4508] [15.0081]
o2 call [26.4508] [14.5255]
G04 P0 ( dwell for no time -- G64 should not smooth over this point )
G00 Z0.50000 ( retract )

G00 X28.99080 Y14.52550 ( rapid move to begin. )
F300.00000
o2 call [28.9908] [14.5255]
G04 P0 ( dwell for no time -- G64 should not smooth over this point )
F600.00000
o2 call [28.9908] [12.4681]
o2 call [31.5308] [12.4681]
o2 call [31.5308] [15.0081]
o2 call [28.9908] [15.0081]
o2 call [28.9908] [14.5255]
G04 P0 ( dwell for no time -- G64 should not smooth over this point )
G00 Z0.50000 ( retract )

G00 X31.53080 Y14.52550 ( rapid move to begin. )
F300.00000
o2 call [31.5308] [14.5255]
G04 P0 ( dwell for no time -- G64 should not smooth over this point )
F600.00000
o2 call [31.5308] [12.4681]
o2 call [34.0708] [12.4681]
o2 call [34.0708] [15.0081]
o2 call [31.5308] [15.0081]
o2 call [31.5308] [14.5255]
G04 P0 ( dwell for no time -- G64 should not smooth over this point )
G00 Z0.50000 ( retract )

G00 X34.07080 Y14.52550 ( rapid move to begin. )
F300.00000
o2 call [34.0708] [14.5255]
G04 P0 ( dwell for no time -- G64 should not smooth over this point )
F600.00000
o2 call [34.0708] [12.4681]
o2 call [36.6108] [12.4681]
o2 call [36.6108] [15.0081]
o2 call [34.0708] [15.0081]
o2 call [34.0708] [14.5255]
G04 P0 ( dwell for no time -- G64 should not smooth over this point )
G00 Z0.50000 ( retract )

G00 X36.61080 Y14.52550 ( rapid move to begin. )
F300.00000
o2 call [36.6108] [14.5255]
G04 P0 ( dwell for no time -- G64 should not smooth over this point )
F600.00000
o2 call [36.6108] [12.4681]
o2 call [39.1508] [12.4681]
o2 call [39.1508] [15.0081]
o2 call [36.6108] [15.0081]
o2 call [36.6108] [14.5255]
G04 P0 ( dwell for no time -- G64 should not smooth over this point )
G00 Z0.50000 ( retract )

G00 X39.15080 Y14.52550 ( rapid move to begin. )
F300.00000
o2 call [39.1508] [14.5255]
G04 P0 ( dwell for no time -- G64 should not smooth over this point )
F600.00000
o2 call [39.1508] [12.4681]
o2 call [41.6908] [12.4681]
o2 call [41.6908] [15.0081]
o2 call [39.1508] [15.0081]
o2 call [39.1508] [14.5255]
G04 P0 ( dwell for no time -- G64 should not smooth over this point )
G00 Z0.50000 ( retract )

G00 X41.69080 Y14.52550 ( rapid move to begin. )
F300.00000
o2 call [41.6908] [14.5255]
G04 P0 ( dwell for no time -- G64 should not smooth over this point )
F600.00000
o2 call [41.6908] [12.4681]
o2 call [44.2308] [12.4681]
o2 call [44.2308] [15.0081]
o2 call [41.6908] [15.0081]
o2 call [41.6908] [14.5255]
G04 P0 ( dwell for no time -- G64 should not smooth over this point )
G00 Z0.50000 ( retract )

G00 X44.23080 Y14.52550 ( rapid move to begin. )
F300.00000
o2 call [44.2308] [14.5255]
G04 P0 ( dwell for no time -- G64 should not smooth over this point )
F600.00000
o2 call [44.2308] [12.4681]
o2 call [46.7708] [12.4681]
o2 call [46.7708] [15.0081]
o2 call [44.2308] [15.0081]
o2 call [44.2308] [14.5255]
G04 P0 ( dwell for no time -- G64 should not smooth over this point )
G00 Z0.50000 ( retract )

G00 X46.77080 Y14.52550 ( rapid move to begin. )
F300.00000
o2 call [46.7708] [14.5255]
G04 P0 ( dwell for no time -- G64 should not smooth over this point )
F600.00000
o2 call [46.7708] [12.4681]
o2 call [49.3108] [12.4681]
o2 call [49.3108] [15.0081]
o2 call [46.7708] [15.0081]
o2 call [46.7708] [14.5255]
G04 P0 ( dwell for no time -- G64 should not smooth over this point )
G00 Z0.50000 ( retract )

G00 X49.31080 Y14.52550 ( rapid move to begin. )
F300.00000
o2 call [49.3108] [14.5255]
G04 P0 ( dwell for no time -- G64 should not smooth over this point )
F600.00000
o2 call [49.3108] [12.4681]
o2 call [51.8508] [12.4681]
o2 call [51.8508] [15.0081]
o2 call [49.3108] [15.0081]
o2 call [49.3108] [14.5255]
G04 P0 ( dwell for no time -- G64 should not smooth over this point )
G00 Z0.50000 ( retract )

G00 X51.85080 Y14.52550 ( rapid move to begin. )
F300.00000
o2 call [51.8508] [14.5255]
G04 P0 ( dwell for no time -- G64 should not smooth over this point )
F600.00000
o2 call [51.8508] [12.4681]
o2 call [54.3908] [12.4681]
o2 call [54.3908] [15.0081]
o2 call [51.8508] [15.0081]
o2 call [51.8508] [14.5255]
G04 P0 ( dwell for no time -- G64 should not smooth over this point )
G00 Z0.50000 ( retract )

G00 X54.39080 Y14.52550 ( rapid move to begin. )
F300.00000
o2 call [54.3908] [14.5255]
G04 P0 ( dwell for no time -- G64 should not smooth over this point )
F600.00000
o2 call [54.3908] [12.4681]
o2 call [56.9308] [12.4681]
o2 call [56.9308] [15.0081]
o2 call [54.3908] [15.0081]
o2 call [54.3908] [14.5255]
G04 P0 ( dwell for no time -- G64 should not smooth over this point )
G00 Z0.50000 ( retract )

G00 X56.93080 Y14.52550 ( rapid move to begin. )
F300.00000
o2 call [56.9308] [14.5255]
G04 P0 ( dwell for no time -- G64 should not smooth over this point )
F600.00000
o2 call [56.9308] [12.4681]
o2 call [59.4708] [12.4681]
o2 call [59.4708] [15.0081]
o2 call [56.9308] [15.0081]
o2 call [56.9308] [14.5255]
G04 P0 ( dwell for no time -- G64 should not smooth over this point )
G00 Z0.50000 ( retract )

G00 X59.47080 Y14.52550 ( rapid move to begin. )
F300.00000
o2 call [59.4708] [14.5255]
G04 P0 ( dwell for no time -- G64 should not smooth over this point )
F600.00000
o2 call [59.4708] [12.4681]
o2 call [62.0108] [12.4681]
o2 call [62.0108] [15.0081]
o2 call [59.4708] [15.0081]
o2 call [59.4708] [14.5255]
G04 P0 ( dwell for no time -- G64 should not smooth over this point )
G00 Z0.50000 ( retract )

G00 X62.01080 Y14.52550 ( rapid move to begin. )
F300.00000
o2 call [62.0108] [14.5255]
G04 P0 ( dwell for no time -- G64 should not smooth over this point )
F600.00000
o2 call [62.0108] [12.4681]
o2 call [64.5508] [12.4681]
o2 call [64.5508] [15.0081]
o2 call [62.0108] [15.0081]
o2 call [62.0108] [14.5255]
G04 P0 ( dwell for no time -- G64 should not smooth over this point )
G00 Z0.50000 ( retract )

G00 X64.55080 Y14.52550 ( rapid move to begin. )
F300.00000
o2 call [64.5508] [14.5255]
G04 P0 ( dwell for no time -- G64 should not smooth over this point )
F600.00000
o2 call [64.5508] [12.4681]
o2 call [67.0908] [12.4681]
o2 call [67.0908] [15.0081]
o2 call [64.5508] [15.0081]
o2 call [64.5508] [14.5255]
G04 P0 ( dwell for no time -- G64 should not smooth over this point )
G00 Z0.50000 ( retract )

G00 X67.09080 Y14.52550 ( rapid move to begin. )
F300.00000
o2 call [67.0908] [14.5255]
G04 P0 ( dwell for no time -- G64 should not smooth over this point )
F600.00000
o2 call [67.0908] [12.4681]
o2 call [68.9196] [12.4681]
o2 call [68.945] [12.5697]
o2 call [69.0974] [12.6967]
o2 call [69.1482] [12.6967]
o2 call [69.4784] [13.0269]
o2 call [69.6562] [13.4841]
o2 call [69.6562] [14.0429]
o2 call [69.4276] [14.5255]
o2 call [69.0974] [14.8557]
o2 call [68.9958] [14.8811]
o2 call [68.9196] [14.9573]
o2 call [68.9196] [15.0081]
o2 call [67.0908] [15.0081]
o2 call [67.0908] [14.5255]
G04 P0 ( dwell for no time -- G64 should not smooth over this point )
G00 Z0.50000 ( retract )

G00 X67.09080 Y17.06550 ( rapid move to begin. )
F300.00000
o2 call [67.0908] [17.0655]
G04 P0 ( dwell for no time -- G64 should not smooth over this point )
F600.00000
o2 call [67.0908] [15.0081]
o2 call [68.9196] [15.0081]
o2 call [68.9196] [15.0843]
o2 call [69.0212] [15.1859]
o2 call [69.1482] [15.2367]
o2 call [69.4784] [15.5669]
o2 call [69.6562] [16.0241]
o2 call [69.6562] [16.5829]
o2 call [69.4276] [17.0655]
o2 call [69.0974] [17.3957]
o2 call [68.9958] [17.4211]
o2 call [68.9196] [17.4973]
o2 call [68.9196] [17.5481]
o2 call [67.0908] [17.5481]
o2 call [67.0908] [17.0655]
G04 P0 ( dwell for no time -- G64 should not smooth over this point )
G00 Z0.50000 ( retract )

G00 X64.55080 Y17.06550 ( rapid move to begin. )
F300.00000
o2 call [64.5508] [17.0655]
G04 P0 ( dwell for no time -- G64 should not smooth over this point )
F600.00000
o2 call [64.5508] [15.0081]
o2 call [67.0908] [15.0081]
o2 call [67.0908] [17.5481]
o2 call [64.5508] [17.5481]
o2 call [64.5508] [17.0655]
G04 P0 ( dwell for no time -- G64 should not smooth over this point )
G00 Z0.50000 ( retract )

G00 X62.01080 Y17.06550 ( rapid move to begin. )
F300.00000
o2 call [62.0108] [17.0655]
G04 P0 ( dwell for no time -- G64 should not smooth over this point )
F600.00000
o2 call [62.0108] [15.0081]
o2 call [64.5508] [15.0081]
o2 call [64.5508] [17.5481]
o2 call [62.0108] [17.5481]
o2 call [62.0108] [17.0655]
G04 P0 ( dwell for no time -- G64 should not smooth over this point )
G00 Z0.50000 ( retract )

G00 X59.47080 Y17.06550 ( rapid move to begin. )
F300.00000
o2 call [59.4708] [17.0655]
G04 P0 ( dwell for no time -- G64 should not smooth over this point )
F600.00000
o2 call [59.4708] [15.0081]
o2 call [62.0108] [15.0081]
o2 call [62.0108] [17.5481]
o2 call [59.4708] [17.5481]
o2 call [59.4708] [17.0655]
G04 P0 ( dwell for no time -- G64 should not smooth over this point )
G00 Z0.50000 ( retract )

G00 X56.93080 Y17.06550 ( rapid move to begin. )
F300.00000
o2 call [56.9308] [17.0655]
G04 P0 ( dwell for no time -- G64 should not smooth over this point )
F600.00000
o2 call [56.9308] [15.0081]
o2 call [59.4708] [15.0081]
o2 call [59.4708] [17.5481]
o2 call [56.9308] [17.5481]
o2 call [56.9308] [17.0655]
G04 P0 ( dwell for no time -- G64 should not smooth over this point )
G00 Z0.50000 ( retract )

G00 X54.39080 Y17.06550 ( rapid move to begin. )
F300.00000
o2 call [54.3908] [17.0655]
G04 P0 ( dwell for no time -- G64 should not smooth over this point )
F600.00000
o2 call [54.3908] [15.0081]
o2 call [56.9308] [15.0081]
o2 call [56.9308] [17.5481]
o2 call [54.3908] [17.5481]
o2 call [54.3908] [17.0655]
G04 P0 ( dwell for no time -- G64 should not smooth over this point )
G00 Z0.50000 ( retract )

G00 X51.85080 Y17.06550 ( rapid move to begin. )
F300.00000
o2 call [51.8508] [17.0655]
G04 P0 ( dwell for no time -- G64 should not smooth over this point )
F600.00000
o2 call [51.8508] [15.0081]
o2 call [54.3908] [15.0081]
o2 call [54.3908] [17.5481]
o2 call [51.8508] [17.5481]
o2 call [51.8508] [17.0655]
G04 P0 ( dwell for no time -- G64 should not smooth over this point )
G00 Z0.50000 ( retract )

G00 X49.31080 Y17.06550 ( rapid move to begin. )
F300.00000
o2 call [49.3108] [17.0655]
G04 P0 ( dwell for no time -- G64 should not smooth over this point )
F600.00000
o2 call [49.3108] [15.0081]
o2 call [51.8508] [15.0081]
o2 call [51.8508] [17.5481]
o2 call [49.3108] [17.5481]
o2 call [49.3108] [17.0655]
G04 P0 ( dwell for no time -- G64 should not smooth over this point )
G00 Z0.50000 ( retract )

G00 X46.77080 Y17.06550 ( rapid move to begin. )
F300.00000
o2 call [46.7708] [17.0655]
G04 P0 ( dwell for no time -- G64 should not smooth over this point )
F600.00000
o2 call [46.7708] [15.0081]
o2 call [49.3108] [15.0081]
o2 call [49.3108] [17.5481]
o2 call [46.7708] [17.5481]
o2 call [46.7708] [17.0655]
G04 P0 ( dwell for no time -- G64 should not smooth over this point )
G00 Z0.50000 ( retract )

G00 X44.23080 Y17.06550 ( rapid move to begin. )
F300.00000
o2 call [44.2308] [17.0655]
G04 P0 ( dwell for no time -- G64 should not smooth over this point )
F600.00000
o2 call [44.2308] [15.0081]
o2 call [46.7708] [15.0081]
o2 call [46.7708] [17.5481]
o2 call [44.2308] [17.5481]
o2 call [44.2308] [17.0655]
G04 P0 ( dwell for no time -- G64 should not smooth over this point )
G00 Z0.50000 ( retract )

G00 X41.69080 Y17.06550 ( rapid move to begin. )
F300.00000
o2 call [41.6908] [17.0655]
G04 P0 ( dwell for no time -- G64 should not smooth over this point )
F600.00000
o2 call [41.6908] [15.0081]
o2 call [44.2308] [15.0081]
o2 call [44.2308] [17.5481]
o2 call [41.6908] [17.5481]
o2 call [41.6908] [17.0655]
G04 P0 ( dwell for no time -- G64 should not smooth over this point )
G00 Z0.50000 ( retract )

G00 X39.15080 Y17.06550 ( rapid move to begin. )
F300.00000
o2 call [39.1508] [17.0655]
G04 P0 ( dwell for no time -- G64 should not smooth over this point )
F600.00000
o2 call [39.1508] [15.0081]
o2 call [41.6908] [15.0081]
o2 call [41.6908] [17.5481]
o2 call [39.1508] [17.5481]
o2 call [39.1508] [17.0655]
G04 P0 ( dwell for no time -- G64 should not smooth over this point )
G00 Z0.50000 ( retract )

G00 X36.61080 Y17.06550 ( rapid move to begin. )
F300.00000
o2 call [36.6108] [17.0655]
G04 P0 ( dwell for no time -- G64 should not smooth over this point )
F600.00000
o2 call [36.6108] [15.0081]
o2 call [39.1508] [15.0081]
o2 call [39.1508] [17.5481]
o2 call [36.6108] [17.5481]
o2 call [36.6108] [17.0655]
G04 P0 ( dwell for no time -- G64 should not smooth over this point )
G00 Z0.50000 ( retract )

G00 X34.07080 Y17.06550 ( rapid move to begin. )
F300.00000
o2 call [34.0708] [17.0655]
G04 P0 ( dwell for no time -- G64 should not smooth over this point )
F600.00000
o2 call [34.0708] [15.0081]
o2 call [36.6108] [15.0081]
o2 call [36.6108] [17.5481]
o2 call [34.0708] [17.5481]
o2 call [34.0708] [17.0655]
G04 P0 ( dwell for no time -- G64 should not smooth over this point )
G00 Z0.50000 ( retract )

G00 X31.53080 Y17.06550 ( rapid move to begin. )
F300.00000
o2 call [31.5308] [17.0655]
G04 P0 ( dwell for no time -- G64 should not smooth over this point )
F600.00000
o2 call [31.5308] [15.0081]
o2 call [34.0708] [15.0081]
o2 call [34.0708] [17.5481]
o2 call [31.5308] [17.5481]
o2 call [31.5308] [17.0655]
G04 P0 ( dwell for no time -- G64 should not smooth over this point )
G00 Z0.50000 ( retract )

G00 X28.99080 Y17.06550 ( rapid move to begin. )
F300.00000
o2 call [28.9908] [17.0655]
G04 P0 ( dwell for no time -- G64 should not smooth over this point )
F600.00000
o2 call [28.9908] [15.0081]
o2 call [31.5308] [15.0081]
o2 call [31.5308] [17.5481]
o2 call [28.9908] [17.5481]
o2 call [28.9908] [17.0655]
G04 P0 ( dwell for no time -- G64 should not smooth over this point )
G00 Z0.50000 ( retract )

G00 X28.99080 Y19.60550 ( rapid move to begin. )
F300.00000
o2 call [28.9908] [19.6055]
G04 P0 ( dwell for no time -- G64 should not smooth over this point )
F600.00000
o2 call [28.9908] [17.5481]
o2 call [31.5308] [17.5481]
o2 call [31.5308] [20.0881]
o2 call [28.9908] [20.0881]
o2 call [28.9908] [19.6055]
G04 P0 ( dwell for no time -- G64 should not smooth over this point )
G00 Z0.50000 ( retract )

G00 X26.45080 Y19.60550 ( rapid move to begin. )
F300.00000
o2 call [26.4508] [19.6055]
G04 P0 ( dwell for no time -- G64 should not smooth over this point )
F600.00000
o2 call [26.4508] [17.5481]
o2 call [28.9908] [17.5481]
o2 call [28.9908] [20.0881]
o2 call [26.4508] [20.0881]
o2 call [26.4508] [19.6055]
G04 P0 ( dwell for no time -- G64 should not smooth over this point )
G00 Z0.50000 ( retract )

G00 X23.91080 Y19.60550 ( rapid move to begin. )
F300.00000
o2 call [23.9108] [19.6055]
G04 P0 ( dwell for no time -- G64 should not smooth over this point )
F600.00000
o2 call [23.9108] [17.5481]
o2 call [26.4508] [17.5481]
o2 call [26.4508] [20.0881]
o2 call [23.9108] [20.0881]
o2 call [23.9108] [19.6055]
G04 P0 ( dwell for no time -- G64 should not smooth over this point )
G00 Z0.50000 ( retract )

G00 X21.37080 Y19.60550 ( rapid move to begin. )
F300.00000
o2 call [21.3708] [19.6055]
G04 P0 ( dwell for no time -- G64 should not smooth over this point )
F600.00000
o2 call [21.3708] [17.5481]
o2 call [23.9108] [17.5481]
o2 call [23.9108] [20.0881]
o2 call [21.3708] [20.0881]
o2 call [21.3708] [19.6055]
G04 P0 ( dwell for no time -- G64 should not smooth over this point )
G00 Z0.50000 ( retract )

G00 X18.83080 Y19.60550 ( rapid move to begin. )
F300.00000
o2 call [18.8308] [19.6055]
G04 P0 ( dwell for no time -- G64 should not smooth over this point )
F600.00000
o2 call [18.8308] [17.5481]
o2 call [21.3708] [17.5481]
o2 call [21.3708] [20.0881]
o2 call [18.8308] [20.0881]
o2 call [18.8308] [19.6055]
G04 P0 ( dwell for no time -- G64 should not smooth over this point )
G00 Z0.50000 ( retract )

G00 X16.29080 Y19.60550 ( rapid move to begin. )
F300.00000
o2 call [16.2908] [19.6055]
G04 P0 ( dwell for no time -- G64 should not smooth over this point )
F600.00000
o2 call [16.2908] [17.5481]
o2 call [18.8308] [17.5481]
o2 call [18.8308] [20.0881]
o2 call [16.2908] [20.0881]
o2 call [16.2908] [19.6055]
G04 P0 ( dwell for no time -- G64 should not smooth over this point )
G00 Z0.50000 ( retract )

G00 X13.75080 Y19.60550 ( rapid move to begin. )
F300.00000
o2 call [13.7508] [19.6055]
G04 P0 ( dwell for no time -- G64 should not smooth over this point )
F600.00000
o2 call [13.7508] [17.5481]
o2 call [16.2908] [17.5481]
o2 call [16.2908] [20.0881]
o2 call [13.7508] [20.0881]
o2 call [13.7508] [19.6055]
G04 P0 ( dwell for no time -- G64 should not smooth over this point )
G00 Z0.50000 ( retract )

G00 X11.21080 Y19.60550 ( rapid move to begin. )
F300.00000
o2 call [11.2108] [19.6055]
G04 P0 ( dwell for no time -- G64 should not smooth over this point )
F600.00000
o2 call [11.2108] [17.5481]
o2 call [13.7508] [17.5481]
o2 call [13.7508] [20.0881]
o2 call [11.2108] [20.0881]
o2 call [11.2108] [19.6055]
G04 P0 ( dwell for no time -- G64 should not smooth over this point )
G00 Z0.50000 ( retract )

G00 X8.92480 Y19.60550 ( rapid move to begin. )
F300.00000
o2 call [8.9248] [19.6055]
G04 P0 ( dwell for no time -- G64 should not smooth over this point )
F600.00000
o2 call [8.8232] [19.5293]
o2 call [8.8232] [19.4531]
o2 call [8.6454] [19.1229]
o2 call [8.6454] [18.5641]
o2 call [8.6962] [18.5133]
o2 call [8.6962] [18.4371]
o2 call [8.7724] [18.3355]
o2 call [8.8486] [18.1069]
o2 call [9.2296] [17.7259]
o2 call [9.3566] [17.6751]
o2 call [9.4074] [17.6243]
o2 call [9.4074] [17.5481]
o2 call [11.2108] [17.5481]
o2 call [11.2108] [20.0881]
o2 call [9.4074] [20.0881]
o2 call [9.382] [20.0119]
o2 call [9.2296] [19.9357]
o2 call [8.9248] [19.6055]
G04 P0 ( dwell for no time -- G64 should not smooth over this point )
G00 Z0.50000 ( retract )

G00 X8.92480 Y22.14550 ( rapid move to begin. )
F300.00000
o2 call [8.9248] [22.1455]
G04 P0 ( dwell for no time -- G64 should not smooth over this point )
F600.00000
o2 call [8.8232] [22.0693]
o2 call [8.8232] [21.9931]
o2 call [8.6454] [21.6629]
o2 call [8.6454] [21.1041]
o2 call [8.6962] [21.0533]
o2 call [8.6962] [20.9771]
o2 call [8.7724] [20.8755]
o2 call [8.8486] [20.6469]
o2 call [9.2296] [20.2659]
o2 call [9.3566] [20.2151]
o2 call [9.4074] [20.1643]
o2 call [9.4074] [20.0881]
o2 call [11.2108] [20.0881]
o2 call [11.2108] [22.6281]
o2 call [9.4074] [22.6281]
o2 call [9.3566] [22.5265]
o2 call [9.2296] [22.4757]
o2 call [8.9248] [22.1455]
G04 P0 ( dwell for no time -- G64 should not smooth over this point )
G00 Z0.50000 ( retract )

G00 X11.21080 Y22.14550 ( rapid move to begin. )
F300.00000
o2 call [11.2108] [22.1455]
G04 P0 ( dwell for no time -- G64 should not smooth over this point )
F600.00000
o2 call [11.2108] [20.0881]
o2 call [13.7508] [20.0881]
o2 call [13.7508] [22.6281]
o2 call [11.2108] [22.6281]
o2 call [11.2108] [22.1455]
G04 P0 ( dwell for no time -- G64 should not smooth over this point )
G00 Z0.50000 ( retract )

G00 X13.75080 Y22.14550 ( rapid move to begin. )
F300.00000
o2 call [13.7508] [22.1455]
G04 P0 ( dwell for no time -- G64 should not smooth over this point )
F600.00000
o2 call [13.7508] [20.0881]
o2 call [16.2908] [20.0881]
o2 call [16.2908] [22.6281]
o2 call [13.7508] [22.6281]
o2 call [13.7508] [22.1455]
G04 P0 ( dwell for no time -- G64 should not smooth over this point )
G00 Z0.50000 ( retract )

G00 X16.29080 Y22.14550 ( rapid move to begin. )
F300.00000
o2 call [16.2908] [22.1455]
G04 P0 ( dwell for no time -- G64 should not smooth over this point )
F600.00000
o2 call [16.2908] [20.0881]
o2 call [18.8308] [20.0881]
o2 call [18.8308] [22.6281]
o2 call [16.2908] [22.6281]
o2 call [16.2908] [22.1455]
G04 P0 ( dwell for no time -- G64 should not smooth over this point )
G00 Z0.50000 ( retract )

G00 X18.83080 Y22.14550 ( rapid move to begin. )
F300.00000
o2 call [18.8308] [22.1455]
G04 P0 ( dwell for no time -- G64 should not smooth over this point )
F600.00000
o2 call [18.8308] [20.0881]
o2 call [21.3708] [20.0881]
o2 call [21.3708] [22.6281]
o2 call [18.8308] [22.6281]
o2 call [18.8308] [22.1455]
G04 P0 ( dwell for no time -- G64 should not smooth over this point )
G00 Z0.50000 ( retract )

G00 X21.37080 Y22.14550 ( rapid move to begin. )
F300.00000
o2 call [21.3708] [22.1455]
G04 P0 ( dwell for no time -- G64 should not smooth over this point )
F600.00000
o2 call [21.3708] [20.0881]
o2 call [23.9108] [20.0881]
o2 call [23.9108] [22.6281]
o2 call [21.3708] [22.6281]
o2 call [21.3708] [22.1455]
G04 P0 ( dwell for no time -- G64 should not smooth over this point )
G00 Z0.50000 ( retract )

G00 X23.91080 Y22.14550 ( rapid move to begin. )
F300.00000
o2 call [23.9108] [22.1455]
G04 P0 ( dwell for no time -- G64 should not smooth over this point )
F600.00000
o2 call [23.9108] [20.0881]
o2 call [26.4508] [20.0881]
o2 call [26.4508] [22.6281]
o2 call [23.9108] [22.6281]
o2 call [23.9108] [22.1455]
G04 P0 ( dwell for no time -- G64 should not smooth over this point )
G00 Z0.50000 ( retract )

G00 X26.45080 Y22.14550 ( rapid move to begin. )
F300.00000
o2 call [26.4508] [22.1455]
G04 P0 ( dwell for no time -- G64 should not smooth over this point )
F600.00000
o2 call [26.4508] [20.0881]
o2 call [28.9908] [20.0881]
o2 call [28.9908] [22.6281]
o2 call [26.4508] [22.6281]
o2 call [26.4508] [22.1455]
G04 P0 ( dwell for no time -- G64 should not smooth over this point )
G00 Z0.50000 ( retract )

G00 X28.99080 Y22.14550 ( rapid move to begin. )
F300.00000
o2 call [28.9908] [22.1455]
G04 P0 ( dwell for no time -- G64 should not smooth over this point )
F600.00000
o2 call [28.9908] [20.0881]
o2 call [31.5308] [20.0881]
o2 call [31.5308] [22.6281]
o2 call [28.9908] [22.6281]
o2 call [28.9908] [22.1455]
G04 P0 ( dwell for no time -- G64 should not smooth over this point )
G00 Z0.50000 ( retract )

G00 X31.53080 Y22.14550 ( rapid move to begin. )
F300.00000
o2 call [31.5308] [22.1455]
G04 P0 ( dwell for no time -- G64 should not smooth over this point )
F600.00000
o2 call [31.5308] [20.0881]
o2 call [34.0708] [20.0881]
o2 call [34.0708] [22.6281]
o2 call [31.5308] [22.6281]
o2 call [31.5308] [22.1455]
G04 P0 ( dwell for no time -- G64 should not smooth over this point )
G00 Z0.50000 ( retract )

G00 X31.53080 Y19.60550 ( rapid move to begin. )
F300.00000
o2 call [31.5308] [19.6055]
G04 P0 ( dwell for no time -- G64 should not smooth over this point )
F600.00000
o2 call [31.5308] [17.5481]
o2 call [34.0708] [17.5481]
o2 call [34.0708] [20.0881]
o2 call [31.5308] [20.0881]
o2 call [31.5308] [19.6055]
G04 P0 ( dwell for no time -- G64 should not smooth over this point )
G00 Z0.50000 ( retract )

G00 X34.07080 Y19.60550 ( rapid move to begin. )
F300.00000
o2 call [34.0708] [19.6055]
G04 P0 ( dwell for no time -- G64 should not smooth over this point )
F600.00000
o2 call [34.0708] [17.5481]
o2 call [36.6108] [17.5481]
o2 call [36.6108] [20.0881]
o2 call [34.0708] [20.0881]
o2 call [34.0708] [19.6055]
G04 P0 ( dwell for no time -- G64 should not smooth over this point )
G00 Z0.50000 ( retract )

G00 X36.61080 Y19.60550 ( rapid move to begin. )
F300.00000
o2 call [36.6108] [19.6055]
G04 P0 ( dwell for no time -- G64 should not smooth over this point )
F600.00000
o2 call [36.6108] [17.5481]
o2 call [39.1508] [17.5481]
o2 call [39.1508] [20.0881]
o2 call [36.6108] [20.0881]
o2 call [36.6108] [19.6055]
G04 P0 ( dwell for no time -- G64 should not smooth over this point )
G00 Z0.50000 ( retract )

G00 X39.15080 Y19.60550 ( rapid move to begin. )
F300.00000
o2 call [39.1508] [19.6055]
G04 P0 ( dwell for no time -- G64 should not smooth over this point )
F600.00000
o2 call [39.1508] [17.5481]
o2 call [41.6908] [17.5481]
o2 call [41.6908] [20.0881]
o2 call [39.1508] [20.0881]
o2 call [39.1508] [19.6055]
G04 P0 ( dwell for no time -- G64 should not smooth over this point )
G00 Z0.50000 ( retract )

G00 X41.69080 Y19.60550 ( rapid move to begin. )
F300.00000
o2 call [41.6908] [19.6055]
G04 P0 ( dwell for no time -- G64 should not smooth over this point )
F600.00000
o2 call [41.6908] [17.5481]
o2 call [44.2308] [17.5481]
o2 call [44.2308] [20.0881]
o2 call [41.6908] [20.0881]
o2 call [41.6908] [19.6055]
G04 P0 ( dwell for no time -- G64 should not smooth over this point )
G00 Z0.50000 ( retract )

G00 X44.23080 Y19.60550 ( rapid move to begin. )
F300.00000
o2 call [44.2308] [19.6055]
G04 P0 ( dwell for no time -- G64 should not smooth over this point )
F600.00000
o2 call [44.2308] [17.5481]
o2 call [46.7708] [17.5481]
o2 call [46.7708] [20.0881]
o2 call [44.2308] [20.0881]
o2 call [44.2308] [19.6055]
G04 P0 ( dwell for no time -- G64 should not smooth over this point )
G00 Z0.50000 ( retract )

G00 X46.77080 Y19.60550 ( rapid move to begin. )
F300.00000
o2 call [46.7708] [19.6055]
G04 P0 ( dwell for no time -- G64 should not smooth over this point )
F600.00000
o2 call [46.7708] [17.5481]
o2 call [49.3108] [17.5481]
o2 call [49.3108] [20.0881]
o2 call [46.7708] [20.0881]
o2 call [46.7708] [19.6055]
G04 P0 ( dwell for no time -- G64 should not smooth over this point )
G00 Z0.50000 ( retract )

G00 X49.31080 Y19.60550 ( rapid move to begin. )
F300.00000
o2 call [49.3108] [19.6055]
G04 P0 ( dwell for no time -- G64 should not smooth over this point )
F600.00000
o2 call [49.3108] [17.5481]
o2 call [51.8508] [17.5481]
o2 call [51.8508] [20.0881]
o2 call [49.3108] [20.0881]
o2 call [49.3108] [19.6055]
G04 P0 ( dwell for no time -- G64 should not smooth over this point )
G00 Z0.50000 ( retract )

G00 X51.85080 Y19.60550 ( rapid move to begin. )
F300.00000
o2 call [51.8508] [19.6055]
G04 P0 ( dwell for no time -- G64 should not smooth over this point )
F600.00000
o2 call [51.8508] [17.5481]
o2 call [54.3908] [17.5481]
o2 call [54.3908] [20.0881]
o2 call [51.8508] [20.0881]
o2 call [51.8508] [19.6055]
G04 P0 ( dwell for no time -- G64 should not smooth over this point )
G00 Z0.50000 ( retract )

G00 X54.39080 Y19.60550 ( rapid move to begin. )
F300.00000
o2 call [54.3908] [19.6055]
G04 P0 ( dwell for no time -- G64 should not smooth over this point )
F600.00000
o2 call [54.3908] [17.5481]
o2 call [56.9308] [17.5481]
o2 call [56.9308] [20.0881]
o2 call [54.3908] [20.0881]
o2 call [54.3908] [19.6055]
G04 P0 ( dwell for no time -- G64 should not smooth over this point )
G00 Z0.50000 ( retract )

G00 X56.93080 Y19.60550 ( rapid move to begin. )
F300.00000
o2 call [56.9308] [19.6055]
G04 P0 ( dwell for no time -- G64 should not smooth over this point )
F600.00000
o2 call [56.9308] [17.5481]
o2 call [59.4708] [17.5481]
o2 call [59.4708] [20.0881]
o2 call [56.9308] [20.0881]
o2 call [56.9308] [19.6055]
G04 P0 ( dwell for no time -- G64 should not smooth over this point )
G00 Z0.50000 ( retract )

G00 X59.47080 Y19.60550 ( rapid move to begin. )
F300.00000
o2 call [59.4708] [19.6055]
G04 P0 ( dwell for no time -- G64 should not smooth over this point )
F600.00000
o2 call [59.4708] [17.5481]
o2 call [62.0108] [17.5481]
o2 call [62.0108] [20.0881]
o2 call [59.4708] [20.0881]
o2 call [59.4708] [19.6055]
G04 P0 ( dwell for no time -- G64 should not smooth over this point )
G00 Z0.50000 ( retract )

G00 X62.01080 Y19.60550 ( rapid move to begin. )
F300.00000
o2 call [62.0108] [19.6055]
G04 P0 ( dwell for no time -- G64 should not smooth over this point )
F600.00000
o2 call [62.0108] [17.5481]
o2 call [64.5508] [17.5481]
o2 call [64.5508] [20.0881]
o2 call [62.0108] [20.0881]
o2 call [62.0108] [19.6055]
G04 P0 ( dwell for no time -- G64 should not smooth over this point )
G00 Z0.50000 ( retract )

G00 X64.55080 Y19.60550 ( rapid move to begin. )
F300.00000
o2 call [64.5508] [19.6055]
G04 P0 ( dwell for no time -- G64 should not smooth over this point )
F600.00000
o2 call [64.5508] [17.5481]
o2 call [67.0908] [17.5481]
o2 call [67.0908] [20.0881]
o2 call [64.5508] [20.0881]
o2 call [64.5508] [19.6055]
G04 P0 ( dwell for no time -- G64 should not smooth over this point )
G00 Z0.50000 ( retract )

G00 X67.09080 Y19.60550 ( rapid move to begin. )
F300.00000
o2 call [67.0908] [19.6055]
G04 P0 ( dwell for no time -- G64 should not smooth over this point )
F600.00000
o2 call [67.0908] [17.5481]
o2 call [68.9196] [17.5481]
o2 call [68.9196] [17.6243]
o2 call [69.0212] [17.7259]
o2 call [69.1482] [17.7767]
o2 call [69.4784] [18.1069]
o2 call [69.6562] [18.5641]
o2 call [69.6562] [19.1229]
o2 call [69.4276] [19.6055]
o2 call [69.0974] [19.9357]
o2 call [68.9958] [19.9611]
o2 call [68.9196] [20.0373]
o2 call [68.9196] [20.0881]
o2 call [67.0908] [20.0881]
o2 call [67.0908] [19.6055]
G04 P0 ( dwell for no time -- G64 should not smooth over this point )
G00 Z0.50000 ( retract )

G00 X67.09080 Y22.14550 ( rapid move to begin. )
F300.00000
o2 call [67.0908] [22.1455]
G04 P0 ( dwell for no time -- G64 should not smooth over this point )
F600.00000
o2 call [67.0908] [20.0881]
o2 call [68.9196] [20.0881]
o2 call [68.945] [20.1897]
o2 call [69.0974] [20.3167]
o2 call [69.1482] [20.3167]
o2 call [69.4784] [20.6469]
o2 call [69.6562] [21.1041]
o2 call [69.6562] [21.6629]
o2 call [69.4276] [22.1455]
o2 call [69.0974] [22.4757]
o2 call [68.9958] [22.5011]
o2 call [68.9196] [22.5773]
o2 call [68.9196] [22.6281]
o2 call [67.0908] [22.6281]
o2 call [67.0908] [22.1455]
G04 P0 ( dwell for no time -- G64 should not smooth over this point )
G00 Z0.50000 ( retract )

G00 X64.55080 Y22.14550 ( rapid move to begin. )
F300.00000
o2 call [64.5508] [22.1455]
G04 P0 ( dwell for no time -- G64 should not smooth over this point )
F600.00000
o2 call [64.5508] [20.0881]
o2 call [67.0908] [20.0881]
o2 call [67.0908] [22.6281]
o2 call [64.5508] [22.6281]
o2 call [64.5508] [22.1455]
G04 P0 ( dwell for no time -- G64 should not smooth over this point )
G00 Z0.50000 ( retract )

G00 X62.01080 Y22.14550 ( rapid move to begin. )
F300.00000
o2 call [62.0108] [22.1455]
G04 P0 ( dwell for no time -- G64 should not smooth over this point )
F600.00000
o2 call [62.0108] [20.0881]
o2 call [64.5508] [20.0881]
o2 call [64.5508] [22.6281]
o2 call [62.0108] [22.6281]
o2 call [62.0108] [22.1455]
G04 P0 ( dwell for no time -- G64 should not smooth over this point )
G00 Z0.50000 ( retract )

G00 X59.47080 Y22.14550 ( rapid move to begin. )
F300.00000
o2 call [59.4708] [22.1455]
G04 P0 ( dwell for no time -- G64 should not smooth over this point )
F600.00000
o2 call [59.4708] [20.0881]
o2 call [62.0108] [20.0881]
o2 call [62.0108] [22.6281]
o2 call [59.4708] [22.6281]
o2 call [59.4708] [22.1455]
G04 P0 ( dwell for no time -- G64 should not smooth over this point )
G00 Z0.50000 ( retract )

G00 X56.93080 Y22.14550 ( rapid move to begin. )
F300.00000
o2 call [56.9308] [22.1455]
G04 P0 ( dwell for no time -- G64 should not smooth over this point )
F600.00000
o2 call [56.9308] [20.0881]
o2 call [59.4708] [20.0881]
o2 call [59.4708] [22.6281]
o2 call [56.9308] [22.6281]
o2 call [56.9308] [22.1455]
G04 P0 ( dwell for no time -- G64 should not smooth over this point )
G00 Z0.50000 ( retract )

G00 X54.39080 Y22.14550 ( rapid move to begin. )
F300.00000
o2 call [54.3908] [22.1455]
G04 P0 ( dwell for no time -- G64 should not smooth over this point )
F600.00000
o2 call [54.3908] [20.0881]
o2 call [56.9308] [20.0881]
o2 call [56.9308] [22.6281]
o2 call [54.3908] [22.6281]
o2 call [54.3908] [22.1455]
G04 P0 ( dwell for no time -- G64 should not smooth over this point )
G00 Z0.50000 ( retract )

G00 X51.85080 Y22.14550 ( rapid move to begin. )
F300.00000
o2 call [51.8508] [22.1455]
G04 P0 ( dwell for no time -- G64 should not smooth over this point )
F600.00000
o2 call [51.8508] [20.0881]
o2 call [54.3908] [20.0881]
o2 call [54.3908] [22.6281]
o2 call [51.8508] [22.6281]
o2 call [51.8508] [22.1455]
G04 P0 ( dwell for no time -- G64 should not smooth over this point )
G00 Z0.50000 ( retract )

G00 X49.31080 Y22.14550 ( rapid move to begin. )
F300.00000
o2 call [49.3108] [22.1455]
G04 P0 ( dwell for no time -- G64 should not smooth over this point )
F600.00000
o2 call [49.3108] [20.0881]
o2 call [51.8508] [20.0881]
o2 call [51.8508] [22.6281]
o2 call [49.3108] [22.6281]
o2 call [49.3108] [22.1455]
G04 P0 ( dwell for no time -- G64 should not smooth over this point )
G00 Z0.50000 ( retract )

G00 X46.77080 Y22.14550 ( rapid move to begin. )
F300.00000
o2 call [46.7708] [22.1455]
G04 P0 ( dwell for no time -- G64 should not smooth over this point )
F600.00000
o2 call [46.7708] [20.0881]
o2 call [49.3108] [20.0881]
o2 call [49.3108] [22.6281]
o2 call [46.7708] [22.6281]
o2 call [46.7708] [22.1455]
G04 P0 ( dwell for no time -- G64 should not smooth over this point )
G00 Z0.50000 ( retract )

G00 X44.23080 Y22.14550 ( rapid move to begin. )
F300.00000
o2 call [44.2308] [22.1455]
G04 P0 ( dwell for no time -- G64 should not smooth over this point )
F600.00000
o2 call [44.2308] [20.0881]
o2 call [46.7708] [20.0881]
o2 call [46.7708] [22.6281]
o2 call [44.2308] [22.6281]
o2 call [44.2308] [22.1455]
G04 P0 ( dwell for no time -- G64 should not smooth over this point )
G00 Z0.50000 ( retract )

G00 X41.69080 Y22.14550 ( rapid move to begin. )
F300.00000
o2 call [41.6908] [22.1455]
G04 P0 ( dwell for no time -- G64 should not smooth over this point )
F600.00000
o2 call [41.6908] [20.0881]
o2 call [44.2308] [20.0881]
o2 call [44.2308] [22.6281]
o2 call [41.6908] [22.6281]
o2 call [41.6908] [22.1455]
G04 P0 ( dwell for no time -- G64 should not smooth over this point )
G00 Z0.50000 ( retract )

G00 X39.15080 Y22.14550 ( rapid move to begin. )
F300.00000
o2 call [39.1508] [22.1455]
G04 P0 ( dwell for no time -- G64 should not smooth over this point )
F600.00000
o2 call [39.1508] [20.0881]
o2 call [41.6908] [20.0881]
o2 call [41.6908] [22.6281]
o2 call [39.1508] [22.6281]
o2 call [39.1508] [22.1455]
G04 P0 ( dwell for no time -- G64 should not smooth over this point )
G00 Z0.50000 ( retract )

G00 X36.61080 Y22.14550 ( rapid move to begin. )
F300.00000
o2 call [36.6108] [22.1455]
G04 P0 ( dwell for no time -- G64 should not smooth over this point )
F600.00000
o2 call [36.6108] [20.0881]
o2 call [39.1508] [20.0881]
o2 call [39.1508] [22.6281]
o2 call [36.6108] [22.6281]
o2 call [36.6108] [22.1455]
G04 P0 ( dwell for no time -- G64 should not smooth over this point )
G00 Z0.50000 ( retract )

G00 X34.07080 Y22.14550 ( rapid move to begin. )
F300.00000
o2 call [34.0708] [22.1455]
G04 P0 ( dwell for no time -- G64 should not smooth over this point )
F600.00000
o2 call [34.0708] [20.0881]
o2 call [36.6108] [20.0881]
o2 call [36.6108] [22.6281]
o2 call [34.0708] [22.6281]
o2 call [34.0708] [22.1455]
G04 P0 ( dwell for no time -- G64 should not smooth over this point )
G00 Z0.50000 ( retract )

G00 X34.07080 Y24.68550 ( rapid move to begin. )
F300.00000
o2 call [34.0708] [24.6855]
G04 P0 ( dwell for no time -- G64 should not smooth over this point )
F600.00000
o2 call [34.0708] [22.6281]
o2 call [36.6108] [22.6281]
o2 call [36.6108] [25.1681]
o2 call [34.0708] [25.1681]
o2 call [34.0708] [24.6855]
G04 P0 ( dwell for no time -- G64 should not smooth over this point )
G00 Z0.50000 ( retract )

G00 X31.53080 Y24.68550 ( rapid move to begin. )
F300.00000
o2 call [31.5308] [24.6855]
G04 P0 ( dwell for no time -- G64 should not smooth over this point )
F600.00000
o2 call [31.5308] [22.6281]
o2 call [34.0708] [22.6281]
o2 call [34.0708] [25.1681]
o2 call [31.5308] [25.1681]
o2 call [31.5308] [24.6855]
G04 P0 ( dwell for no time -- G64 should not smooth over this point )
G00 Z0.50000 ( retract )

G00 X28.99080 Y24.68550 ( rapid move to begin. )
F300.00000
o2 call [28.9908] [24.6855]
G04 P0 ( dwell for no time -- G64 should not smooth over this point )
F600.00000
o2 call [28.9908] [22.6281]
o2 call [31.5308] [22.6281]
o2 call [31.5308] [25.1681]
o2 call [28.9908] [25.1681]
o2 call [28.9908] [24.6855]
G04 P0 ( dwell for no time -- G64 should not smooth over this point )
G00 Z0.50000 ( retract )

G00 X26.45080 Y24.68550 ( rapid move to begin. )
F300.00000
o2 call [26.4508] [24.6855]
G04 P0 ( dwell for no time -- G64 should not smooth over this point )
F600.00000
o2 call [26.4508] [22.6281]
o2 call [28.9908] [22.6281]
o2 call [28.9908] [25.1681]
o2 call [26.4508] [25.1681]
o2 call [26.4508] [24.6855]
G04 P0 ( dwell for no time -- G64 should not smooth over this point )
G00 Z0.50000 ( retract )

G00 X23.91080 Y24.68550 ( rapid move to begin. )
F300.00000
o2 call [23.9108] [24.6855]
G04 P0 ( dwell for no time -- G64 should not smooth over this point )
F600.00000
o2 call [23.9108] [22.6281]
o2 call [26.4508] [22.6281]
o2 call [26.4508] [25.1681]
o2 call [23.9108] [25.1681]
o2 call [23.9108] [24.6855]
G04 P0 ( dwell for no time -- G64 should not smooth over this point )
G00 Z0.50000 ( retract )

G00 X21.37080 Y24.68550 ( rapid move to begin. )
F300.00000
o2 call [21.3708] [24.6855]
G04 P0 ( dwell for no time -- G64 should not smooth over this point )
F600.00000
o2 call [21.3708] [22.6281]
o2 call [23.9108] [22.6281]
o2 call [23.9108] [25.1681]
o2 call [21.3708] [25.1681]
o2 call [21.3708] [24.6855]
G04 P0 ( dwell for no time -- G64 should not smooth over this point )
G00 Z0.50000 ( retract )

G00 X18.83080 Y24.68550 ( rapid move to begin. )
F300.00000
o2 call [18.8308] [24.6855]
G04 P0 ( dwell for no time -- G64 should not smooth over this point )
F600.00000
o2 call [18.8308] [22.6281]
o2 call [21.3708] [22.6281]
o2 call [21.3708] [25.1681]
o2 call [18.8308] [25.1681]
o2 call [18.8308] [24.6855]
G04 P0 ( dwell for no time -- G64 should not smooth over this point )
G00 Z0.50000 ( retract )

G00 X16.29080 Y24.68550 ( rapid move to begin. )
F300.00000
o2 call [16.2908] [24.6855]
G04 P0 ( dwell for no time -- G64 should not smooth over this point )
F600.00000
o2 call [16.2908] [22.6281]
o2 call [18.8308] [22.6281]
o2 call [18.8308] [25.1681]
o2 call [16.2908] [25.1681]
o2 call [16.2908] [24.6855]
G04 P0 ( dwell for no time -- G64 should not smooth over this point )
G00 Z0.50000 ( retract )

G00 X13.75080 Y24.68550 ( rapid move to begin. )
F300.00000
o2 call [13.7508] [24.6855]
G04 P0 ( dwell for no time -- G64 should not smooth over this point )
F600.00000
o2 call [13.7508] [22.6281]
o2 call [16.2908] [22.6281]
o2 call [16.2908] [25.1681]
o2 call [13.7508] [25.1681]
o2 call [13.7508] [24.6855]
G04 P0 ( dwell for no time -- G64 should not smooth over this point )
G00 Z0.50000 ( retract )

G00 X11.21080 Y24.68550 ( rapid move to begin. )
F300.00000
o2 call [11.2108] [24.6855]
G04 P0 ( dwell for no time -- G64 should not smooth over this point )
F600.00000
o2 call [11.2108] [22.6281]
o2 call [13.7508] [22.6281]
o2 call [13.7508] [25.1681]
o2 call [11.2108] [25.1681]
o2 call [11.2108] [24.6855]
G04 P0 ( dwell for no time -- G64 should not smooth over this point )
G00 Z0.50000 ( retract )

G00 X8.92480 Y24.68550 ( rapid move to begin. )
F300.00000
o2 call [8.9248] [24.6855]
G04 P0 ( dwell for no time -- G64 should not smooth over this point )
F600.00000
o2 call [8.8232] [24.6093]
o2 call [8.8232] [24.5331]
o2 call [8.6454] [24.2029]
o2 call [8.6454] [23.6441]
o2 call [8.6962] [23.5933]
o2 call [8.6962] [23.5171]
o2 call [8.7724] [23.4155]
o2 call [8.8486] [23.1869]
o2 call [9.2296] [22.8059]
o2 call [9.3566] [22.7551]
o2 call [9.4074] [22.7043]
o2 call [9.4074] [22.6281]
o2 call [11.2108] [22.6281]
o2 call [11.2108] [25.1681]
o2 call [9.4074] [25.1681]
o2 call [9.382] [25.0919]
o2 call [9.2296] [25.0157]
o2 call [8.9248] [24.6855]
G04 P0 ( dwell for no time -- G64 should not smooth over this point )
G00 Z0.50000 ( retract )

G00 X8.92480 Y27.22550 ( rapid move to begin. )
F300.00000
o2 call [8.9248] [27.2255]
G04 P0 ( dwell for no time -- G64 should not smooth over this point )
F600.00000
o2 call [8.8232] [27.1493]
o2 call [8.8232] [27.0731]
o2 call [8.6454] [26.7429]
o2 call [8.6454] [26.1841]
o2 call [8.6962] [26.1333]
o2 call [8.6962] [26.0571]
o2 call [8.7724] [25.9555]
o2 call [8.8486] [25.7269]
o2 call [9.2296] [25.3459]
o2 call [9.3566] [25.2951]
o2 call [9.4074] [25.2443]
o2 call [9.4074] [25.1681]
o2 call [11.2108] [25.1681]
o2 call [11.2108] [27.7081]
o2 call [9.4074] [27.7081]
o2 call [9.3566] [27.6065]
o2 call [9.2296] [27.5557]
o2 call [8.9248] [27.2255]
G04 P0 ( dwell for no time -- G64 should not smooth over this point )
G00 Z0.50000 ( retract )

G00 X11.21080 Y27.22550 ( rapid move to begin. )
F300.00000
o2 call [11.2108] [27.2255]
G04 P0 ( dwell for no time -- G64 should not smooth over this point )
F600.00000
o2 call [11.2108] [25.1681]
o2 call [13.7508] [25.1681]
o2 call [13.7508] [27.7081]
o2 call [11.2108] [27.7081]
o2 call [11.2108] [27.2255]
G04 P0 ( dwell for no time -- G64 should not smooth over this point )
G00 Z0.50000 ( retract )

G00 X13.75080 Y27.22550 ( rapid move to begin. )
F300.00000
o2 call [13.7508] [27.2255]
G04 P0 ( dwell for no time -- G64 should not smooth over this point )
F600.00000
o2 call [13.7508] [25.1681]
o2 call [16.2908] [25.1681]
o2 call [16.2908] [27.7081]
o2 call [13.7508] [27.7081]
o2 call [13.7508] [27.2255]
G04 P0 ( dwell for no time -- G64 should not smooth over this point )
G00 Z0.50000 ( retract )

G00 X16.29080 Y27.22550 ( rapid move to begin. )
F300.00000
o2 call [16.2908] [27.2255]
G04 P0 ( dwell for no time -- G64 should not smooth over this point )
F600.00000
o2 call [16.2908] [25.1681]
o2 call [18.8308] [25.1681]
o2 call [18.8308] [27.7081]
o2 call [16.2908] [27.7081]
o2 call [16.2908] [27.2255]
G04 P0 ( dwell for no time -- G64 should not smooth over this point )
G00 Z0.50000 ( retract )

G00 X18.83080 Y27.22550 ( rapid move to begin. )
F300.00000
o2 call [18.8308] [27.2255]
G04 P0 ( dwell for no time -- G64 should not smooth over this point )
F600.00000
o2 call [18.8308] [25.1681]
o2 call [21.3708] [25.1681]
o2 call [21.3708] [27.7081]
o2 call [18.8308] [27.7081]
o2 call [18.8308] [27.2255]
G04 P0 ( dwell for no time -- G64 should not smooth over this point )
G00 Z0.50000 ( retract )

G00 X21.37080 Y27.22550 ( rapid move to begin. )
F300.00000
o2 call [21.3708] [27.2255]
G04 P0 ( dwell for no time -- G64 should not smooth over this point )
F600.00000
o2 call [21.3708] [25.1681]
o2 call [23.9108] [25.1681]
o2 call [23.9108] [27.7081]
o2 call [21.3708] [27.7081]
o2 call [21.3708] [27.2255]
G04 P0 ( dwell for no time -- G64 should not smooth over this point )
G00 Z0.50000 ( retract )

G00 X23.91080 Y27.22550 ( rapid move to begin. )
F300.00000
o2 call [23.9108] [27.2255]
G04 P0 ( dwell for no time -- G64 should not smooth over this point )
F600.00000
o2 call [23.9108] [25.1681]
o2 call [26.4508] [25.1681]
o2 call [26.4508] [27.7081]
o2 call [23.9108] [27.7081]
o2 call [23.9108] [27.2255]
G04 P0 ( dwell for no time -- G64 should not smooth over this point )
G00 Z0.50000 ( retract )

G00 X26.45080 Y27.22550 ( rapid move to begin. )
F300.00000
o2 call [26.4508] [27.2255]
G04 P0 ( dwell for no time -- G64 should not smooth over this point )
F600.00000
o2 call [26.4508] [25.1681]
o2 call [28.9908] [25.1681]
o2 call [28.9908] [27.7081]
o2 call [26.4508] [27.7081]
o2 call [26.4508] [27.2255]
G04 P0 ( dwell for no time -- G64 should not smooth over this point )
G00 Z0.50000 ( retract )

G00 X28.99080 Y27.22550 ( rapid move to begin. )
F300.00000
o2 call [28.9908] [27.2255]
G04 P0 ( dwell for no time -- G64 should not smooth over this point )
F600.00000
o2 call [28.9908] [25.1681]
o2 call [31.5308] [25.1681]
o2 call [31.5308] [27.7081]
o2 call [28.9908] [27.7081]
o2 call [28.9908] [27.2255]
G04 P0 ( dwell for no time -- G64 should not smooth over this point )
G00 Z0.50000 ( retract )

G00 X31.53080 Y27.22550 ( rapid move to begin. )
F300.00000
o2 call [31.5308] [27.2255]
G04 P0 ( dwell for no time -- G64 should not smooth over this point )
F600.00000
o2 call [31.5308] [25.1681]
o2 call [34.0708] [25.1681]
o2 call [34.0708] [27.7081]
o2 call [31.5308] [27.7081]
o2 call [31.5308] [27.2255]
G04 P0 ( dwell for no time -- G64 should not smooth over this point )
G00 Z0.50000 ( retract )

G00 X34.07080 Y27.22550 ( rapid move to begin. )
F300.00000
o2 call [34.0708] [27.2255]
G04 P0 ( dwell for no time -- G64 should not smooth over this point )
F600.00000
o2 call [34.0708] [25.1681]
o2 call [36.6108] [25.1681]
o2 call [36.6108] [27.7081]
o2 call [34.0708] [27.7081]
o2 call [34.0708] [27.2255]
G04 P0 ( dwell for no time -- G64 should not smooth over this point )
G00 Z0.50000 ( retract )

G00 X36.61080 Y27.22550 ( rapid move to begin. )
F300.00000
o2 call [36.6108] [27.2255]
G04 P0 ( dwell for no time -- G64 should not smooth over this point )
F600.00000
o2 call [36.6108] [25.1681]
o2 call [39.1508] [25.1681]
o2 call [39.1508] [27.7081]
o2 call [36.6108] [27.7081]
o2 call [36.6108] [27.2255]
G04 P0 ( dwell for no time -- G64 should not smooth over this point )
G00 Z0.50000 ( retract )

G00 X36.61080 Y24.68550 ( rapid move to begin. )
F300.00000
o2 call [36.6108] [24.6855]
G04 P0 ( dwell for no time -- G64 should not smooth over this point )
F600.00000
o2 call [36.6108] [22.6281]
o2 call [39.1508] [22.6281]
o2 call [39.1508] [25.1681]
o2 call [36.6108] [25.1681]
o2 call [36.6108] [24.6855]
G04 P0 ( dwell for no time -- G64 should not smooth over this point )
G00 Z0.50000 ( retract )

G00 X39.15080 Y24.68550 ( rapid move to begin. )
F300.00000
o2 call [39.1508] [24.6855]
G04 P0 ( dwell for no time -- G64 should not smooth over this point )
F600.00000
o2 call [39.1508] [22.6281]
o2 call [41.6908] [22.6281]
o2 call [41.6908] [25.1681]
o2 call [39.1508] [25.1681]
o2 call [39.1508] [24.6855]
G04 P0 ( dwell for no time -- G64 should not smooth over this point )
G00 Z0.50000 ( retract )

G00 X41.69080 Y24.68550 ( rapid move to begin. )
F300.00000
o2 call [41.6908] [24.6855]
G04 P0 ( dwell for no time -- G64 should not smooth over this point )
F600.00000
o2 call [41.6908] [22.6281]
o2 call [44.2308] [22.6281]
o2 call [44.2308] [25.1681]
o2 call [41.6908] [25.1681]
o2 call [41.6908] [24.6855]
G04 P0 ( dwell for no time -- G64 should not smooth over this point )
G00 Z0.50000 ( retract )

G00 X44.23080 Y24.68550 ( rapid move to begin. )
F300.00000
o2 call [44.2308] [24.6855]
G04 P0 ( dwell for no time -- G64 should not smooth over this point )
F600.00000
o2 call [44.2308] [22.6281]
o2 call [46.7708] [22.6281]
o2 call [46.7708] [25.1681]
o2 call [44.2308] [25.1681]
o2 call [44.2308] [24.6855]
G04 P0 ( dwell for no time -- G64 should not smooth over this point )
G00 Z0.50000 ( retract )

G00 X46.77080 Y24.68550 ( rapid move to begin. )
F300.00000
o2 call [46.7708] [24.6855]
G04 P0 ( dwell for no time -- G64 should not smooth over this point )
F600.00000
o2 call [46.7708] [22.6281]
o2 call [49.3108] [22.6281]
o2 call [49.3108] [25.1681]
o2 call [46.7708] [25.1681]
o2 call [46.7708] [24.6855]
G04 P0 ( dwell for no time -- G64 should not smooth over this point )
G00 Z0.50000 ( retract )

G00 X49.31080 Y24.68550 ( rapid move to begin. )
F300.00000
o2 call [49.3108] [24.6855]
G04 P0 ( dwell for no time -- G64 should not smooth over this point )
F600.00000
o2 call [49.3108] [22.6281]
o2 call [51.8508] [22.6281]
o2 call [51.8508] [25.1681]
o2 call [49.3108] [25.1681]
o2 call [49.3108] [24.6855]
G04 P0 ( dwell for no time -- G64 should not smooth over this point )
G00 Z0.50000 ( retract )

G00 X51.85080 Y24.68550 ( rapid move to begin. )
F300.00000
o2 call [51.8508] [24.6855]
G04 P0 ( dwell for no time -- G64 should not smooth over this point )
F600.00000
o2 call [51.8508] [22.6281]
o2 call [54.3908] [22.6281]
o2 call [54.3908] [25.1681]
o2 call [51.8508] [25.1681]
o2 call [51.8508] [24.6855]
G04 P0 ( dwell for no time -- G64 should not smooth over this point )
G00 Z0.50000 ( retract )

G00 X54.39080 Y24.68550 ( rapid move to begin. )
F300.00000
o2 call [54.3908] [24.6855]
G04 P0 ( dwell for no time -- G64 should not smooth over this point )
F600.00000
o2 call [54.3908] [22.6281]
o2 call [56.9308] [22.6281]
o2 call [56.9308] [25.1681]
o2 call [54.3908] [25.1681]
o2 call [54.3908] [24.6855]
G04 P0 ( dwell for no time -- G64 should not smooth over this point )
G00 Z0.50000 ( retract )

G00 X56.93080 Y24.68550 ( rapid move to begin. )
F300.00000
o2 call [56.9308] [24.6855]
G04 P0 ( dwell for no time -- G64 should not smooth over this point )
F600.00000
o2 call [56.9308] [22.6281]
o2 call [59.4708] [22.6281]
o2 call [59.4708] [25.1681]
o2 call [56.9308] [25.1681]
o2 call [56.9308] [24.6855]
G04 P0 ( dwell for no time -- G64 should not smooth over this point )
G00 Z0.50000 ( retract )

G00 X59.47080 Y24.68550 ( rapid move to begin. )
F300.00000
o2 call [59.4708] [24.6855]
G04 P0 ( dwell for no time -- G64 should not smooth over this point )
F600.00000
o2 call [59.4708] [22.6281]
o2 call [62.0108] [22.6281]
o2 call [62.0108] [25.1681]
o2 call [59.4708] [25.1681]
o2 call [59.4708] [24.6855]
G04 P0 ( dwell for no time -- G64 should not smooth over this point )
G00 Z0.50000 ( retract )

G00 X62.01080 Y24.68550 ( rapid move to begin. )
F300.00000
o2 call [62.0108] [24.6855]
G04 P0 ( dwell for no time -- G64 should not smooth over this point )
F600.00000
o2 call [62.0108] [22.6281]
o2 call [64.5508] [22.6281]
o2 call [64.5508] [25.1681]
o2 call [62.0108] [25.1681]
o2 call [62.0108] [24.6855]
G04 P0 ( dwell for no time -- G64 should not smooth over this point )
G00 Z0.50000 ( retract )

G00 X64.55080 Y24.68550 ( rapid move to begin. )
F300.00000
o2 call [64.5508] [24.6855]
G04 P0 ( dwell for no time -- G64 should not smooth over this point )
F600.00000
o2 call [64.5508] [22.6281]
o2 call [67.0908] [22.6281]
o2 call [67.0908] [25.1681]
o2 call [64.5508] [25.1681]
o2 call [64.5508] [24.6855]
G04 P0 ( dwell for no time -- G64 should not smooth over this point )
G00 Z0.50000 ( retract )

G00 X67.09080 Y24.68550 ( rapid move to begin. )
F300.00000
o2 call [67.0908] [24.6855]
G04 P0 ( dwell for no time -- G64 should not smooth over this point )
F600.00000
o2 call [67.0908] [22.6281]
o2 call [68.9196] [22.6281]
o2 call [68.9196] [22.7043]
o2 call [69.0212] [22.8059]
o2 call [69.1482] [22.8567]
o2 call [69.4784] [23.1869]
o2 call [69.6562] [23.6441]
o2 call [69.6562] [24.2029]
o2 call [69.4276] [24.6855]
o2 call [69.0974] [25.0157]
o2 call [68.9958] [25.0411]
o2 call [68.9196] [25.1173]
o2 call [68.9196] [25.1681]
o2 call [67.0908] [25.1681]
o2 call [67.0908] [24.6855]
G04 P0 ( dwell for no time -- G64 should not smooth over this point )
G00 Z0.50000 ( retract )

G00 X67.09080 Y27.22550 ( rapid move to begin. )
F300.00000
o2 call [67.0908] [27.2255]
G04 P0 ( dwell for no time -- G64 should not smooth over this point )
F600.00000
o2 call [67.0908] [25.1681]
o2 call [68.9196] [25.1681]
o2 call [68.945] [25.2697]
o2 call [69.0974] [25.3967]
o2 call [69.1482] [25.3967]
o2 call [69.4784] [25.7269]
o2 call [69.6562] [26.1841]
o2 call [69.6562] [26.7429]
o2 call [69.4276] [27.2255]
o2 call [69.0974] [27.5557]
o2 call [68.9958] [27.5811]
o2 call [68.9196] [27.6573]
o2 call [68.9196] [27.7081]
o2 call [67.0908] [27.7081]
o2 call [67.0908] [27.2255]
G04 P0 ( dwell for no time -- G64 should not smooth over this point )
G00 Z0.50000 ( retract )

G00 X64.55080 Y27.22550 ( rapid move to begin. )
F300.00000
o2 call [64.5508] [27.2255]
G04 P0 ( dwell for no time -- G64 should not smooth over this point )
F600.00000
o2 call [64.5508] [25.1681]
o2 call [67.0908] [25.1681]
o2 call [67.0908] [27.7081]
o2 call [64.5508] [27.7081]
o2 call [64.5508] [27.2255]
G04 P0 ( dwell for no time -- G64 should not smooth over this point )
G00 Z0.50000 ( retract )

G00 X62.01080 Y27.22550 ( rapid move to begin. )
F300.00000
o2 call [62.0108] [27.2255]
G04 P0 ( dwell for no time -- G64 should not smooth over this point )
F600.00000
o2 call [62.0108] [25.1681]
o2 call [64.5508] [25.1681]
o2 call [64.5508] [27.7081]
o2 call [62.0108] [27.7081]
o2 call [62.0108] [27.2255]
G04 P0 ( dwell for no time -- G64 should not smooth over this point )
G00 Z0.50000 ( retract )

G00 X59.47080 Y27.22550 ( rapid move to begin. )
F300.00000
o2 call [59.4708] [27.2255]
G04 P0 ( dwell for no time -- G64 should not smooth over this point )
F600.00000
o2 call [59.4708] [25.1681]
o2 call [62.0108] [25.1681]
o2 call [62.0108] [27.7081]
o2 call [59.4708] [27.7081]
o2 call [59.4708] [27.2255]
G04 P0 ( dwell for no time -- G64 should not smooth over this point )
G00 Z0.50000 ( retract )

G00 X56.93080 Y27.22550 ( rapid move to begin. )
F300.00000
o2 call [56.9308] [27.2255]
G04 P0 ( dwell for no time -- G64 should not smooth over this point )
F600.00000
o2 call [56.9308] [25.1681]
o2 call [59.4708] [25.1681]
o2 call [59.4708] [27.7081]
o2 call [56.9308] [27.7081]
o2 call [56.9308] [27.2255]
G04 P0 ( dwell for no time -- G64 should not smooth over this point )
G00 Z0.50000 ( retract )

G00 X54.39080 Y27.22550 ( rapid move to begin. )
F300.00000
o2 call [54.3908] [27.2255]
G04 P0 ( dwell for no time -- G64 should not smooth over this point )
F600.00000
o2 call [54.3908] [25.1681]
o2 call [56.9308] [25.1681]
o2 call [56.9308] [27.7081]
o2 call [54.3908] [27.7081]
o2 call [54.3908] [27.2255]
G04 P0 ( dwell for no time -- G64 should not smooth over this point )
G00 Z0.50000 ( retract )

G00 X51.85080 Y27.22550 ( rapid move to begin. )
F300.00000
o2 call [51.8508] [27.2255]
G04 P0 ( dwell for no time -- G64 should not smooth over this point )
F600.00000
o2 call [51.8508] [25.1681]
o2 call [54.3908] [25.1681]
o2 call [54.3908] [27.7081]
o2 call [51.8508] [27.7081]
o2 call [51.8508] [27.2255]
G04 P0 ( dwell for no time -- G64 should not smooth over this point )
G00 Z0.50000 ( retract )

G00 X49.31080 Y27.22550 ( rapid move to begin. )
F300.00000
o2 call [49.3108] [27.2255]
G04 P0 ( dwell for no time -- G64 should not smooth over this point )
F600.00000
o2 call [49.3108] [25.1681]
o2 call [51.8508] [25.1681]
o2 call [51.8508] [27.7081]
o2 call [49.3108] [27.7081]
o2 call [49.3108] [27.2255]
G04 P0 ( dwell for no time -- G64 should not smooth over this point )
G00 Z0.50000 ( retract )

G00 X46.77080 Y27.22550 ( rapid move to begin. )
F300.00000
o2 call [46.7708] [27.2255]
G04 P0 ( dwell for no time -- G64 should not smooth over this point )
F600.00000
o2 call [46.7708] [25.1681]
o2 call [49.3108] [25.1681]
o2 call [49.3108] [27.7081]
o2 call [46.7708] [27.7081]
o2 call [46.7708] [27.2255]
G04 P0 ( dwell for no time -- G64 should not smooth over this point )
G00 Z0.50000 ( retract )

G00 X44.23080 Y27.22550 ( rapid move to begin. )
F300.00000
o2 call [44.2308] [27.2255]
G04 P0 ( dwell for no time -- G64 should not smooth over this point )
F600.00000
o2 call [44.2308] [25.1681]
o2 call [46.7708] [25.1681]
o2 call [46.7708] [27.7081]
o2 call [44.2308] [27.7081]
o2 call [44.2308] [27.2255]
G04 P0 ( dwell for no time -- G64 should not smooth over this point )
G00 Z0.50000 ( retract )

G00 X41.69080 Y27.22550 ( rapid move to begin. )
F300.00000
o2 call [41.6908] [27.2255]
G04 P0 ( dwell for no time -- G64 should not smooth over this point )
F600.00000
o2 call [41.6908] [25.1681]
o2 call [44.2308] [25.1681]
o2 call [44.2308] [27.7081]
o2 call [41.6908] [27.7081]
o2 call [41.6908] [27.2255]
G04 P0 ( dwell for no time -- G64 should not smooth over this point )
G00 Z0.50000 ( retract )

G00 X39.15080 Y27.22550 ( rapid move to begin. )
F300.00000
o2 call [39.1508] [27.2255]
G04 P0 ( dwell for no time -- G64 should not smooth over this point )
F600.00000
o2 call [39.1508] [25.1681]
o2 call [41.6908] [25.1681]
o2 call [41.6908] [27.7081]
o2 call [39.1508] [27.7081]
o2 call [39.1508] [27.2255]
G04 P0 ( dwell for no time -- G64 should not smooth over this point )
G00 Z0.50000 ( retract )

G00 X39.15080 Y29.76550 ( rapid move to begin. )
F300.00000
o2 call [39.1508] [29.7655]
G04 P0 ( dwell for no time -- G64 should not smooth over this point )
F600.00000
o2 call [39.1508] [27.7081]
o2 call [41.6908] [27.7081]
o2 call [41.6908] [30.2481]
o2 call [39.1508] [30.2481]
o2 call [39.1508] [29.7655]
G04 P0 ( dwell for no time -- G64 should not smooth over this point )
G00 Z0.50000 ( retract )

G00 X36.61080 Y29.76550 ( rapid move to begin. )
F300.00000
o2 call [36.6108] [29.7655]
G04 P0 ( dwell for no time -- G64 should not smooth over this point )
F600.00000
o2 call [36.6108] [27.7081]
o2 call [39.1508] [27.7081]
o2 call [39.1508] [30.2481]
o2 call [36.6108] [30.2481]
o2 call [36.6108] [29.7655]
G04 P0 ( dwell for no time -- G64 should not smooth over this point )
G00 Z0.50000 ( retract )

G00 X34.07080 Y29.76550 ( rapid move to begin. )
F300.00000
o2 call [34.0708] [29.7655]
G04 P0 ( dwell for no time -- G64 should not smooth over this point )
F600.00000
o2 call [34.0708] [27.7081]
o2 call [36.6108] [27.7081]
o2 call [36.6108] [30.2481]
o2 call [34.0708] [30.2481]
o2 call [34.0708] [29.7655]
G04 P0 ( dwell for no time -- G64 should not smooth over this point )
G00 Z0.50000 ( retract )

G00 X31.53080 Y29.76550 ( rapid move to begin. )
F300.00000
o2 call [31.5308] [29.7655]
G04 P0 ( dwell for no time -- G64 should not smooth over this point )
F600.00000
o2 call [31.5308] [27.7081]
o2 call [34.0708] [27.7081]
o2 call [34.0708] [30.2481]
o2 call [31.5308] [30.2481]
o2 call [31.5308] [29.7655]
G04 P0 ( dwell for no time -- G64 should not smooth over this point )
G00 Z0.50000 ( retract )

G00 X28.99080 Y29.76550 ( rapid move to begin. )
F300.00000
o2 call [28.9908] [29.7655]
G04 P0 ( dwell for no time -- G64 should not smooth over this point )
F600.00000
o2 call [28.9908] [27.7081]
o2 call [31.5308] [27.7081]
o2 call [31.5308] [30.2481]
o2 call [28.9908] [30.2481]
o2 call [28.9908] [29.7655]
G04 P0 ( dwell for no time -- G64 should not smooth over this point )
G00 Z0.50000 ( retract )

G00 X26.45080 Y29.76550 ( rapid move to begin. )
F300.00000
o2 call [26.4508] [29.7655]
G04 P0 ( dwell for no time -- G64 should not smooth over this point )
F600.00000
o2 call [26.4508] [27.7081]
o2 call [28.9908] [27.7081]
o2 call [28.9908] [30.2481]
o2 call [26.4508] [30.2481]
o2 call [26.4508] [29.7655]
G04 P0 ( dwell for no time -- G64 should not smooth over this point )
G00 Z0.50000 ( retract )

G00 X23.91080 Y29.76550 ( rapid move to begin. )
F300.00000
o2 call [23.9108] [29.7655]
G04 P0 ( dwell for no time -- G64 should not smooth over this point )
F600.00000
o2 call [23.9108] [27.7081]
o2 call [26.4508] [27.7081]
o2 call [26.4508] [30.2481]
o2 call [23.9108] [30.2481]
o2 call [23.9108] [29.7655]
G04 P0 ( dwell for no time -- G64 should not smooth over this point )
G00 Z0.50000 ( retract )

G00 X21.37080 Y29.76550 ( rapid move to begin. )
F300.00000
o2 call [21.3708] [29.7655]
G04 P0 ( dwell for no time -- G64 should not smooth over this point )
F600.00000
o2 call [21.3708] [27.7081]
o2 call [23.9108] [27.7081]
o2 call [23.9108] [30.2481]
o2 call [21.3708] [30.2481]
o2 call [21.3708] [29.7655]
G04 P0 ( dwell for no time -- G64 should not smooth over this point )
G00 Z0.50000 ( retract )

G00 X18.83080 Y29.76550 ( rapid move to begin. )
F300.00000
o2 call [18.8308] [29.7655]
