( pcb2gcode 2.5.0 )
( Gcode for linuxcnc )


G94 ( Millimeters per minute feed rate. )
G21 ( Units == Millimeters. )

G90 ( Absolute coordinates. )
G00 S10000 ( RPM spindle speed. )
G64 P0.01016 ( set maximum deviation from commanded toolpath )
G01 F600.00000 ( Feedrate. )

o6 sub ( G01 with Z-correction subroutine )
    #4 = 0 ( x-tile offset [minus the initial offset] )
    #5 = 0 ( y-tile offset [minus the initial offset] )
    #6 = [ FIX[ [ #1 - 2.67648 + #4 ] / 9.61657 ] ] ( Lower left point X index )
    #7 = [ FIX[ [ #2 - 2.46467 + #5 ] / 8.79861 ] ] ( Lower left point Y index )
    #8 = [ #6 * 7 + [ #7 + 1 ] + 500 ] ( Upper left point parameter number )
    #9 = [ [ #6 + 1 ] *7 + [ #7 + 1 ] + 500 ] ( Upper right point parameter number )
    #10 = [ #6 * 7 + #7 + 500 ] ( Lower left point parameter number )
    #11 = [ [ #6 + 1 ] * 7 + #7 + 500 ] ( Lower right point parameter number )
    #12 = [ [ #2 + #5 - 2.46467 - #7 * 8.79861 ] / 8.79861 ] ( Distance between the point and the left border of the rectangle, normalized to 1 )
    #13 = [ [ #1 + #4 - 2.67648 - #6 * 9.61657 ] / 9.61657 ] ( Distance between the point and the bottom border of the rectangle, normalized to 1 ) 
    #14 = [ ##10 + [ ##8 - ##10 ] * #12 ] ( Linear interpolation of the x-min elements )
    #15 = [ ##11 + [ ##9 - ##11 ] * #12 ] ( Linear interpolation of the x-max elements )
    #16 = [ #14 + [ #15 - #14 ] * #13 ] ( Linear interpolation of previously interpolated points )
    G01 X#1 Y#2 Z[#3 + #16]
o6 endsub

o7 sub ( Y probe subroutine )
    G0 Z0.500 ( Move to probe height )
    X[#112 * 9.61657 + 2.67648] Y[#113 * 8.79861 + 2.46467] ( Move to the current probe point )
    G38.2 Z-3 F100.000000 ( Probe it )
    #[#112 * 7 + #113 + 500] = #5063 ( Save the probe in the correct parameter )
    #113 = [#113 + #114] ( Increment/decrement by 1 the Y counter )
o7 endsub

o8 sub ( X probe subroutine )
    o9 repeat [#115]
        o7 call
    o9 endrepeat
    #115 = 7
    #114 = [0 - #114]
    #113 = [#113 + #114]
    #112 = [#112 + 1] ( Increment by 1 the X counter )
o8 endsub

#118 = 0
#119 = 0

(MSG, Attach the probe tool)
M0 ( Temporary machine stop. )
G0 Z0.500 ( Move Z to safe height )
G0 X2.67648 Y2.46467 ( Move XY to start point )
G0 Z0.500 ( Move Z to probe height )
(PROBEOPEN RawProbeLog.txt) ( Record all probes in RawProbeLog.txt )
G38.2 Z-3 F100.000000 ( Z-probe )
#500 = 0 ( Probe point [0, 0] is our reference )
G10 L20 P0 Z0 ( Set the current Z as zero-value )

( We now start the real probing: move the Z axis to the probing height, move to )
( the probing XY position, probe it and save the result, parameter #5063, )
( in a numbered parameter; we will make 8 probes on the X-axis and )
( 7 probes on the Y-axis, for a grand total of 56 probes )

#112 = 0 ( X iterator )
#113 = 1 ( Y iterator )
#114 = 1 ( UP or DOWN increment )
#115 = 6 ( number of Y points; the 1st Y row can be done one time less )
o10 repeat [8]
    o8 call
o10 endrepeat

G0 Z0.500 ( Move Z to safe height )
(PROBECLOSE) ( Close the probe log file )
( Probing has ended, each Z-coordinate will be corrected with a bilinear interpolation )
(MSG, Detach the probe tool)
M0 ( Temporary machine stop. )


G00 Z40.00000 (Retract to tool change height)
T0
M5      (Spindle stop.)
G04 P1.00000 (Wait for spindle to stop)
(MSG, Change tool bit to mill diameter 2.00000mm)
M6      (Tool change.)
M0      (Temporary machine stop.)
M3 ( Spindle on clockwise. )
G04 P1.00000 (Wait for spindle to get up to speed)
G04 P0 ( dwell for no time -- G64 should not smooth over this point )
G00 Z0.50000 ( retract )

G00 X18.44647 Y7.26837 ( rapid move to begin. )
G01 F300.00000
( Mill infeed pass 1/1 )
o6 call [18.44647] [7.26837] [-0.07500]
G04 P0 ( dwell for no time -- G64 should not smooth over this point )
G01 F600.00000
o6 call [18.51206] [7.20283] [-0.07500]
o6 call [18.59339] [7.13695] [-0.07500]
o6 call [18.72869] [7.03865] [-0.07500]
o6 call [18.81648] [6.98165] [-0.07500]
o6 call [18.90975] [6.93413] [-0.07500]
o6 call [19.06253] [6.86611] [-0.07500]
o6 call [19.16027] [6.82859] [-0.07500]
o6 call [19.26136] [6.80149] [-0.07500]
o6 call [19.42496] [6.76672] [-0.07500]
o6 call [19.52834] [6.75036] [-0.07500]
o6 call [19.63286] [6.74487] [-0.07500]
o6 call [19.80012] [6.74487] [-0.07500]
o6 call [19.90464] [6.75036] [-0.07500]
o6 call [20.00802] [6.76672] [-0.07500]
o6 call [20.17162] [6.80149] [-0.07500]
o6 call [20.27271] [6.82859] [-0.07500]
o6 call [20.37045] [6.86611] [-0.07500]
o6 call [20.52323] [6.93413] [-0.07500]
o6 call [20.61650] [6.98165] [-0.07500]
o6 call [20.70428] [7.03865] [-0.07500]
o6 call [20.83959] [7.13695] [-0.07500]
o6 call [20.92092] [7.20283] [-0.07500]
o6 call [20.98647] [7.26839] [-0.07500]
o6 call [20.98647] [11.26327] [-0.07500]
o6 call [20.98647] [20.06188] [-0.07500]
o6 call [20.98647] [28.86049] [-0.07500]
o6 call [20.98647] [37.65909] [-0.07500]
o6 call [20.98647] [46.45770] [-0.07500]
o6 call [20.98647] [50.45258] [-0.07500]
o6 call [20.92092] [50.51814] [-0.07500]
o6 call [20.83959] [50.58403] [-0.07500]
o6 call [20.70428] [50.68233] [-0.07500]
o6 call [20.61650] [50.73932] [-0.07500]
o6 call [20.53159] [50.78258] [-0.07500]
o6 call [20.17162] [50.91949] [-0.07500]
o6 call [20.00802] [50.95426] [-0.07500]
o6 call [19.90464] [50.97062] [-0.07500]
o6 call [19.80012] [50.97610] [-0.07500]
o6 call [19.63286] [50.97610] [-0.07500]
o6 call [19.52834] [50.97062] [-0.07500]
o6 call [19.42496] [50.95426] [-0.07500]
o6 call [19.26136] [50.91949] [-0.07500]
o6 call [19.16027] [50.89238] [-0.07500]
o6 call [19.06253] [50.85487] [-0.07500]
o6 call [18.90975] [50.78685] [-0.07500]
o6 call [18.81648] [50.73932] [-0.07500]
o6 call [18.72869] [50.68233] [-0.07500]
o6 call [18.59339] [50.58403] [-0.07500]
o6 call [18.51206] [50.51814] [-0.07500]
o6 call [18.44647] [50.45258] [-0.07500]
G04 P0 ( dwell for no time -- G64 should not smooth over this point )
G00 Z0.50000 ( retract )

G00 X22.25647 Y54.71503 ( rapid move to begin. )
G01 F300.00000
( Mill infeed pass 1/1 )
o6 call [22.25647] [54.71503] [-0.07500]
G04 P0 ( dwell for no time -- G64 should not smooth over this point )
G01 F600.00000
o6 call [22.34748] [54.80792] [-0.07500]
o6 call [22.42881] [54.87378] [-0.07500]
o6 call [22.55769] [54.96741] [-0.07500]
o6 call [22.64548] [55.02443] [-0.07500]
o6 call [22.73874] [55.07195] [-0.07500]
o6 call [22.88429] [55.13675] [-0.07500]
o6 call [22.98200] [55.17424] [-0.07500]
o6 call [23.08309] [55.20134] [-0.07500]
o6 call [23.23892] [55.23446] [-0.07500]
o6 call [23.34230] [55.25085] [-0.07500]
o6 call [23.44685] [55.25631] [-0.07500]
o6 call [23.60613] [55.25631] [-0.07500]
o6 call [23.71068] [55.25085] [-0.07500]
o6 call [23.81405] [55.23446] [-0.07500]
o6 call [23.96988] [55.20134] [-0.07500]
o6 call [24.07097] [55.17424] [-0.07500]
o6 call [24.16869] [55.13675] [-0.07500]
o6 call [24.31423] [55.07195] [-0.07500]
o6 call [24.40750] [55.02443] [-0.07500]
o6 call [24.49528] [54.96741] [-0.07500]
o6 call [24.62416] [54.87378] [-0.07500]
o6 call [24.70549] [54.80792] [-0.07500]
o6 call [24.79647] [54.71503] [-0.07500]
o6 call [24.79647] [51.26592] [-0.07500]
o6 call [24.70549] [51.17305] [-0.07500]
o6 call [24.62416] [51.10719] [-0.07500]
o6 call [24.49528] [51.01357] [-0.07500]
o6 call [24.40750] [50.95654] [-0.07500]
o6 call [24.32729] [50.91568] [-0.07500]
o6 call [23.98144] [50.78260] [-0.07500]
o6 call [23.89648] [50.73932] [-0.07500]
o6 call [23.80869] [50.68233] [-0.07500]
o6 call [23.67339] [50.58403] [-0.07500]
o6 call [23.59206] [50.51814] [-0.07500]
o6 call [23.52647] [50.45258] [-0.07500]
o6 call [23.59206] [50.51814] [-0.07500]
o6 call [23.67339] [50.58403] [-0.07500]
o6 call [23.80869] [50.68233] [-0.07500]
o6 call [23.89648] [50.73932] [-0.07500]
o6 call [23.98144] [50.78260] [-0.07500]
o6 call [24.32729] [50.91568] [-0.07500]
o6 call [24.40750] [50.95654] [-0.07500]
o6 call [24.49528] [51.01357] [-0.07500]
o6 call [24.62416] [51.10719] [-0.07500]
o6 call [24.70549] [51.17305] [-0.07500]
o6 call [24.79647] [51.26592] [-0.07500]
o6 call [24.88748] [51.17305] [-0.07500]
o6 call [24.96881] [51.10719] [-0.07500]
o6 call [25.09769] [51.01357] [-0.07500]
o6 call [25.18548] [50.95654] [-0.07500]
o6 call [25.26566] [50.91568] [-0.07500]
o6 call [25.62309] [50.77963] [-0.07500]
o6 call [25.77892] [50.74651] [-0.07500]
o6 call [25.88230] [50.73013] [-0.07500]
o6 call [25.98685] [50.72467] [-0.07500]
o6 call [26.14613] [50.72467] [-0.07500]
o6 call [26.25065] [50.73013] [-0.07500]
o6 call [26.35403] [50.74651] [-0.07500]
o6 call [26.52314] [50.78319] [-0.07500]
o6 call [26.86731] [50.91570] [-0.07500]
o6 call [27.04496] [50.95426] [-0.07500]
o6 call [27.14834] [50.97062] [-0.07500]
o6 call [27.25286] [50.97610] [-0.07500]
o6 call [27.42012] [50.97610] [-0.07500]
o6 call [27.52464] [50.97062] [-0.07500]
o6 call [27.62802] [50.95426] [-0.07500]
o6 call [27.80536] [50.91580] [-0.07500]
o6 call [28.15159] [50.78258] [-0.07500]
o6 call [28.23650] [50.73932] [-0.07500]
o6 call [28.32428] [50.68233] [-0.07500]
o6 call [28.45959] [50.58403] [-0.07500]
o6 call [28.54092] [50.51814] [-0.07500]
o6 call [28.60647] [50.45258] [-0.07500]
o6 call [28.60647] [46.45770] [-0.07500]
o6 call [28.60647] [37.65909] [-0.07500]
o6 call [28.60647] [28.86049] [-0.07500]
o6 call [28.60647] [20.06188] [-0.07500]
o6 call [28.60647] [11.26327] [-0.07500]
o6 call [28.60647] [7.26839] [-0.07500]
o6 call [28.67206] [7.20283] [-0.07500]
o6 call [28.75339] [7.13695] [-0.07500]
o6 call [28.88869] [7.03865] [-0.07500]
o6 call [28.97648] [6.98165] [-0.07500]
o6 call [29.06975] [6.93413] [-0.07500]
o6 call [29.22253] [6.86611] [-0.07500]
o6 call [29.32027] [6.82859] [-0.07500]
o6 call [29.35880] [6.81825] [-0.07500]
o6 call [29.42611] [6.82394] [-0.07500]
o6 call [29.35880] [6.81825] [-0.07500]
o6 call [29.32027] [6.82859] [-0.07500]
o6 call [29.22253] [6.86611] [-0.07500]
o6 call [29.06975] [6.93413] [-0.07500]
o6 call [28.97648] [6.98165] [-0.07500]
o6 call [28.88869] [7.03865] [-0.07500]
o6 call [28.75339] [7.13695] [-0.07500]
o6 call [28.67206] [7.20283] [-0.07500]
o6 call [28.60647] [7.26839] [-0.07500]
o6 call [28.54092] [7.20283] [-0.07500]
o6 call [28.45959] [7.13695] [-0.07500]
o6 call [28.32428] [7.03865] [-0.07500]
o6 call [28.23650] [6.98165] [-0.07500]
o6 call [28.14323] [6.93413] [-0.07500]
o6 call [27.99045] [6.86611] [-0.07500]
o6 call [27.89271] [6.82859] [-0.07500]
o6 call [27.79162] [6.80149] [-0.07500]
o6 call [27.62802] [6.76672] [-0.07500]
o6 call [27.52464] [6.75036] [-0.07500]
o6 call [27.42012] [6.74487] [-0.07500]
o6 call [27.25286] [6.74487] [-0.07500]
o6 call [27.14834] [6.75036] [-0.07500]
o6 call [27.04496] [6.76672] [-0.07500]
o6 call [26.88136] [6.80149] [-0.07500]
o6 call [26.78024] [6.82859] [-0.07500]
o6 call [26.68253] [6.86611] [-0.07500]
o6 call [26.52975] [6.93413] [-0.07500]
o6 call [26.43648] [6.98165] [-0.07500]
o6 call [26.34869] [7.03865] [-0.07500]
o6 call [26.21339] [7.13695] [-0.07500]
o6 call [26.13206] [7.20283] [-0.07500]
o6 call [26.06647] [7.26837] [-0.07500]
G04 P0 ( dwell for no time -- G64 should not smooth over this point )
G00 Z0.50000 ( retract )

G00 X31.40047 Y3.00592 ( rapid move to begin. )
G01 F300.00000
( Mill infeed pass 1/1 )
o6 call [31.40047] [3.00592] [-0.07500]
G04 P0 ( dwell for no time -- G64 should not smooth over this point )
G01 F600.00000
o6 call [31.49148] [2.91305] [-0.07500]
o6 call [31.52620] [2.88494] [-0.07500]
o6 call [31.57281] [2.84719] [-0.07500]
o6 call [31.70169] [2.75357] [-0.07500]
o6 call [31.78948] [2.69654] [-0.07500]
o6 call [31.88274] [2.64902] [-0.07500]
o6 call [32.02829] [2.58423] [-0.07500]
o6 call [32.12600] [2.54673] [-0.07500]
o6 call [32.22709] [2.51963] [-0.07500]
o6 call [32.38292] [2.48651] [-0.07500]
o6 call [32.48630] [2.47013] [-0.07500]
o6 call [32.59085] [2.46467] [-0.07500]
o6 call [32.75013] [2.46467] [-0.07500]
o6 call [32.85468] [2.47013] [-0.07500]
o6 call [32.95805] [2.48651] [-0.07500]
o6 call [33.11388] [2.51963] [-0.07500]
o6 call [33.21497] [2.54673] [-0.07500]
o6 call [33.31269] [2.58423] [-0.07500]
o6 call [33.45823] [2.64902] [-0.07500]
o6 call [33.55150] [2.69654] [-0.07500]
o6 call [33.63928] [2.75357] [-0.07500]
o6 call [33.76816] [2.84719] [-0.07500]
o6 call [33.84949] [2.91305] [-0.07500]
o6 call [33.94047] [3.00592] [-0.07500]
o6 call [33.94047] [6.45503] [-0.07500]
o6 call [34.03148] [6.54792] [-0.07500]
o6 call [34.11281] [6.61378] [-0.07500]
o6 call [34.24169] [6.70741] [-0.07500]
o6 call [34.32948] [6.76443] [-0.07500]
o6 call [34.43649] [6.81805] [-0.07500]
o6 call [34.50611] [6.82392] [-0.07500]
o6 call [34.43649] [6.81805] [-0.07500]
o6 call [34.32948] [6.76443] [-0.07500]
o6 call [34.24169] [6.70741] [-0.07500]
o6 call [34.11281] [6.61378] [-0.07500]
o6 call [34.03148] [6.54792] [-0.07500]
o6 call [33.94047] [6.45503] [-0.07500]
o6 call [33.84949] [6.54792] [-0.07500]
o6 call [33.76816] [6.61378] [-0.07500]
o6 call [33.63928] [6.70741] [-0.07500]
o6 call [33.55150] [6.76443] [-0.07500]
o6 call [33.45823] [6.81195] [-0.07500]
o6 call [33.31269] [6.87675] [-0.07500]
o6 call [33.21497] [6.91424] [-0.07500]
o6 call [33.19293] [6.92016] [-0.07500]
o6 call [32.14050] [6.84007] [-0.07500]
o6 call [31.89882] [6.81825] [-0.07500]
o6 call [31.86027] [6.82859] [-0.07500]
o6 call [31.76253] [6.86611] [-0.07500]
o6 call [31.60975] [6.93413] [-0.07500]
o6 call [31.52620] [6.97670] [-0.07500]
o6 call [31.51648] [6.98165] [-0.07500]
o6 call [31.42869] [7.03865] [-0.07500]
o6 call [31.29339] [7.13695] [-0.07500]
o6 call [31.21206] [7.20283] [-0.07500]
o6 call [31.14647] [7.26837] [-0.07500]
o6 call [31.08092] [7.20283] [-0.07500]
o6 call [30.99959] [7.13695] [-0.07500]
o6 call [30.86428] [7.03865] [-0.07500]
o6 call [30.77650] [6.98165] [-0.07500]
o6 call [30.65163] [6.92006] [-0.07500]
o6 call [30.77269] [6.87675] [-0.07500]
o6 call [30.91823] [6.81195] [-0.07500]
o6 call [31.01150] [6.76443] [-0.07500]
o6 call [31.09928] [6.70741] [-0.07500]
o6 call [31.22816] [6.61378] [-0.07500]
o6 call [31.30949] [6.54792] [-0.07500]
o6 call [31.40047] [6.45503] [-0.07500]
o6 call [31.49148] [6.54792] [-0.07500]
o6 call [31.52620] [6.57604] [-0.07500]
o6 call [31.57281] [6.61378] [-0.07500]
o6 call [31.70169] [6.70741] [-0.07500]
o6 call [31.78948] [6.76443] [-0.07500]
o6 call [31.89649] [6.81805] [-0.07500]
o6 call [31.96611] [6.82392] [-0.07500]
o6 call [31.89649] [6.81805] [-0.07500]
o6 call [31.78948] [6.76443] [-0.07500]
o6 call [31.70169] [6.70741] [-0.07500]
o6 call [31.57281] [6.61378] [-0.07500]
o6 call [31.52620] [6.57604] [-0.07500]
o6 call [31.49148] [6.54792] [-0.07500]
o6 call [31.40047] [6.45503] [-0.07500]
o6 call [31.40047] [3.00592] [-0.07500]
o6 call [31.30949] [2.91305] [-0.07500]
o6 call [31.22816] [2.84719] [-0.07500]
o6 call [31.09928] [2.75357] [-0.07500]
o6 call [31.01150] [2.69654] [-0.07500]
o6 call [30.91823] [2.64902] [-0.07500]
o6 call [30.77269] [2.58423] [-0.07500]
o6 call [30.67497] [2.54673] [-0.07500]
o6 call [30.57388] [2.51963] [-0.07500]
o6 call [30.41805] [2.48651] [-0.07500]
o6 call [30.31468] [2.47013] [-0.07500]
o6 call [30.21013] [2.46467] [-0.07500]
o6 call [30.05085] [2.46467] [-0.07500]
o6 call [29.94630] [2.47013] [-0.07500]
o6 call [29.84292] [2.48651] [-0.07500]
o6 call [29.68709] [2.51963] [-0.07500]
o6 call [29.58600] [2.54673] [-0.07500]
o6 call [29.48829] [2.58423] [-0.07500]
o6 call [29.34274] [2.64902] [-0.07500]
o6 call [29.24948] [2.69654] [-0.07500]
o6 call [29.16169] [2.75357] [-0.07500]
o6 call [29.03281] [2.84719] [-0.07500]
o6 call [28.95148] [2.91305] [-0.07500]
o6 call [28.87747] [2.98707] [-0.07500]
o6 call [28.77086] [3.10546] [-0.07500]
o6 call [28.70500] [3.18681] [-0.07500]
o6 call [28.64800] [3.27460] [-0.07500]
o6 call [28.56835] [3.41254] [-0.07500]
o6 call [28.52083] [3.50581] [-0.07500]
o6 call [28.48331] [3.60353] [-0.07500]
o6 call [28.43408] [3.75504] [-0.07500]
o6 call [28.40698] [3.85616] [-0.07500]
o6 call [28.39063] [3.95953] [-0.07500]
o6 call [28.37396] [4.11795] [-0.07500]
o6 call [28.36848] [4.22250] [-0.07500]
o6 call [28.36848] [5.23847] [-0.07500]
o6 call [28.37396] [5.34302] [-0.07500]
o6 call [28.39063] [5.50144] [-0.07500]
o6 call [28.40698] [5.60482] [-0.07500]
o6 call [28.43408] [5.70594] [-0.07500]
o6 call [28.48331] [5.85745] [-0.07500]
o6 call [28.52083] [5.95516] [-0.07500]
o6 call [28.56835] [6.04843] [-0.07500]
o6 call [28.64800] [6.18638] [-0.07500]
o6 call [28.70500] [6.27416] [-0.07500]
o6 call [28.77086] [6.35552] [-0.07500]
o6 call [28.87747] [6.47391] [-0.07500]
o6 call [28.95148] [6.54792] [-0.07500]
o6 call [29.03281] [6.61378] [-0.07500]
o6 call [29.16169] [6.70741] [-0.07500]
o6 call [29.24948] [6.76443] [-0.07500]
o6 call [29.35651] [6.81805] [-0.07500]
o6 call [29.60050] [6.84007] [-0.07500]
o6 call [30.65163] [6.92006] [-0.07500]
o6 call [30.77650] [6.98165] [-0.07500]
o6 call [30.86428] [7.03865] [-0.07500]
o6 call [30.99959] [7.13695] [-0.07500]
o6 call [31.08092] [7.20283] [-0.07500]
o6 call [31.14647] [7.26837] [-0.07500]
o6 call [31.14647] [11.26327] [-0.07500]
o6 call [31.14647] [20.06188] [-0.07500]
o6 call [31.14647] [28.86049] [-0.07500]
o6 call [31.14647] [37.65909] [-0.07500]
o6 call [31.14647] [46.45770] [-0.07500]
o6 call [31.14647] [50.45258] [-0.07500]
o6 call [31.08092] [50.51814] [-0.07500]
o6 call [30.99959] [50.58403] [-0.07500]
o6 call [30.86428] [50.68233] [-0.07500]
o6 call [30.77650] [50.73932] [-0.07500]
o6 call [30.69159] [50.78258] [-0.07500]
o6 call [30.34536] [50.91580] [-0.07500]
o6 call [30.16802] [50.95426] [-0.07500]
o6 call [30.06464] [50.97062] [-0.07500]
o6 call [29.96012] [50.97610] [-0.07500]
o6 call [29.79286] [50.97610] [-0.07500]
o6 call [29.68834] [50.97062] [-0.07500]
o6 call [29.58496] [50.95426] [-0.07500]
o6 call [29.40759] [50.91578] [-0.07500]
o6 call [29.06314] [50.78319] [-0.07500]
o6 call [28.89405] [50.74651] [-0.07500]
o6 call [28.79068] [50.73013] [-0.07500]
o6 call [28.68613] [50.72467] [-0.07500]
o6 call [28.52685] [50.72467] [-0.07500]
o6 call [28.42230] [50.73013] [-0.07500]
o6 call [28.31892] [50.74651] [-0.07500]
o6 call [28.16309] [50.77963] [-0.07500]
o6 call [27.80566] [50.91568] [-0.07500]
o6 call [27.72548] [50.95654] [-0.07500]
o6 call [27.63769] [51.01357] [-0.07500]
o6 call [27.50881] [51.10719] [-0.07500]
o6 call [27.42748] [51.17305] [-0.07500]
o6 call [27.33647] [51.26592] [-0.07500]
o6 call [27.24547] [51.17305] [-0.07500]
o6 call [27.16416] [51.10719] [-0.07500]
o6 call [27.03528] [51.01357] [-0.07500]
o6 call [26.94750] [50.95654] [-0.07500]
o6 call [26.86731] [50.91570] [-0.07500]
o6 call [26.52144] [50.78260] [-0.07500]
o6 call [26.43648] [50.73932] [-0.07500]
o6 call [26.34869] [50.68233] [-0.07500]
o6 call [26.21339] [50.58403] [-0.07500]
o6 call [26.13206] [50.51814] [-0.07500]
o6 call [26.06647] [50.45258] [-0.07500]
o6 call [26.13206] [50.51814] [-0.07500]
o6 call [26.21339] [50.58403] [-0.07500]
o6 call [26.34869] [50.68233] [-0.07500]
o6 call [26.43648] [50.73932] [-0.07500]
o6 call [26.52144] [50.78260] [-0.07500]
o6 call [26.86731] [50.91570] [-0.07500]
o6 call [26.94750] [50.95654] [-0.07500]
o6 call [27.03528] [51.01357] [-0.07500]
o6 call [27.16416] [51.10719] [-0.07500]
o6 call [27.24547] [51.17305] [-0.07500]
o6 call [27.33647] [51.26592] [-0.07500]
o6 call [27.33647] [54.71503] [-0.07500]
o6 call [27.24547] [54.80792] [-0.07500]
o6 call [27.16416] [54.87378] [-0.07500]
o6 call [27.03528] [54.96741] [-0.07500]
o6 call [26.94750] [55.02443] [-0.07500]
o6 call [26.85423] [55.07195] [-0.07500]
o6 call [26.70869] [55.13675] [-0.07500]
o6 call [26.61097] [55.17424] [-0.07500]
o6 call [26.50986] [55.20134] [-0.07500]
o6 call [26.35403] [55.23446] [-0.07500]
o6 call [26.25065] [55.25085] [-0.07500]
o6 call [26.14613] [55.25631] [-0.07500]
o6 call [25.98685] [55.25631] [-0.07500]
o6 call [25.88230] [55.25085] [-0.07500]
o6 call [25.77892] [55.23446] [-0.07500]
o6 call [25.62309] [55.20134] [-0.07500]
o6 call [25.52200] [55.17424] [-0.07500]
o6 call [25.42429] [55.13675] [-0.07500]
o6 call [25.27874] [55.07195] [-0.07500]
o6 call [25.18548] [55.02443] [-0.07500]
o6 call [25.09769] [54.96741] [-0.07500]
o6 call [24.96881] [54.87378] [-0.07500]
o6 call [24.88748] [54.80792] [-0.07500]
o6 call [24.79647] [54.71503] [-0.07500]
G04 P0 ( dwell for no time -- G64 should not smooth over this point )
G00 Z0.50000 ( retract )

G00 X27.33647 Y54.71503 ( rapid move to begin. )
G01 F300.00000
( Mill infeed pass 1/1 )
o6 call [27.33647] [54.71503] [-0.07500]
G04 P0 ( dwell for no time -- G64 should not smooth over this point )
G01 F600.00000
o6 call [27.42748] [54.80792] [-0.07500]
o6 call [27.50881] [54.87378] [-0.07500]
o6 call [27.63769] [54.96741] [-0.07500]
o6 call [27.72548] [55.02443] [-0.07500]
o6 call [27.81874] [55.07195] [-0.07500]
o6 call [27.96429] [55.13675] [-0.07500]
o6 call [28.06200] [55.17424] [-0.07500]
o6 call [28.16309] [55.20134] [-0.07500]
o6 call [28.31892] [55.23446] [-0.07500]
o6 call [28.42230] [55.25085] [-0.07500]
o6 call [28.52685] [55.25631] [-0.07500]
o6 call [28.68613] [55.25631] [-0.07500]
o6 call [28.79068] [55.25085] [-0.07500]
o6 call [28.89405] [55.23446] [-0.07500]
o6 call [29.04988] [55.20134] [-0.07500]
o6 call [29.15097] [55.17424] [-0.07500]
o6 call [29.24869] [55.13675] [-0.07500]
o6 call [29.39423] [55.07195] [-0.07500]
o6 call [29.48750] [55.02443] [-0.07500]
o6 call [29.57528] [54.96741] [-0.07500]
o6 call [29.70416] [54.87378] [-0.07500]
o6 call [29.78549] [54.80792] [-0.07500]
o6 call [29.87647] [54.71503] [-0.07500]
o6 call [29.87647] [51.26592] [-0.07500]
o6 call [29.78549] [51.17305] [-0.07500]
o6 call [29.70416] [51.10719] [-0.07500]
o6 call [29.57528] [51.01357] [-0.07500]
o6 call [29.48750] [50.95654] [-0.07500]
o6 call [29.40729] [50.91568] [-0.07500]
o6 call [29.06144] [50.78260] [-0.07500]
o6 call [28.97648] [50.73932] [-0.07500]
o6 call [28.88869] [50.68233] [-0.07500]
o6 call [28.75339] [50.58403] [-0.07500]
o6 call [28.67206] [50.51814] [-0.07500]
o6 call [28.60647] [50.45258] [-0.07500]
o6 call [28.67206] [50.51814] [-0.07500]
o6 call [28.75339] [50.58403] [-0.07500]
o6 call [28.88869] [50.68233] [-0.07500]
o6 call [28.97648] [50.73932] [-0.07500]
o6 call [29.06144] [50.78260] [-0.07500]
o6 call [29.40729] [50.91568] [-0.07500]
o6 call [29.48750] [50.95654] [-0.07500]
o6 call [29.57528] [51.01357] [-0.07500]
o6 call [29.70416] [51.10719] [-0.07500]
o6 call [29.78549] [51.17305] [-0.07500]
o6 call [29.87647] [51.26592] [-0.07500]
o6 call [29.96748] [51.17305] [-0.07500]
o6 call [30.04881] [51.10719] [-0.07500]
o6 call [30.17769] [51.01357] [-0.07500]
o6 call [30.26548] [50.95654] [-0.07500]
o6 call [30.34566] [50.91568] [-0.07500]
o6 call [30.70309] [50.77963] [-0.07500]
o6 call [30.85892] [50.74651] [-0.07500]
o6 call [30.96230] [50.73013] [-0.07500]
o6 call [31.06685] [50.72467] [-0.07500]
o6 call [31.22613] [50.72467] [-0.07500]
o6 call [31.33068] [50.73013] [-0.07500]
o6 call [31.43405] [50.74651] [-0.07500]
o6 call [31.52620] [50.76650] [-0.07500]
o6 call [31.60314] [50.78319] [-0.07500]
o6 call [31.94731] [50.91570] [-0.07500]
o6 call [32.12496] [50.95426] [-0.07500]
o6 call [32.22834] [50.97062] [-0.07500]
o6 call [32.33286] [50.97610] [-0.07500]
o6 call [32.50012] [50.97610] [-0.07500]
o6 call [32.60464] [50.97062] [-0.07500]
o6 call [32.70802] [50.95426] [-0.07500]
o6 call [32.88536] [50.91580] [-0.07500]
o6 call [33.23159] [50.78258] [-0.07500]
o6 call [33.31650] [50.73932] [-0.07500]
o6 call [33.40428] [50.68233] [-0.07500]
o6 call [33.53959] [50.58403] [-0.07500]
o6 call [33.62092] [50.51814] [-0.07500]
o6 call [33.68647] [50.45258] [-0.07500]
o6 call [33.68647] [46.45770] [-0.07500]
o6 call [33.68647] [37.65909] [-0.07500]
o6 call [33.68647] [28.86049] [-0.07500]
o6 call [33.68647] [20.06188] [-0.07500]
o6 call [33.68647] [11.26327] [-0.07500]
o6 call [33.68647] [7.26837] [-0.07500]
o6 call [33.62092] [7.20283] [-0.07500]
o6 call [33.53959] [7.13695] [-0.07500]
o6 call [33.40428] [7.03865] [-0.07500]
o6 call [33.31650] [6.98165] [-0.07500]
o6 call [33.19163] [6.92006] [-0.07500]
o6 call [33.31650] [6.98165] [-0.07500]
o6 call [33.40428] [7.03865] [-0.07500]
o6 call [33.53959] [7.13695] [-0.07500]
o6 call [33.62092] [7.20283] [-0.07500]
o6 call [33.68647] [7.26837] [-0.07500]
o6 call [33.75206] [7.20283] [-0.07500]
o6 call [33.83339] [7.13695] [-0.07500]
o6 call [33.96869] [7.03865] [-0.07500]
o6 call [34.05648] [6.98165] [-0.07500]
o6 call [34.14975] [6.93413] [-0.07500]
o6 call [34.30253] [6.86611] [-0.07500]
o6 call [34.40027] [6.82859] [-0.07500]
o6 call [34.43882] [6.81825] [-0.07500]
o6 call [34.68050] [6.84007] [-0.07500]
o6 call [35.73293] [6.92016] [-0.07500]
o6 call [35.75497] [6.91424] [-0.07500]
o6 call [35.85269] [6.87675] [-0.07500]
o6 call [35.99823] [6.81195] [-0.07500]
o6 call [36.09150] [6.76443] [-0.07500]
o6 call [36.17928] [6.70741] [-0.07500]
o6 call [36.30816] [6.61378] [-0.07500]
o6 call [36.38949] [6.54792] [-0.07500]
o6 call [36.48047] [6.45503] [-0.07500]
o6 call [36.57148] [6.54792] [-0.07500]
o6 call [36.65281] [6.61378] [-0.07500]
o6 call [36.78169] [6.70741] [-0.07500]
o6 call [36.86948] [6.76443] [-0.07500]
o6 call [36.97649] [6.81805] [-0.07500]
o6 call [37.04611] [6.82394] [-0.07500]
o6 call [36.97649] [6.81805] [-0.07500]
o6 call [36.86948] [6.76443] [-0.07500]
o6 call [36.78169] [6.70741] [-0.07500]
o6 call [36.65281] [6.61378] [-0.07500]
o6 call [36.57148] [6.54792] [-0.07500]
o6 call [36.48047] [6.45503] [-0.07500]
o6 call [36.48047] [3.00592] [-0.07500]
o6 call [36.38949] [2.91305] [-0.07500]
o6 call [36.30816] [2.84719] [-0.07500]
o6 call [36.17928] [2.75357] [-0.07500]
o6 call [36.09150] [2.69654] [-0.07500]
o6 call [35.99823] [2.64902] [-0.07500]
o6 call [35.85269] [2.58423] [-0.07500]
o6 call [35.75497] [2.54673] [-0.07500]
o6 call [35.65388] [2.51963] [-0.07500]
o6 call [35.49805] [2.48651] [-0.07500]
o6 call [35.39468] [2.47013] [-0.07500]
o6 call [35.29013] [2.46467] [-0.07500]
o6 call [35.13085] [2.46467] [-0.07500]
o6 call [35.02630] [2.47013] [-0.07500]
o6 call [34.92292] [2.48651] [-0.07500]
o6 call [34.76709] [2.51963] [-0.07500]
o6 call [34.66600] [2.54673] [-0.07500]
o6 call [34.56829] [2.58423] [-0.07500]
o6 call [34.42274] [2.64902] [-0.07500]
o6 call [34.32948] [2.69654] [-0.07500]
o6 call [34.24169] [2.75357] [-0.07500]
o6 call [34.11281] [2.84719] [-0.07500]
o6 call [34.03148] [2.91305] [-0.07500]
o6 call [33.94047] [3.00592] [-0.07500]
G04 P0 ( dwell for no time -- G64 should not smooth over this point )
G00 Z0.50000 ( retract )

G00 X44.10047 Y3.00592 ( rapid move to begin. )
G01 F300.00000
( Mill infeed pass 1/1 )
o6 call [44.10047] [3.00592] [-0.07500]
G04 P0 ( dwell for no time -- G64 should not smooth over this point )
G01 F600.00000
o6 call [44.19148] [2.91305] [-0.07500]
o6 call [44.27281] [2.84719] [-0.07500]
o6 call [44.40169] [2.75357] [-0.07500]
o6 call [44.48948] [2.69654] [-0.07500]
o6 call [44.58274] [2.64902] [-0.07500]
o6 call [44.72829] [2.58423] [-0.07500]
o6 call [44.82600] [2.54673] [-0.07500]
o6 call [44.92709] [2.51963] [-0.07500]
o6 call [45.08292] [2.48651] [-0.07500]
o6 call [45.18630] [2.47013] [-0.07500]
o6 call [45.29085] [2.46467] [-0.07500]
o6 call [45.45013] [2.46467] [-0.07500]
o6 call [45.55468] [2.47013] [-0.07500]
o6 call [45.65805] [2.48651] [-0.07500]
o6 call [45.81388] [2.51963] [-0.07500]
o6 call [45.91497] [2.54673] [-0.07500]
o6 call [46.01269] [2.58423] [-0.07500]
o6 call [46.15823] [2.64902] [-0.07500]
o6 call [46.25150] [2.69654] [-0.07500]
o6 call [46.33928] [2.75357] [-0.07500]
o6 call [46.46816] [2.84719] [-0.07500]
o6 call [46.54949] [2.91305] [-0.07500]
o6 call [46.64047] [3.00592] [-0.07500]
o6 call [46.64047] [6.45503] [-0.07500]
o6 call [46.73148] [6.54792] [-0.07500]
o6 call [46.81281] [6.61378] [-0.07500]
o6 call [46.94169] [6.70741] [-0.07500]
o6 call [47.02948] [6.76443] [-0.07500]
o6 call [47.13649] [6.81805] [-0.07500]
o6 call [47.20611] [6.82392] [-0.07500]
o6 call [47.13649] [6.81805] [-0.07500]
o6 call [47.02948] [6.76443] [-0.07500]
o6 call [46.94169] [6.70741] [-0.07500]
o6 call [46.81281] [6.61378] [-0.07500]
o6 call [46.73148] [6.54792] [-0.07500]
o6 call [46.64047] [6.45503] [-0.07500]
o6 call [46.54949] [6.54792] [-0.07500]
o6 call [46.46816] [6.61378] [-0.07500]
o6 call [46.33928] [6.70741] [-0.07500]
o6 call [46.25150] [6.76443] [-0.07500]
o6 call [46.15823] [6.81195] [-0.07500]
o6 call [46.01269] [6.87675] [-0.07500]
o6 call [45.91497] [6.91424] [-0.07500]
o6 call [45.89293] [6.92016] [-0.07500]
o6 call [44.84050] [6.84007] [-0.07500]
o6 call [44.59882] [6.81825] [-0.07500]
o6 call [44.56027] [6.82859] [-0.07500]
o6 call [44.46253] [6.86611] [-0.07500]
o6 call [44.30975] [6.93413] [-0.07500]
o6 call [44.21648] [6.98165] [-0.07500]
o6 call [44.12869] [7.03865] [-0.07500]
o6 call [43.99339] [7.13695] [-0.07500]
o6 call [43.91206] [7.20283] [-0.07500]
o6 call [43.84647] [7.26837] [-0.07500]
o6 call [43.78092] [7.20283] [-0.07500]
o6 call [43.69959] [7.13695] [-0.07500]
o6 call [43.56428] [7.03865] [-0.07500]
o6 call [43.47650] [6.98165] [-0.07500]
o6 call [43.35163] [6.92006] [-0.07500]
o6 call [43.47650] [6.98165] [-0.07500]
o6 call [43.56428] [7.03865] [-0.07500]
o6 call [43.69959] [7.13695] [-0.07500]
o6 call [43.78092] [7.20283] [-0.07500]
o6 call [43.84647] [7.26837] [-0.07500]
o6 call [43.84647] [11.26327] [-0.07500]
o6 call [43.84647] [20.06188] [-0.07500]
o6 call [43.84647] [28.86049] [-0.07500]
o6 call [43.84647] [37.65909] [-0.07500]
o6 call [43.84647] [46.45770] [-0.07500]
o6 call [43.84647] [50.45258] [-0.07500]
o6 call [43.78092] [50.51814] [-0.07500]
o6 call [43.69959] [50.58403] [-0.07500]
o6 call [43.56428] [50.68233] [-0.07500]
o6 call [43.47650] [50.73932] [-0.07500]
o6 call [43.39159] [50.78258] [-0.07500]
o6 call [43.04536] [50.91580] [-0.07500]
o6 call [42.86802] [50.95426] [-0.07500]
o6 call [42.76464] [50.97062] [-0.07500]
o6 call [42.66012] [50.97610] [-0.07500]
o6 call [42.49286] [50.97610] [-0.07500]
o6 call [42.38834] [50.97062] [-0.07500]
o6 call [42.28496] [50.95426] [-0.07500]
o6 call [42.10759] [50.91578] [-0.07500]
o6 call [41.76314] [50.78319] [-0.07500]
o6 call [41.59405] [50.74651] [-0.07500]
o6 call [41.49068] [50.73013] [-0.07500]
o6 call [41.38613] [50.72467] [-0.07500]
o6 call [41.22685] [50.72467] [-0.07500]
o6 call [41.14278] [50.72906] [-0.07500]
o6 call [41.12230] [50.73013] [-0.07500]
o6 call [41.01892] [50.74651] [-0.07500]
o6 call [40.86309] [50.77963] [-0.07500]
o6 call [40.50566] [50.91568] [-0.07500]
o6 call [40.42548] [50.95654] [-0.07500]
o6 call [40.33769] [51.01357] [-0.07500]
o6 call [40.20881] [51.10719] [-0.07500]
o6 call [40.12748] [51.17305] [-0.07500]
o6 call [40.03647] [51.26592] [-0.07500]
o6 call [39.94549] [51.17305] [-0.07500]
o6 call [39.86416] [51.10719] [-0.07500]
o6 call [39.73528] [51.01357] [-0.07500]
o6 call [39.64750] [50.95654] [-0.07500]
o6 call [39.56729] [50.91568] [-0.07500]
o6 call [39.22144] [50.78260] [-0.07500]
o6 call [39.13648] [50.73932] [-0.07500]
o6 call [39.04869] [50.68233] [-0.07500]
o6 call [38.91339] [50.58403] [-0.07500]
o6 call [38.83206] [50.51814] [-0.07500]
o6 call [38.76647] [50.45258] [-0.07500]
o6 call [38.83206] [50.51814] [-0.07500]
o6 call [38.91339] [50.58403] [-0.07500]
o6 call [39.04869] [50.68233] [-0.07500]
o6 call [39.13648] [50.73932] [-0.07500]
o6 call [39.22144] [50.78260] [-0.07500]
o6 call [39.56729] [50.91568] [-0.07500]
o6 call [39.64750] [50.95654] [-0.07500]
o6 call [39.73528] [51.01357] [-0.07500]
o6 call [39.86416] [51.10719] [-0.07500]
o6 call [39.94549] [51.17305] [-0.07500]
o6 call [40.03647] [51.26592] [-0.07500]
o6 call [40.03647] [54.71503] [-0.07500]
o6 call [39.94549] [54.80792] [-0.07500]
o6 call [39.86416] [54.87378] [-0.07500]
o6 call [39.73528] [54.96741] [-0.07500]
o6 call [39.64750] [55.02443] [-0.07500]
o6 call [39.55423] [55.07195] [-0.07500]
o6 call [39.40869] [55.13675] [-0.07500]
o6 call [39.31097] [55.17424] [-0.07500]
o6 call [39.20988] [55.20134] [-0.07500]
o6 call [39.05405] [55.23446] [-0.07500]
o6 call [38.95068] [55.25085] [-0.07500]
o6 call [38.84613] [55.25631] [-0.07500]
o6 call [38.68685] [55.25631] [-0.07500]
o6 call [38.58230] [55.25085] [-0.07500]
o6 call [38.47892] [55.23446] [-0.07500]
o6 call [38.32309] [55.20134] [-0.07500]
o6 call [38.22200] [55.17424] [-0.07500]
o6 call [38.12429] [55.13675] [-0.07500]
o6 call [37.97874] [55.07195] [-0.07500]
o6 call [37.88548] [55.02443] [-0.07500]
o6 call [37.79769] [54.96741] [-0.07500]
o6 call [37.66881] [54.87378] [-0.07500]
o6 call [37.58748] [54.80792] [-0.07500]
o6 call [37.49647] [54.71503] [-0.07500]
G04 P0 ( dwell for no time -- G64 should not smooth over this point )
G00 Z0.50000 ( retract )

G00 X42.57647 Y54.71503 ( rapid move to begin. )
G01 F300.00000
( Mill infeed pass 1/1 )
o6 call [42.57647] [54.71503] [-0.07500]
G04 P0 ( dwell for no time -- G64 should not smooth over this point )
G01 F600.00000
o6 call [42.66748] [54.80792] [-0.07500]
o6 call [42.74881] [54.87378] [-0.07500]
o6 call [42.87769] [54.96741] [-0.07500]
o6 call [42.96548] [55.02443] [-0.07500]
o6 call [43.05874] [55.07195] [-0.07500]
o6 call [43.20429] [55.13675] [-0.07500]
o6 call [43.30200] [55.17424] [-0.07500]
o6 call [43.40309] [55.20134] [-0.07500]
o6 call [43.55892] [55.23446] [-0.07500]
o6 call [43.66230] [55.25085] [-0.07500]
o6 call [43.76685] [55.25631] [-0.07500]
o6 call [43.92613] [55.25631] [-0.07500]
o6 call [44.03068] [55.25085] [-0.07500]
o6 call [44.13405] [55.23446] [-0.07500]
o6 call [44.28988] [55.20134] [-0.07500]
o6 call [44.39097] [55.17424] [-0.07500]
o6 call [44.48869] [55.13675] [-0.07500]
o6 call [44.63423] [55.07195] [-0.07500]
o6 call [44.72750] [55.02443] [-0.07500]
o6 call [44.81528] [54.96741] [-0.07500]
o6 call [44.94416] [54.87378] [-0.07500]
o6 call [45.02549] [54.80792] [-0.07500]
o6 call [45.09951] [54.73391] [-0.07500]
o6 call [45.20611] [54.61552] [-0.07500]
o6 call [45.27197] [54.53416] [-0.07500]
o6 call [45.32897] [54.44638] [-0.07500]
o6 call [45.40863] [54.30843] [-0.07500]
o6 call [45.45615] [54.21516] [-0.07500]
o6 call [45.49366] [54.11742] [-0.07500]
o6 call [45.54289] [53.96594] [-0.07500]
o6 call [45.56999] [53.86482] [-0.07500]
o6 call [45.58635] [53.76144] [-0.07500]
o6 call [45.60301] [53.60302] [-0.07500]
o6 call [45.60850] [53.49847] [-0.07500]
o6 call [45.60850] [52.48247] [-0.07500]
o6 call [45.60301] [52.37795] [-0.07500]
o6 call [45.58635] [52.21953] [-0.07500]
o6 call [45.56999] [52.11616] [-0.07500]
o6 call [45.54289] [52.01504] [-0.07500]
o6 call [45.49366] [51.86353] [-0.07500]
o6 call [45.45615] [51.76579] [-0.07500]
o6 call [45.40863] [51.67254] [-0.07500]
o6 call [45.32897] [51.53460] [-0.07500]
o6 call [45.27197] [51.44682] [-0.07500]
o6 call [45.20611] [51.36546] [-0.07500]
o6 call [45.09951] [51.24707] [-0.07500]
o6 call [45.02549] [51.17305] [-0.07500]
o6 call [44.94416] [51.10719] [-0.07500]
o6 call [44.81528] [51.01357] [-0.07500]
o6 call [44.72750] [50.95654] [-0.07500]
o6 call [44.64731] [50.91570] [-0.07500]
o6 call [44.30144] [50.78263] [-0.07500]
o6 call [44.21648] [50.73932] [-0.07500]
o6 call [44.12869] [50.68233] [-0.07500]
o6 call [43.99339] [50.58403] [-0.07500]
o6 call [43.91206] [50.51814] [-0.07500]
o6 call [43.84647] [50.45258] [-0.07500]
G04 P0 ( dwell for no time -- G64 should not smooth over this point )
G00 Z0.50000 ( retract )

G00 X49.18047 Y54.71503 ( rapid move to begin. )
G01 F300.00000
( Mill infeed pass 1/1 )
o6 call [49.18047] [54.71503] [-0.07500]
G04 P0 ( dwell for no time -- G64 should not smooth over this point )
G01 F600.00000
o6 call [49.08949] [54.80792] [-0.07500]
o6 call [49.00816] [54.87378] [-0.07500]
o6 call [48.87928] [54.96741] [-0.07500]
o6 call [48.79150] [55.02443] [-0.07500]
o6 call [48.69823] [55.07195] [-0.07500]
o6 call [48.55269] [55.13675] [-0.07500]
o6 call [48.45497] [55.17424] [-0.07500]
o6 call [48.35388] [55.20134] [-0.07500]
o6 call [48.19805] [55.23446] [-0.07500]
o6 call [48.09468] [55.25085] [-0.07500]
o6 call [47.99013] [55.25631] [-0.07500]
o6 call [47.83085] [55.25631] [-0.07500]
o6 call [47.72630] [55.25085] [-0.07500]
o6 call [47.62292] [55.23446] [-0.07500]
o6 call [47.46709] [55.20134] [-0.07500]
o6 call [47.36600] [55.17424] [-0.07500]
o6 call [47.26829] [55.13675] [-0.07500]
o6 call [47.12274] [55.07195] [-0.07500]
o6 call [47.02948] [55.02443] [-0.07500]
o6 call [46.94169] [54.96741] [-0.07500]
o6 call [46.81281] [54.87378] [-0.07500]
o6 call [46.73148] [54.80792] [-0.07500]
o6 call [46.65747] [54.73391] [-0.07500]
o6 call [46.55086] [54.61552] [-0.07500]
o6 call [46.48500] [54.53416] [-0.07500]
o6 call [46.42800] [54.44638] [-0.07500]
o6 call [46.34835] [54.30843] [-0.07500]
o6 call [46.30083] [54.21516] [-0.07500]
o6 call [46.26331] [54.11742] [-0.07500]
o6 call [46.21408] [53.96594] [-0.07500]
o6 call [46.18698] [53.86482] [-0.07500]
o6 call [46.17063] [53.76144] [-0.07500]
o6 call [46.15396] [53.60302] [-0.07500]
o6 call [46.14848] [53.49847] [-0.07500]
o6 call [46.14848] [52.48247] [-0.07500]
o6 call [46.15396] [52.37795] [-0.07500]
o6 call [46.17063] [52.21953] [-0.07500]
o6 call [46.18698] [52.11616] [-0.07500]
o6 call [46.21408] [52.01504] [-0.07500]
o6 call [46.26331] [51.86353] [-0.07500]
o6 call [46.30083] [51.76579] [-0.07500]
o6 call [46.34835] [51.67254] [-0.07500]
o6 call [46.42800] [51.53460] [-0.07500]
o6 call [46.48500] [51.44682] [-0.07500]
o6 call [46.55086] [51.36546] [-0.07500]
o6 call [46.65747] [51.24707] [-0.07500]
o6 call [46.73148] [51.17305] [-0.07500]
o6 call [46.81281] [51.10719] [-0.07500]
o6 call [46.94169] [51.01357] [-0.07500]
o6 call [47.02948] [50.95654] [-0.07500]
o6 call [47.13656] [50.90287] [-0.07500]
o6 call [47.38050] [50.88088] [-0.07500]
o6 call [48.43171] [50.80089] [-0.07500]
o6 call [48.55650] [50.73932] [-0.07500]
o6 call [48.64428] [50.68233] [-0.07500]
o6 call [48.77959] [50.58403] [-0.07500]
o6 call [48.86092] [50.51814] [-0.07500]
o6 call [48.92647] [50.45258] [-0.07500]
o6 call [48.86092] [50.51814] [-0.07500]
o6 call [48.77959] [50.58403] [-0.07500]
o6 call [48.64428] [50.68233] [-0.07500]
o6 call [48.55650] [50.73932] [-0.07500]
o6 call [48.43173] [50.80087] [-0.07500]
o6 call [48.34799] [50.80724] [-0.07500]
o6 call [48.43285] [50.80079] [-0.07500]
o6 call [48.45497] [50.80673] [-0.07500]
o6 call [48.55269] [50.84423] [-0.07500]
o6 call [48.69823] [50.90902] [-0.07500]
o6 call [48.79150] [50.95654] [-0.07500]
o6 call [48.87928] [51.01357] [-0.07500]
o6 call [49.00816] [51.10719] [-0.07500]
o6 call [49.08949] [51.17305] [-0.07500]
o6 call [49.18047] [51.26592] [-0.07500]
o6 call [49.27148] [51.17305] [-0.07500]
o6 call [49.35281] [51.10719] [-0.07500]
o6 call [49.48169] [51.01357] [-0.07500]
o6 call [49.56948] [50.95654] [-0.07500]
o6 call [49.67656] [50.90287] [-0.07500]
o6 call [49.74611] [50.89703] [-0.07500]
o6 call [49.67656] [50.90287] [-0.07500]
o6 call [49.56948] [50.95654] [-0.07500]
o6 call [49.48169] [51.01357] [-0.07500]
o6 call [49.35281] [51.10719] [-0.07500]
o6 call [49.27148] [51.17305] [-0.07500]
o6 call [49.18047] [51.26592] [-0.07500]
o6 call [49.18047] [54.71503] [-0.07500]
o6 call [49.27148] [54.80792] [-0.07500]
o6 call [49.35281] [54.87378] [-0.07500]
o6 call [49.48169] [54.96741] [-0.07500]
o6 call [49.56948] [55.02443] [-0.07500]
o6 call [49.66274] [55.07195] [-0.07500]
o6 call [49.80829] [55.13675] [-0.07500]
o6 call [49.90600] [55.17424] [-0.07500]
o6 call [50.00709] [55.20134] [-0.07500]
o6 call [50.16292] [55.23446] [-0.07500]
o6 call [50.26630] [55.25085] [-0.07500]
o6 call [50.37085] [55.25631] [-0.07500]
o6 call [50.53013] [55.25631] [-0.07500]
o6 call [50.63468] [55.25085] [-0.07500]
o6 call [50.73805] [55.23446] [-0.07500]
o6 call [50.75935] [55.22994] [-0.07500]
o6 call [50.89388] [55.20134] [-0.07500]
o6 call [50.99497] [55.17424] [-0.07500]
o6 call [51.09269] [55.13675] [-0.07500]
o6 call [51.23823] [55.07195] [-0.07500]
o6 call [51.33150] [55.02443] [-0.07500]
o6 call [51.41928] [54.96741] [-0.07500]
o6 call [51.54816] [54.87378] [-0.07500]
o6 call [51.62949] [54.80792] [-0.07500]
o6 call [51.72047] [54.71503] [-0.07500]
o6 call [51.72047] [51.26592] [-0.07500]
o6 call [51.81148] [51.17305] [-0.07500]
o6 call [51.89281] [51.10719] [-0.07500]
o6 call [52.02169] [51.01357] [-0.07500]
o6 call [52.10945] [50.95654] [-0.07500]
o6 call [52.21654] [50.90287] [-0.07500]
o6 call [52.28611] [50.89703] [-0.07500]
o6 call [52.21654] [50.90287] [-0.07500]
o6 call [52.10945] [50.95654] [-0.07500]
o6 call [52.02169] [51.01357] [-0.07500]
o6 call [51.89281] [51.10719] [-0.07500]
o6 call [51.81148] [51.17305] [-0.07500]
o6 call [51.72047] [51.26592] [-0.07500]
o6 call [51.62949] [51.17305] [-0.07500]
o6 call [51.54816] [51.10719] [-0.07500]
o6 call [51.41928] [51.01357] [-0.07500]
o6 call [51.33150] [50.95654] [-0.07500]
o6 call [51.23823] [50.90902] [-0.07500]
o6 call [51.09269] [50.84423] [-0.07500]
o6 call [50.99497] [50.80673] [-0.07500]
o6 call [50.97173] [50.80087] [-0.07500]
o6 call [50.75935] [50.81703] [-0.07500]
o6 call [49.92050] [50.88088] [-0.07500]
o6 call [49.67875] [50.90270] [-0.07500]
o6 call [49.64027] [50.89238] [-0.07500]
o6 call [49.54253] [50.85487] [-0.07500]
o6 call [49.38975] [50.78685] [-0.07500]
o6 call [49.29648] [50.73932] [-0.07500]
o6 call [49.20869] [50.68233] [-0.07500]
o6 call [49.07339] [50.58403] [-0.07500]
o6 call [48.99206] [50.51814] [-0.07500]
o6 call [48.92647] [50.45258] [-0.07500]
o6 call [48.92647] [46.45770] [-0.07500]
o6 call [48.92647] [37.65909] [-0.07500]
o6 call [48.92647] [28.86049] [-0.07500]
o6 call [48.92647] [20.06188] [-0.07500]
o6 call [48.92647] [11.26327] [-0.07500]
o6 call [48.92647] [7.26837] [-0.07500]
o6 call [48.86092] [7.20283] [-0.07500]
o6 call [48.77959] [7.13695] [-0.07500]
o6 call [48.64428] [7.03865] [-0.07500]
o6 call [48.55650] [6.98165] [-0.07500]
o6 call [48.43163] [6.92006] [-0.07500]
o6 call [48.55650] [6.98165] [-0.07500]
o6 call [48.64428] [7.03865] [-0.07500]
o6 call [48.77959] [7.13695] [-0.07500]
o6 call [48.86092] [7.20283] [-0.07500]
o6 call [48.92647] [7.26837] [-0.07500]
o6 call [48.99206] [7.20283] [-0.07500]
o6 call [49.07339] [7.13695] [-0.07500]
o6 call [49.20869] [7.03865] [-0.07500]
o6 call [49.29648] [6.98165] [-0.07500]
o6 call [49.38975] [6.93413] [-0.07500]
o6 call [49.54253] [6.86611] [-0.07500]
o6 call [49.64027] [6.82859] [-0.07500]
o6 call [49.74136] [6.80149] [-0.07500]
o6 call [49.90496] [6.76672] [-0.07500]
o6 call [50.00834] [6.75036] [-0.07500]
o6 call [50.11286] [6.74487] [-0.07500]
o6 call [50.28012] [6.74487] [-0.07500]
o6 call [50.38464] [6.75036] [-0.07500]
o6 call [50.48802] [6.76672] [-0.07500]
o6 call [50.65162] [6.80149] [-0.07500]
o6 call [50.75271] [6.82859] [-0.07500]
o6 call [50.75935] [6.83114] [-0.07500]
o6 call [50.85045] [6.86611] [-0.07500]
o6 call [51.00323] [6.93413] [-0.07500]
o6 call [51.09650] [6.98165] [-0.07500]
o6 call [51.18428] [7.03865] [-0.07500]
o6 call [51.31959] [7.13695] [-0.07500]
o6 call [51.40092] [7.20283] [-0.07500]
o6 call [51.46647] [7.26837] [-0.07500]
o6 call [51.46647] [11.26327] [-0.07500]
o6 call [51.46647] [20.06188] [-0.07500]
o6 call [51.46647] [28.86049] [-0.07500]
o6 call [51.46647] [37.65909] [-0.07500]
o6 call [51.46647] [46.45770] [-0.07500]
o6 call [51.46647] [50.45258] [-0.07500]
o6 call [51.40092] [50.51814] [-0.07500]
o6 call [51.31959] [50.58403] [-0.07500]
o6 call [51.18428] [50.68233] [-0.07500]
o6 call [51.09650] [50.73932] [-0.07500]
o6 call [50.97173] [50.80087] [-0.07500]
o6 call [50.88799] [50.80724] [-0.07500]
o6 call [50.97171] [50.80089] [-0.07500]
o6 call [51.09650] [50.73932] [-0.07500]
o6 call [51.18428] [50.68233] [-0.07500]
o6 call [51.31959] [50.58403] [-0.07500]
o6 call [51.40092] [50.51814] [-0.07500]
o6 call [51.46647] [50.45258] [-0.07500]
o6 call [51.53206] [50.51814] [-0.07500]
o6 call [51.61339] [50.58403] [-0.07500]
o6 call [51.74869] [50.68233] [-0.07500]
o6 call [51.83645] [50.73932] [-0.07500]
o6 call [51.92975] [50.78685] [-0.07500]
o6 call [52.08250] [50.85487] [-0.07500]
o6 call [52.18027] [50.89238] [-0.07500]
o6 call [52.21870] [50.90267] [-0.07500]
o6 call [52.46048] [50.88088] [-0.07500]
o6 call [53.51171] [50.80089] [-0.07500]
o6 call [53.63650] [50.73932] [-0.07500]
o6 call [53.72428] [50.68233] [-0.07500]
o6 call [53.85956] [50.58403] [-0.07500]
o6 call [53.94092] [50.51814] [-0.07500]
o6 call [54.00647] [50.45258] [-0.07500]
o6 call [53.94092] [50.51814] [-0.07500]
o6 call [53.85956] [50.58403] [-0.07500]
o6 call [53.72428] [50.68233] [-0.07500]
o6 call [53.63650] [50.73932] [-0.07500]
o6 call [53.51173] [50.80087] [-0.07500]
o6 call [53.42799] [50.80724] [-0.07500]
o6 call [53.51285] [50.80079] [-0.07500]
o6 call [53.53497] [50.80673] [-0.07500]
o6 call [53.63269] [50.84423] [-0.07500]
o6 call [53.77820] [50.90902] [-0.07500]
o6 call [53.87150] [50.95654] [-0.07500]
o6 call [53.95928] [51.01357] [-0.07500]
o6 call [54.08816] [51.10719] [-0.07500]
o6 call [54.16949] [51.17305] [-0.07500]
o6 call [54.26047] [51.26592] [-0.07500]
o6 call [54.35148] [51.17305] [-0.07500]
o6 call [54.43281] [51.10719] [-0.07500]
o6 call [54.56169] [51.01357] [-0.07500]
o6 call [54.64948] [50.95654] [-0.07500]
o6 call [54.75656] [50.90287] [-0.07500]
o6 call [54.82611] [50.89703] [-0.07500]
o6 call [54.75656] [50.90287] [-0.07500]
o6 call [54.64948] [50.95654] [-0.07500]
o6 call [54.56169] [51.01357] [-0.07500]
o6 call [54.43281] [51.10719] [-0.07500]
o6 call [54.35148] [51.17305] [-0.07500]
o6 call [54.26047] [51.26592] [-0.07500]
o6 call [54.26047] [54.71503] [-0.07500]
o6 call [54.16949] [54.80792] [-0.07500]
o6 call [54.08816] [54.87378] [-0.07500]
o6 call [53.95928] [54.96741] [-0.07500]
o6 call [53.87150] [55.02443] [-0.07500]
o6 call [53.77820] [55.07195] [-0.07500]
o6 call [53.63269] [55.13675] [-0.07500]
o6 call [53.53497] [55.17424] [-0.07500]
o6 call [53.43388] [55.20134] [-0.07500]
o6 call [53.27805] [55.23446] [-0.07500]
o6 call [53.17468] [55.25085] [-0.07500]
o6 call [53.07013] [55.25631] [-0.07500]
o6 call [52.91085] [55.25631] [-0.07500]
o6 call [52.80627] [55.25085] [-0.07500]
o6 call [52.70292] [55.23446] [-0.07500]
o6 call [52.54709] [55.20134] [-0.07500]
o6 call [52.44600] [55.17424] [-0.07500]
o6 call [52.34829] [55.13675] [-0.07500]
o6 call [52.20274] [55.07195] [-0.07500]
o6 call [52.10945] [55.02443] [-0.07500]
o6 call [52.02169] [54.96741] [-0.07500]
o6 call [51.89281] [54.87378] [-0.07500]
o6 call [51.81148] [54.80792] [-0.07500]
o6 call [51.72047] [54.71503] [-0.07500]
G04 P0 ( dwell for no time -- G64 should not smooth over this point )
G00 Z0.50000 ( retract )

G00 X54.26047 Y54.71503 ( rapid move to begin. )
G01 F300.00000
( Mill infeed pass 1/1 )
o6 call [54.26047] [54.71503] [-0.07500]
G04 P0 ( dwell for no time -- G64 should not smooth over this point )
G01 F600.00000
o6 call [54.35148] [54.80792] [-0.07500]
o6 call [54.43281] [54.87378] [-0.07500]
o6 call [54.56169] [54.96741] [-0.07500]
o6 call [54.64948] [55.02443] [-0.07500]
o6 call [54.74274] [55.07195] [-0.07500]
o6 call [54.88829] [55.13675] [-0.07500]
o6 call [54.98600] [55.17424] [-0.07500]
o6 call [55.08709] [55.20134] [-0.07500]
o6 call [55.24292] [55.23446] [-0.07500]
o6 call [55.34630] [55.25085] [-0.07500]
o6 call [55.45085] [55.25631] [-0.07500]
o6 call [55.61013] [55.25631] [-0.07500]
o6 call [55.71468] [55.25085] [-0.07500]
o6 call [55.81805] [55.23446] [-0.07500]
o6 call [55.97388] [55.20134] [-0.07500]
o6 call [56.07497] [55.17424] [-0.07500]
o6 call [56.17269] [55.13675] [-0.07500]
o6 call [56.31823] [55.07195] [-0.07500]
o6 call [56.41150] [55.02443] [-0.07500]
o6 call [56.49928] [54.96741] [-0.07500]
o6 call [56.62816] [54.87378] [-0.07500]
o6 call [56.70949] [54.80792] [-0.07500]
o6 call [56.80047] [54.71503] [-0.07500]
o6 call [56.80047] [51.26592] [-0.07500]
o6 call [56.89148] [51.17305] [-0.07500]
o6 call [56.97281] [51.10719] [-0.07500]
o6 call [57.10169] [51.01357] [-0.07500]
o6 call [57.18948] [50.95654] [-0.07500]
o6 call [57.29656] [50.90287] [-0.07500]
o6 call [57.36611] [50.89701] [-0.07500]
o6 call [57.29656] [50.90287] [-0.07500]
o6 call [57.18948] [50.95654] [-0.07500]
o6 call [57.10169] [51.01357] [-0.07500]
o6 call [56.97281] [51.10719] [-0.07500]
o6 call [56.89148] [51.17305] [-0.07500]
o6 call [56.80047] [51.26592] [-0.07500]
o6 call [56.70949] [51.17305] [-0.07500]
o6 call [56.62816] [51.10719] [-0.07500]
o6 call [56.49928] [51.01357] [-0.07500]
o6 call [56.41150] [50.95654] [-0.07500]
o6 call [56.31823] [50.90902] [-0.07500]
o6 call [56.17269] [50.84423] [-0.07500]
o6 call [56.07497] [50.80673] [-0.07500]
o6 call [56.05173] [50.80087] [-0.07500]
o6 call [55.00050] [50.88088] [-0.07500]
o6 call [54.75875] [50.90270] [-0.07500]
o6 call [54.72027] [50.89238] [-0.07500]
o6 call [54.62253] [50.85487] [-0.07500]
o6 call [54.46975] [50.78685] [-0.07500]
o6 call [54.37648] [50.73932] [-0.07500]
o6 call [54.28869] [50.68233] [-0.07500]
o6 call [54.15339] [50.58403] [-0.07500]
o6 call [54.07206] [50.51814] [-0.07500]
o6 call [54.00647] [50.45258] [-0.07500]
o6 call [54.00647] [46.45770] [-0.07500]
o6 call [54.00647] [37.65909] [-0.07500]
o6 call [54.00647] [28.86049] [-0.07500]
o6 call [54.00647] [20.06188] [-0.07500]
o6 call [54.00647] [11.26327] [-0.07500]
o6 call [54.00647] [7.26837] [-0.07500]
o6 call [53.94092] [7.20283] [-0.07500]
o6 call [53.85956] [7.13695] [-0.07500]
o6 call [53.72428] [7.03865] [-0.07500]
o6 call [53.63650] [6.98165] [-0.07500]
o6 call [53.51163] [6.92006] [-0.07500]
o6 call [53.63650] [6.98165] [-0.07500]
o6 call [53.72428] [7.03865] [-0.07500]
o6 call [53.85956] [7.13695] [-0.07500]
o6 call [53.94092] [7.20283] [-0.07500]
o6 call [54.00647] [7.26837] [-0.07500]
o6 call [54.07206] [7.20283] [-0.07500]
o6 call [54.15339] [7.13695] [-0.07500]
o6 call [54.28869] [7.03865] [-0.07500]
o6 call [54.37648] [6.98165] [-0.07500]
o6 call [54.46975] [6.93413] [-0.07500]
o6 call [54.62253] [6.86611] [-0.07500]
o6 call [54.72027] [6.82859] [-0.07500]
o6 call [54.75882] [6.81825] [-0.07500]
o6 call [55.00050] [6.84007] [-0.07500]
o6 call [56.05163] [6.92006] [-0.07500]
o6 call [56.17650] [6.98165] [-0.07500]
o6 call [56.26428] [7.03865] [-0.07500]
o6 call [56.39959] [7.13695] [-0.07500]
o6 call [56.48092] [7.20283] [-0.07500]
o6 call [56.54647] [7.26837] [-0.07500]
o6 call [56.48092] [7.20283] [-0.07500]
o6 call [56.39959] [7.13695] [-0.07500]
o6 call [56.26428] [7.03865] [-0.07500]
o6 call [56.17650] [6.98165] [-0.07500]
o6 call [56.05163] [6.92006] [-0.07500]
o6 call [56.17269] [6.87675] [-0.07500]
o6 call [56.31823] [6.81195] [-0.07500]
o6 call [56.41150] [6.76443] [-0.07500]
o6 call [56.49928] [6.70741] [-0.07500]
o6 call [56.62816] [6.61378] [-0.07500]
o6 call [56.70949] [6.54792] [-0.07500]
o6 call [56.80047] [6.45503] [-0.07500]
o6 call [56.89148] [6.54792] [-0.07500]
o6 call [56.97281] [6.61378] [-0.07500]
o6 call [57.10169] [6.70741] [-0.07500]
o6 call [57.18948] [6.76443] [-0.07500]
o6 call [57.29649] [6.81805] [-0.07500]
o6 call [57.36611] [6.82394] [-0.07500]
o6 call [57.29880] [6.81825] [-0.07500]
o6 call [57.26027] [6.82859] [-0.07500]
o6 call [57.16253] [6.86611] [-0.07500]
o6 call [57.00975] [6.93413] [-0.07500]
o6 call [56.91648] [6.98165] [-0.07500]
o6 call [56.82869] [7.03865] [-0.07500]
o6 call [56.69339] [7.13695] [-0.07500]
o6 call [56.61206] [7.20283] [-0.07500]
o6 call [56.54647] [7.26837] [-0.07500]
o6 call [56.54647] [11.26327] [-0.07500]
o6 call [56.54647] [20.06188] [-0.07500]
o6 call [56.54647] [28.86049] [-0.07500]
o6 call [56.54647] [37.65909] [-0.07500]
o6 call [56.54647] [46.45770] [-0.07500]
o6 call [56.54647] [50.45258] [-0.07500]
o6 call [56.48092] [50.51814] [-0.07500]
o6 call [56.39959] [50.58403] [-0.07500]
o6 call [56.26428] [50.68233] [-0.07500]
o6 call [56.17650] [50.73932] [-0.07500]
o6 call [56.05173] [50.80087] [-0.07500]
o6 call [55.96799] [50.80724] [-0.07500]
o6 call [56.05171] [50.80089] [-0.07500]
o6 call [56.17650] [50.73932] [-0.07500]
o6 call [56.26428] [50.68233] [-0.07500]
o6 call [56.39959] [50.58403] [-0.07500]
o6 call [56.48092] [50.51814] [-0.07500]
o6 call [56.54647] [50.45258] [-0.07500]
o6 call [56.61206] [50.51814] [-0.07500]
o6 call [56.69339] [50.58403] [-0.07500]
o6 call [56.82869] [50.68233] [-0.07500]
o6 call [56.91648] [50.73932] [-0.07500]
o6 call [57.00975] [50.78685] [-0.07500]
o6 call [57.16253] [50.85487] [-0.07500]
o6 call [57.26027] [50.89238] [-0.07500]
o6 call [57.29870] [50.90267] [-0.07500]
o6 call [57.54050] [50.88088] [-0.07500]
o6 call [58.59171] [50.80089] [-0.07500]
o6 call [58.71650] [50.73932] [-0.07500]
o6 call [58.80428] [50.68233] [-0.07500]
o6 call [58.93959] [50.58403] [-0.07500]
o6 call [59.02092] [50.51814] [-0.07500]
o6 call [59.08647] [50.45258] [-0.07500]
o6 call [59.02092] [50.51814] [-0.07500]
o6 call [58.93959] [50.58403] [-0.07500]
o6 call [58.80428] [50.68233] [-0.07500]
o6 call [58.71650] [50.73932] [-0.07500]
o6 call [58.59173] [50.80087] [-0.07500]
o6 call [58.50799] [50.80724] [-0.07500]
o6 call [58.59285] [50.80079] [-0.07500]
o6 call [58.61497] [50.80673] [-0.07500]
o6 call [58.71269] [50.84423] [-0.07500]
o6 call [58.85823] [50.90902] [-0.07500]
o6 call [58.95150] [50.95654] [-0.07500]
o6 call [59.03928] [51.01357] [-0.07500]
o6 call [59.16816] [51.10719] [-0.07500]
o6 call [59.24949] [51.17305] [-0.07500]
o6 call [59.34047] [51.26592] [-0.07500]
o6 call [59.43148] [51.17305] [-0.07500]
o6 call [59.51281] [51.10719] [-0.07500]
o6 call [59.64169] [51.01357] [-0.07500]
o6 call [59.72948] [50.95654] [-0.07500]
o6 call [59.83656] [50.90287] [-0.07500]
o6 call [59.90611] [50.89701] [-0.07500]
o6 call [59.83656] [50.90287] [-0.07500]
o6 call [59.72948] [50.95654] [-0.07500]
o6 call [59.64169] [51.01357] [-0.07500]
o6 call [59.51281] [51.10719] [-0.07500]
o6 call [59.43148] [51.17305] [-0.07500]
o6 call [59.34047] [51.26592] [-0.07500]
o6 call [59.34047] [54.71503] [-0.07500]
o6 call [59.24949] [54.80792] [-0.07500]
o6 call [59.16816] [54.87378] [-0.07500]
o6 call [59.03928] [54.96741] [-0.07500]
o6 call [58.95150] [55.02443] [-0.07500]
o6 call [58.85823] [55.07195] [-0.07500]
o6 call [58.71269] [55.13675] [-0.07500]
o6 call [58.61497] [55.17424] [-0.07500]
o6 call [58.51388] [55.20134] [-0.07500]
o6 call [58.35805] [55.23446] [-0.07500]
o6 call [58.25468] [55.25085] [-0.07500]
o6 call [58.15013] [55.25631] [-0.07500]
o6 call [57.99085] [55.25631] [-0.07500]
o6 call [57.88630] [55.25085] [-0.07500]
o6 call [57.78292] [55.23446] [-0.07500]
o6 call [57.62709] [55.20134] [-0.07500]
o6 call [57.52600] [55.17424] [-0.07500]
o6 call [57.42829] [55.13675] [-0.07500]
o6 call [57.28274] [55.07195] [-0.07500]
o6 call [57.18948] [55.02443] [-0.07500]
o6 call [57.10169] [54.96741] [-0.07500]
o6 call [56.97281] [54.87378] [-0.07500]
o6 call [56.89148] [54.80792] [-0.07500]
o6 call [56.80047] [54.71503] [-0.07500]
G04 P0 ( dwell for no time -- G64 should not smooth over this point )
G00 Z0.50000 ( retract )

G00 X59.34047 Y54.71503 ( rapid move to begin. )
G01 F300.00000
( Mill infeed pass 1/1 )
o6 call [59.34047] [54.71503] [-0.07500]
G04 P0 ( dwell for no time -- G64 should not smooth over this point )
G01 F600.00000
o6 call [59.43148] [54.80792] [-0.07500]
o6 call [59.51281] [54.87378] [-0.07500]
o6 call [59.64169] [54.96741] [-0.07500]
o6 call [59.72948] [55.02443] [-0.07500]
o6 call [59.82274] [55.07195] [-0.07500]
o6 call [59.96829] [55.13675] [-0.07500]
o6 call [60.06600] [55.17424] [-0.07500]
o6 call [60.16709] [55.20134] [-0.07500]
o6 call [60.32292] [55.23446] [-0.07500]
o6 call [60.37592] [55.24286] [-0.07500]
o6 call [60.42630] [55.25085] [-0.07500]
o6 call [60.53085] [55.25631] [-0.07500]
o6 call [60.69013] [55.25631] [-0.07500]
o6 call [60.79468] [55.25085] [-0.07500]
o6 call [60.89805] [55.23446] [-0.07500]
o6 call [61.05388] [55.20134] [-0.07500]
o6 call [61.15497] [55.17424] [-0.07500]
o6 call [61.25269] [55.13675] [-0.07500]
o6 call [61.39823] [55.07195] [-0.07500]
o6 call [61.49150] [55.02443] [-0.07500]
o6 call [61.57928] [54.96741] [-0.07500]
o6 call [61.70816] [54.87378] [-0.07500]
o6 call [61.78949] [54.80792] [-0.07500]
o6 call [61.88047] [54.71503] [-0.07500]
o6 call [61.88047] [51.26592] [-0.07500]
o6 call [61.97148] [51.17305] [-0.07500]
o6 call [62.05281] [51.10719] [-0.07500]
o6 call [62.18169] [51.01357] [-0.07500]
o6 call [62.26948] [50.95654] [-0.07500]
o6 call [62.37656] [50.90287] [-0.07500]
o6 call [62.44611] [50.89703] [-0.07500]
o6 call [62.37656] [50.90287] [-0.07500]
o6 call [62.26948] [50.95654] [-0.07500]
o6 call [62.18169] [51.01357] [-0.07500]
o6 call [62.05281] [51.10719] [-0.07500]
o6 call [61.97148] [51.17305] [-0.07500]
o6 call [61.88047] [51.26592] [-0.07500]
o6 call [61.78949] [51.17305] [-0.07500]
o6 call [61.70816] [51.10719] [-0.07500]
o6 call [61.57928] [51.01357] [-0.07500]
o6 call [61.49150] [50.95654] [-0.07500]
o6 call [61.39823] [50.90902] [-0.07500]
o6 call [61.25269] [50.84423] [-0.07500]
o6 call [61.15497] [50.80673] [-0.07500]
o6 call [61.13173] [50.80087] [-0.07500]
o6 call [60.37592] [50.85839] [-0.07500]
o6 call [60.08050] [50.88088] [-0.07500]
o6 call [59.83872] [50.90270] [-0.07500]
o6 call [59.80027] [50.89238] [-0.07500]
o6 call [59.70253] [50.85487] [-0.07500]
o6 call [59.54975] [50.78685] [-0.07500]
o6 call [59.45648] [50.73932] [-0.07500]
o6 call [59.36869] [50.68233] [-0.07500]
o6 call [59.23339] [50.58403] [-0.07500]
o6 call [59.15206] [50.51814] [-0.07500]
o6 call [59.08647] [50.45258] [-0.07500]
o6 call [59.08647] [46.45770] [-0.07500]
o6 call [59.08647] [37.65909] [-0.07500]
o6 call [59.08647] [28.86049] [-0.07500]
o6 call [59.08647] [20.06188] [-0.07500]
o6 call [59.08647] [11.26327] [-0.07500]
o6 call [59.08647] [7.26837] [-0.07500]
o6 call [59.02092] [7.20283] [-0.07500]
o6 call [58.93959] [7.13695] [-0.07500]
o6 call [58.80428] [7.03865] [-0.07500]
o6 call [58.71650] [6.98165] [-0.07500]
o6 call [58.59163] [6.92006] [-0.07500]
o6 call [58.71650] [6.98165] [-0.07500]
o6 call [58.80428] [7.03865] [-0.07500]
o6 call [58.93959] [7.13695] [-0.07500]
o6 call [59.02092] [7.20283] [-0.07500]
o6 call [59.08647] [7.26837] [-0.07500]
o6 call [59.15206] [7.20283] [-0.07500]
o6 call [59.23339] [7.13695] [-0.07500]
o6 call [59.36869] [7.03865] [-0.07500]
o6 call [59.45648] [6.98165] [-0.07500]
o6 call [59.54975] [6.93413] [-0.07500]
o6 call [59.70253] [6.86611] [-0.07500]
o6 call [59.80027] [6.82859] [-0.07500]
o6 call [59.83880] [6.81825] [-0.07500]
o6 call [60.08050] [6.84007] [-0.07500]
o6 call [60.37592] [6.86255] [-0.07500]
o6 call [61.13163] [6.92006] [-0.07500]
o6 call [61.25650] [6.98165] [-0.07500]
o6 call [61.34428] [7.03865] [-0.07500]
o6 call [61.47959] [7.13695] [-0.07500]
o6 call [61.56092] [7.20283] [-0.07500]
o6 call [61.62647] [7.26837] [-0.07500]
o6 call [61.56092] [7.20283] [-0.07500]
o6 call [61.47959] [7.13695] [-0.07500]
o6 call [61.34428] [7.03865] [-0.07500]
o6 call [61.25650] [6.98165] [-0.07500]
o6 call [61.13163] [6.92006] [-0.07500]
o6 call [61.25269] [6.87675] [-0.07500]
o6 call [61.39823] [6.81195] [-0.07500]
o6 call [61.49150] [6.76443] [-0.07500]
o6 call [61.57928] [6.70741] [-0.07500]
o6 call [61.70816] [6.61378] [-0.07500]
o6 call [61.78949] [6.54792] [-0.07500]
o6 call [61.88047] [6.45503] [-0.07500]
o6 call [61.97148] [6.54792] [-0.07500]
o6 call [62.05281] [6.61378] [-0.07500]
o6 call [62.18169] [6.70741] [-0.07500]
o6 call [62.26948] [6.76443] [-0.07500]
o6 call [62.37649] [6.81805] [-0.07500]
o6 call [62.44611] [6.82392] [-0.07500]
o6 call [62.37882] [6.81825] [-0.07500]
o6 call [62.34027] [6.82859] [-0.07500]
o6 call [62.24253] [6.86611] [-0.07500]
o6 call [62.08975] [6.93413] [-0.07500]
o6 call [61.99648] [6.98165] [-0.07500]
o6 call [61.90869] [7.03865] [-0.07500]
o6 call [61.77339] [7.13695] [-0.07500]
o6 call [61.69206] [7.20283] [-0.07500]
o6 call [61.62647] [7.26837] [-0.07500]
o6 call [61.62647] [11.26327] [-0.07500]
o6 call [61.62647] [20.06188] [-0.07500]
o6 call [61.62647] [28.86049] [-0.07500]
o6 call [61.62647] [37.65909] [-0.07500]
o6 call [61.62647] [46.45770] [-0.07500]
o6 call [61.62647] [50.45258] [-0.07500]
o6 call [61.56092] [50.51814] [-0.07500]
o6 call [61.47959] [50.58403] [-0.07500]
o6 call [61.34428] [50.68233] [-0.07500]
o6 call [61.25650] [50.73932] [-0.07500]
o6 call [61.13173] [50.80087] [-0.07500]
o6 call [61.04799] [50.80724] [-0.07500]
o6 call [61.13171] [50.80089] [-0.07500]
o6 call [61.25650] [50.73932] [-0.07500]
o6 call [61.34428] [50.68233] [-0.07500]
o6 call [61.47959] [50.58403] [-0.07500]
o6 call [61.56092] [50.51814] [-0.07500]
o6 call [61.62647] [50.45258] [-0.07500]
o6 call [61.69206] [50.51814] [-0.07500]
o6 call [61.77339] [50.58403] [-0.07500]
o6 call [61.90869] [50.68233] [-0.07500]
o6 call [61.99648] [50.73932] [-0.07500]
o6 call [62.08975] [50.78685] [-0.07500]
o6 call [62.24253] [50.85487] [-0.07500]
o6 call [62.34027] [50.89238] [-0.07500]
o6 call [62.37872] [50.90267] [-0.07500]
o6 call [62.62050] [50.88088] [-0.07500]
o6 call [63.67285] [50.80079] [-0.07500]
o6 call [63.79269] [50.84423] [-0.07500]
o6 call [63.93823] [50.90902] [-0.07500]
o6 call [64.03150] [50.95654] [-0.07500]
o6 call [64.11928] [51.01357] [-0.07500]
o6 call [64.24816] [51.10719] [-0.07500]
o6 call [64.32949] [51.17305] [-0.07500]
o6 call [64.42047] [51.26592] [-0.07500]
o6 call [64.42050] [52.48247] [-0.07500]
o6 call [64.42047] [54.71503] [-0.07500]
o6 call [64.32949] [54.80792] [-0.07500]
o6 call [64.24816] [54.87378] [-0.07500]
o6 call [64.11928] [54.96741] [-0.07500]
o6 call [64.03150] [55.02443] [-0.07500]
o6 call [63.93823] [55.07195] [-0.07500]
o6 call [63.79269] [55.13675] [-0.07500]
o6 call [63.69497] [55.17424] [-0.07500]
o6 call [63.59388] [55.20134] [-0.07500]
o6 call [63.43805] [55.23446] [-0.07500]
o6 call [63.33468] [55.25085] [-0.07500]
o6 call [63.23013] [55.25631] [-0.07500]
o6 call [63.07085] [55.25631] [-0.07500]
o6 call [62.96630] [55.25085] [-0.07500]
o6 call [62.86292] [55.23446] [-0.07500]
o6 call [62.70709] [55.20134] [-0.07500]
o6 call [62.60600] [55.17424] [-0.07500]
o6 call [62.50829] [55.13675] [-0.07500]
o6 call [62.36274] [55.07195] [-0.07500]
o6 call [62.26948] [55.02443] [-0.07500]
o6 call [62.18169] [54.96741] [-0.07500]
o6 call [62.05281] [54.87378] [-0.07500]
o6 call [61.97148] [54.80792] [-0.07500]
o6 call [61.88047] [54.71503] [-0.07500]
G04 P0 ( dwell for no time -- G64 should not smooth over this point )
G00 Z0.50000 ( retract )

G00 X64.42047 Y54.71503 ( rapid move to begin. )
G01 F300.00000
( Mill infeed pass 1/1 )
o6 call [64.42047] [54.71503] [-0.07500]
G04 P0 ( dwell for no time -- G64 should not smooth over this point )
G01 F600.00000
o6 call [64.51148] [54.80792] [-0.07500]
o6 call [64.59281] [54.87378] [-0.07500]
o6 call [64.72169] [54.96741] [-0.07500]
o6 call [64.80948] [55.02443] [-0.07500]
o6 call [64.90274] [55.07195] [-0.07500]
o6 call [65.04829] [55.13675] [-0.07500]
o6 call [65.14600] [55.17424] [-0.07500]
o6 call [65.24709] [55.20134] [-0.07500]
o6 call [65.40292] [55.23446] [-0.07500]
o6 call [65.50630] [55.25085] [-0.07500]
o6 call [65.61085] [55.25631] [-0.07500]
o6 call [65.77013] [55.25631] [-0.07500]
o6 call [65.87468] [55.25085] [-0.07500]
o6 call [65.97805] [55.23446] [-0.07500]
o6 call [66.13388] [55.20134] [-0.07500]
o6 call [66.23497] [55.17424] [-0.07500]
o6 call [66.33269] [55.13675] [-0.07500]
o6 call [66.47823] [55.07195] [-0.07500]
o6 call [66.57150] [55.02443] [-0.07500]
o6 call [66.65928] [54.96741] [-0.07500]
o6 call [66.78816] [54.87378] [-0.07500]
o6 call [66.86949] [54.80792] [-0.07500]
o6 call [66.94351] [54.73391] [-0.07500]
o6 call [67.05011] [54.61552] [-0.07500]
o6 call [67.11597] [54.53416] [-0.07500]
o6 call [67.17297] [54.44638] [-0.07500]
o6 call [67.25263] [54.30843] [-0.07500]
o6 call [67.30015] [54.21516] [-0.07500]
o6 call [67.33766] [54.11742] [-0.07500]
o6 call [67.38689] [53.96594] [-0.07500]
o6 call [67.41399] [53.86482] [-0.07500]
o6 call [67.43035] [53.76144] [-0.07500]
o6 call [67.44701] [53.60302] [-0.07500]
o6 call [67.45250] [53.49847] [-0.07500]
o6 call [67.45250] [52.48247] [-0.07500]
o6 call [67.44701] [52.37795] [-0.07500]
o6 call [67.43035] [52.21953] [-0.07500]
o6 call [67.41399] [52.11616] [-0.07500]
o6 call [67.38689] [52.01504] [-0.07500]
o6 call [67.33766] [51.86353] [-0.07500]
o6 call [67.30015] [51.76579] [-0.07500]
o6 call [67.25263] [51.67254] [-0.07500]
o6 call [67.17297] [51.53460] [-0.07500]
o6 call [67.11597] [51.44682] [-0.07500]
o6 call [67.05011] [51.36546] [-0.07500]
o6 call [66.94351] [51.24707] [-0.07500]
o6 call [66.86949] [51.17305] [-0.07500]
o6 call [66.78816] [51.10719] [-0.07500]
o6 call [66.65928] [51.01357] [-0.07500]
o6 call [66.57150] [50.95654] [-0.07500]
o6 call [66.47823] [50.90902] [-0.07500]
o6 call [66.33269] [50.84423] [-0.07500]
o6 call [66.23497] [50.80673] [-0.07500]
o6 call [66.13388] [50.77963] [-0.07500]
o6 call [65.97805] [50.74651] [-0.07500]
o6 call [65.87468] [50.73013] [-0.07500]
o6 call [65.77013] [50.72467] [-0.07500]
o6 call [65.61085] [50.72467] [-0.07500]
o6 call [65.50630] [50.73013] [-0.07500]
o6 call [65.40292] [50.74651] [-0.07500]
o6 call [65.24709] [50.77963] [-0.07500]
o6 call [65.14600] [50.80673] [-0.07500]
o6 call [65.04829] [50.84423] [-0.07500]
o6 call [64.90274] [50.90902] [-0.07500]
o6 call [64.80948] [50.95654] [-0.07500]
o6 call [64.72169] [51.01357] [-0.07500]
o6 call [64.59281] [51.10719] [-0.07500]
o6 call [64.51148] [51.17305] [-0.07500]
o6 call [64.42047] [51.26592] [-0.07500]
o6 call [64.32949] [51.17305] [-0.07500]
o6 call [64.24816] [51.10719] [-0.07500]
o6 call [64.11928] [51.01357] [-0.07500]
o6 call [64.03150] [50.95654] [-0.07500]
o6 call [63.93823] [50.90902] [-0.07500]
o6 call [63.79269] [50.84423] [-0.07500]
o6 call [63.69497] [50.80673] [-0.07500]
o6 call [63.67285] [50.80079] [-0.07500]
o6 call [63.58799] [50.80724] [-0.07500]
o6 call [63.67173] [50.80087] [-0.07500]
o6 call [63.79650] [50.73932] [-0.07500]
o6 call [63.88428] [50.68233] [-0.07500]
o6 call [64.01959] [50.58403] [-0.07500]
o6 call [64.10092] [50.51814] [-0.07500]
o6 call [64.17493] [50.44412] [-0.07500]
o6 call [64.28685] [50.31984] [-0.07500]
o6 call [64.35271] [50.23851] [-0.07500]
o6 call [64.40973] [50.15070] [-0.07500]
o6 call [64.49335] [50.00587] [-0.07500]
o6 call [64.54087] [49.91260] [-0.07500]
o6 call [64.57839] [49.81489] [-0.07500]
o6 call [64.63005] [49.65584] [-0.07500]
o6 call [64.65715] [49.55472] [-0.07500]
o6 call [64.67353] [49.45134] [-0.07500]
o6 call [64.69101] [49.28502] [-0.07500]
o6 call [64.69650] [49.18050] [-0.07500]
o6 call [64.69101] [49.07595] [-0.07500]
o6 call [64.67353] [48.90963] [-0.07500]
o6 call [64.65715] [48.80626] [-0.07500]
o6 call [64.63005] [48.70514] [-0.07500]
o6 call [64.57839] [48.54608] [-0.07500]
o6 call [64.54087] [48.44837] [-0.07500]
o6 call [64.49335] [48.35510] [-0.07500]
o6 call [64.40973] [48.21027] [-0.07500]
o6 call [64.35271] [48.12246] [-0.07500]
o6 call [64.28685] [48.04113] [-0.07500]
o6 call [64.16858] [47.91047] [-0.07500]
G04 P0 ( dwell for no time -- G64 should not smooth over this point )
G00 Z0.50000 ( retract )

G00 X64.16858 Y45.37047 ( rapid move to begin. )
G01 F300.00000
( Mill infeed pass 1/1 )
o6 call [64.16858] [45.37047] [-0.07500]
G04 P0 ( dwell for no time -- G64 should not smooth over this point )
G01 F600.00000
o6 call [64.28685] [45.23984] [-0.07500]
o6 call [64.35271] [45.15851] [-0.07500]
o6 call [64.40973] [45.07070] [-0.07500]
o6 call [64.49335] [44.92587] [-0.07500]
o6 call [64.54087] [44.83260] [-0.07500]
o6 call [64.57839] [44.73489] [-0.07500]
o6 call [64.63005] [44.57584] [-0.07500]
o6 call [64.65715] [44.47472] [-0.07500]
o6 call [64.67353] [44.37134] [-0.07500]
o6 call [64.69101] [44.20502] [-0.07500]
o6 call [64.69650] [44.10050] [-0.07500]
o6 call [64.69101] [43.99595] [-0.07500]
o6 call [64.67353] [43.82963] [-0.07500]
o6 call [64.65715] [43.72626] [-0.07500]
o6 call [64.63005] [43.62514] [-0.07500]
o6 call [64.57839] [43.46608] [-0.07500]
o6 call [64.54087] [43.36837] [-0.07500]
o6 call [64.49335] [43.27510] [-0.07500]
o6 call [64.40973] [43.13027] [-0.07500]
o6 call [64.35271] [43.04246] [-0.07500]
o6 call [64.28685] [42.96113] [-0.07500]
o6 call [64.16858] [42.83047] [-0.07500]
G04 P0 ( dwell for no time -- G64 should not smooth over this point )
G00 Z0.50000 ( retract )

G00 X64.16858 Y40.29047 ( rapid move to begin. )
G01 F300.00000
( Mill infeed pass 1/1 )
o6 call [64.16858] [40.29047] [-0.07500]
G04 P0 ( dwell for no time -- G64 should not smooth over this point )
G01 F600.00000
o6 call [64.28685] [40.15984] [-0.07500]
o6 call [64.35271] [40.07851] [-0.07500]
o6 call [64.40973] [39.99070] [-0.07500]
o6 call [64.49335] [39.84587] [-0.07500]
o6 call [64.54087] [39.75260] [-0.07500]
o6 call [64.57839] [39.65489] [-0.07500]
o6 call [64.63005] [39.49584] [-0.07500]
o6 call [64.65715] [39.39472] [-0.07500]
o6 call [64.67353] [39.29134] [-0.07500]
o6 call [64.69101] [39.12502] [-0.07500]
o6 call [64.69650] [39.02050] [-0.07500]
o6 call [64.69101] [38.91595] [-0.07500]
o6 call [64.67353] [38.74963] [-0.07500]
o6 call [64.65715] [38.64626] [-0.07500]
o6 call [64.63005] [38.54514] [-0.07500]
o6 call [64.57839] [38.38608] [-0.07500]
o6 call [64.54087] [38.28837] [-0.07500]
o6 call [64.49335] [38.19510] [-0.07500]
o6 call [64.40973] [38.05027] [-0.07500]
o6 call [64.35271] [37.96246] [-0.07500]
o6 call [64.28685] [37.88113] [-0.07500]
o6 call [64.16856] [37.75047] [-0.07500]
G04 P0 ( dwell for no time -- G64 should not smooth over this point )
G00 Z0.50000 ( retract )

G00 X69.44891 Y31.40047 ( rapid move to begin. )
G01 F300.00000
( Mill infeed pass 1/1 )
o6 call [69.44891] [31.40047] [-0.07500]
G04 P0 ( dwell for no time -- G64 should not smooth over this point )
G01 F600.00000
o6 call [69.59011] [31.55346] [-0.07500]
o6 call [69.65597] [31.63481] [-0.07500]
o6 call [69.71297] [31.72260] [-0.07500]
o6 call [69.79263] [31.86054] [-0.07500]
o6 call [69.84015] [31.95381] [-0.07500]
o6 call [69.87766] [32.05153] [-0.07500]
o6 call [69.92689] [32.20304] [-0.07500]
o6 call [69.95399] [32.30416] [-0.07500]
o6 call [69.97035] [32.40753] [-0.07500]
o6 call [69.98701] [32.56595] [-0.07500]
o6 call [69.99250] [32.67050] [-0.07500]
o6 call [69.98701] [32.77502] [-0.07500]
o6 call [69.97035] [32.93344] [-0.07500]
o6 call [69.95399] [33.03682] [-0.07500]
o6 call [69.92689] [33.13794] [-0.07500]
o6 call [69.87766] [33.28945] [-0.07500]
o6 call [69.84015] [33.38716] [-0.07500]
o6 call [69.79263] [33.48043] [-0.07500]
o6 call [69.71297] [33.61838] [-0.07500]
o6 call [69.65597] [33.70616] [-0.07500]
o6 call [69.59011] [33.78752] [-0.07500]
o6 call [69.48351] [33.90591] [-0.07500]
o6 call [69.40949] [33.97992] [-0.07500]
o6 call [69.32816] [34.04578] [-0.07500]
o6 call [69.19928] [34.13941] [-0.07500]
o6 call [69.11150] [34.19643] [-0.07500]
o6 call [69.01823] [34.24395] [-0.07500]
o6 call [68.87269] [34.30875] [-0.07500]
o6 call [68.77497] [34.34624] [-0.07500]
o6 call [68.67388] [34.37334] [-0.07500]
o6 call [68.51805] [34.40646] [-0.07500]
o6 call [68.41468] [34.42285] [-0.07500]
o6 call [68.31013] [34.42831] [-0.07500]
o6 call [68.15085] [34.42831] [-0.07500]
o6 call [68.04630] [34.42285] [-0.07500]
o6 call [67.94292] [34.40646] [-0.07500]
o6 call [67.78709] [34.37334] [-0.07500]
o6 call [67.68600] [34.34624] [-0.07500]
o6 call [67.58829] [34.30875] [-0.07500]
o6 call [67.44274] [34.24395] [-0.07500]
o6 call [67.34948] [34.19643] [-0.07500]
o6 call [67.26169] [34.13941] [-0.07500]
o6 call [67.13281] [34.04578] [-0.07500]
o6 call [67.05148] [33.97992] [-0.07500]
o6 call [66.96047] [33.88701] [-0.07500]
G04 P0 ( dwell for no time -- G64 should not smooth over this point )
G00 Z0.50000 ( retract )

G00 X64.02771 Y32.67047 ( rapid move to begin. )
G01 F300.00000
( Mill infeed pass 1/1 )
o6 call [64.02771] [32.67047] [-0.07500]
G04 P0 ( dwell for no time -- G64 should not smooth over this point )
G01 F600.00000
o6 call [64.40447] [31.83598] [-0.07500]
o6 call [64.60539] [31.40047] [-0.07500]
o6 call [66.90891] [31.40047] [-0.07500]
o6 call [66.96047] [31.45392] [-0.07500]
o6 call [67.01204] [31.40047] [-0.07500]
o6 call [66.96047] [31.45392] [-0.07500]
o6 call [66.96047] [33.88701] [-0.07500]
o6 call [66.86949] [33.97992] [-0.07500]
o6 call [66.78816] [34.04578] [-0.07500]
o6 call [66.65928] [34.13941] [-0.07500]
o6 call [66.57150] [34.19643] [-0.07500]
o6 call [66.47823] [34.24395] [-0.07500]
o6 call [66.33269] [34.30875] [-0.07500]
o6 call [66.23497] [34.34624] [-0.07500]
o6 call [66.13388] [34.37334] [-0.07500]
o6 call [65.97805] [34.40646] [-0.07500]
o6 call [65.87468] [34.42285] [-0.07500]
o6 call [65.77013] [34.42831] [-0.07500]
o6 call [65.61085] [34.42831] [-0.07500]
o6 call [65.50630] [34.42285] [-0.07500]
o6 call [65.40292] [34.40646] [-0.07500]
o6 call [65.24709] [34.37334] [-0.07500]
o6 call [65.14600] [34.34624] [-0.07500]
o6 call [65.04829] [34.30875] [-0.07500]
o6 call [64.90274] [34.24395] [-0.07500]
o6 call [64.80948] [34.19643] [-0.07500]
o6 call [64.68397] [34.11200] [-0.07500]
o6 call [64.67353] [34.21134] [-0.07500]
o6 call [64.65715] [34.31472] [-0.07500]
o6 call [64.63005] [34.41584] [-0.07500]
o6 call [64.57839] [34.57489] [-0.07500]
o6 call [64.54087] [34.67260] [-0.07500]
o6 call [64.49335] [34.76587] [-0.07500]
o6 call [64.40973] [34.91070] [-0.07500]
o6 call [64.35271] [34.99851] [-0.07500]
o6 call [64.28685] [35.07984] [-0.07500]
o6 call [64.16856] [35.21047] [-0.07500]
o6 call [64.28685] [35.07984] [-0.07500]
o6 call [64.35271] [34.99851] [-0.07500]
o6 call [64.40973] [34.91070] [-0.07500]
o6 call [64.49335] [34.76587] [-0.07500]
o6 call [64.54087] [34.67260] [-0.07500]
o6 call [64.57839] [34.57489] [-0.07500]
o6 call [64.63005] [34.41584] [-0.07500]
o6 call [64.65715] [34.31472] [-0.07500]
o6 call [64.67353] [34.21134] [-0.07500]
o6 call [64.68397] [34.11200] [-0.07500]
o6 call [64.40447] [33.50497] [-0.07500]
o6 call [64.02771] [32.67047] [-0.07500]
o6 call [60.37592] [32.67047] [-0.07500]
o6 call [50.75935] [32.67047] [-0.07500]
o6 call [41.14278] [32.67047] [-0.07500]
o6 call [31.52620] [32.67047] [-0.07500]
o6 call [21.90963] [32.67047] [-0.07500]
o6 call [12.29305] [32.67047] [-0.07500]
o6 call [3.20437] [32.67047] [-0.07500]
o6 call [3.08613] [32.80113] [-0.07500]
o6 call [3.02027] [32.88246] [-0.07500]
o6 call [2.96324] [32.97027] [-0.07500]
o6 call [2.87963] [33.11510] [-0.07500]
o6 call [2.83210] [33.20837] [-0.07500]
o6 call [2.79459] [33.30608] [-0.07500]
o6 call [2.74292] [33.46514] [-0.07500]
o6 call [2.71582] [33.56626] [-0.07500]
o6 call [2.69944] [33.66963] [-0.07500]
o6 call [2.68196] [33.83595] [-0.07500]
o6 call [2.67648] [33.94050] [-0.07500]
o6 call [2.68196] [34.04502] [-0.07500]
o6 call [2.69944] [34.21134] [-0.07500]
o6 call [2.71582] [34.31472] [-0.07500]
o6 call [2.74292] [34.41584] [-0.07500]
o6 call [2.79459] [34.57489] [-0.07500]
o6 call [2.83210] [34.67260] [-0.07500]
o6 call [2.87963] [34.76587] [-0.07500]
o6 call [2.96324] [34.91070] [-0.07500]
o6 call [3.02027] [34.99851] [-0.07500]
o6 call [3.08613] [35.07984] [-0.07500]
o6 call [3.20437] [35.21047] [-0.07500]
o6 call [12.29305] [35.21047] [-0.07500]
o6 call [21.90963] [35.21047] [-0.07500]
o6 call [31.52620] [35.21047] [-0.07500]
o6 call [41.14278] [35.21047] [-0.07500]
o6 call [50.75935] [35.21047] [-0.07500]
o6 call [60.37592] [35.21047] [-0.07500]
o6 call [64.16856] [35.21047] [-0.07500]
o6 call [64.28685] [35.34113] [-0.07500]
o6 call [64.35271] [35.42246] [-0.07500]
o6 call [64.40973] [35.51027] [-0.07500]
o6 call [64.49335] [35.65510] [-0.07500]
o6 call [64.54087] [35.74837] [-0.07500]
o6 call [64.57839] [35.84608] [-0.07500]
o6 call [64.63005] [36.00514] [-0.07500]
o6 call [64.65715] [36.10626] [-0.07500]
o6 call [64.67353] [36.20963] [-0.07500]
o6 call [64.69101] [36.37595] [-0.07500]
o6 call [64.69650] [36.48050] [-0.07500]
o6 call [64.69101] [36.58502] [-0.07500]
o6 call [64.67353] [36.75134] [-0.07500]
o6 call [64.65715] [36.85472] [-0.07500]
o6 call [64.63005] [36.95584] [-0.07500]
o6 call [64.57839] [37.11489] [-0.07500]
o6 call [64.54087] [37.21260] [-0.07500]
o6 call [64.49335] [37.30587] [-0.07500]
o6 call [64.40973] [37.45070] [-0.07500]
o6 call [64.35271] [37.53851] [-0.07500]
o6 call [64.28685] [37.61984] [-0.07500]
o6 call [64.25130] [37.65909] [-0.07500]
o6 call [64.16856] [37.75047] [-0.07500]
o6 call [60.37592] [37.75047] [-0.07500]
o6 call [50.75935] [37.75047] [-0.07500]
o6 call [41.14278] [37.75047] [-0.07500]
o6 call [31.52620] [37.75047] [-0.07500]
o6 call [21.90963] [37.75047] [-0.07500]
o6 call [12.29305] [37.75047] [-0.07500]
o6 call [3.20437] [37.75047] [-0.07500]
o6 call [3.08613] [37.88113] [-0.07500]
o6 call [3.02027] [37.96246] [-0.07500]
o6 call [2.96324] [38.05027] [-0.07500]
o6 call [2.87963] [38.19510] [-0.07500]
o6 call [2.83210] [38.28837] [-0.07500]
o6 call [2.79459] [38.38608] [-0.07500]
o6 call [2.74292] [38.54514] [-0.07500]
o6 call [2.71582] [38.64626] [-0.07500]
o6 call [2.69944] [38.74963] [-0.07500]
o6 call [2.68196] [38.91595] [-0.07500]
o6 call [2.67648] [39.02050] [-0.07500]
o6 call [2.68196] [39.12502] [-0.07500]
o6 call [2.69944] [39.29134] [-0.07500]
o6 call [2.71582] [39.39472] [-0.07500]
o6 call [2.74292] [39.49584] [-0.07500]
o6 call [2.79459] [39.65489] [-0.07500]
o6 call [2.83210] [39.75260] [-0.07500]
o6 call [2.87963] [39.84587] [-0.07500]
o6 call [2.96324] [39.99070] [-0.07500]
o6 call [3.02027] [40.07851] [-0.07500]
o6 call [3.08613] [40.15984] [-0.07500]
o6 call [3.20437] [40.29047] [-0.07500]
o6 call [12.29305] [40.29047] [-0.07500]
o6 call [21.90963] [40.29047] [-0.07500]
o6 call [31.52620] [40.29047] [-0.07500]
o6 call [41.14278] [40.29047] [-0.07500]
o6 call [50.75935] [40.29047] [-0.07500]
o6 call [60.37592] [40.29047] [-0.07500]
o6 call [64.16858] [40.29047] [-0.07500]
o6 call [64.28685] [40.42113] [-0.07500]
o6 call [64.35271] [40.50246] [-0.07500]
o6 call [64.40973] [40.59027] [-0.07500]
o6 call [64.49335] [40.73510] [-0.07500]
o6 call [64.54087] [40.82837] [-0.07500]
o6 call [64.57839] [40.92608] [-0.07500]
o6 call [64.63005] [41.08514] [-0.07500]
o6 call [64.65715] [41.18626] [-0.07500]
o6 call [64.67353] [41.28963] [-0.07500]
o6 call [64.69101] [41.45595] [-0.07500]
o6 call [64.69650] [41.56050] [-0.07500]
o6 call [64.69101] [41.66502] [-0.07500]
o6 call [64.67353] [41.83134] [-0.07500]
o6 call [64.65715] [41.93472] [-0.07500]
o6 call [64.63005] [42.03584] [-0.07500]
o6 call [64.57839] [42.19489] [-0.07500]
o6 call [64.54087] [42.29260] [-0.07500]
o6 call [64.49335] [42.38587] [-0.07500]
o6 call [64.40973] [42.53070] [-0.07500]
o6 call [64.35271] [42.61851] [-0.07500]
o6 call [64.28685] [42.69984] [-0.07500]
o6 call [64.16858] [42.83047] [-0.07500]
o6 call [60.37592] [42.83047] [-0.07500]
o6 call [50.75935] [42.83047] [-0.07500]
o6 call [41.14278] [42.83047] [-0.07500]
o6 call [31.52620] [42.83047] [-0.07500]
o6 call [21.90963] [42.83047] [-0.07500]
o6 call [12.29305] [42.83047] [-0.07500]
o6 call [3.20437] [42.83047] [-0.07500]
o6 call [3.08613] [42.96113] [-0.07500]
o6 call [3.02027] [43.04246] [-0.07500]
o6 call [2.96324] [43.13027] [-0.07500]
o6 call [2.87963] [43.27510] [-0.07500]
o6 call [2.83210] [43.36837] [-0.07500]
o6 call [2.79459] [43.46608] [-0.07500]
o6 call [2.74292] [43.62514] [-0.07500]
o6 call [2.71582] [43.72626] [-0.07500]
o6 call [2.69944] [43.82963] [-0.07500]
o6 call [2.68196] [43.99595] [-0.07500]
o6 call [2.67648] [44.10050] [-0.07500]
o6 call [2.68196] [44.20502] [-0.07500]
o6 call [2.69944] [44.37134] [-0.07500]
o6 call [2.71582] [44.47472] [-0.07500]
o6 call [2.74292] [44.57584] [-0.07500]
o6 call [2.79459] [44.73489] [-0.07500]
o6 call [2.83210] [44.83260] [-0.07500]
o6 call [2.87963] [44.92587] [-0.07500]
o6 call [2.96324] [45.07070] [-0.07500]
o6 call [3.02027] [45.15851] [-0.07500]
o6 call [3.08613] [45.23984] [-0.07500]
o6 call [3.20437] [45.37047] [-0.07500]
o6 call [12.29305] [45.37047] [-0.07500]
o6 call [21.90963] [45.37047] [-0.07500]
o6 call [31.52620] [45.37047] [-0.07500]
o6 call [41.14278] [45.37047] [-0.07500]
o6 call [50.75935] [45.37047] [-0.07500]
o6 call [60.37592] [45.37047] [-0.07500]
o6 call [64.16858] [45.37047] [-0.07500]
o6 call [64.28685] [45.50113] [-0.07500]
o6 call [64.35271] [45.58246] [-0.07500]
o6 call [64.40973] [45.67027] [-0.07500]
o6 call [64.49335] [45.81510] [-0.07500]
o6 call [64.54087] [45.90837] [-0.07500]
o6 call [64.57839] [46.00608] [-0.07500]
o6 call [64.63005] [46.16514] [-0.07500]
o6 call [64.65715] [46.26626] [-0.07500]
o6 call [64.67353] [46.36963] [-0.07500]
o6 call [64.68279] [46.45770] [-0.07500]
o6 call [64.69101] [46.53595] [-0.07500]
o6 call [64.69650] [46.64050] [-0.07500]
o6 call [64.69101] [46.74502] [-0.07500]
o6 call [64.67353] [46.91134] [-0.07500]
o6 call [64.65715] [47.01472] [-0.07500]
o6 call [64.63005] [47.11584] [-0.07500]
o6 call [64.57839] [47.27489] [-0.07500]
o6 call [64.54087] [47.37260] [-0.07500]
o6 call [64.49335] [47.46587] [-0.07500]
o6 call [64.40973] [47.61070] [-0.07500]
o6 call [64.35271] [47.69851] [-0.07500]
o6 call [64.28685] [47.77984] [-0.07500]
o6 call [64.16858] [47.91047] [-0.07500]
o6 call [60.37592] [47.91047] [-0.07500]
o6 call [50.75935] [47.91047] [-0.07500]
o6 call [41.14278] [47.91047] [-0.07500]
o6 call [31.52620] [47.91047] [-0.07500]
o6 call [21.90963] [47.91047] [-0.07500]
o6 call [12.29305] [47.91047] [-0.07500]
o6 call [3.20437] [47.91047] [-0.07500]
o6 call [3.08613] [48.04113] [-0.07500]
o6 call [3.02027] [48.12246] [-0.07500]
o6 call [2.96324] [48.21027] [-0.07500]
o6 call [2.87963] [48.35510] [-0.07500]
o6 call [2.83210] [48.44837] [-0.07500]
o6 call [2.79459] [48.54608] [-0.07500]
o6 call [2.74292] [48.70514] [-0.07500]
o6 call [2.71582] [48.80626] [-0.07500]
o6 call [2.69944] [48.90963] [-0.07500]
o6 call [2.68196] [49.07595] [-0.07500]
o6 call [2.67648] [49.18050] [-0.07500]
o6 call [2.68196] [49.28502] [-0.07500]
o6 call [2.69944] [49.45134] [-0.07500]
o6 call [2.71582] [49.55472] [-0.07500]
o6 call [2.74292] [49.65584] [-0.07500]
o6 call [2.79459] [49.81489] [-0.07500]
o6 call [2.83210] [49.91260] [-0.07500]
o6 call [2.87963] [50.00587] [-0.07500]
o6 call [2.96324] [50.15070] [-0.07500]
o6 call [3.02027] [50.23851] [-0.07500]
o6 call [3.08613] [50.31984] [-0.07500]
o6 call [3.19804] [50.44412] [-0.07500]
o6 call [3.27206] [50.51814] [-0.07500]
o6 call [3.35339] [50.58403] [-0.07500]
o6 call [3.48869] [50.68233] [-0.07500]
o6 call [3.57648] [50.73932] [-0.07500]
o6 call [3.66975] [50.78685] [-0.07500]
o6 call [3.82253] [50.85487] [-0.07500]
o6 call [3.92024] [50.89238] [-0.07500]
o6 call [4.02136] [50.91949] [-0.07500]
o6 call [4.18496] [50.95426] [-0.07500]
o6 call [4.28834] [50.97062] [-0.07500]
o6 call [4.39286] [50.97610] [-0.07500]
o6 call [4.56012] [50.97610] [-0.07500]
o6 call [4.66464] [50.97062] [-0.07500]
o6 call [4.76802] [50.95426] [-0.07500]
o6 call [4.93162] [50.91949] [-0.07500]
o6 call [5.03271] [50.89238] [-0.07500]
o6 call [5.13045] [50.85487] [-0.07500]
o6 call [5.28323] [50.78685] [-0.07500]
o6 call [5.37650] [50.73932] [-0.07500]
o6 call [5.46428] [50.68233] [-0.07500]
o6 call [5.59959] [50.58403] [-0.07500]
o6 call [5.68092] [50.51814] [-0.07500]
o6 call [5.74647] [50.45258] [-0.07500]
o6 call [5.74647] [46.45770] [-0.07500]
o6 call [5.74647] [37.65909] [-0.07500]
o6 call [5.74647] [28.86049] [-0.07500]
o6 call [5.74647] [20.06188] [-0.07500]
o6 call [5.74647] [11.26327] [-0.07500]
o6 call [5.74647] [7.26839] [-0.07500]
o6 call [5.68092] [7.20283] [-0.07500]
o6 call [5.59959] [7.13695] [-0.07500]
o6 call [5.46428] [7.03865] [-0.07500]
o6 call [5.37650] [6.98165] [-0.07500]
o6 call [5.24648] [6.91774] [-0.07500]
o6 call [5.13045] [6.86611] [-0.07500]
o6 call [5.03271] [6.82859] [-0.07500]
o6 call [4.93162] [6.80149] [-0.07500]
o6 call [4.76802] [6.76672] [-0.07500]
o6 call [4.66464] [6.75036] [-0.07500]
o6 call [4.56012] [6.74487] [-0.07500]
o6 call [4.39286] [6.74487] [-0.07500]
o6 call [4.28834] [6.75036] [-0.07500]
o6 call [4.18496] [6.76672] [-0.07500]
o6 call [4.02136] [6.80149] [-0.07500]
o6 call [3.92024] [6.82859] [-0.07500]
o6 call [3.82253] [6.86611] [-0.07500]
o6 call [3.66975] [6.93413] [-0.07500]
o6 call [3.57648] [6.98165] [-0.07500]
o6 call [3.48869] [7.03865] [-0.07500]
o6 call [3.35339] [7.13695] [-0.07500]
o6 call [3.27206] [7.20283] [-0.07500]
o6 call [3.19804] [7.27682] [-0.07500]
o6 call [3.08613] [7.40113] [-0.07500]
o6 call [3.02027] [7.48246] [-0.07500]
o6 call [2.96324] [7.57025] [-0.07500]
o6 call [2.87963] [7.71510] [-0.07500]
o6 call [2.83210] [7.80837] [-0.07500]
o6 call [2.79459] [7.90608] [-0.07500]
o6 call [2.74292] [8.06514] [-0.07500]
o6 call [2.71582] [8.16626] [-0.07500]
o6 call [2.69944] [8.26963] [-0.07500]
o6 call [2.68196] [8.43595] [-0.07500]
o6 call [2.67648] [8.54050] [-0.07500]
o6 call [2.68196] [8.64502] [-0.07500]
o6 call [2.69944] [8.81134] [-0.07500]
o6 call [2.71582] [8.91472] [-0.07500]
o6 call [2.74292] [9.01584] [-0.07500]
o6 call [2.79459] [9.17489] [-0.07500]
o6 call [2.83210] [9.27260] [-0.07500]
o6 call [2.87963] [9.36587] [-0.07500]
o6 call [2.96324] [9.51070] [-0.07500]
o6 call [3.02027] [9.59851] [-0.07500]
o6 call [3.08613] [9.67984] [-0.07500]
o6 call [3.20437] [9.81047] [-0.07500]
G04 P0 ( dwell for no time -- G64 should not smooth over this point )
G00 Z0.50000 ( retract )

G00 X3.20437 Y12.35047 ( rapid move to begin. )
G01 F300.00000
( Mill infeed pass 1/1 )
o6 call [3.20437] [12.35047] [-0.07500]
G04 P0 ( dwell for no time -- G64 should not smooth over this point )
G01 F600.00000
o6 call [3.08613] [12.21984] [-0.07500]
o6 call [3.02027] [12.13851] [-0.07500]
o6 call [2.96324] [12.05070] [-0.07500]
o6 call [2.87963] [11.90587] [-0.07500]
o6 call [2.83210] [11.81260] [-0.07500]
o6 call [2.79459] [11.71489] [-0.07500]
o6 call [2.74292] [11.55584] [-0.07500]
o6 call [2.71582] [11.45472] [-0.07500]
o6 call [2.69944] [11.35134] [-0.07500]
o6 call [2.69019] [11.26327] [-0.07500]
o6 call [2.68196] [11.18502] [-0.07500]
o6 call [2.67648] [11.08050] [-0.07500]
o6 call [2.68196] [10.97595] [-0.07500]
o6 call [2.69944] [10.80963] [-0.07500]
o6 call [2.71582] [10.70626] [-0.07500]
o6 call [2.74292] [10.60514] [-0.07500]
o6 call [2.79459] [10.44608] [-0.07500]
o6 call [2.83210] [10.34837] [-0.07500]
o6 call [2.87963] [10.25510] [-0.07500]
o6 call [2.96324] [10.11027] [-0.07500]
o6 call [3.02027] [10.02246] [-0.07500]
o6 call [3.08613] [9.94113] [-0.07500]
o6 call [3.20437] [9.81047] [-0.07500]
o6 call [12.29305] [9.81047] [-0.07500]
o6 call [21.90963] [9.81047] [-0.07500]
o6 call [31.52620] [9.81047] [-0.07500]
o6 call [41.14278] [9.81047] [-0.07500]
o6 call [50.75935] [9.81047] [-0.07500]
o6 call [60.37592] [9.81047] [-0.07500]
o6 call [64.16858] [9.81047] [-0.07500]
o6 call [64.28685] [9.67984] [-0.07500]
o6 call [64.35271] [9.59851] [-0.07500]
o6 call [64.40973] [9.51070] [-0.07500]
o6 call [64.49335] [9.36587] [-0.07500]
o6 call [64.54087] [9.27260] [-0.07500]
o6 call [64.57839] [9.17489] [-0.07500]
o6 call [64.63005] [9.01584] [-0.07500]
o6 call [64.65715] [8.91472] [-0.07500]
o6 call [64.67353] [8.81134] [-0.07500]
o6 call [64.69101] [8.64502] [-0.07500]
o6 call [64.69650] [8.54050] [-0.07500]
o6 call [64.69101] [8.43595] [-0.07500]
o6 call [64.67353] [8.26963] [-0.07500]
o6 call [64.65715] [8.16626] [-0.07500]
o6 call [64.63005] [8.06514] [-0.07500]
o6 call [64.57839] [7.90608] [-0.07500]
o6 call [64.54087] [7.80837] [-0.07500]
o6 call [64.49335] [7.71510] [-0.07500]
o6 call [64.40973] [7.57025] [-0.07500]
o6 call [64.35271] [7.48246] [-0.07500]
o6 call [64.28685] [7.40113] [-0.07500]
o6 call [64.17493] [7.27682] [-0.07500]
o6 call [64.10092] [7.20283] [-0.07500]
o6 call [64.01959] [7.13695] [-0.07500]
o6 call [63.88428] [7.03865] [-0.07500]
o6 call [63.79650] [6.98165] [-0.07500]
o6 call [63.67163] [6.92006] [-0.07500]
o6 call [62.62050] [6.84007] [-0.07500]
o6 call [62.37649] [6.81805] [-0.07500]
o6 call [62.26948] [6.76443] [-0.07500]
o6 call [62.18169] [6.70741] [-0.07500]
o6 call [62.05281] [6.61378] [-0.07500]
o6 call [61.97148] [6.54792] [-0.07500]
o6 call [61.88047] [6.45503] [-0.07500]
o6 call [61.88047] [3.00592] [-0.07500]
o6 call [61.78949] [2.91305] [-0.07500]
o6 call [61.70816] [2.84719] [-0.07500]
o6 call [61.57928] [2.75357] [-0.07500]
o6 call [61.49150] [2.69654] [-0.07500]
o6 call [61.39823] [2.64902] [-0.07500]
o6 call [61.25269] [2.58423] [-0.07500]
o6 call [61.15497] [2.54673] [-0.07500]
o6 call [61.05388] [2.51963] [-0.07500]
o6 call [60.89805] [2.48651] [-0.07500]
o6 call [60.79468] [2.47013] [-0.07500]
o6 call [60.69013] [2.46467] [-0.07500]
o6 call [60.53085] [2.46467] [-0.07500]
o6 call [60.42630] [2.47013] [-0.07500]
o6 call [60.37592] [2.47811] [-0.07500]
o6 call [60.32292] [2.48651] [-0.07500]
o6 call [60.16709] [2.51963] [-0.07500]
o6 call [60.06600] [2.54673] [-0.07500]
o6 call [59.96829] [2.58423] [-0.07500]
o6 call [59.82274] [2.64902] [-0.07500]
o6 call [59.72948] [2.69654] [-0.07500]
o6 call [59.64169] [2.75357] [-0.07500]
o6 call [59.51281] [2.84719] [-0.07500]
o6 call [59.43148] [2.91305] [-0.07500]
o6 call [59.34047] [3.00592] [-0.07500]
o6 call [59.34047] [6.45503] [-0.07500]
o6 call [59.43148] [6.54792] [-0.07500]
o6 call [59.51281] [6.61378] [-0.07500]
o6 call [59.64169] [6.70741] [-0.07500]
o6 call [59.72948] [6.76443] [-0.07500]
o6 call [59.83649] [6.81805] [-0.07500]
o6 call [59.90611] [6.82394] [-0.07500]
o6 call [59.83649] [6.81805] [-0.07500]
o6 call [59.72948] [6.76443] [-0.07500]
o6 call [59.64169] [6.70741] [-0.07500]
o6 call [59.51281] [6.61378] [-0.07500]
o6 call [59.43148] [6.54792] [-0.07500]
o6 call [59.34047] [6.45503] [-0.07500]
o6 call [59.24949] [6.54792] [-0.07500]
o6 call [59.16816] [6.61378] [-0.07500]
o6 call [59.03928] [6.70741] [-0.07500]
o6 call [58.95150] [6.76443] [-0.07500]
o6 call [58.85823] [6.81195] [-0.07500]
o6 call [58.71269] [6.87675] [-0.07500]
o6 call [58.59293] [6.92016] [-0.07500]
o6 call [57.54050] [6.84007] [-0.07500]
o6 call [57.29649] [6.81805] [-0.07500]
o6 call [57.18948] [6.76443] [-0.07500]
o6 call [57.10169] [6.70741] [-0.07500]
o6 call [56.97281] [6.61378] [-0.07500]
o6 call [56.89148] [6.54792] [-0.07500]
o6 call [56.80047] [6.45503] [-0.07500]
o6 call [56.80047] [3.00592] [-0.07500]
o6 call [56.70949] [2.91305] [-0.07500]
o6 call [56.62816] [2.84719] [-0.07500]
o6 call [56.49928] [2.75357] [-0.07500]
o6 call [56.41150] [2.69654] [-0.07500]
o6 call [56.31823] [2.64902] [-0.07500]
o6 call [56.17269] [2.58423] [-0.07500]
o6 call [56.07497] [2.54673] [-0.07500]
o6 call [55.97388] [2.51963] [-0.07500]
o6 call [55.81805] [2.48651] [-0.07500]
o6 call [55.71468] [2.47013] [-0.07500]
o6 call [55.61013] [2.46467] [-0.07500]
o6 call [55.45085] [2.46467] [-0.07500]
o6 call [55.34630] [2.47013] [-0.07500]
o6 call [55.24292] [2.48651] [-0.07500]
o6 call [55.08709] [2.51963] [-0.07500]
o6 call [54.98600] [2.54673] [-0.07500]
o6 call [54.88829] [2.58423] [-0.07500]
o6 call [54.74274] [2.64902] [-0.07500]
o6 call [54.64948] [2.69654] [-0.07500]
o6 call [54.56169] [2.75357] [-0.07500]
o6 call [54.43281] [2.84719] [-0.07500]
o6 call [54.35148] [2.91305] [-0.07500]
o6 call [54.26047] [3.00592] [-0.07500]
o6 call [54.26047] [6.45503] [-0.07500]
o6 call [54.35148] [6.54792] [-0.07500]
o6 call [54.43281] [6.61378] [-0.07500]
o6 call [54.56169] [6.70741] [-0.07500]
o6 call [54.64948] [6.76443] [-0.07500]
o6 call [54.75649] [6.81805] [-0.07500]
o6 call [54.82611] [6.82392] [-0.07500]
o6 call [54.75649] [6.81805] [-0.07500]
o6 call [54.64948] [6.76443] [-0.07500]
o6 call [54.56169] [6.70741] [-0.07500]
o6 call [54.43281] [6.61378] [-0.07500]
o6 call [54.35148] [6.54792] [-0.07500]
o6 call [54.26047] [6.45503] [-0.07500]
o6 call [54.16949] [6.54792] [-0.07500]
o6 call [54.08816] [6.61378] [-0.07500]
o6 call [53.95928] [6.70741] [-0.07500]
o6 call [53.87150] [6.76443] [-0.07500]
o6 call [53.77820] [6.81195] [-0.07500]
o6 call [53.63269] [6.87675] [-0.07500]
o6 call [53.53497] [6.91424] [-0.07500]
o6 call [53.51293] [6.92016] [-0.07500]
o6 call [52.46048] [6.84007] [-0.07500]
o6 call [52.21880] [6.81825] [-0.07500]
o6 call [52.18027] [6.82859] [-0.07500]
o6 call [52.08250] [6.86611] [-0.07500]
o6 call [51.92975] [6.93413] [-0.07500]
o6 call [51.83645] [6.98165] [-0.07500]
o6 call [51.74869] [7.03865] [-0.07500]
o6 call [51.61339] [7.13695] [-0.07500]
o6 call [51.53206] [7.20283] [-0.07500]
o6 call [51.46647] [7.26837] [-0.07500]
o6 call [51.53206] [7.20283] [-0.07500]
o6 call [51.61339] [7.13695] [-0.07500]
o6 call [51.74869] [7.03865] [-0.07500]
o6 call [51.83645] [6.98165] [-0.07500]
o6 call [51.92975] [6.93413] [-0.07500]
o6 call [52.08250] [6.86611] [-0.07500]
o6 call [52.18027] [6.82859] [-0.07500]
o6 call [52.21880] [6.81825] [-0.07500]
o6 call [52.28611] [6.82392] [-0.07500]
o6 call [52.21646] [6.81805] [-0.07500]
o6 call [52.10945] [6.76443] [-0.07500]
o6 call [52.02169] [6.70741] [-0.07500]
o6 call [51.89281] [6.61378] [-0.07500]
o6 call [51.81148] [6.54792] [-0.07500]
o6 call [51.73747] [6.47391] [-0.07500]
o6 call [51.63086] [6.35552] [-0.07500]
o6 call [51.56498] [6.27416] [-0.07500]
o6 call [51.50800] [6.18638] [-0.07500]
o6 call [51.42835] [6.04843] [-0.07500]
o6 call [51.38083] [5.95516] [-0.07500]
o6 call [51.34331] [5.85745] [-0.07500]
o6 call [51.29408] [5.70594] [-0.07500]
o6 call [51.26698] [5.60482] [-0.07500]
o6 call [51.25063] [5.50144] [-0.07500]
o6 call [51.23396] [5.34302] [-0.07500]
o6 call [51.22848] [5.23847] [-0.07500]
o6 call [51.22848] [4.22250] [-0.07500]
o6 call [51.23396] [4.11795] [-0.07500]
o6 call [51.25063] [3.95953] [-0.07500]
o6 call [51.26698] [3.85616] [-0.07500]
o6 call [51.29408] [3.75504] [-0.07500]
o6 call [51.34331] [3.60353] [-0.07500]
o6 call [51.38083] [3.50581] [-0.07500]
o6 call [51.42835] [3.41254] [-0.07500]
o6 call [51.50800] [3.27460] [-0.07500]
o6 call [51.56498] [3.18681] [-0.07500]
o6 call [51.63086] [3.10546] [-0.07500]
o6 call [51.73747] [2.98707] [-0.07500]
o6 call [51.81148] [2.91305] [-0.07500]
o6 call [51.89281] [2.84719] [-0.07500]
o6 call [52.02169] [2.75357] [-0.07500]
o6 call [52.10945] [2.69654] [-0.07500]
o6 call [52.20274] [2.64902] [-0.07500]
o6 call [52.34829] [2.58423] [-0.07500]
o6 call [52.44600] [2.54673] [-0.07500]
o6 call [52.54709] [2.51963] [-0.07500]
o6 call [52.70292] [2.48651] [-0.07500]
o6 call [52.80627] [2.47013] [-0.07500]
o6 call [52.91085] [2.46467] [-0.07500]
o6 call [53.07013] [2.46467] [-0.07500]
o6 call [53.17468] [2.47013] [-0.07500]
o6 call [53.27805] [2.48651] [-0.07500]
o6 call [53.43388] [2.51963] [-0.07500]
o6 call [53.53497] [2.54673] [-0.07500]
o6 call [53.63269] [2.58423] [-0.07500]
o6 call [53.77820] [2.64902] [-0.07500]
o6 call [53.87150] [2.69654] [-0.07500]
o6 call [53.95928] [2.75357] [-0.07500]
o6 call [54.08816] [2.84719] [-0.07500]
o6 call [54.16949] [2.91305] [-0.07500]
o6 call [54.26047] [3.00592] [-0.07500]
G04 P0 ( dwell for no time -- G64 should not smooth over this point )
G00 Z0.50000 ( retract )

G00 X56.80047 Y3.00592 ( rapid move to begin. )
G01 F300.00000
( Mill infeed pass 1/1 )
o6 call [56.80047] [3.00592] [-0.07500]
G04 P0 ( dwell for no time -- G64 should not smooth over this point )
G01 F600.00000
o6 call [56.89148] [2.91305] [-0.07500]
o6 call [56.97281] [2.84719] [-0.07500]
o6 call [57.10169] [2.75357] [-0.07500]
o6 call [57.18948] [2.69654] [-0.07500]
o6 call [57.28274] [2.64902] [-0.07500]
o6 call [57.42829] [2.58423] [-0.07500]
o6 call [57.52600] [2.54673] [-0.07500]
o6 call [57.62709] [2.51963] [-0.07500]
o6 call [57.78292] [2.48651] [-0.07500]
o6 call [57.88630] [2.47013] [-0.07500]
o6 call [57.99085] [2.46467] [-0.07500]
o6 call [58.15013] [2.46467] [-0.07500]
o6 call [58.25468] [2.47013] [-0.07500]
o6 call [58.35805] [2.48651] [-0.07500]
o6 call [58.51388] [2.51963] [-0.07500]
o6 call [58.61497] [2.54673] [-0.07500]
o6 call [58.71269] [2.58423] [-0.07500]
o6 call [58.85823] [2.64902] [-0.07500]
o6 call [58.95150] [2.69654] [-0.07500]
o6 call [59.03928] [2.75357] [-0.07500]
o6 call [59.16816] [2.84719] [-0.07500]
o6 call [59.24949] [2.91305] [-0.07500]
o6 call [59.34047] [3.00592] [-0.07500]
G04 P0 ( dwell for no time -- G64 should not smooth over this point )
G00 Z0.50000 ( retract )

G00 X61.88047 Y3.00592 ( rapid move to begin. )
G01 F300.00000
( Mill infeed pass 1/1 )
o6 call [61.88047] [3.00592] [-0.07500]
G04 P0 ( dwell for no time -- G64 should not smooth over this point )
G01 F600.00000
o6 call [61.97148] [2.91305] [-0.07500]
o6 call [62.05281] [2.84719] [-0.07500]
o6 call [62.18169] [2.75357] [-0.07500]
o6 call [62.26948] [2.69654] [-0.07500]
o6 call [62.36274] [2.64902] [-0.07500]
o6 call [62.50829] [2.58423] [-0.07500]
o6 call [62.60600] [2.54673] [-0.07500]
o6 call [62.70709] [2.51963] [-0.07500]
o6 call [62.86292] [2.48651] [-0.07500]
o6 call [62.96630] [2.47013] [-0.07500]
o6 call [63.07085] [2.46467] [-0.07500]
o6 call [63.23013] [2.46467] [-0.07500]
o6 call [63.33468] [2.47013] [-0.07500]
o6 call [63.43805] [2.48651] [-0.07500]
o6 call [63.59388] [2.51963] [-0.07500]
o6 call [63.69497] [2.54673] [-0.07500]
o6 call [63.79269] [2.58423] [-0.07500]
o6 call [63.93823] [2.64902] [-0.07500]
o6 call [64.03150] [2.69654] [-0.07500]
o6 call [64.11928] [2.75357] [-0.07500]
o6 call [64.24816] [2.84719] [-0.07500]
o6 call [64.32949] [2.91305] [-0.07500]
o6 call [64.42047] [3.00592] [-0.07500]
o6 call [64.42047] [6.45503] [-0.07500]
o6 call [64.32949] [6.54792] [-0.07500]
o6 call [64.24816] [6.61378] [-0.07500]
o6 call [64.11928] [6.70741] [-0.07500]
o6 call [64.03150] [6.76443] [-0.07500]
o6 call [63.93823] [6.81195] [-0.07500]
o6 call [63.79269] [6.87675] [-0.07500]
o6 call [63.67163] [6.92006] [-0.07500]
o6 call [63.79269] [6.87675] [-0.07500]
o6 call [63.93823] [6.81195] [-0.07500]
o6 call [64.03150] [6.76443] [-0.07500]
o6 call [64.11928] [6.70741] [-0.07500]
o6 call [64.24816] [6.61378] [-0.07500]
o6 call [64.32949] [6.54792] [-0.07500]
o6 call [64.42047] [6.45503] [-0.07500]
o6 call [64.51148] [6.54792] [-0.07500]
o6 call [64.59281] [6.61378] [-0.07500]
o6 call [64.72169] [6.70741] [-0.07500]
o6 call [64.80948] [6.76443] [-0.07500]
o6 call [64.90274] [6.81195] [-0.07500]
o6 call [65.04829] [6.87675] [-0.07500]
o6 call [65.14600] [6.91424] [-0.07500]
o6 call [65.24709] [6.94134] [-0.07500]
o6 call [65.40292] [6.97446] [-0.07500]
o6 call [65.50630] [6.99085] [-0.07500]
o6 call [65.61085] [6.99631] [-0.07500]
o6 call [65.77013] [6.99631] [-0.07500]
o6 call [65.87468] [6.99085] [-0.07500]
o6 call [65.97805] [6.97446] [-0.07500]
o6 call [66.13388] [6.94134] [-0.07500]
o6 call [66.23497] [6.91424] [-0.07500]
o6 call [66.33269] [6.87675] [-0.07500]
o6 call [66.47823] [6.81195] [-0.07500]
o6 call [66.57150] [6.76443] [-0.07500]
o6 call [66.65928] [6.70741] [-0.07500]
o6 call [66.78816] [6.61378] [-0.07500]
o6 call [66.86949] [6.54792] [-0.07500]
o6 call [66.94351] [6.47391] [-0.07500]
o6 call [67.05011] [6.35552] [-0.07500]
o6 call [67.11597] [6.27416] [-0.07500]
o6 call [67.17297] [6.18638] [-0.07500]
o6 call [67.25263] [6.04843] [-0.07500]
o6 call [67.30015] [5.95516] [-0.07500]
o6 call [67.33766] [5.85745] [-0.07500]
o6 call [67.38689] [5.70594] [-0.07500]
o6 call [67.41399] [5.60482] [-0.07500]
o6 call [67.43035] [5.50144] [-0.07500]
o6 call [67.44701] [5.34302] [-0.07500]
o6 call [67.45250] [5.23847] [-0.07500]
o6 call [67.45250] [4.22250] [-0.07500]
o6 call [67.44701] [4.11795] [-0.07500]
o6 call [67.43035] [3.95953] [-0.07500]
o6 call [67.41399] [3.85616] [-0.07500]
o6 call [67.38689] [3.75504] [-0.07500]
o6 call [67.33766] [3.60353] [-0.07500]
o6 call [67.30015] [3.50581] [-0.07500]
o6 call [67.25263] [3.41254] [-0.07500]
o6 call [67.17297] [3.27460] [-0.07500]
o6 call [67.11597] [3.18681] [-0.07500]
o6 call [67.05011] [3.10546] [-0.07500]
o6 call [66.94351] [2.98707] [-0.07500]
o6 call [66.86949] [2.91305] [-0.07500]
o6 call [66.78816] [2.84719] [-0.07500]
o6 call [66.65928] [2.75357] [-0.07500]
o6 call [66.57150] [2.69654] [-0.07500]
o6 call [66.47823] [2.64902] [-0.07500]
o6 call [66.33269] [2.58423] [-0.07500]
o6 call [66.23497] [2.54673] [-0.07500]
o6 call [66.13388] [2.51963] [-0.07500]
o6 call [65.97805] [2.48651] [-0.07500]
o6 call [65.87468] [2.47013] [-0.07500]
o6 call [65.77013] [2.46467] [-0.07500]
o6 call [65.61085] [2.46467] [-0.07500]
o6 call [65.50630] [2.47013] [-0.07500]
o6 call [65.40292] [2.48651] [-0.07500]
o6 call [65.24709] [2.51963] [-0.07500]
o6 call [65.14600] [2.54673] [-0.07500]
