( pcb2gcode 2.5.0 )
( Software-independent Gcode )


G94 ( Millimeters per minute feed rate. )
G21 ( Units == Millimeters. )

G90 ( Absolute coordinates. )
G00 S10000 ( RPM spindle speed. )
G64 P0.01016 ( set maximum deviation from commanded toolpath )
G01 F600.00000 ( Feedrate. )


G00 Z40.00000 (Retract to tool change height)
T0
M5      (Spindle stop.)
G04 P1.00000 (Wait for spindle to stop)
(MSG, Change tool bit to mill diameter 2.00000mm)
M6      (Tool change.)
M0      (Temporary machine stop.)
M3 ( Spindle on clockwise. )
G04 P1.00000 (Wait for spindle to get up to speed)
G04 P0 ( dwell for no time -- G64 should not smooth over this point )
G00 Z0.50000 ( retract )

G00 X-1.19048 Y2.19050 ( rapid move to begin. )
G01 F300.00000
( Mill infeed pass 1/1 )
G01 Z-0.07500
G04 P0 ( dwell for no time -- G64 should not smooth over this point )
G01 F600.00000
G01 X-1.19048 Y2.19050
G01 X-1.19048 Y55.53050
G01 X-1.20970 Y55.72557
G01 X-1.26660 Y55.91318
G01 X-1.35901 Y56.08605
G01 X-1.48339 Y56.23759
G01 X-1.63493 Y56.36197
G01 X-1.80780 Y56.45437
G01 X-1.99540 Y56.51127
G01 X-2.19050 Y56.53050
G01 X-66.96050 Y56.53050
G01 X-67.15557 Y56.51127
G01 X-67.34318 Y56.45437
G01 X-67.51605 Y56.36197
G01 X-67.66759 Y56.23759
G01 X-68.93759 Y54.96759
G01 X-69.06197 Y54.81605
G01 X-69.15437 Y54.64318
G01 X-69.21127 Y54.45557
G01 X-69.23050 Y54.26050
G01 X-69.23050 Y43.24470
G01 X-71.47759 Y40.99759
G01 X-71.60197 Y40.84605
G01 X-71.69437 Y40.67318
G01 X-71.75127 Y40.48557
G01 X-71.77050 Y40.29050
G01 X-71.77050 Y7.27050
G01 X-71.75127 Y7.07540
G01 X-71.69437 Y6.88780
G01 X-71.60197 Y6.71493
G01 X-71.47759 Y6.56339
G01 X-69.23050 Y4.31628
G01 X-69.23050 Y2.19050
G01 X-69.21127 Y1.99540
G01 X-69.15437 Y1.80780
G01 X-69.06197 Y1.63493
G01 X-68.93759 Y1.48339
G01 X-68.78605 Y1.35901
G01 X-68.61318 Y1.26660
G01 X-68.42557 Y1.20970
G01 X-68.23050 Y1.19048
G01 X-2.19050 Y1.19048
G01 X-1.99540 Y1.20970
G01 X-1.80780 Y1.26660
G01 X-1.63493 Y1.35901
G01 X-1.48339 Y1.48339
G01 X-1.35901 Y1.63493
G01 X-1.26660 Y1.80780
G01 X-1.20970 Y1.99540
G01 X-1.19048 Y2.19050
G04 P0 ( dwell for no time -- G64 should not smooth over this point )
G00 Z0.50000 ( retract )

G00 X-8.28647 Y8.45909 ( rapid move to begin. )
G01 F300.00000
( Mill infeed pass 1/1 )
G01 Z-0.07500
G04 P0 ( dwell for no time -- G64 should not smooth over this point )
G01 F600.00000
G01 X-8.28647 Y8.45909
G01 X-8.39923 Y8.34500
G01 X-8.51721 Y8.20860
G01 X-8.57019 Y8.13212
G01 X-8.62247 Y8.04627
G01 X-8.68124 Y7.93857
G01 X-8.83186 Y7.77550
G01 X-8.96547 Y7.65762
G01 X-9.05178 Y7.61249
G01 X-9.20545 Y7.54637
G01 X-9.34837 Y7.49900
G01 X-9.47286 Y7.48869
G01 X-9.64012 Y7.48861
G01 X-9.76275 Y7.49862
G01 X-9.85719 Y7.52788
G01 X-10.06120 Y7.61241
G01 X-10.14596 Y7.65658
G01 X-10.28106 Y7.77553
G01 X-10.43186 Y7.93847
G01 X-10.49058 Y8.04672
G01 X-10.54263 Y8.13214
G01 X-10.59587 Y8.20890
G01 X-10.71433 Y8.34571
G01 X-10.82647 Y8.45909
G01 X-10.82647 Y49.26196
G01 X-10.71372 Y49.37595
G01 X-10.59574 Y49.51233
G01 X-10.54273 Y49.58883
G01 X-10.49046 Y49.67466
G01 X-10.43171 Y49.78238
G01 X-10.28109 Y49.94542
G01 X-10.14748 Y50.06333
G01 X-10.06117 Y50.10846
G01 X-9.90750 Y50.17455
G01 X-9.76458 Y50.22193
G01 X-9.64012 Y50.23224
G01 X-9.47286 Y50.23231
G01 X-9.35018 Y50.22231
G01 X-9.25576 Y50.19302
G01 X-9.05175 Y50.10854
G01 X-8.96697 Y50.06437
G01 X-8.83189 Y49.94542
G01 X-8.68109 Y49.78248
G01 X-8.62236 Y49.67420
G01 X-8.57032 Y49.58881
G01 X-8.51706 Y49.51200
G01 X-8.40865 Y49.38525
G01 X-8.28647 Y49.26196
G04 P0 ( dwell for no time -- G64 should not smooth over this point )
G00 Z0.50000 ( retract )

G00 X-5.74647 Y49.26196 ( rapid move to begin. )
G01 F300.00000
( Mill infeed pass 1/1 )
G01 Z-0.07500
G04 P0 ( dwell for no time -- G64 should not smooth over this point )
G01 F600.00000
G01 X-5.74647 Y49.26196
G01 X-5.86865 Y49.38525
G01 X-5.97706 Y49.51200
G01 X-6.03032 Y49.58881
G01 X-6.08236 Y49.67420
G01 X-6.14109 Y49.78248
G01 X-6.29189 Y49.94542
G01 X-6.42697 Y50.06437
G01 X-6.51175 Y50.10854
G01 X-6.71576 Y50.19302
G01 X-6.81018 Y50.22231
G01 X-6.93283 Y50.23231
G01 X-7.10012 Y50.23224
G01 X-7.22455 Y50.22193
G01 X-7.36750 Y50.17455
G01 X-7.52117 Y50.10846
G01 X-7.60748 Y50.06333
G01 X-7.74109 Y49.94542
G01 X-7.89171 Y49.78238
G01 X-7.95046 Y49.67466
G01 X-8.00273 Y49.58883
G01 X-8.05574 Y49.51233
G01 X-8.17372 Y49.37595
G01 X-8.28647 Y49.26196
G01 X-8.28647 Y8.45909
G01 X-8.17433 Y8.34571
G01 X-8.05587 Y8.20890
G01 X-8.00263 Y8.13214
G01 X-7.95058 Y8.04672
G01 X-7.89186 Y7.93847
G01 X-7.74106 Y7.77553
G01 X-7.60596 Y7.65658
G01 X-7.52120 Y7.61241
G01 X-7.31719 Y7.52793
G01 X-7.22272 Y7.49862
G01 X-7.10009 Y7.48861
G01 X-6.93283 Y7.48869
G01 X-6.80837 Y7.49900
G01 X-6.66545 Y7.54637
G01 X-6.51178 Y7.61249
G01 X-6.42547 Y7.65762
G01 X-6.29186 Y7.77550
G01 X-6.14124 Y7.93857
G01 X-6.08247 Y8.04627
G01 X-6.03019 Y8.13212
G01 X-5.97721 Y8.20860
G01 X-5.85923 Y8.34500
G01 X-5.74647 Y8.45909
G04 P0 ( dwell for no time -- G64 should not smooth over this point )
G00 Z0.50000 ( retract )

G00 X-4.39342 Y9.81047 ( rapid move to begin. )
G01 F300.00000
( Mill infeed pass 1/1 )
G01 Z-0.07500
G04 P0 ( dwell for no time -- G64 should not smooth over this point )
G01 F600.00000
G01 X-4.39342 Y9.81047
G01 X-4.24277 Y9.66087
G01 X-4.16621 Y9.59790
G01 X-4.02220 Y9.49704
G01 X-3.88697 Y9.42437
G01 X-3.75189 Y9.30542
G01 X-3.63665 Y9.18409
G01 X-3.59296 Y9.13189
G01 X-3.50355 Y8.94449
G01 X-3.43299 Y8.74896
G01 X-3.42316 Y8.56714
G01 X-3.43266 Y8.33379
G01 X-3.50355 Y8.13646
G01 X-3.59200 Y7.95058
G01 X-3.63675 Y7.89694
G01 X-3.75186 Y7.77550
G01 X-3.88547 Y7.65762
G01 X-3.97178 Y7.61249
G01 X-4.12545 Y7.54637
G01 X-4.26837 Y7.49900
G01 X-4.39286 Y7.48869
G01 X-4.56009 Y7.48861
G01 X-4.68275 Y7.49862
G01 X-4.82748 Y7.54642
G01 X-5.02997 Y7.63644
G01 X-5.06596 Y7.65658
G01 X-5.16230 Y7.73877
G01 X-5.31630 Y7.89684
G01 X-5.35996 Y7.94901
G01 X-5.41059 Y8.04672
G01 X-5.46263 Y8.13214
G01 X-5.51587 Y8.20890
G01 X-5.63433 Y8.34571
G01 X-5.74647 Y8.45909
G01 X-5.74647 Y49.26196
G01 X-5.63372 Y49.37595
G01 X-5.51574 Y49.51233
G01 X-5.46273 Y49.58883
G01 X-5.41046 Y49.67466
G01 X-5.35171 Y49.78238
G01 X-5.20109 Y49.94542
G01 X-5.06748 Y50.06333
G01 X-4.98117 Y50.10846
G01 X-4.82750 Y50.17455
G01 X-4.68458 Y50.22193
G01 X-4.56012 Y50.23224
G01 X-4.39283 Y50.23231
G01 X-4.27018 Y50.22231
G01 X-4.17576 Y50.19302
G01 X-3.97175 Y50.10854
G01 X-3.92296 Y50.08451
G01 X-3.88697 Y50.06437
G01 X-3.79065 Y49.98217
G01 X-3.63665 Y49.82409
G01 X-3.59296 Y49.77189
G01 X-3.52463 Y49.63348
G01 X-3.50355 Y49.58449
G01 X-3.43299 Y49.38896
G01 X-3.42316 Y49.15383
G01 X-3.43266 Y48.97379
G01 X-3.50355 Y48.77646
G01 X-3.59202 Y48.59059
G01 X-3.60124 Y48.57857
G01 X-3.75186 Y48.41550
G01 X-3.88544 Y48.29762
G01 X-4.02263 Y48.22378
G01 X-4.16624 Y48.12312
G01 X-4.23693 Y48.06620
G01 X-4.39342 Y47.91047
G01 X-62.97953 Y47.91047
G01 X-63.13671 Y48.06679
G01 X-63.20674 Y48.12305
G01 X-63.35073 Y48.22391
G01 X-63.48593 Y48.29655
G01 X-63.62106 Y48.41553
G01 X-63.73630 Y48.53686
G01 X-63.77996 Y48.58904
G01 X-63.84831 Y48.72747
G01 X-63.86940 Y48.77646
G01 X-63.93993 Y48.97197
G01 X-63.94976 Y49.15383
G01 X-63.94026 Y49.38713
G01 X-63.86940 Y49.58449
G01 X-63.78093 Y49.77034
G01 X-63.77171 Y49.78238
G01 X-63.62109 Y49.94542
G01 X-63.48748 Y50.06333
G01 X-63.40117 Y50.10846
G01 X-63.19721 Y50.19312
G01 X-63.10458 Y50.22193
G01 X-62.98012 Y50.23224
G01 X-62.81286 Y50.23231
G01 X-62.69018 Y50.22231
G01 X-62.54547 Y50.17450
G01 X-62.39175 Y50.10854
G01 X-62.30697 Y50.06437
G01 X-62.17189 Y49.94542
G01 X-62.05665 Y49.82411
G01 X-62.01296 Y49.77191
G01 X-61.96236 Y49.67420
G01 X-61.91032 Y49.58881
G01 X-61.85706 Y49.51200
G01 X-61.74865 Y49.38525
G01 X-61.62647 Y49.26196
G01 X-61.62647 Y8.45897
G01 X-61.73923 Y8.34500
G01 X-61.85721 Y8.20860
G01 X-61.91019 Y8.13212
G01 X-61.96247 Y8.04627
G01 X-62.01200 Y7.95061
G01 X-62.05675 Y7.89694
G01 X-62.17186 Y7.77550
G01 X-62.30547 Y7.65762
G01 X-62.39178 Y7.61249
G01 X-62.54545 Y7.54637
G01 X-62.68837 Y7.49900
G01 X-62.81283 Y7.48869
G01 X-62.98012 Y7.48861
G01 X-63.10275 Y7.49862
G01 X-63.19719 Y7.52788
G01 X-63.40120 Y7.61241
G01 X-63.48596 Y7.65658
G01 X-63.62106 Y7.77553
G01 X-63.77186 Y7.93847
G01 X-63.84831 Y8.08747
G01 X-63.86940 Y8.13646
G01 X-63.93993 Y8.33197
G01 X-63.94976 Y8.51383
G01 X-63.94026 Y8.74713
G01 X-63.86940 Y8.94449
G01 X-63.84834 Y8.99351
G01 X-63.78093 Y9.13034
G01 X-63.73620 Y9.18401
G01 X-63.62109 Y9.30545
G01 X-63.48748 Y9.42333
G01 X-63.35030 Y9.49717
G01 X-63.20671 Y9.59783
G01 X-63.12944 Y9.66143
G01 X-62.97938 Y9.81047
G01 X-4.39342 Y9.81047
G01 X-4.23693 Y9.96620
G01 X-4.16624 Y10.02312
G01 X-4.02263 Y10.12378
G01 X-3.88544 Y10.19762
G01 X-3.75186 Y10.31550
G01 X-3.63675 Y10.43694
G01 X-3.59202 Y10.49058
G01 X-3.50355 Y10.67646
G01 X-3.43266 Y10.87379
G01 X-3.42316 Y11.10714
G01 X-3.43299 Y11.28896
G01 X-3.50355 Y11.48449
G01 X-3.52463 Y11.53348
G01 X-3.60109 Y11.68248
G01 X-3.75189 Y11.84542
G01 X-3.88697 Y11.96437
G01 X-4.02220 Y12.03704
G01 X-4.16621 Y12.13790
G01 X-4.24277 Y12.20087
G01 X-4.39342 Y12.35047
G01 X-62.97938 Y12.35047
G01 X-63.12944 Y12.20143
G01 X-63.20671 Y12.13783
G01 X-63.35030 Y12.03717
G01 X-63.48748 Y11.96333
G01 X-63.62109 Y11.84545
G01 X-63.77171 Y11.68238
G01 X-63.78093 Y11.67034
G01 X-63.86940 Y11.48449
G01 X-63.94026 Y11.28713
G01 X-63.94979 Y11.10714
G01 X-63.93993 Y10.87197
G01 X-63.86940 Y10.67646
G01 X-63.77996 Y10.48904
G01 X-63.73630 Y10.43686
G01 X-63.62106 Y10.31553
G01 X-63.48593 Y10.19655
G01 X-63.35073 Y10.12391
G01 X-63.20674 Y10.02305
G01 X-63.13013 Y9.96006
G01 X-62.97938 Y9.81047
G04 P0 ( dwell for no time -- G64 should not smooth over this point )
G00 Z0.50000 ( retract )

G00 X-61.62647 Y8.45897 ( rapid move to begin. )
G01 F300.00000
( Mill infeed pass 1/1 )
G01 Z-0.07500
G04 P0 ( dwell for no time -- G64 should not smooth over this point )
G01 F600.00000
G01 X-61.62647 Y8.45897
G01 X-61.50433 Y8.33570
G01 X-61.39587 Y8.20890
G01 X-61.34263 Y8.13214
G01 X-61.29059 Y8.04672
G01 X-61.23186 Y7.93847
G01 X-61.08106 Y7.77553
G01 X-60.94596 Y7.65658
G01 X-60.86120 Y7.61241
G01 X-60.65719 Y7.52788
G01 X-60.56275 Y7.49862
G01 X-60.44009 Y7.48861
G01 X-60.27286 Y7.48869
G01 X-60.14837 Y7.49900
G01 X-60.00545 Y7.54637
G01 X-59.85178 Y7.61249
G01 X-59.76547 Y7.65762
G01 X-59.63186 Y7.77550
G01 X-59.48124 Y7.93857
G01 X-59.42247 Y8.04627
G01 X-59.37019 Y8.13212
G01 X-59.31721 Y8.20860
G01 X-59.19923 Y8.34500
G01 X-59.08647 Y8.45897
G04 P0 ( dwell for no time -- G64 should not smooth over this point )
G00 Z0.50000 ( retract )

G00 X-56.54647 Y8.45897 ( rapid move to begin. )
G01 F300.00000
( Mill infeed pass 1/1 )
G01 Z-0.07500
G04 P0 ( dwell for no time -- G64 should not smooth over this point )
G01 F600.00000
G01 X-56.54647 Y8.45897
G01 X-56.65923 Y8.34500
G01 X-56.77721 Y8.20860
G01 X-56.83019 Y8.13212
G01 X-56.88247 Y8.04627
G01 X-56.94124 Y7.93857
G01 X-57.09186 Y7.77550
G01 X-57.22547 Y7.65762
G01 X-57.31178 Y7.61249
G01 X-57.46545 Y7.54637
G01 X-57.60837 Y7.49900
G01 X-57.73286 Y7.48869
G01 X-57.90012 Y7.48861
G01 X-58.02275 Y7.49862
G01 X-58.11719 Y7.52788
G01 X-58.32120 Y7.61241
G01 X-58.40596 Y7.65658
G01 X-58.54106 Y7.77553
G01 X-58.69186 Y7.93847
G01 X-58.75059 Y8.04672
G01 X-58.80263 Y8.13214
G01 X-58.85587 Y8.20890
G01 X-58.96433 Y8.33570
G01 X-59.08647 Y8.45897
G01 X-59.08647 Y49.26196
G01 X-58.97372 Y49.37595
G01 X-58.85574 Y49.51233
G01 X-58.80273 Y49.58883
G01 X-58.75046 Y49.67466
G01 X-58.69171 Y49.78238
G01 X-58.54109 Y49.94542
G01 X-58.40748 Y50.06333
G01 X-58.32117 Y50.10846
G01 X-58.16750 Y50.17455
G01 X-58.02458 Y50.22193
G01 X-57.90012 Y50.23224
G01 X-57.73283 Y50.23231
G01 X-57.61018 Y50.22231
G01 X-57.51576 Y50.19302
G01 X-57.31175 Y50.10854
G01 X-57.22697 Y50.06437
G01 X-57.09189 Y49.94542
G01 X-56.94109 Y49.78248
G01 X-56.88236 Y49.67420
G01 X-56.83032 Y49.58881
G01 X-56.77706 Y49.51200
G01 X-56.65862 Y49.37519
G01 X-56.54647 Y49.26183
G04 P0 ( dwell for no time -- G64 should not smooth over this point )
G00 Z0.50000 ( retract )

G00 X-49.18050 Y53.46876 ( rapid move to begin. )
G01 F300.00000
( Mill infeed pass 1/1 )
G01 Z-0.07500
G04 P0 ( dwell for no time -- G64 should not smooth over this point )
G01 F600.00000
G01 X-49.18050 Y53.46876
G01 X-49.10572 Y53.54399
G01 X-49.01830 Y53.64485
G01 X-48.94032 Y53.74932
G01 X-48.88271 Y53.83843
G01 X-48.82891 Y53.93675
G01 X-48.74474 Y54.07213
G01 X-48.61634 Y54.24168
G01 X-48.44255 Y54.36629
G01 X-48.29053 Y54.45334
G01 X-48.20031 Y54.47899
G01 X-47.99013 Y54.51930
G01 X-47.91047 Y54.52715
G01 X-47.77667 Y54.51110
G01 X-47.62064 Y54.47899
G01 X-47.53039 Y54.45334
G01 X-47.37842 Y54.36632
G01 X-47.20458 Y54.24168
G01 X-47.07619 Y54.07213
G01 X-46.98218 Y53.92027
G01 X-46.93202 Y53.73264
G01 X-46.89447 Y53.49827
G01 X-46.89447 Y52.48265
G01 X-46.92168 Y52.29848
G01 X-46.98218 Y52.06063
G01 X-47.07619 Y51.90879
G01 X-47.20458 Y51.73925
G01 X-47.37842 Y51.61461
G01 X-47.53039 Y51.52759
G01 X-47.62064 Y51.50193
G01 X-47.77667 Y51.46983
G01 X-47.91047 Y51.45377
G01 X-48.04428 Y51.46985
G01 X-48.20031 Y51.50193
G01 X-48.29053 Y51.52759
G01 X-48.44255 Y51.61463
G01 X-48.61685 Y51.73965
G01 X-48.74530 Y51.90849
G01 X-48.82980 Y52.04364
G01 X-48.86958 Y52.11867
G01 X-48.92785 Y52.21303
G01 X-48.98261 Y52.28966
G01 X-49.04494 Y52.36995
G01 X-49.18050 Y52.51217
G01 X-49.18050 Y53.46876
G01 X-49.31601 Y53.61097
G01 X-49.37832 Y53.69118
G01 X-49.43308 Y53.76789
G01 X-49.49137 Y53.86225
G01 X-49.53115 Y53.93731
G01 X-49.61565 Y54.07246
G01 X-49.74410 Y54.24127
G01 X-49.91840 Y54.36629
G01 X-50.07039 Y54.45334
G01 X-50.16064 Y54.47899
G01 X-50.31667 Y54.51110
G01 X-50.45045 Y54.52715
G01 X-50.58428 Y54.51110
G01 X-50.74031 Y54.47899
G01 X-50.83051 Y54.45336
G01 X-50.98255 Y54.36629
G01 X-51.15685 Y54.24127
G01 X-51.28530 Y54.07244
G01 X-51.36980 Y53.93728
G01 X-51.45052 Y53.79197
G01 X-51.48029 Y53.74932
G01 X-51.55827 Y53.64485
G01 X-51.64572 Y53.54399
G01 X-51.72047 Y53.46876
G01 X-51.72047 Y52.51217
G01 X-51.79520 Y52.43696
G01 X-51.88260 Y52.33607
G01 X-51.96063 Y52.23160
G01 X-52.01824 Y52.14250
G01 X-52.07201 Y52.04412
G01 X-52.15619 Y51.90879
G01 X-52.28456 Y51.73925
G01 X-52.45840 Y51.61461
G01 X-52.61039 Y51.52759
G01 X-52.70064 Y51.50193
G01 X-52.85664 Y51.46983
G01 X-52.99045 Y51.45377
G01 X-53.12428 Y51.46985
G01 X-53.28031 Y51.50196
G01 X-53.37051 Y51.52759
G01 X-53.52255 Y51.61466
G01 X-53.69634 Y51.73925
G01 X-53.82476 Y51.90879
G01 X-53.90891 Y52.04412
G01 X-53.96271 Y52.14250
G01 X-54.02032 Y52.23160
G01 X-54.13561 Y52.38108
G01 X-54.26047 Y52.51461
G01 X-54.26047 Y53.46632
G01 X-54.38537 Y53.59987
G01 X-54.50063 Y53.74932
G01 X-54.55829 Y53.83853
G01 X-54.61204 Y53.93680
G01 X-54.69619 Y54.07213
G01 X-54.82458 Y54.24168
G01 X-54.99842 Y54.36632
G01 X-55.15039 Y54.45334
G01 X-55.24064 Y54.47899
G01 X-55.45082 Y54.51930
G01 X-55.53047 Y54.52715
G01 X-55.61013 Y54.51930
G01 X-55.82031 Y54.47899
G01 X-55.91053 Y54.45334
G01 X-56.06255 Y54.36629
G01 X-56.23634 Y54.24168
G01 X-56.36474 Y54.07213
G01 X-56.44891 Y53.93675
G01 X-56.50271 Y53.83843
G01 X-56.56032 Y53.74932
G01 X-56.67561 Y53.59982
G01 X-56.80050 Y53.46634
G01 X-56.80050 Y52.51458
G01 X-56.92537 Y52.38105
G01 X-57.04063 Y52.23160
G01 X-57.09832 Y52.14239
G01 X-57.15204 Y52.04412
G01 X-57.23619 Y51.90879
G01 X-57.36458 Y51.73925
G01 X-57.53837 Y51.61463
G01 X-57.69039 Y51.52759
G01 X-57.78064 Y51.50193
G01 X-57.93667 Y51.46983
G01 X-58.07045 Y51.45377
G01 X-58.20428 Y51.46985
G01 X-58.36031 Y51.50193
G01 X-58.45053 Y51.52759
G01 X-58.60255 Y51.61463
G01 X-58.77634 Y51.73925
G01 X-58.90476 Y51.90879
G01 X-58.98891 Y52.04412
G01 X-59.04271 Y52.14250
G01 X-59.10032 Y52.23160
G01 X-59.21561 Y52.38108
G01 X-59.34047 Y52.51461
G01 X-59.34047 Y53.46632
G01 X-59.34047 Y52.51461
G01 X-59.46537 Y52.38105
G01 X-59.58063 Y52.23160
G01 X-59.63831 Y52.14239
G01 X-59.69204 Y52.04412
G01 X-59.77619 Y51.90879
G01 X-59.90458 Y51.73925
G01 X-60.07837 Y51.61463
G01 X-60.23039 Y51.52759
G01 X-60.32064 Y51.50193
G01 X-60.53085 Y51.46162
G01 X-60.61047 Y51.45377
G01 X-60.74428 Y51.46985
G01 X-60.90031 Y51.50193
G01 X-60.99053 Y51.52759
G01 X-61.14255 Y51.61463
G01 X-61.31657 Y51.73950
G01 X-61.44476 Y51.90879
G01 X-61.52891 Y52.04412
G01 X-61.58271 Y52.14250
G01 X-61.64032 Y52.23160
G01 X-61.75561 Y52.38108
G01 X-61.88047 Y52.51461
G01 X-61.88047 Y53.46632
G01 X-61.88047 Y52.51461
G01 X-62.00537 Y52.38105
G01 X-62.12063 Y52.23160
G01 X-62.17831 Y52.14239
G01 X-62.23204 Y52.04412
G01 X-62.31619 Y51.90879
G01 X-62.44458 Y51.73925
G01 X-62.61842 Y51.61461
G01 X-62.77039 Y51.52759
G01 X-62.86064 Y51.50193
G01 X-63.01667 Y51.46983
G01 X-63.15045 Y51.45377
G01 X-63.28428 Y51.46985
G01 X-63.44031 Y51.50193
G01 X-63.53053 Y51.52759
G01 X-63.68255 Y51.61463
G01 X-63.85634 Y51.73925
G01 X-63.98476 Y51.90879
G01 X-64.06891 Y52.04412
G01 X-64.12271 Y52.14250
G01 X-64.18032 Y52.23160
G01 X-64.29561 Y52.38108
G01 X-64.42050 Y52.51458
G01 X-64.42050 Y53.46634
G01 X-64.54537 Y53.59987
G01 X-64.66063 Y53.74932
G01 X-64.71829 Y53.83853
G01 X-64.77204 Y53.93680
G01 X-64.85619 Y54.07213
G01 X-64.98438 Y54.24145
G01 X-65.02771 Y54.27523
G01 X-65.20422 Y54.39479
G01 X-65.31041 Y54.45334
G01 X-65.34730 Y54.46507
G01 X-65.55667 Y54.51110
G01 X-65.69047 Y54.52715
G01 X-65.82428 Y54.51110
G01 X-66.03363 Y54.46507
G01 X-66.07051 Y54.45336
G01 X-66.17673 Y54.39479
G01 X-66.35326 Y54.27521
G01 X-66.39634 Y54.24168
G01 X-66.52474 Y54.07213
G01 X-66.61877 Y53.92027
G01 X-66.66893 Y53.73264
G01 X-66.70647 Y53.49847
G01 X-66.70645 Y52.48247
G01 X-66.66893 Y52.24829
G01 X-66.61874 Y52.06063
G01 X-66.52476 Y51.90879
G01 X-66.39657 Y51.73950
G01 X-66.22255 Y51.61463
G01 X-66.07053 Y51.52759
G01 X-66.03365 Y51.51588
G01 X-65.82428 Y51.46985
G01 X-65.69047 Y51.45377
G01 X-65.55667 Y51.46983
G01 X-65.40064 Y51.50193
G01 X-65.31039 Y51.52759
G01 X-65.15842 Y51.61461
G01 X-64.98458 Y51.73925
G01 X-64.85619 Y51.90879
G01 X-64.77204 Y52.04412
G01 X-64.71832 Y52.14239
G01 X-64.66063 Y52.23160
G01 X-64.54537 Y52.38105
G01 X-64.42050 Y52.51458
G01 X-64.42050 Y53.46634
G01 X-64.29561 Y53.59982
G01 X-64.18032 Y53.74932
G01 X-64.12271 Y53.83843
G01 X-64.06891 Y53.93675
G01 X-63.98474 Y54.07213
G01 X-63.85637 Y54.24168
G01 X-63.68255 Y54.36629
G01 X-63.53051 Y54.45336
G01 X-63.44031 Y54.47899
G01 X-63.28428 Y54.51110
G01 X-63.15045 Y54.52715
G01 X-63.01667 Y54.51110
G01 X-62.86064 Y54.47899
G01 X-62.77039 Y54.45334
G01 X-62.61842 Y54.36632
G01 X-62.44458 Y54.24168
G01 X-62.31619 Y54.07213
G01 X-62.23204 Y53.93680
G01 X-62.17829 Y53.83853
G01 X-62.12063 Y53.74932
G01 X-62.00537 Y53.59987
G01 X-61.88047 Y53.46632
G01 X-61.75561 Y53.59982
G01 X-61.64032 Y53.74932
G01 X-61.58271 Y53.83843
G01 X-61.52891 Y53.93675
G01 X-61.44474 Y54.07213
G01 X-61.31634 Y54.24168
G01 X-61.27326 Y54.27521
G01 X-61.09673 Y54.39479
G01 X-60.99053 Y54.45334
G01 X-60.90031 Y54.47899
G01 X-60.69010 Y54.51930
G01 X-60.61047 Y54.52715
G01 X-60.53085 Y54.51930
G01 X-60.32064 Y54.47899
G01 X-60.23039 Y54.45334
G01 X-60.07840 Y54.36629
G01 X-59.90438 Y54.24145
G01 X-59.77619 Y54.07213
G01 X-59.69204 Y53.93680
G01 X-59.63829 Y53.83853
G01 X-59.58063 Y53.74932
G01 X-59.46537 Y53.59987
G01 X-59.34047 Y53.46632
G01 X-59.21561 Y53.59982
G01 X-59.10032 Y53.74932
G01 X-59.04271 Y53.83843
G01 X-58.98891 Y53.93675
G01 X-58.90474 Y54.07213
G01 X-58.77634 Y54.24168
G01 X-58.73326 Y54.27521
G01 X-58.55673 Y54.39479
G01 X-58.45053 Y54.45334
G01 X-58.41363 Y54.46507
G01 X-58.20428 Y54.51110
G01 X-58.07047 Y54.52715
G01 X-57.93667 Y54.51110
G01 X-57.78064 Y54.47899
G01 X-57.69039 Y54.45334
G01 X-57.53840 Y54.36629
G01 X-57.36458 Y54.24168
G01 X-57.23619 Y54.07213
G01 X-57.15204 Y53.93680
G01 X-57.09829 Y53.83853
G01 X-57.04063 Y53.74932
G01 X-56.92537 Y53.59987
G01 X-56.80050 Y53.46634
G01 X-56.80050 Y52.51458
G01 X-56.67561 Y52.38108
G01 X-56.56032 Y52.23160
G01 X-56.50271 Y52.14250
G01 X-56.44891 Y52.04412
G01 X-56.36476 Y51.90879
G01 X-56.23634 Y51.73925
G01 X-56.06255 Y51.61463
G01 X-55.91053 Y51.52759
G01 X-55.82031 Y51.50193
G01 X-55.61013 Y51.46162
G01 X-55.53047 Y51.45377
G01 X-55.45082 Y51.46162
G01 X-55.24064 Y51.50193
G01 X-55.15039 Y51.52759
G01 X-54.99842 Y51.61461
G01 X-54.82458 Y51.73925
G01 X-54.69619 Y51.90879
G01 X-54.61204 Y52.04412
G01 X-54.55832 Y52.14239
G01 X-54.50063 Y52.23160
G01 X-54.38537 Y52.38105
G01 X-54.26047 Y52.51461
G01 X-54.26047 Y53.46632
G01 X-54.13561 Y53.59982
G01 X-54.02032 Y53.74932
G01 X-53.96271 Y53.83843
G01 X-53.90891 Y53.93675
G01 X-53.82474 Y54.07213
G01 X-53.69637 Y54.24168
G01 X-53.52255 Y54.36629
G01 X-53.37051 Y54.45336
G01 X-53.28031 Y54.47899
G01 X-53.12428 Y54.51110
G01 X-52.99047 Y54.52715
G01 X-52.91085 Y54.51930
G01 X-52.70064 Y54.47899
G01 X-52.61041 Y54.45334
G01 X-52.45840 Y54.36632
G01 X-52.28456 Y54.24168
G01 X-52.18634 Y54.11534
G01 X-52.07201 Y53.93680
G01 X-52.01824 Y53.83843
G01 X-51.96063 Y53.74932
G01 X-51.88260 Y53.64485
G01 X-51.79518 Y53.54397
G01 X-51.72047 Y53.46876
G01 X-51.72047 Y52.51217
G01 X-51.58491 Y52.36990
G01 X-51.52261 Y52.28966
G01 X-51.46782 Y52.21303
G01 X-51.40958 Y52.11867
G01 X-51.36980 Y52.04364
G01 X-51.28530 Y51.90851
G01 X-51.15682 Y51.73965
G01 X-50.98253 Y51.61463
G01 X-50.83053 Y51.52759
G01 X-50.74031 Y51.50193
G01 X-50.58428 Y51.46985
G01 X-50.45045 Y51.45377
G01 X-50.31667 Y51.46983
G01 X-50.10730 Y51.51588
G01 X-50.07039 Y51.52759
G01 X-49.96422 Y51.58616
G01 X-49.91842 Y51.61461
G01 X-49.74458 Y51.73925
G01 X-49.61619 Y51.90879
G01 X-49.53204 Y52.04412
G01 X-49.47831 Y52.14239
G01 X-49.42063 Y52.23160
G01 X-49.34265 Y52.33607
G01 X-49.25520 Y52.43696
G01 X-49.18050 Y52.51217
G04 P0 ( dwell for no time -- G64 should not smooth over this point )
G00 Z0.50000 ( retract )

G00 X-48.92647 Y49.26183 ( rapid move to begin. )
G01 F300.00000
( Mill infeed pass 1/1 )
G01 Z-0.07500
G04 P0 ( dwell for no time -- G64 should not smooth over this point )
G01 F600.00000
G01 X-48.92647 Y49.26183
G01 X-48.81372 Y49.37595
G01 X-48.69574 Y49.51233
G01 X-48.64273 Y49.58883
G01 X-48.59046 Y49.67466
G01 X-48.53171 Y49.78238
G01 X-48.38109 Y49.94542
G01 X-48.24748 Y50.06333
G01 X-48.16117 Y50.10846
G01 X-48.00750 Y50.17455
G01 X-47.86458 Y50.22193
G01 X-47.74012 Y50.23224
G01 X-47.57283 Y50.23231
G01 X-47.45018 Y50.22231
G01 X-47.35576 Y50.19302
G01 X-47.15175 Y50.10854
G01 X-47.06697 Y50.06437
G01 X-46.93189 Y49.94542
G01 X-46.78109 Y49.78248
G01 X-46.72236 Y49.67420
G01 X-46.67032 Y49.58881
G01 X-46.61706 Y49.51200
G01 X-46.50865 Y49.38525
G01 X-46.38647 Y49.26196
G04 P0 ( dwell for no time -- G64 should not smooth over this point )
G00 Z0.50000 ( retract )

G00 X-43.84647 Y49.26196 ( rapid move to begin. )
G01 F300.00000
( Mill infeed pass 1/1 )
G01 Z-0.07500
G04 P0 ( dwell for no time -- G64 should not smooth over this point )
G01 F600.00000
G01 X-43.84647 Y49.26196
G01 X-43.96865 Y49.38525
G01 X-44.07706 Y49.51200
G01 X-44.13032 Y49.58881
G01 X-44.18236 Y49.67420
G01 X-44.24109 Y49.78248
G01 X-44.39189 Y49.94542
G01 X-44.52697 Y50.06437
G01 X-44.61175 Y50.10854
G01 X-44.81576 Y50.19302
G01 X-44.91018 Y50.22231
G01 X-45.03286 Y50.23231
G01 X-45.20012 Y50.23224
G01 X-45.32458 Y50.22193
G01 X-45.46750 Y50.17455
G01 X-45.62117 Y50.10846
G01 X-45.70748 Y50.06333
G01 X-45.84109 Y49.94542
G01 X-45.99171 Y49.78238
G01 X-46.05046 Y49.67466
G01 X-46.10273 Y49.58883
G01 X-46.15574 Y49.51233
G01 X-46.27372 Y49.37595
G01 X-46.38647 Y49.26196
G01 X-46.38647 Y8.45897
G01 X-46.26433 Y8.33570
G01 X-46.17690 Y8.23534
G01 X-46.12595 Y8.16829
G01 X-46.05058 Y8.04672
G01 X-45.99186 Y7.93847
G01 X-45.84106 Y7.77553
G01 X-45.70596 Y7.65658
G01 X-45.62120 Y7.61241
G01 X-45.41719 Y7.52788
G01 X-45.32275 Y7.49862
G01 X-45.20012 Y7.48861
G01 X-45.03283 Y7.48869
G01 X-44.90837 Y7.49900
G01 X-44.76545 Y7.54637
G01 X-44.61178 Y7.61249
G01 X-44.52547 Y7.65762
G01 X-44.39186 Y7.77550
G01 X-44.24124 Y7.93857
G01 X-44.18247 Y8.04627
G01 X-44.13019 Y8.13212
G01 X-44.07721 Y8.20860
G01 X-43.95923 Y8.34500
G01 X-43.84647 Y8.45897
G01 X-43.84647 Y49.26196
G01 X-43.73372 Y49.37595
G01 X-43.61574 Y49.51233
G01 X-43.56273 Y49.58883
G01 X-43.51046 Y49.67466
G01 X-43.45171 Y49.78238
G01 X-43.30109 Y49.94542
G01 X-43.16748 Y50.06333
G01 X-43.08117 Y50.10846
G01 X-42.92750 Y50.17455
G01 X-42.78458 Y50.22193
G01 X-42.66012 Y50.23224
G01 X-42.49286 Y50.23231
G01 X-42.37018 Y50.22231
G01 X-42.27576 Y50.19302
G01 X-42.07175 Y50.10854
G01 X-41.98697 Y50.06437
G01 X-41.85189 Y49.94542
G01 X-41.70109 Y49.78248
G01 X-41.64236 Y49.67420
G01 X-41.59032 Y49.58881
G01 X-41.53706 Y49.51200
G01 X-41.41862 Y49.37519
G01 X-41.30647 Y49.26183
G01 X-41.30647 Y8.45897
G01 X-41.18433 Y8.33570
G01 X-41.07587 Y8.20890
G01 X-41.02263 Y8.13214
G01 X-40.97058 Y8.04672
G01 X-40.91186 Y7.93847
G01 X-40.76106 Y7.77553
G01 X-40.62596 Y7.65658
G01 X-40.54120 Y7.61241
G01 X-40.33719 Y7.52788
G01 X-40.24275 Y7.49862
G01 X-40.12012 Y7.48861
G01 X-39.95283 Y7.48869
G01 X-39.82837 Y7.49900
G01 X-39.68545 Y7.54637
G01 X-39.53178 Y7.61249
G01 X-39.44547 Y7.65762
G01 X-39.31186 Y7.77550
G01 X-39.16124 Y7.93857
G01 X-39.10247 Y8.04627
G01 X-39.05019 Y8.13212
G01 X-38.99721 Y8.20860
G01 X-38.87923 Y8.34500
G01 X-38.76647 Y8.45897
G04 P0 ( dwell for no time -- G64 should not smooth over this point )
G00 Z0.50000 ( retract )

G00 X-39.02047 Y5.94155 ( rapid move to begin. )
G01 F300.00000
( Mill infeed pass 1/1 )
G01 Z-0.07500
G04 P0 ( dwell for no time -- G64 should not smooth over this point )
G01 F600.00000
G01 X-39.02047 Y5.94155
G01 X-38.91466 Y6.00263
G01 X-38.78933 Y6.06669
G01 X-38.63000 Y6.13761
G01 X-38.53013 Y6.17606
G01 X-38.37084 Y6.22780
G01 X-38.28804 Y6.25005
G01 X-38.12873 Y6.28389
G01 X-38.05654 Y6.29534
G01 X-37.83010 Y6.31561
G01 X-37.60371 Y6.31206
G01 X-37.44440 Y6.29532
G01 X-37.37224 Y6.28384
G01 X-37.21293 Y6.24995
G01 X-37.13018 Y6.22770
G01 X-36.97090 Y6.17594
G01 X-36.87108 Y6.13751
G01 X-36.71177 Y6.06657
G01 X-36.58652 Y6.00251
G01 X-36.48047 Y5.94127
G01 X-36.37443 Y6.00248
G01 X-36.24913 Y6.06654
G01 X-36.08982 Y6.13746
G01 X-35.99000 Y6.17589
G01 X-35.83072 Y6.22763
G01 X-35.74796 Y6.24985
G01 X-35.58863 Y6.28371
G01 X-35.51652 Y6.29514
G01 X-35.35719 Y6.31188
G01 X-35.29013 Y6.31541
G01 X-35.06376 Y6.31185
G01 X-34.90446 Y6.29509
G01 X-34.83232 Y6.28363
G01 X-34.67304 Y6.24975
G01 X-34.59036 Y6.22755
G01 X-34.43108 Y6.17579
G01 X-34.33125 Y6.13733
G01 X-34.17197 Y6.06639
G01 X-34.04675 Y6.00235
G01 X-33.94047 Y5.94099
G01 X-33.83418 Y6.00235
G01 X-33.70895 Y6.06636
G01 X-33.54962 Y6.13728
G01 X-33.44985 Y6.17568
G01 X-33.29056 Y6.22742
G01 X-33.20786 Y6.24965
G01 X-33.04855 Y6.28351
G01 X-32.97647 Y6.29494
G01 X-32.81716 Y6.31168
G01 X-32.59082 Y6.31518
G01 X-32.52381 Y6.31165
G01 X-32.36451 Y6.29489
G01 X-32.29240 Y6.28343
G01 X-32.13311 Y6.24957
G01 X-32.05051 Y6.22735
G01 X-31.89123 Y6.17558
G01 X-31.79146 Y6.13715
G01 X-31.63215 Y6.06624
G01 X-31.50700 Y6.00223
G01 X-31.40047 Y5.94071
G01 X-31.29395 Y6.00220
G01 X-31.16878 Y6.06618
G01 X-31.00944 Y6.13710
G01 X-30.90972 Y6.17551
G01 X-30.75044 Y6.22725
G01 X-30.66779 Y6.24945
G01 X-30.50848 Y6.28330
G01 X-30.43642 Y6.29473
G01 X-30.27711 Y6.31147
G01 X-30.05085 Y6.31498
G01 X-29.98384 Y6.31145
G01 X-29.82453 Y6.29468
G01 X-29.75252 Y6.28325
G01 X-29.59321 Y6.24937
G01 X-29.51059 Y6.22714
G01 X-29.35130 Y6.17538
G01 X-29.25163 Y6.13700
G01 X-29.15021 Y6.09184
G01 X-29.09377 Y5.92900
G01 X-29.05110 Y5.76972
G01 X-29.03180 Y5.67922
G01 X-29.00658 Y5.51991
G01 X-28.99789 Y5.43756
G01 X-28.98852 Y5.23845
G01 X-28.98852 Y4.22250
G01 X-28.99789 Y4.02339
G01 X-29.00658 Y3.94104
G01 X-29.03180 Y3.78173
G01 X-29.05110 Y3.69123
G01 X-29.09377 Y3.53195
G01 X-29.15021 Y3.36911
G01 X-29.25163 Y3.32395
G01 X-29.35135 Y3.28554
G01 X-29.51064 Y3.23378
G01 X-29.59321 Y3.21158
G01 X-29.75250 Y3.17772
G01 X-29.82453 Y3.16627
G01 X-29.98384 Y3.14950
G01 X-30.21013 Y3.14597
G01 X-30.43642 Y3.16622
G01 X-30.50848 Y3.17765
G01 X-30.66779 Y3.21150
G01 X-30.75036 Y3.23370
G01 X-30.90967 Y3.28544
G01 X-31.00944 Y3.32385
G01 X-31.16878 Y3.39476
G01 X-31.29392 Y3.45875
G01 X-31.40047 Y3.52024
G01 X-31.40047 Y5.94071
G01 X-31.40047 Y3.52024
G01 X-31.50700 Y3.45872
G01 X-31.63215 Y3.39471
G01 X-31.79146 Y3.32380
G01 X-31.89123 Y3.28537
G01 X-32.05051 Y3.23360
G01 X-32.13311 Y3.21140
G01 X-32.29240 Y3.17752
G01 X-32.36451 Y3.16606
G01 X-32.52381 Y3.14930
G01 X-32.75013 Y3.14577
G01 X-32.97647 Y3.16601
G01 X-33.04855 Y3.17744
G01 X-33.20786 Y3.21130
G01 X-33.29056 Y3.23353
G01 X-33.44985 Y3.28527
G01 X-33.54962 Y3.32367
G01 X-33.70895 Y3.39459
G01 X-33.83418 Y3.45859
G01 X-33.94047 Y3.51996
G01 X-33.94047 Y5.94099
G01 X-33.94047 Y3.51996
G01 X-34.04675 Y3.45859
G01 X-34.17197 Y3.39456
G01 X-34.33128 Y3.32362
G01 X-34.43108 Y3.28519
G01 X-34.59038 Y3.23342
G01 X-34.67304 Y3.21120
G01 X-34.83232 Y3.17732
G01 X-34.90446 Y3.16586
G01 X-35.06376 Y3.14910
G01 X-35.13082 Y3.14557
G01 X-35.35719 Y3.14907
G01 X-35.51649 Y3.16581
G01 X-35.58863 Y3.17726
G01 X-35.74796 Y3.21110
G01 X-35.83072 Y3.23335
G01 X-35.99000 Y3.28509
G01 X-36.08980 Y3.32352
G01 X-36.24913 Y3.39443
G01 X-36.37440 Y3.45847
G01 X-36.48047 Y3.51968
G01 X-36.48047 Y5.94127
G01 X-36.48047 Y3.51968
G01 X-36.58652 Y3.45844
G01 X-36.71179 Y3.39438
G01 X-36.87108 Y3.32347
G01 X-36.97095 Y3.28499
G01 X-37.13023 Y3.23322
G01 X-37.21293 Y3.21100
G01 X-37.37222 Y3.17711
G01 X-37.44440 Y3.16566
G01 X-37.60371 Y3.14889
G01 X-37.67085 Y3.14536
G01 X-37.89724 Y3.14887
G01 X-38.05654 Y3.16561
G01 X-38.12876 Y3.17706
G01 X-38.28804 Y3.21092
G01 X-38.37077 Y3.23314
G01 X-38.53008 Y3.28488
G01 X-38.63000 Y3.32334
G01 X-38.78931 Y3.39426
G01 X-38.91466 Y3.45832
G01 X-39.02047 Y3.51940
G01 X-39.12629 Y3.45832
G01 X-39.25159 Y3.39423
G01 X-39.41090 Y3.32329
G01 X-39.51082 Y3.28481
G01 X-39.67010 Y3.23304
G01 X-39.75286 Y3.21079
G01 X-39.91214 Y3.17693
G01 X-39.98438 Y3.16545
G01 X-40.14366 Y3.14869
G01 X-40.37013 Y3.14513
G01 X-40.43729 Y3.14866
G01 X-40.59660 Y3.16540
G01 X-40.66881 Y3.17686
G01 X-40.90312 Y3.23045
G01 X-41.06492 Y3.55534
G01 X-41.20952 Y3.78379
G01 X-41.25689 Y3.87399
G01 X-41.31244 Y3.96454
G01 X-41.35748 Y4.03022
G01 X-41.43152 Y4.12679
G01 X-41.56047 Y4.26847
G01 X-41.56047 Y5.19245
G01 X-41.43152 Y5.33413
G01 X-41.35745 Y5.43073
G01 X-41.31244 Y5.49639
G01 X-41.25692 Y5.58694
G01 X-41.20952 Y5.67713
G01 X-41.06492 Y5.90561
G01 X-40.90312 Y6.23050
G01 X-40.82814 Y6.25026
G01 X-40.66881 Y6.28409
G01 X-40.59660 Y6.29557
G01 X-40.43729 Y6.31228
G01 X-40.21085 Y6.31579
G01 X-39.98435 Y6.29552
G01 X-39.91214 Y6.28404
G01 X-39.75286 Y6.25016
G01 X-39.67010 Y6.22791
G01 X-39.51082 Y6.17614
G01 X-39.41090 Y6.13766
G01 X-39.25159 Y6.06672
G01 X-39.12627 Y6.00263
G01 X-39.02047 Y5.94155
G01 X-39.02047 Y3.51940
G04 P0 ( dwell for no time -- G64 should not smooth over this point )
G00 Z0.50000 ( retract )

G00 X-41.30647 Y8.45897 ( rapid move to begin. )
G01 F300.00000
( Mill infeed pass 1/1 )
G01 Z-0.07500
G04 P0 ( dwell for no time -- G64 should not smooth over this point )
G01 F600.00000
G01 X-41.30647 Y8.45897
G01 X-41.41923 Y8.34500
G01 X-41.53721 Y8.20860
G01 X-41.59019 Y8.13212
G01 X-41.64247 Y8.04627
G01 X-41.70124 Y7.93857
G01 X-41.85186 Y7.77550
G01 X-41.98547 Y7.65762
G01 X-42.07178 Y7.61249
G01 X-42.22545 Y7.54637
G01 X-42.36837 Y7.49900
G01 X-42.49283 Y7.48869
G01 X-42.66012 Y7.48861
G01 X-42.78275 Y7.49862
G01 X-42.87719 Y7.52788
G01 X-43.08120 Y7.61241
G01 X-43.16596 Y7.65658
G01 X-43.30106 Y7.77553
G01 X-43.45186 Y7.93847
G01 X-43.51058 Y8.04672
G01 X-43.56263 Y8.13214
G01 X-43.61587 Y8.20890
G01 X-43.72433 Y8.33570
G01 X-43.84647 Y8.45897
G04 P0 ( dwell for no time -- G64 should not smooth over this point )
G00 Z0.50000 ( retract )

G00 X-46.64047 Y4.26642 ( rapid move to begin. )
G01 F300.00000
( Mill infeed pass 1/1 )
G01 Z-0.07500
G04 P0 ( dwell for no time -- G64 should not smooth over this point )
G01 F600.00000
G01 X-46.64047 Y4.26642
G01 X-46.72508 Y4.17802
G01 X-46.80390 Y4.08407
G01 X-46.84304 Y4.03022
G01 X-46.90504 Y3.94122
G01 X-46.99122 Y3.78369
G01 X-47.07570 Y3.64854
G01 X-47.20415 Y3.47963
G01 X-47.37842 Y3.35461
G01 X-47.53039 Y3.26759
G01 X-47.62064 Y3.24193
G01 X-47.83085 Y3.20162
G01 X-47.91047 Y3.19377
G01 X-48.04428 Y3.20983
G01 X-48.20031 Y3.24193
G01 X-48.29053 Y3.26759
G01 X-48.44255 Y3.35463
G01 X-48.61634 Y3.47925
G01 X-48.74476 Y3.64882
G01 X-48.83874 Y3.80063
G01 X-48.89925 Y4.03845
G01 X-48.92645 Y4.22250
G01 X-48.92647 Y5.23845
G01 X-48.88893 Y5.47264
G01 X-48.83874 Y5.66029
G01 X-48.74474 Y5.81213
G01 X-48.61634 Y5.98168
G01 X-48.44255 Y6.10629
G01 X-48.29053 Y6.19334
G01 X-48.20031 Y6.21899
G01 X-48.04428 Y6.25110
G01 X-47.91047 Y6.26715
G01 X-47.77667 Y6.25110
G01 X-47.62064 Y6.21899
G01 X-47.53039 Y6.19334
G01 X-47.37842 Y6.10632
G01 X-47.20435 Y5.98148
G01 X-47.07570 Y5.81241
G01 X-46.99125 Y5.67726
G01 X-46.90504 Y5.51970
G01 X-46.84306 Y5.43073
G01 X-46.80390 Y5.37685
G01 X-46.72508 Y5.28292
G01 X-46.64047 Y5.19451
G01 X-46.64047 Y4.26642
G04 P0 ( dwell for no time -- G64 should not smooth over this point )
G00 Z0.50000 ( retract )

G00 X-51.46647 Y8.45897 ( rapid move to begin. )
G01 F300.00000
( Mill infeed pass 1/1 )
G01 Z-0.07500
G04 P0 ( dwell for no time -- G64 should not smooth over this point )
G01 F600.00000
G01 X-51.46647 Y8.45897
G01 X-51.34433 Y8.33570
G01 X-51.23587 Y8.20890
G01 X-51.18263 Y8.13214
G01 X-51.13058 Y8.04672
G01 X-51.07186 Y7.93847
G01 X-50.92106 Y7.77553
G01 X-50.78596 Y7.65658
G01 X-50.70120 Y7.61241
G01 X-50.49719 Y7.52788
G01 X-50.40275 Y7.49862
G01 X-50.28012 Y7.48861
G01 X-50.11283 Y7.48869
G01 X-49.98837 Y7.49900
G01 X-49.84545 Y7.54637
G01 X-49.69178 Y7.61249
G01 X-49.60547 Y7.65762
G01 X-49.47186 Y7.77550
G01 X-49.32124 Y7.93857
G01 X-49.26247 Y8.04627
G01 X-49.21019 Y8.13212
G01 X-49.15721 Y8.20860
G01 X-49.03923 Y8.34500
G01 X-48.92647 Y8.45897
G04 P0 ( dwell for no time -- G64 should not smooth over this point )
G00 Z0.50000 ( retract )

G00 X-46.38647 Y8.45897 ( rapid move to begin. )
G01 F300.00000
( Mill infeed pass 1/1 )
G01 Z-0.07500
G04 P0 ( dwell for no time -- G64 should not smooth over this point )
G01 F600.00000
G01 X-46.38647 Y8.45897
G01 X-46.49923 Y8.34500
G01 X-46.61721 Y8.20860
G01 X-46.67019 Y8.13212
G01 X-46.72247 Y8.04627
G01 X-46.78124 Y7.93857
G01 X-46.93186 Y7.77550
G01 X-47.06547 Y7.65762
G01 X-47.15178 Y7.61249
G01 X-47.30545 Y7.54637
G01 X-47.44837 Y7.49900
G01 X-47.57283 Y7.48869
G01 X-47.74012 Y7.48861
G01 X-47.86275 Y7.49862
G01 X-47.95719 Y7.52788
G01 X-48.16120 Y7.61241
G01 X-48.24596 Y7.65658
G01 X-48.38106 Y7.77553
G01 X-48.53186 Y7.93847
G01 X-48.59059 Y8.04672
G01 X-48.64263 Y8.13214
G01 X-48.69587 Y8.20890
G01 X-48.80433 Y8.33570
G01 X-48.92647 Y8.45897
G01 X-48.92647 Y49.26183
G01 X-49.03862 Y49.37519
G01 X-49.15706 Y49.51200
G01 X-49.21032 Y49.58881
G01 X-49.26236 Y49.67420
G01 X-49.32109 Y49.78248
G01 X-49.47189 Y49.94542
G01 X-49.60697 Y50.06437
G01 X-49.69175 Y50.10854
G01 X-49.89576 Y50.19302
G01 X-49.99018 Y50.22231
G01 X-50.11283 Y50.23231
G01 X-50.28009 Y50.23224
G01 X-50.40458 Y50.22193
G01 X-50.54750 Y50.17455
G01 X-50.70117 Y50.10846
G01 X-50.78748 Y50.06333
G01 X-50.92109 Y49.94545
G01 X-51.07171 Y49.78238
G01 X-51.13053 Y49.67450
G01 X-51.18273 Y49.58883
G01 X-51.23556 Y49.51255
G01 X-51.35367 Y49.37598
G01 X-51.46647 Y49.26196
G01 X-51.46647 Y8.45897
G01 X-51.57923 Y8.34500
G01 X-51.69721 Y8.20860
G01 X-51.75019 Y8.13212
G01 X-51.80247 Y8.04627
G01 X-51.86122 Y7.93857
G01 X-52.01186 Y7.77550
G01 X-52.14544 Y7.65762
G01 X-52.23178 Y7.61246
G01 X-52.38545 Y7.54637
G01 X-52.52835 Y7.49900
G01 X-52.65286 Y7.48869
G01 X-52.82012 Y7.48861
G01 X-52.94272 Y7.49862
G01 X-53.03716 Y7.52788
G01 X-53.24117 Y7.61241
G01 X-53.32596 Y7.65658
G01 X-53.46106 Y7.77553
G01 X-53.61186 Y7.93847
G01 X-53.67056 Y8.04672
G01 X-53.72260 Y8.13214
G01 X-53.77587 Y8.20890
G01 X-53.88433 Y8.33570
G01 X-54.00647 Y8.45897
G01 X-54.00647 Y49.26183
G01 X-53.89370 Y49.37595
G01 X-53.77572 Y49.51233
G01 X-53.72273 Y49.58883
G01 X-53.67046 Y49.67466
G01 X-53.61171 Y49.78238
G01 X-53.46106 Y49.94542
G01 X-53.32748 Y50.06333
G01 X-53.24117 Y50.10846
G01 X-53.08750 Y50.17455
G01 X-52.94458 Y50.22193
G01 X-52.82012 Y50.23224
G01 X-52.65286 Y50.23231
G01 X-52.53018 Y50.22231
G01 X-52.43576 Y50.19302
G01 X-52.23175 Y50.10854
G01 X-52.14697 Y50.06437
G01 X-52.01189 Y49.94542
G01 X-51.86106 Y49.78248
G01 X-51.80224 Y49.67407
G01 X-51.72695 Y49.55258
G01 X-51.67595 Y49.48545
G01 X-51.58862 Y49.38525
G01 X-51.46647 Y49.26196
G04 P0 ( dwell for no time -- G64 should not smooth over this point )
G00 Z0.50000 ( retract )

G00 X-54.00647 Y49.26183 ( rapid move to begin. )
G01 F300.00000
( Mill infeed pass 1/1 )
G01 Z-0.07500
G04 P0 ( dwell for no time -- G64 should not smooth over this point )
G01 F600.00000
G01 X-54.00647 Y49.26183
G01 X-54.11862 Y49.37519
G01 X-54.23706 Y49.51200
G01 X-54.29032 Y49.58881
G01 X-54.34236 Y49.67420
G01 X-54.40109 Y49.78248
G01 X-54.55189 Y49.94542
G01 X-54.68697 Y50.06437
G01 X-54.77175 Y50.10854
G01 X-54.97576 Y50.19302
G01 X-55.07018 Y50.22231
G01 X-55.19283 Y50.23231
G01 X-55.36012 Y50.23224
G01 X-55.48458 Y50.22193
G01 X-55.62750 Y50.17455
G01 X-55.78117 Y50.10846
G01 X-55.86748 Y50.06333
G01 X-56.00109 Y49.94542
G01 X-56.15171 Y49.78238
G01 X-56.21046 Y49.67466
G01 X-56.26273 Y49.58883
G01 X-56.31574 Y49.51233
G01 X-56.43372 Y49.37595
G01 X-56.54647 Y49.26183
G01 X-56.54647 Y8.45897
G01 X-56.42433 Y8.33570
G01 X-56.31587 Y8.20890
G01 X-56.26263 Y8.13214
G01 X-56.21058 Y8.04672
G01 X-56.15186 Y7.93847
G01 X-56.00106 Y7.77553
G01 X-55.86596 Y7.65658
G01 X-55.78120 Y7.61241
G01 X-55.57719 Y7.52788
G01 X-55.48275 Y7.49862
G01 X-55.36012 Y7.48861
G01 X-55.19283 Y7.48869
G01 X-55.06837 Y7.49900
G01 X-54.92545 Y7.54637
G01 X-54.77178 Y7.61249
G01 X-54.68547 Y7.65762
G01 X-54.55186 Y7.77550
G01 X-54.40124 Y7.93857
G01 X-54.34247 Y8.04627
G01 X-54.29019 Y8.13212
G01 X-54.23721 Y8.20860
G01 X-54.11923 Y8.34500
G01 X-54.00647 Y8.45897
G04 P0 ( dwell for no time -- G64 should not smooth over this point )
G00 Z0.50000 ( retract )

G00 X-64.42047 Y3.52055 ( rapid move to begin. )
G01 F300.00000
( Mill infeed pass 1/1 )
G01 Z-0.07500
G04 P0 ( dwell for no time -- G64 should not smooth over this point )
G01 F600.00000
G01 X-64.42047 Y3.52055
G01 X-64.42047 Y5.94040
G01 X-64.31369 Y6.00207
G01 X-64.18857 Y6.06603
G01 X-64.02926 Y6.13695
G01 X-63.92959 Y6.17533
G01 X-63.77034 Y6.22709
G01 X-63.68771 Y6.24929
G01 X-63.52840 Y6.28315
G01 X-63.45639 Y6.29458
G01 X-63.29708 Y6.31132
G01 X-63.23013 Y6.31485
G01 X-63.00387 Y6.31132
G01 X-62.84456 Y6.29458
G01 X-62.77252 Y6.28315
G01 X-62.61324 Y6.24929
G01 X-62.53069 Y6.22709
G01 X-62.37138 Y6.17535
G01 X-62.27169 Y6.13695
G01 X-62.11238 Y6.06603
G01 X-61.98726 Y6.00207
G01 X-61.88047 Y5.94040
G01 X-61.88047 Y3.52055
G01 X-61.88047 Y5.94040
G01 X-61.77369 Y6.00207
G01 X-61.64857 Y6.06603
G01 X-61.48926 Y6.13695
G01 X-61.38959 Y6.17533
G01 X-61.23034 Y6.22709
G01 X-61.14771 Y6.24929
G01 X-60.98840 Y6.28315
G01 X-60.91639 Y6.29458
G01 X-60.75708 Y6.31132
G01 X-60.69010 Y6.31485
G01 X-60.46387 Y6.31132
G01 X-60.30456 Y6.29458
G01 X-60.23255 Y6.28315
G01 X-60.07324 Y6.24929
G01 X-59.99061 Y6.22709
G01 X-59.83135 Y6.17533
G01 X-59.73169 Y6.13695
G01 X-59.57238 Y6.06603
G01 X-59.44726 Y6.00207
G01 X-59.34047 Y5.94040
G01 X-59.34047 Y3.52055
G01 X-59.34047 Y5.94040
G01 X-59.23369 Y6.00207
G01 X-59.10857 Y6.06603
G01 X-58.94926 Y6.13695
G01 X-58.84959 Y6.17533
G01 X-58.69034 Y6.22709
G01 X-58.60771 Y6.24929
G01 X-58.44840 Y6.28315
G01 X-58.37639 Y6.29458
G01 X-58.21708 Y6.31132
G01 X-58.15013 Y6.31485
G01 X-57.92387 Y6.31132
G01 X-57.76456 Y6.29458
G01 X-57.69255 Y6.28315
G01 X-57.53324 Y6.24929
G01 X-57.45061 Y6.22709
G01 X-57.29135 Y6.17533
G01 X-57.19169 Y6.13695
G01 X-57.03238 Y6.06603
G01 X-56.90726 Y6.00207
G01 X-56.80047 Y5.94040
G01 X-56.80047 Y3.52055
G01 X-56.80047 Y5.94040
G01 X-56.69369 Y6.00207
G01 X-56.56857 Y6.06603
G01 X-56.40926 Y6.13695
G01 X-56.30959 Y6.17533
G01 X-56.15034 Y6.22709
G01 X-56.06771 Y6.24929
G01 X-55.90840 Y6.28315
G01 X-55.83639 Y6.29458
G01 X-55.61013 Y6.31485
G01 X-55.38387 Y6.31132
G01 X-55.22456 Y6.29458
G01 X-55.15252 Y6.28315
G01 X-54.99324 Y6.24929
G01 X-54.91069 Y6.22709
G01 X-54.75138 Y6.17535
G01 X-54.65169 Y6.13695
G01 X-54.49238 Y6.06603
G01 X-54.36726 Y6.00207
G01 X-54.26047 Y5.94040
G01 X-54.26047 Y3.52055
G01 X-54.15369 Y3.45887
G01 X-54.02857 Y3.39492
G01 X-53.86924 Y3.32400
G01 X-53.76957 Y3.28562
G01 X-53.61034 Y3.23386
G01 X-53.52771 Y3.21166
G01 X-53.36840 Y3.17780
G01 X-53.29637 Y3.16637
G01 X-53.13706 Y3.14963
G01 X-52.91085 Y3.14610
G01 X-52.68456 Y3.16637
G01 X-52.61252 Y3.17780
G01 X-52.45324 Y3.21166
G01 X-52.37066 Y3.23386
G01 X-52.21138 Y3.28560
G01 X-52.11169 Y3.32400
G01 X-52.01019 Y3.36919
G01 X-51.95377 Y3.53195
G01 X-51.91110 Y3.69123
G01 X-51.89180 Y3.78173
G01 X-51.86655 Y3.94104
G01 X-51.85789 Y4.02339
G01 X-51.84852 Y4.22250
G01 X-51.84852 Y5.23845
G01 X-51.85789 Y5.43756
G01 X-51.86655 Y5.51991
G01 X-51.89180 Y5.67922
G01 X-51.91110 Y5.76972
G01 X-51.95377 Y5.92900
G01 X-52.01019 Y6.09176
G01 X-52.11169 Y6.13695
G01 X-52.21138 Y6.17535
G01 X-52.37066 Y6.22709
G01 X-52.45324 Y6.24929
G01 X-52.61252 Y6.28315
G01 X-52.68456 Y6.29458
G01 X-52.84387 Y6.31132
G01 X-52.91085 Y6.31485
G01 X-53.13706 Y6.31132
G01 X-53.29637 Y6.29458
G01 X-53.36840 Y6.28315
G01 X-53.52771 Y6.24929
G01 X-53.61034 Y6.22709
G01 X-53.76957 Y6.17533
G01 X-53.86924 Y6.13695
G01 X-54.02857 Y6.06603
G01 X-54.15369 Y6.00207
G01 X-54.26047 Y5.94040
G01 X-54.26047 Y3.52055
G01 X-54.36726 Y3.45887
G01 X-54.49238 Y3.39492
G01 X-54.65169 Y3.32400
G01 X-54.75138 Y3.28560
G01 X-54.91069 Y3.23386
G01 X-54.99324 Y3.21166
G01 X-55.15252 Y3.17780
G01 X-55.22456 Y3.16637
G01 X-55.45085 Y3.14610
G01 X-55.67708 Y3.14963
G01 X-55.83639 Y3.16637
G01 X-55.90840 Y3.17780
G01 X-56.06771 Y3.21166
G01 X-56.15034 Y3.23386
G01 X-56.30959 Y3.28562
G01 X-56.40926 Y3.32400
G01 X-56.56857 Y3.39492
G01 X-56.69369 Y3.45887
G01 X-56.80047 Y3.52055
G01 X-56.90726 Y3.45887
G01 X-57.03238 Y3.39492
G01 X-57.19169 Y3.32400
G01 X-57.29135 Y3.28562
G01 X-57.45061 Y3.23386
G01 X-57.53324 Y3.21166
G01 X-57.69255 Y3.17780
G01 X-57.76456 Y3.16637
G01 X-57.99082 Y3.14610
G01 X-58.15013 Y3.14610
G01 X-58.37639 Y3.16637
G01 X-58.44840 Y3.17780
G01 X-58.60771 Y3.21166
G01 X-58.69034 Y3.23386
G01 X-58.84959 Y3.28562
G01 X-58.94926 Y3.32400
G01 X-59.10857 Y3.39492
G01 X-59.23369 Y3.45887
G01 X-59.34047 Y3.52055
G01 X-59.44726 Y3.45887
G01 X-59.57238 Y3.39492
G01 X-59.73169 Y3.32400
G01 X-59.83135 Y3.28562
G01 X-59.99061 Y3.23386
G01 X-60.07324 Y3.21166
G01 X-60.23255 Y3.17780
G01 X-60.30456 Y3.16637
G01 X-60.53085 Y3.14610
G01 X-60.69010 Y3.14610
G01 X-60.91639 Y3.16637
G01 X-60.98840 Y3.17780
G01 X-61.14771 Y3.21166
G01 X-61.23034 Y3.23386
G01 X-61.38959 Y3.28562
G01 X-61.48926 Y3.32400
G01 X-61.64857 Y3.39492
G01 X-61.77369 Y3.45887
G01 X-61.88047 Y3.52055
G01 X-61.98726 Y3.45887
G01 X-62.11238 Y3.39492
G01 X-62.27169 Y3.32400
G01 X-62.37138 Y3.28560
G01 X-62.53069 Y3.23386
G01 X-62.61324 Y3.21166
G01 X-62.77252 Y3.17780
G01 X-62.84456 Y3.16637
G01 X-63.07085 Y3.14610
G01 X-63.23013 Y3.14610
G01 X-63.45639 Y3.16637
G01 X-63.52840 Y3.17780
G01 X-63.68771 Y3.21166
G01 X-63.77034 Y3.23386
G01 X-63.92959 Y3.28562
G01 X-64.02926 Y3.32400
G01 X-64.18857 Y3.39492
G01 X-64.31369 Y3.45887
G01 X-64.42047 Y3.52055
G01 X-64.52726 Y3.45887
G01 X-64.65238 Y3.39492
G01 X-64.81169 Y3.32400
G01 X-64.91138 Y3.28560
G01 X-65.07069 Y3.23386
G01 X-65.15324 Y3.21166
G01 X-65.31252 Y3.17780
G01 X-65.38456 Y3.16637
G01 X-65.61085 Y3.14610
G01 X-65.77013 Y3.14610
G01 X-65.99639 Y3.16637
G01 X-66.06840 Y3.17780
G01 X-66.22771 Y3.21166
G01 X-66.31034 Y3.23386
G01 X-66.46959 Y3.28562
G01 X-66.56926 Y3.32400
G01 X-66.75832 Y3.40863
G01 X-66.82880 Y3.65720
G01 X-66.85105 Y3.76164
G01 X-66.87627 Y3.92095
G01 X-66.88638 Y4.01666
G01 X-66.89596 Y4.22250
G01 X-66.89596 Y5.23845
G01 X-66.88638 Y5.44429
G01 X-66.87627 Y5.54000
G01 X-66.85105 Y5.69931
G01 X-66.82880 Y5.80375
G01 X-66.75832 Y6.05232
G01 X-66.56926 Y6.13695
G01 X-66.46959 Y6.17533
G01 X-66.31034 Y6.22709
G01 X-66.22771 Y6.24929
G01 X-66.06840 Y6.28315
G01 X-65.99639 Y6.29458
G01 X-65.77013 Y6.31485
G01 X-65.61085 Y6.31485
G01 X-65.38456 Y6.29458
G01 X-65.31252 Y6.28315
G01 X-65.15324 Y6.24929
G01 X-65.07069 Y6.22709
G01 X-64.91138 Y6.17535
G01 X-64.81169 Y6.13695
G01 X-64.65238 Y6.06603
G01 X-64.52726 Y6.00207
G01 X-64.42047 Y5.94040
G04 P0 ( dwell for no time -- G64 should not smooth over this point )
G00 Z0.50000 ( retract )

G00 X-67.13477 Y9.59353 ( rapid move to begin. )
G01 F300.00000
( Mill infeed pass 1/1 )
G01 Z-0.07500
G04 P0 ( dwell for no time -- G64 should not smooth over this point )
G01 F600.00000
G01 X-67.13477 Y9.59353
G01 X-67.30122 Y9.19074
G01 X-67.60911 Y8.88231
G01 X-68.01160 Y8.71518
G01 X-68.44744 Y8.71477
G01 X-68.85021 Y8.88119
G01 X-69.15864 Y9.18911
G01 X-69.32577 Y9.59160
G01 X-69.32618 Y10.02744
G01 X-69.15976 Y10.43021
G01 X-68.85186 Y10.73864
G01 X-68.44935 Y10.90577
G01 X-68.01351 Y10.90618
G01 X-67.61077 Y10.73976
G01 X-67.30231 Y10.43183
G01 X-67.13518 Y10.02935
G01 X-67.13477 Y9.59353
G04 P0 ( dwell for no time -- G64 should not smooth over this point )
G00 Z0.50000 ( retract )

G00 X-62.97938 Y12.35047 ( rapid move to begin. )
G01 F300.00000
( Mill infeed pass 1/1 )
G01 Z-0.07500
G04 P0 ( dwell for no time -- G64 should not smooth over this point )
G01 F600.00000
G01 X-62.97938 Y12.35047
G01 X-63.13013 Y12.50006
G01 X-63.20674 Y12.56305
G01 X-63.35073 Y12.66391
G01 X-63.48593 Y12.73655
G01 X-63.62106 Y12.85553
G01 X-63.73630 Y12.97684
G01 X-63.77996 Y13.02901
G01 X-63.86940 Y13.21646
G01 X-63.93993 Y13.41197
G01 X-63.94979 Y13.64712
G01 X-63.94026 Y13.82713
G01 X-63.86940 Y14.02446
G01 X-63.78093 Y14.21031
G01 X-63.77171 Y14.22238
G01 X-63.62109 Y14.38545
G01 X-63.48748 Y14.50333
G01 X-63.35030 Y14.57717
G01 X-63.20671 Y14.67783
G01 X-63.12944 Y14.74143
G01 X-62.97938 Y14.89047
G04 P0 ( dwell for no time -- G64 should not smooth over this point )
G00 Z0.50000 ( retract )

G00 X-62.97938 Y17.43047 ( rapid move to begin. )
G01 F300.00000
( Mill infeed pass 1/1 )
G01 Z-0.07500
G04 P0 ( dwell for no time -- G64 should not smooth over this point )
G01 F600.00000
G01 X-62.97938 Y17.43047
G01 X-63.13013 Y17.58006
G01 X-63.20674 Y17.64305
G01 X-63.35073 Y17.74391
G01 X-63.48593 Y17.81655
G01 X-63.62106 Y17.93553
G01 X-63.73630 Y18.05686
G01 X-63.77996 Y18.10904
G01 X-63.86940 Y18.29646
G01 X-63.93993 Y18.49197
G01 X-63.94979 Y18.72714
G01 X-63.94026 Y18.90713
G01 X-63.86940 Y19.10449
G01 X-63.78093 Y19.29034
G01 X-63.77171 Y19.30238
G01 X-63.62109 Y19.46545
G01 X-63.48748 Y19.58333
G01 X-63.35030 Y19.65717
G01 X-63.20671 Y19.75783
G01 X-63.12944 Y19.82143
G01 X-62.97938 Y19.97047
G04 P0 ( dwell for no time -- G64 should not smooth over this point )
G00 Z0.50000 ( retract )

G00 X-62.97938 Y22.51047 ( rapid move to begin. )
G01 F300.00000
( Mill infeed pass 1/1 )
G01 Z-0.07500
G04 P0 ( dwell for no time -- G64 should not smooth over this point )
G01 F600.00000
G01 X-62.97938 Y22.51047
G01 X-63.13013 Y22.66006
G01 X-63.20674 Y22.72305
G01 X-63.35073 Y22.82391
G01 X-63.48593 Y22.89655
G01 X-63.62106 Y23.01553
G01 X-63.73630 Y23.13686
G01 X-63.77996 Y23.18904
G01 X-63.86940 Y23.37646
G01 X-63.93993 Y23.57197
G01 X-63.94979 Y23.80714
G01 X-63.94026 Y23.98713
G01 X-63.86940 Y24.18449
G01 X-63.78093 Y24.37034
G01 X-63.77171 Y24.38238
G01 X-63.62109 Y24.54545
G01 X-63.48748 Y24.66333
G01 X-63.35030 Y24.73717
G01 X-63.20671 Y24.83783
G01 X-63.12944 Y24.90143
G01 X-62.97938 Y25.05047
G04 P0 ( dwell for no time -- G64 should not smooth over this point )
G00 Z0.50000 ( retract )

G00 X-69.09918 Y31.40047 ( rapid move to begin. )
G01 F300.00000
( Mill infeed pass 1/1 )
G01 Z-0.07500
G04 P0 ( dwell for no time -- G64 should not smooth over this point )
G01 F600.00000
G01 X-69.09918 Y31.40047
G01 X-69.16202 Y31.27711
G01 X-69.22595 Y31.13403
G01 X-69.28709 Y30.97469
G01 X-69.32610 Y30.85504
G01 X-69.36880 Y30.69575
G01 X-69.39105 Y30.59131
G01 X-69.41627 Y30.43200
G01 X-69.42638 Y30.33629
G01 X-69.43471 Y30.17701
G01 X-69.43471 Y30.08399
G01 X-69.42638 Y29.92466
G01 X-69.41627 Y29.82895
G01 X-69.39105 Y29.66964
G01 X-69.36880 Y29.56520
G01 X-69.32793 Y29.41275
G01 X-69.21272 Y29.35321
G01 X-69.05359 Y29.28214
G01 X-68.87160 Y29.20965
G01 X-68.71226 Y29.12804
G01 X-68.54818 Y29.01892
G01 X-68.45651 Y28.94991
G01 X-68.35628 Y28.86047
G01 X-68.10464 Y28.86047
G01 X-68.05217 Y28.90840
G01 X-67.94792 Y28.99355
G01 X-67.83408 Y29.07488
G01 X-67.74866 Y29.12806
G01 X-67.58938 Y29.20965
G01 X-67.40729 Y29.28206
G01 X-67.24798 Y29.35301
G01 X-67.13939 Y29.40853
G01 X-66.96047 Y29.51201
G04 P0 ( dwell for no time -- G64 should not smooth over this point )
G00 Z0.50000 ( retract )

G00 X-62.97953 Y27.59047 ( rapid move to begin. )
G01 F300.00000
( Mill infeed pass 1/1 )
G01 Z-0.07500
G04 P0 ( dwell for no time -- G64 should not smooth over this point )
G01 F600.00000
G01 X-62.97953 Y27.59047
G01 X-63.13671 Y27.74679
G01 X-63.20674 Y27.80305
G01 X-63.35073 Y27.90391
G01 X-63.48593 Y27.97655
G01 X-63.62106 Y28.09553
G01 X-63.73630 Y28.21684
G01 X-63.77996 Y28.26901
G01 X-63.86940 Y28.45646
G01 X-63.93993 Y28.65197
G01 X-63.94979 Y28.88714
G01 X-63.94026 Y29.06713
G01 X-63.86940 Y29.26449
G01 X-63.78093 Y29.45034
G01 X-63.77171 Y29.46238
G01 X-63.62109 Y29.62545
G01 X-63.48748 Y29.74333
G01 X-63.35030 Y29.81717
G01 X-63.20671 Y29.91783
G01 X-63.12944 Y29.98143
G01 X-62.97953 Y30.13047
G04 P0 ( dwell for no time -- G64 should not smooth over this point )
G00 Z0.50000 ( retract )

G00 X-65.35492 Y31.40047 ( rapid move to begin. )
G01 F300.00000
( Mill infeed pass 1/1 )
G01 Z-0.07500
G04 P0 ( dwell for no time -- G64 should not smooth over this point )
G01 F600.00000
G01 X-65.35492 Y31.40047
G01 X-65.26574 Y31.28023
G01 X-65.16218 Y31.12120
G01 X-65.07844 Y30.98259
G01 X-64.98918 Y30.86913
G01 X-64.83922 Y30.70142
G01 X-64.75227 Y30.51907
G01 X-64.68461 Y30.33146
G01 X-64.67519 Y30.15709
G01 X-64.68428 Y29.93124
G01 X-64.75227 Y29.74188
G01 X-64.77331 Y29.69288
G01 X-64.83787 Y29.56184
G01 X-64.94582 Y29.44175
G01 X-65.06205 Y29.30132
G01 X-65.26556 Y28.98034
G01 X-65.35459 Y28.86047
G01 X-65.26584 Y28.74003
G01 X-65.09195 Y28.46370
G01 X-65.03683 Y28.38758
G01 X-64.95974 Y28.29505
G01 X-64.88128 Y28.21189
G01 X-64.83922 Y28.16142
G01 X-64.77336 Y28.02804
G01 X-64.68461 Y27.79146
G01 X-64.67519 Y27.61709
G01 X-64.68428 Y27.39124
G01 X-64.75227 Y27.20188
G01 X-64.83787 Y27.02184
G01 X-65.02423 Y26.80894
G01 X-65.07882 Y26.73645
G01 X-65.13099 Y26.65273
G01 X-65.33952 Y26.60643
G01 X-65.55723 Y26.58039
G01 X-65.77013 Y26.57760
G01 X-65.98303 Y26.59713
G01 X-66.20071 Y26.64029
G01 X-66.34612 Y26.68369
G01 X-66.43701 Y26.86320
G01 X-66.47125 Y26.91997
G01 X-66.54028 Y27.01656
G01 X-66.64551 Y27.22631
G01 X-66.68651 Y27.29680
G01 X-66.79347 Y27.44242
G01 X-66.92202 Y27.58567
G01 X-66.81155 Y27.70848
G01 X-66.69941 Y27.86165
G01 X-66.64620 Y27.95037
G01 X-66.54056 Y28.16416
G01 X-66.45227 Y28.29197
G01 X-66.30747 Y28.57516
G01 X-66.13421 Y28.86047
G01 X-65.35459 Y28.86047
G01 X-66.13421 Y28.86047
G01 X-66.22156 Y28.96002
G01 X-66.27467 Y29.01420
G01 X-66.39878 Y29.13312
G01 X-66.47020 Y29.19278
G01 X-66.56332 Y29.26515
G01 X-66.68199 Y29.34488
G01 X-66.96047 Y29.51201
G01 X-66.96047 Y31.34703
G01 X-66.90891 Y31.40047
G01 X-65.35492 Y31.40047
G01 X-65.26591 Y31.52110
G01 X-65.07882 Y31.81648
G01 X-64.98918 Y31.93184
G01 X-64.83848 Y32.10060
G01 X-64.75227 Y32.28188
G01 X-64.68428 Y32.47124
G01 X-64.67519 Y32.69709
G01 X-64.68461 Y32.87146
G01 X-64.75227 Y33.05907
G01 X-64.83879 Y33.24058
G01 X-64.97224 Y33.38879
G01 X-65.03683 Y33.46758
G01 X-65.09195 Y33.54370
G01 X-65.13096 Y33.60819
G01 X-65.33952 Y33.65452
G01 X-65.39792 Y33.66379
G01 X-65.61085 Y33.68335
G01 X-65.77013 Y33.68335
G01 X-65.98303 Y33.66379
G01 X-66.20071 Y33.62066
G01 X-66.26906 Y33.60230
G01 X-66.42834 Y33.55053
G01 X-66.51272 Y33.51805
G01 X-66.67203 Y33.44711
G01 X-66.78036 Y33.39173
G01 X-66.96047 Y33.28752
G01 X-66.96047 Y31.45392
G01 X-67.01204 Y31.40047
G01 X-66.96047 Y31.45392
G01 X-66.90891 Y31.40047
G01 X-66.96047 Y31.34703
G01 X-67.01204 Y31.40047
G01 X-69.09918 Y31.40047
G01 X-69.16202 Y31.52384
G01 X-69.22595 Y31.66692
G01 X-69.28709 Y31.82625
G01 X-69.32610 Y31.94591
G01 X-69.36880 Y32.10520
G01 X-69.39105 Y32.20964
G01 X-69.41627 Y32.36895
G01 X-69.42638 Y32.46466
G01 X-69.43471 Y32.62399
G01 X-69.43471 Y32.71701
G01 X-69.42638 Y32.87629
G01 X-69.41627 Y32.97200
G01 X-69.39105 Y33.13131
G01 X-69.36880 Y33.23575
G01 X-69.32821 Y33.38721
G01 X-69.21203 Y33.44711
G01 X-69.05272 Y33.51805
G01 X-68.96834 Y33.55053
G01 X-68.80906 Y33.60230
G01 X-68.74071 Y33.62066
G01 X-68.52303 Y33.66379
G01 X-68.31013 Y33.68335
G01 X-68.15082 Y33.68335
G01 X-67.93792 Y33.66379
G01 X-67.72024 Y33.62066
G01 X-67.65194 Y33.60230
G01 X-67.49266 Y33.55056
G01 X-67.40823 Y33.51805
G01 X-67.24892 Y33.44711
G01 X-67.14059 Y33.39173
G01 X-66.96047 Y33.28752
G04 P0 ( dwell for no time -- G64 should not smooth over this point )
G00 Z0.50000 ( retract )

G00 X-62.97953 Y32.67047 ( rapid move to begin. )
G01 F300.00000
( Mill infeed pass 1/1 )
G01 Z-0.07500
G04 P0 ( dwell for no time -- G64 should not smooth over this point )
G01 F600.00000
G01 X-62.97953 Y32.67047
G01 X-63.13671 Y32.82679
G01 X-63.20674 Y32.88305
G01 X-63.35073 Y32.98391
G01 X-63.48593 Y33.05655
G01 X-63.62106 Y33.17553
G01 X-63.73630 Y33.29684
G01 X-63.77996 Y33.34901
G01 X-63.86940 Y33.53646
G01 X-63.93993 Y33.73197
G01 X-63.94979 Y33.96714
G01 X-63.94026 Y34.14713
G01 X-63.86940 Y34.34449
G01 X-63.78093 Y34.53034
G01 X-63.77171 Y34.54238
G01 X-63.62109 Y34.70545
G01 X-63.48748 Y34.82333
G01 X-63.35030 Y34.89717
G01 X-63.20671 Y34.99783
G01 X-63.12944 Y35.06143
G01 X-62.97953 Y35.21047
G04 P0 ( dwell for no time -- G64 should not smooth over this point )
G00 Z0.50000 ( retract )

G00 X-67.13477 Y37.53353 ( rapid move to begin. )
G01 F300.00000
( Mill infeed pass 1/1 )
G01 Z-0.07500
G04 P0 ( dwell for no time -- G64 should not smooth over this point )
G01 F600.00000
G01 X-67.13477 Y37.53353
G01 X-67.30119 Y37.13074
G01 X-67.60911 Y36.82231
G01 X-68.01160 Y36.65518
G01 X-68.44744 Y36.65477
G01 X-68.85021 Y36.82119
G01 X-69.15864 Y37.12911
G01 X-69.32577 Y37.53163
G01 X-69.32618 Y37.96744
G01 X-69.15973 Y38.37021
G01 X-68.85183 Y38.67864
G01 X-68.44935 Y38.84577
G01 X-68.01351 Y38.84618
G01 X-67.61077 Y38.67976
G01 X-67.30231 Y38.37183
G01 X-67.13518 Y37.96935
G01 X-67.13477 Y37.53353
G04 P0 ( dwell for no time -- G64 should not smooth over this point )
G00 Z0.50000 ( retract )

G00 X-62.97953 Y37.75047 ( rapid move to begin. )
G01 F300.00000
( Mill infeed pass 1/1 )
G01 Z-0.07500
G04 P0 ( dwell for no time -- G64 should not smooth over this point )
G01 F600.00000
G01 X-62.97953 Y37.75047
G01 X-63.13671 Y37.90679
G01 X-63.20674 Y37.96305
G01 X-63.35073 Y38.06391
G01 X-63.48593 Y38.13655
G01 X-63.62106 Y38.25553
G01 X-63.73630 Y38.37684
G01 X-63.77996 Y38.42901
G01 X-63.86940 Y38.61646
G01 X-63.93993 Y38.81197
G01 X-63.94979 Y39.04714
G01 X-63.94026 Y39.22713
G01 X-63.86940 Y39.42449
G01 X-63.78093 Y39.61034
G01 X-63.77171 Y39.62238
G01 X-63.62109 Y39.78545
G01 X-63.48748 Y39.90333
G01 X-63.35030 Y39.97717
G01 X-63.20671 Y40.07783
G01 X-63.12944 Y40.14143
G01 X-62.97953 Y40.29047
G04 P0 ( dwell for no time -- G64 should not smooth over this point )
G00 Z0.50000 ( retract )

G00 X-62.97953 Y42.83047 ( rapid move to begin. )
G01 F300.00000
( Mill infeed pass 1/1 )
G01 Z-0.07500
G04 P0 ( dwell for no time -- G64 should not smooth over this point )
G01 F600.00000
G01 X-62.97953 Y42.83047
G01 X-63.13671 Y42.98679
G01 X-63.20674 Y43.04305
G01 X-63.35073 Y43.14391
G01 X-63.48593 Y43.21655
G01 X-63.62106 Y43.33553
G01 X-63.73630 Y43.45686
G01 X-63.77996 Y43.50904
G01 X-63.86940 Y43.69646
G01 X-63.93993 Y43.89197
G01 X-63.94979 Y44.12714
G01 X-63.94026 Y44.30713
G01 X-63.86940 Y44.50449
G01 X-63.78093 Y44.69034
G01 X-63.77171 Y44.70238
G01 X-63.62109 Y44.86545
G01 X-63.48748 Y44.98333
G01 X-63.35030 Y45.05717
G01 X-63.20671 Y45.15783
G01 X-63.12944 Y45.22143
G01 X-62.97953 Y45.37047
G04 P0 ( dwell for no time -- G64 should not smooth over this point )
G00 Z0.50000 ( retract )

G00 X-59.08647 Y49.26196 ( rapid move to begin. )
G01 F300.00000
( Mill infeed pass 1/1 )
G01 Z-0.07500
G04 P0 ( dwell for no time -- G64 should not smooth over this point )
G01 F600.00000
G01 X-59.08647 Y49.26196
G01 X-59.20865 Y49.38525
G01 X-59.31706 Y49.51200
G01 X-59.37032 Y49.58881
G01 X-59.42236 Y49.67420
G01 X-59.48109 Y49.78248
G01 X-59.63189 Y49.94542
G01 X-59.76697 Y50.06437
G01 X-59.85175 Y50.10854
G01 X-60.05576 Y50.19302
G01 X-60.15018 Y50.22231
G01 X-60.27286 Y50.23231
G01 X-60.44009 Y50.23224
G01 X-60.56458 Y50.22193
G01 X-60.70750 Y50.17455
G01 X-60.86117 Y50.10846
G01 X-60.94748 Y50.06333
G01 X-61.08109 Y49.94542
G01 X-61.23171 Y49.78238
G01 X-61.29046 Y49.67466
G01 X-61.34273 Y49.58883
G01 X-61.39574 Y49.51233
G01 X-61.51372 Y49.37595
G01 X-61.62647 Y49.26196
G04 P0 ( dwell for no time -- G64 should not smooth over this point )
G00 Z0.50000 ( retract )

G00 X-62.97953 Y47.91047 ( rapid move to begin. )
G01 F300.00000
( Mill infeed pass 1/1 )
G01 Z-0.07500
G04 P0 ( dwell for no time -- G64 should not smooth over this point )
G01 F600.00000
G01 X-62.97953 Y47.91047
G01 X-63.12944 Y47.76143
G01 X-63.20671 Y47.69783
G01 X-63.35030 Y47.59717
G01 X-63.48748 Y47.52333
G01 X-63.62109 Y47.40545
G01 X-63.77171 Y47.24238
G01 X-63.78093 Y47.23034
G01 X-63.86940 Y47.04449
G01 X-63.94026 Y46.84713
G01 X-63.94979 Y46.66714
G01 X-63.93993 Y46.43197
G01 X-63.86940 Y46.23646
G01 X-63.77996 Y46.04901
G01 X-63.73630 Y45.99684
G01 X-63.62106 Y45.87553
G01 X-63.48593 Y45.75655
G01 X-63.35073 Y45.68391
G01 X-63.20674 Y45.58305
G01 X-63.13671 Y45.52679
G01 X-62.97953 Y45.37047
G01 X-4.39342 Y45.37047
G01 X-4.24277 Y45.22087
G01 X-4.16621 Y45.15790
G01 X-4.02220 Y45.05704
G01 X-3.88697 Y44.98437
G01 X-3.75189 Y44.86542
G01 X-3.60109 Y44.70248
G01 X-3.52463 Y44.55348
G01 X-3.50355 Y44.50449
G01 X-3.43299 Y44.30896
G01 X-3.42316 Y44.12714
G01 X-3.43266 Y43.89379
G01 X-3.50355 Y43.69646
G01 X-3.59202 Y43.51058
G01 X-3.63675 Y43.45694
G01 X-3.75186 Y43.33550
G01 X-3.88544 Y43.21762
G01 X-4.02263 Y43.14378
G01 X-4.16624 Y43.04312
G01 X-4.23693 Y42.98620
G01 X-4.39342 Y42.83047
G01 X-62.97953 Y42.83047
G01 X-63.12944 Y42.68143
G01 X-63.20671 Y42.61783
G01 X-63.35030 Y42.51717
G01 X-63.48748 Y42.44333
G01 X-63.62109 Y42.32545
G01 X-63.77171 Y42.16238
G01 X-63.78093 Y42.15034
G01 X-63.86940 Y41.96449
G01 X-63.94026 Y41.76713
G01 X-63.94979 Y41.58714
G01 X-63.93993 Y41.35197
G01 X-63.86940 Y41.15646
G01 X-63.77996 Y40.96901
G01 X-63.73630 Y40.91684
G01 X-63.62106 Y40.79553
G01 X-63.48593 Y40.67655
G01 X-63.35073 Y40.60391
G01 X-63.20674 Y40.50305
G01 X-63.13671 Y40.44679
G01 X-62.97953 Y40.29047
G01 X-4.39342 Y40.29047
G01 X-4.24277 Y40.14087
G01 X-4.16621 Y40.07790
G01 X-4.02220 Y39.97704
G01 X-3.88697 Y39.90437
G01 X-3.75189 Y39.78542
G01 X-3.60109 Y39.62248
G01 X-3.52463 Y39.47348
G01 X-3.50355 Y39.42449
G01 X-3.43299 Y39.22896
G01 X-3.42316 Y39.04714
G01 X-3.43266 Y38.81379
G01 X-3.50355 Y38.61646
G01 X-3.59202 Y38.43059
G01 X-3.63675 Y38.37694
G01 X-3.75186 Y38.25550
G01 X-3.88544 Y38.13762
G01 X-4.02263 Y38.06378
G01 X-4.16624 Y37.96312
G01 X-4.23693 Y37.90620
G01 X-4.39342 Y37.75047
G01 X-62.97953 Y37.75047
G01 X-63.12944 Y37.60143
G01 X-63.20671 Y37.53783
G01 X-63.35030 Y37.43717
G01 X-63.48748 Y37.36333
G01 X-63.62109 Y37.24545
G01 X-63.77171 Y37.08238
G01 X-63.78093 Y37.07034
G01 X-63.86940 Y36.88449
G01 X-63.94026 Y36.68713
G01 X-63.94979 Y36.50714
G01 X-63.93993 Y36.27197
G01 X-63.86940 Y36.07646
G01 X-63.77996 Y35.88904
G01 X-63.73630 Y35.83686
G01 X-63.62106 Y35.71553
G01 X-63.48593 Y35.59655
G01 X-63.35073 Y35.52391
G01 X-63.20674 Y35.42305
G01 X-63.13671 Y35.36679
G01 X-62.97953 Y35.21047
G01 X-4.39342 Y35.21047
G01 X-4.24277 Y35.06087
G01 X-4.16621 Y34.99790
G01 X-4.02220 Y34.89704
G01 X-3.88697 Y34.82437
G01 X-3.75189 Y34.70542
G01 X-3.60109 Y34.54248
G01 X-3.52463 Y34.39348
G01 X-3.50355 Y34.34449
G01 X-3.43299 Y34.14896
G01 X-3.42316 Y33.96714
G01 X-3.43266 Y33.73379
G01 X-3.50355 Y33.53646
G01 X-3.59202 Y33.35059
G01 X-3.63675 Y33.29694
G01 X-3.75186 Y33.17550
G01 X-3.88544 Y33.05762
G01 X-4.02263 Y32.98378
G01 X-4.16624 Y32.88312
G01 X-4.23693 Y32.82620
G01 X-4.39342 Y32.67047
G01 X-62.97953 Y32.67047
G01 X-63.12944 Y32.52143
G01 X-63.20671 Y32.45783
G01 X-63.35030 Y32.35717
G01 X-63.48748 Y32.28333
G01 X-63.62109 Y32.16545
G01 X-63.77171 Y32.00238
G01 X-63.78093 Y31.99034
G01 X-63.86940 Y31.80449
G01 X-63.94026 Y31.60713
G01 X-63.94979 Y31.42714
G01 X-63.93993 Y31.19197
G01 X-63.86940 Y30.99646
G01 X-63.77996 Y30.80904
G01 X-63.73630 Y30.75686
G01 X-63.62106 Y30.63553
G01 X-63.48593 Y30.51655
G01 X-63.35073 Y30.44391
G01 X-63.20674 Y30.34305
G01 X-63.13671 Y30.28679
G01 X-62.97953 Y30.13047
G01 X-4.39342 Y30.13047
G01 X-4.24277 Y29.98087
G01 X-4.16621 Y29.91790
G01 X-4.02220 Y29.81704
G01 X-3.88697 Y29.74437
G01 X-3.75189 Y29.62542
G01 X-3.60109 Y29.46248
G01 X-3.52463 Y29.31348
G01 X-3.50355 Y29.26449
G01 X-3.43299 Y29.06896
G01 X-3.42316 Y28.88714
G01 X-3.43266 Y28.65379
G01 X-3.50355 Y28.45646
G01 X-3.59202 Y28.27059
G01 X-3.63675 Y28.21694
G01 X-3.75186 Y28.09550
G01 X-3.88544 Y27.97762
G01 X-4.02263 Y27.90378
G01 X-4.16624 Y27.80312
G01 X-4.23693 Y27.74620
G01 X-4.39342 Y27.59047
G01 X-62.97953 Y27.59047
G01 X-63.12944 Y27.44140
G01 X-63.20671 Y27.37783
G01 X-63.35030 Y27.27714
G01 X-63.48748 Y27.20330
G01 X-63.62109 Y27.08545
G01 X-63.77171 Y26.92235
G01 X-63.78093 Y26.91034
G01 X-63.86940 Y26.72449
G01 X-63.94026 Y26.52713
G01 X-63.94979 Y26.34714
G01 X-63.93993 Y26.11197
G01 X-63.86940 Y25.91646
G01 X-63.77996 Y25.72901
G01 X-63.73630 Y25.67684
G01 X-63.62106 Y25.55553
G01 X-63.48593 Y25.43655
G01 X-63.35073 Y25.36391
G01 X-63.20674 Y25.26305
G01 X-63.13013 Y25.20006
G01 X-62.97938 Y25.05047
G01 X-4.39342 Y25.05047
G01 X-4.24277 Y24.90087
G01 X-4.16621 Y24.83790
G01 X-4.02220 Y24.73704
G01 X-3.88697 Y24.66437
G01 X-3.75189 Y24.54542
G01 X-3.60109 Y24.38248
G01 X-3.52463 Y24.23348
G01 X-3.50355 Y24.18449
G01 X-3.43299 Y23.98896
G01 X-3.42316 Y23.80714
G01 X-3.43266 Y23.57379
G01 X-3.50355 Y23.37646
G01 X-3.59202 Y23.19058
G01 X-3.63675 Y23.13694
G01 X-3.75186 Y23.01550
G01 X-3.88544 Y22.89762
G01 X-4.02263 Y22.82378
G01 X-4.16624 Y22.72312
G01 X-4.23693 Y22.66620
G01 X-4.39342 Y22.51047
G01 X-62.97938 Y22.51047
G01 X-63.12944 Y22.36143
G01 X-63.20671 Y22.29783
G01 X-63.35030 Y22.19717
G01 X-63.48748 Y22.12333
G01 X-63.62109 Y22.00545
G01 X-63.77171 Y21.84238
G01 X-63.78093 Y21.83034
G01 X-63.86940 Y21.64449
G01 X-63.94026 Y21.44713
G01 X-63.94979 Y21.26714
G01 X-63.93993 Y21.03197
G01 X-63.86940 Y20.83646
G01 X-63.77996 Y20.64901
G01 X-63.73630 Y20.59684
G01 X-63.62106 Y20.47553
G01 X-63.48593 Y20.35655
G01 X-63.35073 Y20.28391
G01 X-63.20674 Y20.18305
G01 X-63.13013 Y20.12006
G01 X-62.97938 Y19.97047
G01 X-4.39342 Y19.97047
G01 X-4.24277 Y19.82087
G01 X-4.16621 Y19.75790
G01 X-4.02220 Y19.65704
G01 X-3.88697 Y19.58437
G01 X-3.75189 Y19.46542
G01 X-3.60109 Y19.30248
G01 X-3.52463 Y19.15348
G01 X-3.50355 Y19.10449
G01 X-3.43299 Y18.90896
G01 X-3.42316 Y18.72714
G01 X-3.43266 Y18.49379
G01 X-3.50355 Y18.29646
G01 X-3.59202 Y18.11059
G01 X-3.63675 Y18.05694
G01 X-3.75186 Y17.93550
G01 X-3.88544 Y17.81762
G01 X-4.02263 Y17.74378
G01 X-4.16624 Y17.64312
G01 X-4.23693 Y17.58620
G01 X-4.39342 Y17.43047
G01 X-62.97938 Y17.43047
G01 X-63.12944 Y17.28143
G01 X-63.20671 Y17.21783
G01 X-63.35030 Y17.11717
G01 X-63.48748 Y17.04333
G01 X-63.62109 Y16.92545
G01 X-63.77171 Y16.76238
G01 X-63.78093 Y16.75034
G01 X-63.86940 Y16.56449
G01 X-63.94026 Y16.36713
G01 X-63.94979 Y16.18714
G01 X-63.93993 Y15.95197
G01 X-63.86940 Y15.75646
G01 X-63.77996 Y15.56901
G01 X-63.73630 Y15.51684
G01 X-63.62106 Y15.39553
G01 X-63.48593 Y15.27655
G01 X-63.35073 Y15.20391
G01 X-63.20674 Y15.10305
G01 X-63.13013 Y15.04006
G01 X-62.97938 Y14.89047
G01 X-4.39342 Y14.89047
G01 X-4.24277 Y14.74087
G01 X-4.16621 Y14.67790
G01 X-4.02220 Y14.57704
G01 X-3.88697 Y14.50437
G01 X-3.75189 Y14.38542
G01 X-3.60109 Y14.22248
G01 X-3.52463 Y14.07348
G01 X-3.50355 Y14.02446
G01 X-3.43299 Y13.82893
G01 X-3.42316 Y13.64712
G01 X-3.43266 Y13.41379
G01 X-3.50355 Y13.21646
G01 X-3.59202 Y13.03059
G01 X-3.63675 Y12.97694
G01 X-3.75186 Y12.85550
G01 X-3.88544 Y12.73762
G01 X-4.02263 Y12.66378
G01 X-4.16624 Y12.56312
G01 X-4.23693 Y12.50620
G01 X-4.39342 Y12.35047
G04 P0 ( dwell for no time -- G64 should not smooth over this point )
G00 Z0.50000 ( retract )

G00 X-4.39342 Y14.89047 ( rapid move to begin. )
G01 F300.00000
( Mill infeed pass 1/1 )
G01 Z-0.07500
G04 P0 ( dwell for no time -- G64 should not smooth over this point )
G01 F600.00000
G01 X-4.39342 Y14.89047
G01 X-4.31003 Y14.97534
G01 X-4.21031 Y15.06805
G01 X-4.11470 Y15.14224
G01 X-4.02263 Y15.20378
G01 X-3.88544 Y15.27762
G01 X-3.75186 Y15.39550
G01 X-3.60124 Y15.55857
G01 X-3.59202 Y15.57058
G01 X-3.50355 Y15.75646
G01 X-3.43266 Y15.95379
G01 X-3.42316 Y16.13383
G01 X-3.43299 Y16.36896
G01 X-3.50355 Y16.56449
G01 X-3.59296 Y16.75189
G01 X-3.63665 Y16.80409
G01 X-3.75189 Y16.92542
G01 X-3.88697 Y17.04437
G01 X-4.02220 Y17.11704
G01 X-4.16621 Y17.21790
G01 X-4.24277 Y17.28087
G01 X-4.39342 Y17.43047
G04 P0 ( dwell for no time -- G64 should not smooth over this point )
G00 Z0.50000 ( retract )

G00 X-4.39342 Y19.97047 ( rapid move to begin. )
G01 F300.00000
( Mill infeed pass 1/1 )
G01 Z-0.07500
G04 P0 ( dwell for no time -- G64 should not smooth over this point )
G01 F600.00000
G01 X-4.39342 Y19.97047
G01 X-4.23693 Y20.12620
G01 X-4.16624 Y20.18312
G01 X-4.02263 Y20.28378
G01 X-3.88544 Y20.35762
G01 X-3.75186 Y20.47550
G01 X-3.60124 Y20.63857
G01 X-3.59202 Y20.65058
G01 X-3.50355 Y20.83646
G01 X-3.43266 Y21.03379
G01 X-3.42316 Y21.21383
G01 X-3.43299 Y21.44896
G01 X-3.50355 Y21.64449
G01 X-3.59296 Y21.83189
G01 X-3.63665 Y21.88409
G01 X-3.75189 Y22.00542
G01 X-3.88697 Y22.12437
G01 X-4.02220 Y22.19704
G01 X-4.16621 Y22.29790
G01 X-4.24277 Y22.36087
G01 X-4.39342 Y22.51047
G04 P0 ( dwell for no time -- G64 should not smooth over this point )
G00 Z0.50000 ( retract )

G00 X-4.39342 Y25.05047 ( rapid move to begin. )
G01 F300.00000
( Mill infeed pass 1/1 )
G01 Z-0.07500
G04 P0 ( dwell for no time -- G64 should not smooth over this point )
G01 F600.00000
G01 X-4.39342 Y25.05047
G01 X-4.31003 Y25.13534
G01 X-4.21031 Y25.22805
G01 X-4.11470 Y25.30224
G01 X-4.02263 Y25.36378
G01 X-3.88544 Y25.43762
G01 X-3.75186 Y25.55550
G01 X-3.60124 Y25.71857
G01 X-3.59202 Y25.73059
G01 X-3.50355 Y25.91646
G01 X-3.43266 Y26.11379
G01 X-3.42316 Y26.29383
G01 X-3.43299 Y26.52896
G01 X-3.50355 Y26.72449
G01 X-3.59296 Y26.91189
G01 X-3.63665 Y26.96409
G01 X-3.75189 Y27.08540
G01 X-3.88697 Y27.20437
G01 X-4.02220 Y27.27704
G01 X-4.16621 Y27.37790
G01 X-4.24277 Y27.44087
G01 X-4.39342 Y27.59047
G04 P0 ( dwell for no time -- G64 should not smooth over this point )
G00 Z0.50000 ( retract )

G00 X-4.39342 Y30.13047 ( rapid move to begin. )
G01 F300.00000
( Mill infeed pass 1/1 )
G01 Z-0.07500
G04 P0 ( dwell for no time -- G64 should not smooth over this point )
G01 F600.00000
G01 X-4.39342 Y30.13047
G01 X-4.23693 Y30.28620
G01 X-4.16624 Y30.34312
G01 X-4.02263 Y30.44378
G01 X-3.88544 Y30.51762
G01 X-3.75186 Y30.63550
G01 X-3.60124 Y30.79857
G01 X-3.59202 Y30.81058
G01 X-3.50355 Y30.99646
G01 X-3.43266 Y31.19379
G01 X-3.42316 Y31.37383
G01 X-3.43299 Y31.60896
G01 X-3.50355 Y31.80449
G01 X-3.59296 Y31.99189
G01 X-3.63665 Y32.04409
G01 X-3.75189 Y32.16542
G01 X-3.88697 Y32.28437
G01 X-4.02220 Y32.35704
G01 X-4.16621 Y32.45790
G01 X-4.24277 Y32.52087
G01 X-4.39342 Y32.67047
G04 P0 ( dwell for no time -- G64 should not smooth over this point )
G00 Z0.50000 ( retract )

G00 X-4.39342 Y35.21047 ( rapid move to begin. )
G01 F300.00000
( Mill infeed pass 1/1 )
G01 Z-0.07500
G04 P0 ( dwell for no time -- G64 should not smooth over this point )
G01 F600.00000
G01 X-4.39342 Y35.21047
G01 X-4.23693 Y35.36620
G01 X-4.16624 Y35.42312
G01 X-4.02263 Y35.52378
G01 X-3.88544 Y35.59762
G01 X-3.75186 Y35.71550
G01 X-3.60124 Y35.87857
G01 X-3.59202 Y35.89059
G01 X-3.50355 Y36.07646
G01 X-3.43266 Y36.27379
G01 X-3.42316 Y36.45383
G01 X-3.43299 Y36.68896
G01 X-3.50355 Y36.88449
G01 X-3.59296 Y37.07189
G01 X-3.63665 Y37.12409
G01 X-3.75189 Y37.24542
G01 X-3.88697 Y37.36437
G01 X-4.02220 Y37.43704
G01 X-4.16621 Y37.53790
G01 X-4.24277 Y37.60087
G01 X-4.39342 Y37.75047
G04 P0 ( dwell for no time -- G64 should not smooth over this point )
G00 Z0.50000 ( retract )

G00 X-4.39342 Y40.29047 ( rapid move to begin. )
G01 F300.00000
( Mill infeed pass 1/1 )
G01 Z-0.07500
G04 P0 ( dwell for no time -- G64 should not smooth over this point )
G01 F600.00000
G01 X-4.39342 Y40.29047
G01 X-4.23693 Y40.44620
G01 X-4.16624 Y40.50312
G01 X-4.02263 Y40.60378
G01 X-3.88544 Y40.67762
G01 X-3.75186 Y40.79550
G01 X-3.60124 Y40.95857
G01 X-3.59202 Y40.97058
G01 X-3.50355 Y41.15646
G01 X-3.43266 Y41.35379
G01 X-3.42316 Y41.53383
G01 X-3.43299 Y41.76896
G01 X-3.50355 Y41.96449
G01 X-3.59296 Y42.15189
G01 X-3.63665 Y42.20409
G01 X-3.75189 Y42.32542
G01 X-3.88697 Y42.44437
G01 X-4.02220 Y42.51704
G01 X-4.16621 Y42.61790
G01 X-4.24277 Y42.68087
G01 X-4.39342 Y42.83047
G04 P0 ( dwell for no time -- G64 should not smooth over this point )
G00 Z0.50000 ( retract )

G00 X-4.39342 Y45.37047 ( rapid move to begin. )
G01 F300.00000
( Mill infeed pass 1/1 )
G01 Z-0.07500
G04 P0 ( dwell for no time -- G64 should not smooth over this point )
G01 F600.00000
G01 X-4.39342 Y45.37047
G01 X-4.23693 Y45.52620
G01 X-4.16624 Y45.58312
G01 X-4.02263 Y45.68378
G01 X-3.88544 Y45.75762
G01 X-3.75186 Y45.87550
G01 X-3.60124 Y46.03857
G01 X-3.59202 Y46.05058
G01 X-3.50355 Y46.23646
G01 X-3.43266 Y46.43379
G01 X-3.42316 Y46.61383
G01 X-3.43299 Y46.84896
G01 X-3.50355 Y47.04449
G01 X-3.59296 Y47.23189
G01 X-3.63665 Y47.28409
G01 X-3.75189 Y47.40542
G01 X-3.88697 Y47.52437
G01 X-4.02220 Y47.59704
G01 X-4.16621 Y47.69790
G01 X-4.24277 Y47.76087
G01 X-4.39342 Y47.91047
G04 P0 ( dwell for no time -- G64 should not smooth over this point )
G00 Z0.50000 ( retract )

G00 X-10.82647 Y49.26196 ( rapid move to begin. )
G01 F300.00000
( Mill infeed pass 1/1 )
G01 Z-0.07500
G04 P0 ( dwell for no time -- G64 should not smooth over this point )
G01 F600.00000
G01 X-10.82647 Y49.26196
G01 X-10.94865 Y49.38525
G01 X-11.05706 Y49.51200
G01 X-11.11032 Y49.58881
G01 X-11.16236 Y49.67420
G01 X-11.22109 Y49.78248
G01 X-11.37189 Y49.94542
G01 X-11.50697 Y50.06437
G01 X-11.59175 Y50.10854
G01 X-11.79576 Y50.19302
G01 X-11.89018 Y50.22231
G01 X-12.01283 Y50.23231
G01 X-12.18012 Y50.23224
G01 X-12.30458 Y50.22193
G01 X-12.44750 Y50.17455
G01 X-12.60117 Y50.10846
G01 X-12.68748 Y50.06333
G01 X-12.82109 Y49.94542
G01 X-12.97171 Y49.78238
G01 X-13.03046 Y49.67466
G01 X-13.08273 Y49.58883
G01 X-13.13574 Y49.51233
G01 X-13.25372 Y49.37595
G01 X-13.36647 Y49.26196
G01 X-13.36647 Y8.45909
G01 X-13.25433 Y8.34571
G01 X-13.13587 Y8.20890
G01 X-13.08263 Y8.13214
G01 X-13.03059 Y8.04672
G01 X-12.97186 Y7.93847
G01 X-12.82106 Y7.77553
G01 X-12.68596 Y7.65658
G01 X-12.60120 Y7.61241
G01 X-12.39719 Y7.52788
G01 X-12.30275 Y7.49862
G01 X-12.18012 Y7.48861
G01 X-12.01283 Y7.48869
G01 X-11.88837 Y7.49900
G01 X-11.74545 Y7.54637
G01 X-11.59178 Y7.61249
G01 X-11.50547 Y7.65762
G01 X-11.37186 Y7.77550
G01 X-11.22124 Y7.93857
G01 X-11.16247 Y8.04627
G01 X-11.11019 Y8.13212
G01 X-11.05721 Y8.20860
G01 X-10.93923 Y8.34500
G01 X-10.82647 Y8.45909
G04 P0 ( dwell for no time -- G64 should not smooth over this point )
G00 Z0.50000 ( retract )

G00 X-13.36647 Y8.45909 ( rapid move to begin. )
G01 F300.00000
( Mill infeed pass 1/1 )
G01 Z-0.07500
G04 P0 ( dwell for no time -- G64 should not smooth over this point )
G01 F600.00000
G01 X-13.36647 Y8.45909
G01 X-13.47923 Y8.34500
G01 X-13.59718 Y8.20860
G01 X-13.65019 Y8.13212
G01 X-13.70247 Y8.04627
G01 X-13.76124 Y7.93857
G01 X-13.91186 Y7.77550
G01 X-14.04547 Y7.65762
G01 X-14.13178 Y7.61249
G01 X-14.28545 Y7.54637
G01 X-14.42837 Y7.49900
G01 X-14.55283 Y7.48869
G01 X-14.72012 Y7.48861
G01 X-14.84275 Y7.49862
G01 X-14.93719 Y7.52788
G01 X-15.14120 Y7.61241
G01 X-15.22596 Y7.65658
G01 X-15.36106 Y7.77553
G01 X-15.51186 Y7.93847
G01 X-15.57058 Y8.04672
G01 X-15.62263 Y8.13214
G01 X-15.67587 Y8.20890
G01 X-15.78433 Y8.33570
G01 X-15.90647 Y8.45897
G01 X-15.90647 Y49.26196
G01 X-15.79372 Y49.37595
G01 X-15.67574 Y49.51233
G01 X-15.62273 Y49.58883
G01 X-15.57046 Y49.67466
G01 X-15.51171 Y49.78238
G01 X-15.36109 Y49.94542
G01 X-15.22748 Y50.06333
G01 X-15.14117 Y50.10846
G01 X-14.98750 Y50.17455
G01 X-14.84458 Y50.22193
G01 X-14.72012 Y50.23224
G01 X-14.55286 Y50.23231
G01 X-14.43018 Y50.22231
G01 X-14.33576 Y50.19302
G01 X-14.13175 Y50.10854
G01 X-14.04697 Y50.06437
G01 X-13.91189 Y49.94542
G01 X-13.76106 Y49.78248
G01 X-13.70236 Y49.67420
G01 X-13.65032 Y49.58881
G01 X-13.59706 Y49.51200
G01 X-13.48862 Y49.38525
G01 X-13.36647 Y49.26196
G04 P0 ( dwell for no time -- G64 should not smooth over this point )
G00 Z0.50000 ( retract )

G00 X-15.90647 Y49.26196 ( rapid move to begin. )
G01 F300.00000
( Mill infeed pass 1/1 )
G01 Z-0.07500
G04 P0 ( dwell for no time -- G64 should not smooth over this point )
G01 F600.00000
G01 X-15.90647 Y49.26196
G01 X-16.02865 Y49.38525
G01 X-16.13706 Y49.51200
G01 X-16.19032 Y49.58881
G01 X-16.24236 Y49.67420
G01 X-16.30109 Y49.78248
G01 X-16.45189 Y49.94542
G01 X-16.58697 Y50.06437
G01 X-16.67175 Y50.10854
G01 X-16.87576 Y50.19302
G01 X-16.97018 Y50.22231
G01 X-17.09283 Y50.23231
G01 X-17.26012 Y50.23224
G01 X-17.38458 Y50.22193
G01 X-17.52750 Y50.17455
G01 X-17.68117 Y50.10846
G01 X-17.76748 Y50.06333
G01 X-17.90109 Y49.94542
G01 X-18.05171 Y49.78238
G01 X-18.11046 Y49.67466
G01 X-18.16273 Y49.58883
G01 X-18.21574 Y49.51233
G01 X-18.33372 Y49.37595
G01 X-18.44647 Y49.26183
G04 P0 ( dwell for no time -- G64 should not smooth over this point )
G00 Z0.50000 ( retract )

G00 X-16.33477 Y52.77348 ( rapid move to begin. )
G01 F300.00000
( Mill infeed pass 1/1 )
G01 Z-0.07500
G04 P0 ( dwell for no time -- G64 should not smooth over this point )
G01 F600.00000
G01 X-16.33477 Y52.77348
G01 X-16.33518 Y53.20932
G01 X-16.50231 Y53.61183
G01 X-16.81077 Y53.91976
G01 X-17.21353 Y54.08618
G01 X-17.64935 Y54.08577
G01 X-18.05186 Y53.91864
G01 X-18.35973 Y53.61023
G01 X-18.55453 Y53.13879
G01 X-18.59313 Y53.05621
G01 X-18.63215 Y52.98979
G01 X-18.59748 Y52.93172
G01 X-18.55547 Y52.84308
G01 X-18.35864 Y52.36909
G01 X-18.05021 Y52.06119
G01 X-17.64744 Y51.89474
G01 X-17.21160 Y51.89515
G01 X-16.80911 Y52.06228
G01 X-16.50119 Y52.37071
G01 X-16.33477 Y52.77348
G04 P0 ( dwell for no time -- G64 should not smooth over this point )
G00 Z0.50000 ( retract )

G00 X-20.98647 Y49.26183 ( rapid move to begin. )
G01 F300.00000
( Mill infeed pass 1/1 )
G01 Z-0.07500
G04 P0 ( dwell for no time -- G64 should not smooth over this point )
G01 F600.00000
G01 X-20.98647 Y49.26183
G01 X-21.09862 Y49.37519
G01 X-21.21706 Y49.51200
G01 X-21.27032 Y49.58881
G01 X-21.32236 Y49.67420
G01 X-21.38109 Y49.78248
G01 X-21.53189 Y49.94542
G01 X-21.66697 Y50.06437
G01 X-21.75175 Y50.10854
G01 X-21.95576 Y50.19302
G01 X-22.05018 Y50.22231
G01 X-22.17286 Y50.23231
G01 X-22.34012 Y50.23224
G01 X-22.46458 Y50.22193
G01 X-22.60750 Y50.17455
G01 X-22.76117 Y50.10846
G01 X-22.84748 Y50.06333
G01 X-22.98109 Y49.94542
G01 X-23.13171 Y49.78238
G01 X-23.19046 Y49.67466
G01 X-23.24273 Y49.58883
G01 X-23.29574 Y49.51233
G01 X-23.41372 Y49.37595
G01 X-23.52647 Y49.26196
G01 X-23.52647 Y8.45909
G01 X-23.41433 Y8.34571
G01 X-23.29587 Y8.20890
G01 X-23.24263 Y8.13214
G01 X-23.19058 Y8.04672
G01 X-23.13186 Y7.93847
G01 X-22.98106 Y7.77553
G01 X-22.84596 Y7.65658
G01 X-22.76120 Y7.61241
G01 X-22.55719 Y7.52788
G01 X-22.46275 Y7.49862
G01 X-22.34009 Y7.48861
G01 X-22.17283 Y7.48869
G01 X-22.04837 Y7.49900
G01 X-21.90545 Y7.54637
G01 X-21.75178 Y7.61249
G01 X-21.66547 Y7.65762
G01 X-21.53186 Y7.77550
G01 X-21.38124 Y7.93857
G01 X-21.32247 Y8.04627
G01 X-21.27019 Y8.13212
G01 X-21.21721 Y8.20860
G01 X-21.09923 Y8.34500
G01 X-20.98647 Y8.45909
G04 P0 ( dwell for no time -- G64 should not smooth over this point )
G00 Z0.50000 ( retract )

G00 X-15.06474 Y4.51353 ( rapid move to begin. )
G01 F300.00000
( Mill infeed pass 1/1 )
G01 Z-0.07500
G04 P0 ( dwell for no time -- G64 should not smooth over this point )
G01 F600.00000
G01 X-15.06474 Y4.51353
G01 X-15.06515 Y4.94932
G01 X-15.23228 Y5.35183
G01 X-15.54077 Y5.65976
G01 X-15.94351 Y5.82618
G01 X-16.37935 Y5.82577
G01 X-16.78183 Y5.65864
G01 X-17.08973 Y5.35023
G01 X-17.25618 Y4.94744
G01 X-17.25577 Y4.51160
G01 X-17.08864 Y4.10911
G01 X-16.78023 Y3.80122
G01 X-16.37744 Y3.63477
G01 X-15.94163 Y3.63518
G01 X-15.53911 Y3.80231
G01 X-15.23119 Y4.11074
G01 X-15.06474 Y4.51353
G04 P0 ( dwell for no time -- G64 should not smooth over this point )
G00 Z0.50000 ( retract )

G00 X-15.90647 Y8.45897 ( rapid move to begin. )
G01 F300.00000
( Mill infeed pass 1/1 )
G01 Z-0.07500
G04 P0 ( dwell for no time -- G64 should not smooth over this point )
G01 F600.00000
G01 X-15.90647 Y8.45897
G01 X-16.01923 Y8.34500
G01 X-16.13721 Y8.20860
G01 X-16.19019 Y8.13212
G01 X-16.24247 Y8.04627
G01 X-16.30124 Y7.93857
G01 X-16.45186 Y7.77550
G01 X-16.58547 Y7.65762
G01 X-16.67178 Y7.61249
G01 X-16.82545 Y7.54637
G01 X-16.96837 Y7.49900
G01 X-17.09283 Y7.48869
G01 X-17.26012 Y7.48861
G01 X-17.38275 Y7.49862
G01 X-17.47719 Y7.52788
G01 X-17.68120 Y7.61241
G01 X-17.76596 Y7.65658
G01 X-17.90106 Y7.77553
G01 X-18.05186 Y7.93847
G01 X-18.11059 Y8.04672
G01 X-18.16263 Y8.13214
G01 X-18.21587 Y8.20890
G01 X-18.32433 Y8.33570
G01 X-18.44647 Y8.45897
G01 X-18.44647 Y49.26183
G01 X-18.55862 Y49.37519
G01 X-18.67706 Y49.51200
G01 X-18.73032 Y49.58881
G01 X-18.78236 Y49.67420
G01 X-18.84109 Y49.78248
G01 X-18.99189 Y49.94542
G01 X-19.12697 Y50.06437
G01 X-19.21175 Y50.10854
G01 X-19.36547 Y50.17450
G01 X-19.51018 Y50.22231
G01 X-19.63286 Y50.23231
G01 X-19.80012 Y50.23224
G01 X-19.92458 Y50.22193
G01 X-20.01721 Y50.19312
G01 X-20.22117 Y50.10846
G01 X-20.30748 Y50.06333
G01 X-20.44109 Y49.94542
G01 X-20.59171 Y49.78238
G01 X-20.65046 Y49.67466
G01 X-20.70273 Y49.58883
G01 X-20.75574 Y49.51233
G01 X-20.87372 Y49.37595
G01 X-20.98647 Y49.26183
G01 X-20.98647 Y8.45909
G01 X-20.87433 Y8.34571
G01 X-20.75587 Y8.20890
G01 X-20.70263 Y8.13214
G01 X-20.65058 Y8.04672
G01 X-20.59186 Y7.93847
G01 X-20.44106 Y7.77553
G01 X-20.30596 Y7.65658
G01 X-20.22120 Y7.61241
G01 X-20.01719 Y7.52788
G01 X-19.92275 Y7.49862
G01 X-19.80012 Y7.48861
G01 X-19.63283 Y7.48869
G01 X-19.50837 Y7.49900
G01 X-19.36545 Y7.54637
G01 X-19.21178 Y7.61249
G01 X-19.12547 Y7.65762
G01 X-18.99186 Y7.77550
G01 X-18.84124 Y7.93857
G01 X-18.78247 Y8.04627
G01 X-18.73019 Y8.13212
G01 X-18.67721 Y8.20860
G01 X-18.55923 Y8.34500
G01 X-18.44647 Y8.45897
G04 P0 ( dwell for no time -- G64 should not smooth over this point )
G00 Z0.50000 ( retract )

G00 X-23.52647 Y8.45909 ( rapid move to begin. )
G01 F300.00000
( Mill infeed pass 1/1 )
G01 Z-0.07500
G04 P0 ( dwell for no time -- G64 should not smooth over this point )
G01 F600.00000
G01 X-23.52647 Y8.45909
G01 X-23.63923 Y8.34500
G01 X-23.75721 Y8.20860
G01 X-23.81019 Y8.13212
G01 X-23.86247 Y8.04627
G01 X-23.92124 Y7.93857
G01 X-24.07186 Y7.77550
G01 X-24.20547 Y7.65762
G01 X-24.29178 Y7.61249
G01 X-24.44545 Y7.54637
G01 X-24.58837 Y7.49900
G01 X-24.71283 Y7.48869
G01 X-24.88009 Y7.48861
G01 X-25.00275 Y7.49862
G01 X-25.09719 Y7.52788
G01 X-25.30120 Y7.61241
G01 X-25.38596 Y7.65658
G01 X-25.52106 Y7.77553
G01 X-25.67186 Y7.93847
G01 X-25.73059 Y8.04672
G01 X-25.78263 Y8.13214
G01 X-25.83587 Y8.20890
G01 X-25.94433 Y8.33570
G01 X-26.06647 Y8.45897
G01 X-26.06647 Y49.26196
G01 X-25.95372 Y49.37595
G01 X-25.83574 Y49.51233
G01 X-25.78273 Y49.58883
G01 X-25.73046 Y49.67466
G01 X-25.67171 Y49.78238
G01 X-25.52109 Y49.94542
G01 X-25.38748 Y50.06333
G01 X-25.30117 Y50.10846
G01 X-25.14750 Y50.17455
G01 X-25.00458 Y50.22193
G01 X-24.88009 Y50.23224
G01 X-24.71286 Y50.23231
G01 X-24.59018 Y50.22231
G01 X-24.49576 Y50.19302
G01 X-24.29175 Y50.10854
G01 X-24.20697 Y50.06437
G01 X-24.07189 Y49.94542
G01 X-23.92109 Y49.78248
G01 X-23.86236 Y49.67420
G01 X-23.81032 Y49.58881
G01 X-23.75706 Y49.51200
G01 X-23.64865 Y49.38525
G01 X-23.52647 Y49.26196
G04 P0 ( dwell for no time -- G64 should not smooth over this point )
G00 Z0.50000 ( retract )

G00 X-26.06647 Y49.26196 ( rapid move to begin. )
G01 F300.00000
( Mill infeed pass 1/1 )
G01 Z-0.07500
G04 P0 ( dwell for no time -- G64 should not smooth over this point )
G01 F600.00000
G01 X-26.06647 Y49.26196
G01 X-26.18865 Y49.38525
G01 X-26.29706 Y49.51200
G01 X-26.35032 Y49.58881
G01 X-26.40236 Y49.67420
G01 X-26.46109 Y49.78248
G01 X-26.61186 Y49.94542
G01 X-26.74694 Y50.06434
G01 X-26.83173 Y50.10854
G01 X-27.03576 Y50.19305
G01 X-27.13015 Y50.22231
G01 X-27.25286 Y50.23231
G01 X-27.42012 Y50.23224
G01 X-27.54458 Y50.22193
G01 X-27.68750 Y50.17455
G01 X-27.84117 Y50.10846
G01 X-27.92748 Y50.06333
G01 X-28.06109 Y49.94542
G01 X-28.21171 Y49.78238
G01 X-28.27046 Y49.67466
G01 X-28.32273 Y49.58883
G01 X-28.37574 Y49.51233
G01 X-28.49372 Y49.37595
G01 X-28.60647 Y49.26183
G01 X-28.60647 Y8.45897
G01 X-28.48433 Y8.33570
G01 X-28.37587 Y8.20890
G01 X-28.32263 Y8.13214
G01 X-28.27059 Y8.04672
G01 X-28.21186 Y7.93847
G01 X-28.06106 Y7.77553
G01 X-27.92596 Y7.65658
G01 X-27.84120 Y7.61241
G01 X-27.63719 Y7.52788
G01 X-27.54275 Y7.49862
G01 X-27.42012 Y7.48861
G01 X-27.25281 Y7.48869
G01 X-27.12837 Y7.49900
G01 X-26.98545 Y7.54637
G01 X-26.83178 Y7.61249
G01 X-26.74547 Y7.65762
G01 X-26.61186 Y7.77550
G01 X-26.46124 Y7.93857
G01 X-26.40247 Y8.04627
G01 X-26.35019 Y8.13212
G01 X-26.29721 Y8.20860
G01 X-26.17923 Y8.34500
G01 X-26.06647 Y8.45897
G04 P0 ( dwell for no time -- G64 should not smooth over this point )
G00 Z0.50000 ( retract )

G00 X-28.60647 Y8.45897 ( rapid move to begin. )
G01 F300.00000
( Mill infeed pass 1/1 )
G01 Z-0.07500
G04 P0 ( dwell for no time -- G64 should not smooth over this point )
G01 F600.00000
G01 X-28.60647 Y8.45897
G01 X-28.71923 Y8.34500
G01 X-28.83721 Y8.20860
G01 X-28.89019 Y8.13212
G01 X-28.94247 Y8.04627
G01 X-29.00124 Y7.93857
G01 X-29.15186 Y7.77550
G01 X-29.28547 Y7.65762
G01 X-29.37178 Y7.61249
G01 X-29.52545 Y7.54637
G01 X-29.66837 Y7.49900
G01 X-29.79283 Y7.48869
G01 X-29.96012 Y7.48861
G01 X-30.08275 Y7.49862
G01 X-30.17719 Y7.52788
G01 X-30.38120 Y7.61241
G01 X-30.46596 Y7.65658
G01 X-30.60106 Y7.77553
G01 X-30.75186 Y7.93847
G01 X-30.81058 Y8.04672
G01 X-30.86263 Y8.13214
G01 X-30.91587 Y8.20890
G01 X-31.02433 Y8.33570
G01 X-31.14647 Y8.45897
G01 X-31.14647 Y49.26196
G01 X-31.03372 Y49.37595
G01 X-30.91574 Y49.51233
G01 X-30.86273 Y49.58883
G01 X-30.81046 Y49.67466
G01 X-30.75171 Y49.78238
G01 X-30.60109 Y49.94542
G01 X-30.46748 Y50.06333
G01 X-30.38117 Y50.10846
G01 X-30.22750 Y50.17455
G01 X-30.08458 Y50.22193
G01 X-29.96012 Y50.23224
G01 X-29.79286 Y50.23231
G01 X-29.67018 Y50.22231
G01 X-29.57576 Y50.19302
G01 X-29.37175 Y50.10854
G01 X-29.28697 Y50.06437
G01 X-29.15189 Y49.94542
G01 X-29.00109 Y49.78248
G01 X-28.94236 Y49.67420
G01 X-28.89032 Y49.58881
G01 X-28.83706 Y49.51200
G01 X-28.71862 Y49.37519
G01 X-28.60647 Y49.26183
G04 P0 ( dwell for no time -- G64 should not smooth over this point )
G00 Z0.50000 ( retract )

G00 X-31.14647 Y49.26196 ( rapid move to begin. )
G01 F300.00000
( Mill infeed pass 1/1 )
G01 Z-0.07500
G04 P0 ( dwell for no time -- G64 should not smooth over this point )
G01 F600.00000
G01 X-31.14647 Y49.26196
G01 X-31.26865 Y49.38525
G01 X-31.37706 Y49.51200
G01 X-31.43032 Y49.58881
G01 X-31.48236 Y49.67420
G01 X-31.54109 Y49.78248
G01 X-31.69189 Y49.94542
G01 X-31.82697 Y50.06437
G01 X-31.91175 Y50.10854
G01 X-32.11576 Y50.19302
G01 X-32.21018 Y50.22231
G01 X-32.33283 Y50.23231
G01 X-32.50009 Y50.23224
G01 X-32.62458 Y50.22193
G01 X-32.76750 Y50.17455
G01 X-32.92117 Y50.10846
G01 X-33.00748 Y50.06333
G01 X-33.14109 Y49.94542
G01 X-33.29171 Y49.78238
G01 X-33.35046 Y49.67466
G01 X-33.40273 Y49.58883
G01 X-33.45574 Y49.51233
G01 X-33.57372 Y49.37595
G01 X-33.68647 Y49.26196
G01 X-33.68647 Y8.45897
G01 X-33.56433 Y8.33570
G01 X-33.47690 Y8.23534
G01 X-33.42595 Y8.16829
G01 X-33.35059 Y8.04672
G01 X-33.29186 Y7.93847
G01 X-33.14106 Y7.77553
G01 X-33.00596 Y7.65658
G01 X-32.92120 Y7.61241
G01 X-32.71719 Y7.52788
G01 X-32.62275 Y7.49862
G01 X-32.50009 Y7.48861
G01 X-32.33283 Y7.48869
G01 X-32.20837 Y7.49900
G01 X-32.06545 Y7.54637
G01 X-31.91178 Y7.61249
G01 X-31.82547 Y7.65762
G01 X-31.69186 Y7.77550
G01 X-31.54124 Y7.93857
G01 X-31.48247 Y8.04627
G01 X-31.43019 Y8.13212
G01 X-31.37721 Y8.20860
G01 X-31.25923 Y8.34500
G01 X-31.14647 Y8.45897
G04 P0 ( dwell for no time -- G64 should not smooth over this point )
G00 Z0.50000 ( retract )

G00 X-33.68647 Y8.45897 ( rapid move to begin. )
G01 F300.00000
( Mill infeed pass 1/1 )
G01 Z-0.07500
G04 P0 ( dwell for no time -- G64 should not smooth over this point )
G01 F600.00000
G01 X-33.68647 Y8.45897
G01 X-33.79923 Y8.34500
G01 X-33.91721 Y8.20860
G01 X-33.97019 Y8.13212
G01 X-34.02247 Y8.04627
G01 X-34.08124 Y7.93857
G01 X-34.23186 Y7.77550
G01 X-34.36547 Y7.65762
G01 X-34.45178 Y7.61249
G01 X-34.60545 Y7.54637
G01 X-34.74837 Y7.49900
G01 X-34.87283 Y7.48869
G01 X-35.04012 Y7.48861
G01 X-35.16275 Y7.49862
G01 X-35.25719 Y7.52788
G01 X-35.46120 Y7.61241
G01 X-35.54596 Y7.65658
G01 X-35.68106 Y7.77553
G01 X-35.83186 Y7.93847
G01 X-35.89059 Y8.04672
G01 X-35.94263 Y8.13214
G01 X-35.99587 Y8.20890
G01 X-36.10433 Y8.33570
G01 X-36.22647 Y8.45897
G01 X-36.22647 Y49.26183
G01 X-36.11372 Y49.37595
G01 X-35.99574 Y49.51233
G01 X-35.94273 Y49.58883
G01 X-35.89046 Y49.67466
G01 X-35.83171 Y49.78238
G01 X-35.68109 Y49.94542
G01 X-35.54748 Y50.06333
G01 X-35.46117 Y50.10846
G01 X-35.30750 Y50.17455
G01 X-35.16458 Y50.22193
G01 X-35.04012 Y50.23224
G01 X-34.87283 Y50.23231
G01 X-34.75018 Y50.22231
G01 X-34.65576 Y50.19302
G01 X-34.45175 Y50.10854
G01 X-34.36697 Y50.06437
G01 X-34.23189 Y49.94542
G01 X-34.08109 Y49.78248
G01 X-34.02236 Y49.67420
G01 X-33.97032 Y49.58881
G01 X-33.91706 Y49.51200
G01 X-33.80865 Y49.38525
G01 X-33.68647 Y49.26196
G04 P0 ( dwell for no time -- G64 should not smooth over this point )
G00 Z0.50000 ( retract )

G00 X-29.87650 Y52.51217 ( rapid move to begin. )
G01 F300.00000
( Mill infeed pass 1/1 )
G01 Z-0.07500
G04 P0 ( dwell for no time -- G64 should not smooth over this point )
G01 F600.00000
G01 X-29.87650 Y52.51217
G01 X-29.95120 Y52.43696
G01 X-30.03865 Y52.33607
G01 X-30.11663 Y52.23160
G01 X-30.14643 Y52.18895
G01 X-30.22715 Y52.04364
G01 X-30.31165 Y51.90849
G01 X-30.44010 Y51.73965
G01 X-30.48371 Y51.70572
G01 X-30.66022 Y51.58616
G01 X-30.76639 Y51.52759
G01 X-30.80330 Y51.51588
G01 X-31.01267 Y51.46983
G01 X-31.14647 Y51.45377
G01 X-31.28028 Y51.46985
G01 X-31.48965 Y51.51588
G01 X-31.52653 Y51.52759
G01 X-31.63273 Y51.58616
G01 X-31.80924 Y51.70572
G01 X-31.85285 Y51.73965
G01 X-31.98130 Y51.90849
G01 X-32.06580 Y52.04364
G01 X-32.10558 Y52.11867
G01 X-32.16385 Y52.21303
G01 X-32.21861 Y52.28966
G01 X-32.28094 Y52.36995
G01 X-32.41650 Y52.51217
G01 X-32.41650 Y53.46634
G01 X-32.54137 Y53.59987
G01 X-32.65663 Y53.74932
G01 X-32.71429 Y53.83853
G01 X-32.76804 Y53.93675
G01 X-32.85221 Y54.07213
G01 X-32.98061 Y54.24168
G01 X-33.15442 Y54.36632
G01 X-33.30639 Y54.45334
G01 X-33.34330 Y54.46507
G01 X-33.55267 Y54.51110
G01 X-33.68647 Y54.52715
G01 X-33.82028 Y54.51110
G01 X-33.97631 Y54.47899
G01 X-34.06653 Y54.45334
G01 X-34.21855 Y54.36629
G01 X-34.39234 Y54.24168
G01 X-34.52074 Y54.07213
G01 X-34.60491 Y53.93675
G01 X-34.65871 Y53.83843
G01 X-34.71632 Y53.74932
G01 X-34.83161 Y53.59982
G01 X-34.95647 Y53.46634
G01 X-35.08137 Y53.59987
G01 X-35.19663 Y53.74932
G01 X-35.25429 Y53.83853
G01 X-35.30804 Y53.93680
G01 X-35.39219 Y54.07213
G01 X-35.52058 Y54.24168
G01 X-35.69440 Y54.36629
G01 X-35.84639 Y54.45334
G01 X-35.93664 Y54.47899
G01 X-36.09267 Y54.51110
G01 X-36.22647 Y54.52715
G01 X-36.36028 Y54.51110
G01 X-36.51631 Y54.47899
G01 X-36.60653 Y54.45334
G01 X-36.75855 Y54.36629
G01 X-36.93234 Y54.24168
G01 X-37.06074 Y54.07213
G01 X-37.14491 Y53.93675
G01 X-37.19871 Y53.83843
G01 X-37.25632 Y53.74932
G01 X-37.37161 Y53.59982
G01 X-37.49650 Y53.46634
G01 X-37.49650 Y52.51458
G01 X-37.62137 Y52.38105
G01 X-37.73663 Y52.23160
G01 X-37.79431 Y52.14239
G01 X-37.84804 Y52.04412
G01 X-37.93219 Y51.90879
G01 X-38.06038 Y51.73950
G01 X-38.10371 Y51.70572
G01 X-38.28022 Y51.58616
G01 X-38.38639 Y51.52759
G01 X-38.42330 Y51.51588
G01 X-38.63267 Y51.46983
G01 X-38.76645 Y51.45377
G01 X-38.90028 Y51.46985
G01 X-39.05631 Y51.50193
G01 X-39.14653 Y51.52759
G01 X-39.29855 Y51.61463
G01 X-39.47234 Y51.73925
G01 X-39.60076 Y51.90879
G01 X-39.68491 Y52.04412
G01 X-39.73871 Y52.14250
G01 X-39.79632 Y52.23160
G01 X-39.91161 Y52.38108
G01 X-40.03647 Y52.51458
G01 X-40.16137 Y52.38105
G01 X-40.27663 Y52.23160
G01 X-40.33432 Y52.14239
G01 X-40.38804 Y52.04412
G01 X-40.47219 Y51.90879
G01 X-40.60058 Y51.73925
G01 X-40.77442 Y51.61461
G01 X-40.92639 Y51.52759
G01 X-41.01664 Y51.50193
G01 X-41.17267 Y51.46983
G01 X-41.30645 Y51.45377
G01 X-41.44028 Y51.46985
G01 X-41.59631 Y51.50193
G01 X-41.68653 Y51.52759
G01 X-41.83855 Y51.61463
G01 X-42.01234 Y51.73925
G01 X-42.14076 Y51.90879
G01 X-42.22491 Y52.04412
G01 X-42.27871 Y52.14250
G01 X-42.33632 Y52.23160
G01 X-42.45161 Y52.38108
G01 X-42.57650 Y52.51458
G01 X-42.57650 Y53.46634
G01 X-42.70137 Y53.59987
G01 X-42.81663 Y53.74932
G01 X-42.87429 Y53.83853
G01 X-42.92804 Y53.93675
G01 X-43.01221 Y54.07213
G01 X-43.14061 Y54.24168
G01 X-43.18369 Y54.27521
G01 X-43.36022 Y54.39479
G01 X-43.46639 Y54.45334
G01 X-43.50332 Y54.46507
G01 X-43.71267 Y54.51110
G01 X-43.84647 Y54.52715
G01 X-43.98028 Y54.51110
G01 X-44.18963 Y54.46507
G01 X-44.22653 Y54.45334
G01 X-44.33273 Y54.39479
G01 X-44.50924 Y54.27521
G01 X-44.55237 Y54.24168
G01 X-44.68074 Y54.07213
G01 X-44.77477 Y53.92027
G01 X-44.82493 Y53.73264
G01 X-44.86247 Y53.49847
G01 X-44.86247 Y52.48245
G01 X-44.82493 Y52.24829
G01 X-44.77474 Y52.06063
G01 X-44.68076 Y51.90879
G01 X-44.55257 Y51.73950
G01 X-44.37853 Y51.61463
G01 X-44.22653 Y51.52759
G01 X-44.18965 Y51.51588
G01 X-43.98028 Y51.46985
G01 X-43.84645 Y51.45377
G01 X-43.71267 Y51.46983
G01 X-43.55664 Y51.50193
G01 X-43.46639 Y51.52759
G01 X-43.31442 Y51.61463
G01 X-43.14061 Y51.73925
G01 X-43.01219 Y51.90879
G01 X-42.92804 Y52.04412
G01 X-42.87431 Y52.14239
G01 X-42.81663 Y52.23160
G01 X-42.70137 Y52.38105
G01 X-42.57650 Y52.51458
G01 X-42.57650 Y53.46634
G01 X-42.45161 Y53.59982
G01 X-42.33632 Y53.74932
G01 X-42.27871 Y53.83843
G01 X-42.22491 Y53.93675
G01 X-42.14074 Y54.07213
G01 X-42.01234 Y54.24168
G01 X-41.83855 Y54.36629
G01 X-41.68653 Y54.45334
G01 X-41.59631 Y54.47899
G01 X-41.44028 Y54.51110
G01 X-41.30647 Y54.52715
G01 X-41.17267 Y54.51110
G01 X-41.01664 Y54.47899
G01 X-40.92639 Y54.45334
G01 X-40.77442 Y54.36632
G01 X-40.60058 Y54.24168
G01 X-40.47219 Y54.07213
G01 X-40.38804 Y53.93680
G01 X-40.33429 Y53.83853
G01 X-40.27663 Y53.74932
G01 X-40.16137 Y53.59987
G01 X-40.03647 Y53.46634
G01 X-40.03647 Y52.51458
G01 X-40.03647 Y53.46634
G01 X-39.91161 Y53.59982
G01 X-39.79632 Y53.74932
G01 X-39.73871 Y53.83843
G01 X-39.68491 Y53.93675
G01 X-39.60074 Y54.07213
G01 X-39.47234 Y54.24168
G01 X-39.29855 Y54.36629
G01 X-39.14653 Y54.45334
G01 X-39.05631 Y54.47899
G01 X-38.84613 Y54.51930
G01 X-38.76647 Y54.52715
G01 X-38.68685 Y54.51930
G01 X-38.47664 Y54.47899
G01 X-38.38639 Y54.45334
G01 X-38.28022 Y54.39479
G01 X-38.10369 Y54.27521
G01 X-38.06061 Y54.24168
G01 X-37.93221 Y54.07213
G01 X-37.84804 Y53.93675
G01 X-37.79429 Y53.83853
G01 X-37.73663 Y53.74932
G01 X-37.62137 Y53.59987
G01 X-37.49650 Y53.46634
G01 X-37.49650 Y52.51458
G01 X-37.37161 Y52.38108
G01 X-37.25632 Y52.23160
G01 X-37.19871 Y52.14250
G01 X-37.14491 Y52.04412
G01 X-37.06076 Y51.90879
G01 X-36.93234 Y51.73925
G01 X-36.75853 Y51.61463
G01 X-36.60653 Y51.52759
G01 X-36.51631 Y51.50193
G01 X-36.36028 Y51.46985
G01 X-36.22645 Y51.45377
G01 X-36.09267 Y51.46983
G01 X-35.93664 Y51.50193
G01 X-35.84639 Y51.52759
G01 X-35.69442 Y51.61461
G01 X-35.52058 Y51.73925
G01 X-35.39219 Y51.90879
G01 X-35.30804 Y52.04412
G01 X-35.25432 Y52.14239
G01 X-35.19663 Y52.23160
G01 X-35.08137 Y52.38105
G01 X-34.95647 Y52.51458
G01 X-34.95647 Y53.46634
G01 X-34.95647 Y52.51458
G01 X-34.83161 Y52.38108
G01 X-34.71632 Y52.23160
G01 X-34.65871 Y52.14250
G01 X-34.60491 Y52.04412
G01 X-34.52076 Y51.90879
G01 X-34.39234 Y51.73925
G01 X-34.21855 Y51.61463
G01 X-34.06653 Y51.52759
G01 X-33.97631 Y51.50193
G01 X-33.76613 Y51.46162
G01 X-33.68647 Y51.45377
G01 X-33.60685 Y51.46162
G01 X-33.39664 Y51.50193
G01 X-33.30639 Y51.52759
G01 X-33.20022 Y51.58616
G01 X-33.02371 Y51.70572
G01 X-32.98038 Y51.73950
G01 X-32.85219 Y51.90879
G01 X-32.76804 Y52.04412
G01 X-32.71431 Y52.14239
G01 X-32.65663 Y52.23160
G01 X-32.57865 Y52.33607
G01 X-32.49120 Y52.43696
G01 X-32.41650 Y52.51217
G01 X-32.41650 Y53.46634
G01 X-32.29161 Y53.59982
G01 X-32.17632 Y53.74932
G01 X-32.11871 Y53.83843
G01 X-32.06491 Y53.93675
G01 X-31.98074 Y54.07213
G01 X-31.85234 Y54.24168
G01 X-31.67855 Y54.36629
G01 X-31.52653 Y54.45334
G01 X-31.43631 Y54.47899
G01 X-31.28028 Y54.51110
G01 X-31.14647 Y54.52715
G01 X-31.01267 Y54.51110
G01 X-30.85664 Y54.47899
G01 X-30.76639 Y54.45334
G01 X-30.61440 Y54.36629
G01 X-30.44061 Y54.24168
G01 X-30.31221 Y54.07213
G01 X-30.22804 Y53.93675
G01 X-30.17429 Y53.83853
G01 X-30.11663 Y53.74932
G01 X-30.00137 Y53.59987
G01 X-29.87650 Y53.46634
G01 X-29.87650 Y52.51217
G01 X-29.80172 Y52.43688
G01 X-29.71430 Y52.33607
G01 X-29.63632 Y52.23160
G01 X-29.57871 Y52.14250
G01 X-29.52491 Y52.04412
G01 X-29.44076 Y51.90879
G01 X-29.31234 Y51.73925
G01 X-29.13855 Y51.61463
G01 X-28.98653 Y51.52759
G01 X-28.89631 Y51.50193
G01 X-28.68613 Y51.46162
G01 X-28.60647 Y51.45377
G01 X-28.52685 Y51.46162
G01 X-28.31664 Y51.50193
G01 X-28.22639 Y51.52759
G01 X-28.07442 Y51.61461
G01 X-27.90058 Y51.73925
G01 X-27.77219 Y51.90879
G01 X-27.68804 Y52.04412
G01 X-27.63432 Y52.14239
G01 X-27.57663 Y52.23160
G01 X-27.46137 Y52.38105
G01 X-27.33650 Y52.51458
G01 X-27.33650 Y53.46634
G01 X-27.21161 Y53.59982
G01 X-27.13858 Y53.69126
G01 X-27.08387 Y53.76789
G01 X-27.02560 Y53.86225
G01 X-26.98578 Y53.93731
G01 X-26.90130 Y54.07244
G01 X-26.77285 Y54.24127
G01 X-26.59855 Y54.36629
G01 X-26.44651 Y54.45334
G01 X-26.35629 Y54.47899
G01 X-26.20026 Y54.51110
G01 X-26.06647 Y54.52715
G01 X-25.98682 Y54.51930
G01 X-25.77664 Y54.47899
G01 X-25.68639 Y54.45334
G01 X-25.53442 Y54.36632
G01 X-25.36010 Y54.24127
G01 X-25.23165 Y54.07244
G01 X-25.14715 Y53.93731
G01 X-25.10735 Y53.86225
G01 X-25.04908 Y53.76789
G01 X-24.99432 Y53.69118
G01 X-24.92137 Y53.59987
G01 X-24.79650 Y53.46634
G01 X-24.79650 Y52.51458
G01 X-24.67161 Y52.38108
G01 X-24.55632 Y52.23160
G01 X-24.49871 Y52.14250
G01 X-24.44491 Y52.04412
G01 X-24.36076 Y51.90879
G01 X-24.23234 Y51.73925
G01 X-24.18926 Y51.70574
G01 X-24.01273 Y51.58616
G01 X-23.90653 Y51.52759
G01 X-23.81631 Y51.50193
G01 X-23.66028 Y51.46985
G01 X-23.52647 Y51.45377
G01 X-23.39267 Y51.46983
G01 X-23.23664 Y51.50193
G01 X-23.14639 Y51.52759
G01 X-23.04022 Y51.58616
G01 X-22.99442 Y51.61461
G01 X-22.82058 Y51.73925
G01 X-22.69219 Y51.90879
G01 X-22.60804 Y52.04412
G01 X-22.55431 Y52.14239
G01 X-22.49663 Y52.23160
G01 X-22.41865 Y52.33607
G01 X-22.33120 Y52.43696
G01 X-22.25650 Y52.51458
G01 X-22.25650 Y53.46634
G01 X-22.13161 Y53.59982
G01 X-22.01632 Y53.74932
G01 X-21.95871 Y53.83843
G01 X-21.90491 Y53.93675
G01 X-21.82074 Y54.07213
G01 X-21.69234 Y54.24168
G01 X-21.51855 Y54.36629
G01 X-21.36653 Y54.45334
G01 X-21.27631 Y54.47899
G01 X-21.06610 Y54.51930
G01 X-20.98647 Y54.52715
G01 X-20.85267 Y54.51110
G01 X-20.69664 Y54.47899
G01 X-20.60639 Y54.45334
G01 X-20.45442 Y54.36632
G01 X-20.28058 Y54.24168
G01 X-20.15219 Y54.07213
G01 X-20.05818 Y53.92027
G01 X-20.00802 Y53.73264
G01 X-19.96334 Y53.44785
G01 X-19.93428 Y53.32537
G01 X-19.89036 Y53.21610
G01 X-19.86735 Y53.17003
G01 X-19.80522 Y53.06487
G01 X-19.75168 Y52.98984
G01 X-19.82133 Y52.88885
G01 X-19.88330 Y52.78021
G01 X-19.93052 Y52.66396
G01 X-19.94556 Y52.61443
G01 X-19.96646 Y52.51102
G01 X-19.99699 Y52.29840
G01 X-20.00746 Y52.24813
G01 X-20.05788 Y52.06122
G01 X-20.15219 Y51.90879
G01 X-20.28058 Y51.73925
G01 X-20.45442 Y51.61461
G01 X-20.60639 Y51.52759
G01 X-20.69664 Y51.50193
G01 X-20.85267 Y51.46985
G01 X-20.98647 Y51.45377
G01 X-21.06610 Y51.46162
G01 X-21.27631 Y51.50193
G01 X-21.36653 Y51.52759
G01 X-21.51855 Y51.61463
G01 X-21.69234 Y51.73925
G01 X-21.82076 Y51.90879
G01 X-21.90491 Y52.04412
G01 X-21.95871 Y52.14250
G01 X-22.01632 Y52.23160
G01 X-22.13161 Y52.38108
G01 X-22.25650 Y52.51458
G01 X-22.25650 Y53.46634
G01 X-22.38137 Y53.59987
G01 X-22.49663 Y53.74932
G01 X-22.55429 Y53.83853
G01 X-22.60804 Y53.93680
G01 X-22.69219 Y54.07213
G01 X-22.82038 Y54.24145
G01 X-22.86371 Y54.27523
G01 X-23.04022 Y54.39479
G01 X-23.14639 Y54.45334
G01 X-23.23664 Y54.47899
G01 X-23.39267 Y54.51110
G01 X-23.52647 Y54.52715
G01 X-23.66028 Y54.51110
G01 X-23.81631 Y54.47899
G01 X-23.90653 Y54.45334
G01 X-24.01273 Y54.39479
G01 X-24.18926 Y54.27521
G01 X-24.23234 Y54.24168
G01 X-24.36074 Y54.07213
G01 X-24.44491 Y53.93675
G01 X-24.49871 Y53.83843
G01 X-24.55632 Y53.74932
G01 X-24.63430 Y53.64485
G01 X-24.72172 Y53.54399
G01 X-24.79650 Y53.46634
G01 X-24.79650 Y52.51458
G01 X-24.87120 Y52.43696
G01 X-24.95865 Y52.33607
G01 X-25.03663 Y52.23160
G01 X-25.09431 Y52.14239
G01 X-25.14804 Y52.04412
G01 X-25.26234 Y51.86558
G01 X-25.36061 Y51.73925
G01 X-25.53442 Y51.61463
G01 X-25.68639 Y51.52759
G01 X-25.77664 Y51.50193
G01 X-25.93267 Y51.46983
G01 X-26.06645 Y51.45377
G01 X-26.20026 Y51.46985
G01 X-26.35629 Y51.50193
G01 X-26.44651 Y51.52759
G01 X-26.59850 Y51.61463
G01 X-26.77234 Y51.73925
G01 X-26.87061 Y51.86558
G01 X-26.98489 Y52.04412
G01 X-27.03871 Y52.14250
G01 X-27.09629 Y52.23160
G01 X-27.21161 Y52.38108
G01 X-27.33650 Y52.51458
G01 X-27.33650 Y53.46634
G01 X-27.41118 Y53.54397
G01 X-27.49865 Y53.64485
G01 X-27.57663 Y53.74932
G01 X-27.63429 Y53.83853
G01 X-27.68804 Y53.93680
G01 X-27.77219 Y54.07213
G01 X-27.90058 Y54.24168
G01 X-28.07442 Y54.36632
G01 X-28.22639 Y54.45334
G01 X-28.31664 Y54.47899
G01 X-28.47267 Y54.51110
G01 X-28.60647 Y54.52715
G01 X-28.74028 Y54.51110
G01 X-28.94963 Y54.46507
G01 X-28.98653 Y54.45334
G01 X-29.09273 Y54.39479
G01 X-29.26926 Y54.27521
G01 X-29.31234 Y54.24168
G01 X-29.44074 Y54.07213
G01 X-29.52491 Y53.93675
G01 X-29.57871 Y53.83843
G01 X-29.63632 Y53.74932
G01 X-29.75161 Y53.59982
G01 X-29.87650 Y53.46634
G04 P0 ( dwell for no time -- G64 should not smooth over this point )
G00 Z0.50000 ( retract )

G00 X-41.30647 Y49.26183 ( rapid move to begin. )
G01 F300.00000
( Mill infeed pass 1/1 )
G01 Z-0.07500
G04 P0 ( dwell for no time -- G64 should not smooth over this point )
G01 F600.00000
G01 X-41.30647 Y49.26183
G01 X-41.19372 Y49.37595
G01 X-41.07574 Y49.51233
G01 X-41.02273 Y49.58883
G01 X-40.97046 Y49.67466
G01 X-40.91171 Y49.78238
G01 X-40.76109 Y49.94542
G01 X-40.62748 Y50.06333
G01 X-40.54117 Y50.10846
G01 X-40.38750 Y50.17455
G01 X-40.24458 Y50.22193
G01 X-40.12012 Y50.23224
G01 X-39.95283 Y50.23231
G01 X-39.83018 Y50.22231
G01 X-39.73576 Y50.19302
G01 X-39.53175 Y50.10854
G01 X-39.44697 Y50.06437
G01 X-39.31189 Y49.94542
G01 X-39.16109 Y49.78248
G01 X-39.10236 Y49.67420
G01 X-39.05032 Y49.58881
G01 X-38.99706 Y49.51200
G01 X-38.88865 Y49.38525
G01 X-38.76647 Y49.26196
G04 P0 ( dwell for no time -- G64 should not smooth over this point )
G00 Z0.50000 ( retract )

G00 X-36.22647 Y49.26183 ( rapid move to begin. )
G01 F300.00000
( Mill infeed pass 1/1 )
G01 Z-0.07500
G04 P0 ( dwell for no time -- G64 should not smooth over this point )
G01 F600.00000
G01 X-36.22647 Y49.26183
G01 X-36.33862 Y49.37519
G01 X-36.45706 Y49.51200
G01 X-36.51032 Y49.58881
G01 X-36.56236 Y49.67420
G01 X-36.62109 Y49.78248
G01 X-36.77189 Y49.94542
G01 X-36.90697 Y50.06437
G01 X-36.99175 Y50.10854
G01 X-37.19576 Y50.19302
G01 X-37.29018 Y50.22231
G01 X-37.41286 Y50.23231
G01 X-37.58012 Y50.23224
G01 X-37.70458 Y50.22193
G01 X-37.84750 Y50.17455
G01 X-38.00117 Y50.10846
G01 X-38.08748 Y50.06333
G01 X-38.22109 Y49.94542
G01 X-38.37171 Y49.78238
G01 X-38.43046 Y49.67466
G01 X-38.48273 Y49.58883
G01 X-38.53574 Y49.51233
G01 X-38.65372 Y49.37595
