( pcb2gcode 1.2.1 )
( Gcode for LinuxCNC )
      

G94 ( Millimeters per minute feed rate. )
G21 ( Units == Millimeters. )

G90 ( Absolute coordinates. )
S10000 ( RPM spindle speed. )
G64 P0.05080 ( set maximum deviation from commanded toolpath )
F600.00000 ( Feedrate. )

o5 sub ( Bilinear interpolation macro )
    #7 = [ #3 + [ #1 - #3 ] * #5 ] ( Linear interpolation of the x-min elements )
    #8 = [ #4 + [ #2 - #4 ] * #5 ] ( Linear interpolation of the x-max elements )
    #100 = [ #7 + [ #8 - #7 ] * #6 ] ( Linear interpolation of previously interpolated points )
o5 endsub

o6 sub ( Z-correction subroutine )
    #3 = [ FIX[ [ #1 - 1.76708 ] / 4.99219 ] ] ( Lower left point X index )
    #4 = [ FIX[ [ #2 - 1.32258 ] / 5.02828 ] ] ( Lower left point Y index )
    #5 = [ #3 * 12 + [ #4 + 1 ] + 500 ] ( Upper left point parameter number )
    #6 = [ [ #3 + 1 ] *12 + [ #4 + 1 ] + 500 ] ( Upper right point parameter number )
    #7 = [ #3 * 12 + #4 + 500 ] ( Lower left point parameter number )
    #8 = [ [ #3 + 1 ] * 12 + #4 + 500 ] ( Lower right point parameter number )
    #9 = [ [ #2 - 1.32258 - #4 * 5.02828 ] / 5.02828 ] ( Distance between the point and the left border of the rectangle, normalized to 1 )
    #10 = [ [ #1 - 1.76708 - #3 * 4.99219 ] / 4.99219 ] ( Distance between the point and the down border of the rectangle, normalized to 1 ) 
    o5 call [##5] [##6] [##7] [##8] [#9] [#10]
o6 endsub

o7 sub ( G01 with Z-correction subroutine )
    o6 call [#1] [#2]
    G01 X#1 Y#2 Z[-0.07500+#100]
o7 endsub

o8 sub ( Y probe subroutine )
    G0 Z0.500 ( Move to probe height )
    X[#110 * 4.99219 + 1.76708] Y[#111 * 5.02828 + 1.32258]  ( Move to the current probe point )
    G38.2 Z-5 F100 ( Probe it )
    #[#110 * 12 + #111 + 500] = #5063 ( Save the probe in the correct parameter )
    #111 = [#111 + #112] ( Increment/decrement by 1 the Y counter )
o8 endsub

o9 sub ( X probe subroutine )
    o10 repeat [#113]
        o8 call
    o10 endrepeat
    #113 = 12
    #112 = [0 - #112]
    #111 = [#111 + #112]
    #110 = [#110 + 1] ( Increment by 1 the X counter )
o9 endsub

(MSG, Attach the probe tool)
M0 ( Temporary machine stop. )
G0 Z0.500 ( Move Z to safe height )
G0 X1.76708 Y1.32258 ( Move XY to start point )
G0 Z0.500 ( Move Z to probe height )
(PROBEOPEN RawProbeLog.txt) ( Record all probes in RawProbeLog.txt )
G38.2 Z-5 F100 ( Z-probe )
#500 = 0 ( Probe point [0, 0] is our reference )
G10 L20 P0 Z0 ( Set the current Z as zero-value )

( We now start the real probing: move the Z axis to the probing height, move to )
( the probing XY position, probe it and save the result, parameter #5063, )
( in a numbered parameter; we will make 15 probes on the X-axis and )
( 12 probes on the Y-axis, for a grand total of 180 probes )

#110 = 0 ( X iterator )
#111 = 1 ( Y iterator )
#112 = 1 ( UP or DOWN increment )
#113 = 11 ( number of Y points; the 1st Y row can be done one time less )
o11 repeat [15]
    o9 call
o11 endrepeat

G0 Z0.500 ( Move Z to safe height )
(PROBECLOSE) ( Close the probe log file )
( Probing has ended, each Z-coordinate will be corrected with a bilinear interpolation )
(MSG, Detach the probe tool)
M0 ( Temporary machine stop. )

F600.00000 ( Feedrate. )
M3 ( Spindle on clockwise. )
G04 P0 ( dwell for no time -- G64 should not smooth over this point )
G00 Z0.50000 ( retract )

G00 X22.64080 Y54.37810 ( rapid move to begin. )
F300.00000
o7 call [22.6408] [54.3781]
G04 P0 ( dwell for no time -- G64 should not smooth over this point )
F600.00000
o7 call [22.6408] [50.9999]
o7 call [21.1168] [50.9491]
o7 call [20.3294] [50.9745]
o7 call [19.8214] [51.0761]
o7 call [19.6436] [51.3047]
o7 call [19.5928] [51.6603]
o7 call [19.5928] [54.7083]
o7 call [19.6436] [54.9623]
o7 call [19.8214] [55.1909]
o7 call [20.0754] [55.3433]
o7 call [22.6154] [55.3433]
o7 call [22.6408] [54.4543]
G04 P0 ( dwell for no time -- G64 should not smooth over this point )
G00 Z0.50000 ( retract )

G00 X25.18080 Y54.37810 ( rapid move to begin. )
F300.00000
o7 call [25.1808] [54.3781]
G04 P0 ( dwell for no time -- G64 should not smooth over this point )
F600.00000
o7 call [25.1808] [50.9999]
o7 call [23.6568] [50.9491]
o7 call [22.6408] [50.9999]
o7 call [22.6662] [55.3433]
o7 call [25.1808] [55.3179]
o7 call [25.1808] [54.4035]
G04 P0 ( dwell for no time -- G64 should not smooth over this point )
G00 Z0.50000 ( retract )

G00 X27.72080 Y54.37810 ( rapid move to begin. )
F300.00000
o7 call [27.7208] [54.3781]
G04 P0 ( dwell for no time -- G64 should not smooth over this point )
F600.00000
o7 call [27.7208] [50.9999]
o7 call [26.1968] [50.9491]
o7 call [25.1808] [50.9999]
o7 call [25.2062] [55.3433]
o7 call [27.7208] [55.3179]
o7 call [27.7208] [54.4035]
G04 P0 ( dwell for no time -- G64 should not smooth over this point )
G00 Z0.50000 ( retract )

G00 X30.26080 Y54.37810 ( rapid move to begin. )
F300.00000
o7 call [30.2608] [54.3781]
G04 P0 ( dwell for no time -- G64 should not smooth over this point )
F600.00000
o7 call [30.2608] [50.9999]
o7 call [28.7368] [50.9491]
o7 call [27.7208] [50.9999]
o7 call [27.7462] [55.3433]
o7 call [30.2608] [55.3179]
o7 call [30.2608] [54.4035]
G04 P0 ( dwell for no time -- G64 should not smooth over this point )
G00 Z0.50000 ( retract )

G00 X32.80080 Y54.37810 ( rapid move to begin. )
F300.00000
o7 call [32.8008] [54.3781]
G04 P0 ( dwell for no time -- G64 should not smooth over this point )
F600.00000
o7 call [32.8008] [50.9999]
o7 call [31.2768] [50.9491]
o7 call [30.2608] [50.9999]
o7 call [30.2862] [55.3433]
o7 call [32.8008] [55.3179]
o7 call [32.8008] [54.4035]
G04 P0 ( dwell for no time -- G64 should not smooth over this point )
G00 Z0.50000 ( retract )

G00 X35.34080 Y54.37810 ( rapid move to begin. )
F300.00000
o7 call [35.3408] [54.3781]
G04 P0 ( dwell for no time -- G64 should not smooth over this point )
F600.00000
o7 call [35.3408] [50.9999]
o7 call [33.8168] [50.9491]
o7 call [32.8008] [50.9999]
o7 call [32.8262] [55.3433]
o7 call [35.3408] [55.3179]
o7 call [35.3408] [54.4035]
G04 P0 ( dwell for no time -- G64 should not smooth over this point )
G00 Z0.50000 ( retract )

G00 X37.88080 Y54.37810 ( rapid move to begin. )
F300.00000
o7 call [37.8808] [54.3781]
G04 P0 ( dwell for no time -- G64 should not smooth over this point )
F600.00000
o7 call [37.8808] [50.9999]
o7 call [36.3568] [50.9491]
o7 call [35.3408] [50.9999]
o7 call [35.3662] [55.3433]
o7 call [37.8808] [55.3179]
o7 call [37.8808] [54.4035]
G04 P0 ( dwell for no time -- G64 should not smooth over this point )
G00 Z0.50000 ( retract )

G00 X40.42080 Y54.37810 ( rapid move to begin. )
F300.00000
o7 call [40.4208] [54.3781]
G04 P0 ( dwell for no time -- G64 should not smooth over this point )
F600.00000
o7 call [40.4208] [50.9999]
o7 call [38.8968] [50.9491]
o7 call [37.8808] [50.9999]
o7 call [37.9062] [55.3433]
o7 call [40.4208] [55.3179]
o7 call [40.4208] [54.4035]
G04 P0 ( dwell for no time -- G64 should not smooth over this point )
G00 Z0.50000 ( retract )

G00 X42.96080 Y54.37810 ( rapid move to begin. )
F300.00000
o7 call [42.9608] [54.3781]
G04 P0 ( dwell for no time -- G64 should not smooth over this point )
F600.00000
o7 call [42.9608] [50.9999]
o7 call [41.4368] [50.9491]
o7 call [40.4208] [50.9999]
o7 call [40.4462] [55.3433]
o7 call [42.9608] [55.3179]
o7 call [42.9608] [54.4035]
G04 P0 ( dwell for no time -- G64 should not smooth over this point )
G00 Z0.50000 ( retract )

G00 X45.98340 Y54.37810 ( rapid move to begin. )
F300.00000
o7 call [45.9834] [54.3781]
G04 P0 ( dwell for no time -- G64 should not smooth over this point )
F600.00000
o7 call [45.9834] [51.5587]
o7 call [45.9326] [51.3047]
o7 call [45.7548] [51.0761]
o7 call [45.4246] [50.9999]
o7 call [44.2562] [50.9491]
o7 call [43.1132] [50.9745]
o7 call [42.9608] [51.0253]
o7 call [42.9608] [55.3433]
o7 call [45.577] [55.3179]
o7 call [45.8056] [55.1401]
o7 call [45.9326] [54.9623]
o7 call [45.9834] [54.4035]
G04 P0 ( dwell for no time -- G64 should not smooth over this point )
G00 Z0.50000 ( retract )

G00 X49.56480 Y54.37810 ( rapid move to begin. )
F300.00000
o7 call [49.5648] [54.3781]
G04 P0 ( dwell for no time -- G64 should not smooth over this point )
F600.00000
o7 call [49.5648] [50.9999]
o7 call [49.2092] [50.9491]
o7 call [47.2026] [50.9745]
o7 call [46.847] [51.0253]
o7 call [46.6184] [51.2031]
o7 call [46.5422] [51.5333]
o7 call [46.5676] [54.9115]
o7 call [46.72] [55.1655]
o7 call [46.974] [55.3179]
o7 call [49.5648] [55.3179]
o7 call [49.5648] [54.4035]
G04 P0 ( dwell for no time -- G64 should not smooth over this point )
G00 Z0.50000 ( retract )

G00 X52.10480 Y54.37810 ( rapid move to begin. )
F300.00000
o7 call [52.1048] [54.3781]
G04 P0 ( dwell for no time -- G64 should not smooth over this point )
F600.00000
o7 call [52.1048] [50.9999]
o7 call [51.7492] [50.9491]
o7 call [49.5648] [50.9999]
o7 call [49.5902] [55.3433]
o7 call [52.1048] [55.3179]
o7 call [52.1048] [54.4035]
G04 P0 ( dwell for no time -- G64 should not smooth over this point )
G00 Z0.50000 ( retract )

G00 X54.64480 Y54.37810 ( rapid move to begin. )
F300.00000
o7 call [54.6448] [54.3781]
G04 P0 ( dwell for no time -- G64 should not smooth over this point )
F600.00000
o7 call [54.6448] [50.9999]
o7 call [54.2892] [50.9491]
o7 call [52.1048] [50.9999]
o7 call [52.1302] [55.3433]
o7 call [54.6448] [55.3179]
o7 call [54.6448] [54.4035]
G04 P0 ( dwell for no time -- G64 should not smooth over this point )
G00 Z0.50000 ( retract )

G00 X57.18480 Y54.37810 ( rapid move to begin. )
F300.00000
o7 call [57.1848] [54.3781]
G04 P0 ( dwell for no time -- G64 should not smooth over this point )
F600.00000
o7 call [57.1848] [50.9999]
o7 call [56.8292] [50.9491]
o7 call [54.6448] [50.9999]
o7 call [54.6702] [55.3433]
o7 call [57.1848] [55.3179]
o7 call [57.1848] [54.4035]
G04 P0 ( dwell for no time -- G64 should not smooth over this point )
G00 Z0.50000 ( retract )

G00 X59.72480 Y54.37810 ( rapid move to begin. )
F300.00000
o7 call [59.7248] [54.3781]
G04 P0 ( dwell for no time -- G64 should not smooth over this point )
F600.00000
o7 call [59.7248] [50.9999]
o7 call [59.3692] [50.9491]
o7 call [57.1848] [50.9999]
o7 call [57.2102] [55.3433]
o7 call [59.7248] [55.3179]
o7 call [59.7248] [54.4035]
G04 P0 ( dwell for no time -- G64 should not smooth over this point )
G00 Z0.50000 ( retract )

G00 X62.26480 Y54.37810 ( rapid move to begin. )
F300.00000
o7 call [62.2648] [54.3781]
G04 P0 ( dwell for no time -- G64 should not smooth over this point )
F600.00000
o7 call [62.2648] [50.9999]
o7 call [61.9092] [50.9491]
o7 call [59.7248] [50.9999]
o7 call [59.7502] [55.3433]
o7 call [62.2648] [55.3179]
o7 call [62.2648] [54.4035]
G04 P0 ( dwell for no time -- G64 should not smooth over this point )
G00 Z0.50000 ( retract )

G00 X64.80480 Y54.37810 ( rapid move to begin. )
F300.00000
o7 call [64.8048] [54.3781]
G04 P0 ( dwell for no time -- G64 should not smooth over this point )
F600.00000
o7 call [64.8048] [50.8983]
o7 call [64.0682] [50.9745]
o7 call [62.2648] [50.9999]
o7 call [62.2902] [55.3433]
o7 call [64.8048] [55.3179]
o7 call [64.8048] [54.4035]
G04 P0 ( dwell for no time -- G64 should not smooth over this point )
G00 Z0.50000 ( retract )

G00 X67.82740 Y54.37810 ( rapid move to begin. )
F300.00000
o7 call [67.8274] [54.3781]
G04 P0 ( dwell for no time -- G64 should not smooth over this point )
F600.00000
o7 call [67.8274] [51.5587]
o7 call [67.7766] [51.3047]
o7 call [67.5988] [51.0761]
o7 call [67.5988] [51.0253]
o7 call [67.3194] [50.8983]
o7 call [66.9638] [50.8475]
o7 call [64.8556] [50.8729]
o7 call [64.8048] [50.9237]
o7 call [64.8048] [55.3433]
o7 call [66.8368] [55.3433]
o7 call [66.9892] [55.2925]
o7 call [67.802] [54.4797]
o7 call [67.8274] [54.4035]
G04 P0 ( dwell for no time -- G64 should not smooth over this point )
G00 Z0.50000 ( retract )

G00 X6.13080 Y50.08550 ( rapid move to begin. )
F300.00000
o7 call [6.1308] [50.0855]
G04 P0 ( dwell for no time -- G64 should not smooth over this point )
F600.00000
o7 call [6.1308] [48.0281]
o7 call [3.0828] [48.0281]
o7 call [3.0574] [49.6283]
o7 call [3.0828] [50.6189]
o7 call [3.286] [50.9237]
o7 call [3.54] [51.0761]
o7 call [6.1308] [51.0761]
o7 call [6.1308] [50.2633]
G04 P0 ( dwell for no time -- G64 should not smooth over this point )
G00 Z0.50000 ( retract )

G00 X8.67080 Y50.08550 ( rapid move to begin. )
F300.00000
o7 call [8.6708] [50.0855]
G04 P0 ( dwell for no time -- G64 should not smooth over this point )
F600.00000
o7 call [8.6708] [48.0281]
o7 call [6.1308] [48.0281]
o7 call [6.1308] [51.0761]
o7 call [8.6708] [51.0761]
o7 call [8.6708] [50.2633]
G04 P0 ( dwell for no time -- G64 should not smooth over this point )
G00 Z0.50000 ( retract )

G00 X11.21080 Y50.08550 ( rapid move to begin. )
F300.00000
o7 call [11.2108] [50.0855]
G04 P0 ( dwell for no time -- G64 should not smooth over this point )
F600.00000
o7 call [11.2108] [48.0281]
o7 call [8.6708] [48.0281]
o7 call [8.6708] [51.0761]
o7 call [11.2108] [51.0761]
o7 call [11.2108] [50.2633]
G04 P0 ( dwell for no time -- G64 should not smooth over this point )
G00 Z0.50000 ( retract )

G00 X13.75080 Y50.08550 ( rapid move to begin. )
F300.00000
o7 call [13.7508] [50.0855]
G04 P0 ( dwell for no time -- G64 should not smooth over this point )
F600.00000
o7 call [13.7508] [48.0281]
o7 call [11.2108] [48.0281]
o7 call [11.2108] [51.0761]
o7 call [13.7508] [51.0761]
o7 call [13.7508] [50.2633]
G04 P0 ( dwell for no time -- G64 should not smooth over this point )
G00 Z0.50000 ( retract )

G00 X16.29080 Y50.08550 ( rapid move to begin. )
F300.00000
o7 call [16.2908] [50.0855]
G04 P0 ( dwell for no time -- G64 should not smooth over this point )
F600.00000
o7 call [16.2908] [48.0281]
o7 call [13.7508] [48.0281]
o7 call [13.7508] [51.0761]
o7 call [16.2908] [51.0761]
o7 call [16.2908] [50.1617]
G04 P0 ( dwell for no time -- G64 should not smooth over this point )
G00 Z0.50000 ( retract )

G00 X18.83080 Y50.08550 ( rapid move to begin. )
F300.00000
o7 call [18.8308] [50.0855]
G04 P0 ( dwell for no time -- G64 should not smooth over this point )
F600.00000
o7 call [18.8308] [48.0281]
o7 call [16.2908] [48.0281]
o7 call [16.2908] [51.0761]
o7 call [18.8308] [51.0761]
o7 call [18.8308] [50.1617]
G04 P0 ( dwell for no time -- G64 should not smooth over this point )
G00 Z0.50000 ( retract )

G00 X21.37080 Y50.08550 ( rapid move to begin. )
F300.00000
o7 call [21.3708] [50.0855]
G04 P0 ( dwell for no time -- G64 should not smooth over this point )
F600.00000
o7 call [21.3708] [48.0281]
o7 call [18.8308] [48.0281]
o7 call [18.8308] [51.0761]
o7 call [19.6182] [51.1015]
o7 call [20.304] [50.9745]
o7 call [21.1168] [50.9745]
o7 call [21.3708] [50.9237]
o7 call [21.3708] [50.1109]
G04 P0 ( dwell for no time -- G64 should not smooth over this point )
G00 Z0.50000 ( retract )

G00 X23.91080 Y50.08550 ( rapid move to begin. )
F300.00000
o7 call [23.9108] [50.0855]
G04 P0 ( dwell for no time -- G64 should not smooth over this point )
F600.00000
o7 call [23.9108] [48.0281]
o7 call [21.3708] [48.0281]
o7 call [21.3962] [50.9491]
o7 call [22.9456] [50.9745]
o7 call [23.9108] [50.9237]
o7 call [23.9108] [50.1109]
G04 P0 ( dwell for no time -- G64 should not smooth over this point )
G00 Z0.50000 ( retract )

G00 X26.45080 Y50.08550 ( rapid move to begin. )
F300.00000
o7 call [26.4508] [50.0855]
G04 P0 ( dwell for no time -- G64 should not smooth over this point )
F600.00000
o7 call [26.4508] [48.0281]
o7 call [23.9108] [48.0281]
o7 call [23.9362] [50.9491]
o7 call [25.4856] [50.9745]
o7 call [26.4508] [50.9237]
o7 call [26.4508] [50.1109]
G04 P0 ( dwell for no time -- G64 should not smooth over this point )
G00 Z0.50000 ( retract )

G00 X28.99080 Y50.08550 ( rapid move to begin. )
F300.00000
o7 call [28.9908] [50.0855]
G04 P0 ( dwell for no time -- G64 should not smooth over this point )
F600.00000
o7 call [28.9908] [48.0281]
o7 call [26.4508] [48.0281]
o7 call [26.4762] [50.9491]
o7 call [28.0256] [50.9745]
o7 call [28.9908] [50.9237]
o7 call [28.9908] [50.1109]
G04 P0 ( dwell for no time -- G64 should not smooth over this point )
G00 Z0.50000 ( retract )

G00 X31.53080 Y50.08550 ( rapid move to begin. )
F300.00000
o7 call [31.5308] [50.0855]
G04 P0 ( dwell for no time -- G64 should not smooth over this point )
F600.00000
o7 call [31.5308] [48.0281]
o7 call [28.9908] [48.0281]
o7 call [29.0162] [50.9491]
o7 call [30.5656] [50.9745]
o7 call [31.5308] [50.9237]
o7 call [31.5308] [50.1109]
G04 P0 ( dwell for no time -- G64 should not smooth over this point )
G00 Z0.50000 ( retract )

G00 X34.07080 Y50.08550 ( rapid move to begin. )
F300.00000
o7 call [34.0708] [50.0855]
G04 P0 ( dwell for no time -- G64 should not smooth over this point )
F600.00000
o7 call [34.0708] [48.0281]
o7 call [31.5308] [48.0281]
o7 call [31.5562] [50.9491]
o7 call [33.1056] [50.9745]
o7 call [34.0708] [50.9237]
o7 call [34.0708] [50.1109]
G04 P0 ( dwell for no time -- G64 should not smooth over this point )
G00 Z0.50000 ( retract )

G00 X36.61080 Y50.08550 ( rapid move to begin. )
F300.00000
o7 call [36.6108] [50.0855]
G04 P0 ( dwell for no time -- G64 should not smooth over this point )
F600.00000
o7 call [36.6108] [48.0281]
o7 call [34.0708] [48.0281]
o7 call [34.0962] [50.9491]
o7 call [35.6456] [50.9745]
o7 call [36.6108] [50.9237]
o7 call [36.6108] [50.1109]
G04 P0 ( dwell for no time -- G64 should not smooth over this point )
G00 Z0.50000 ( retract )

G00 X39.15080 Y50.08550 ( rapid move to begin. )
F300.00000
o7 call [39.1508] [50.0855]
G04 P0 ( dwell for no time -- G64 should not smooth over this point )
F600.00000
o7 call [39.1508] [48.0281]
o7 call [36.6108] [48.0281]
o7 call [36.6362] [50.9491]
o7 call [38.1856] [50.9745]
o7 call [39.1508] [50.9237]
o7 call [39.1508] [50.1109]
G04 P0 ( dwell for no time -- G64 should not smooth over this point )
G00 Z0.50000 ( retract )

G00 X41.69080 Y50.08550 ( rapid move to begin. )
F300.00000
o7 call [41.6908] [50.0855]
G04 P0 ( dwell for no time -- G64 should not smooth over this point )
F600.00000
o7 call [41.6908] [48.0281]
o7 call [39.1508] [48.0281]
o7 call [39.1762] [50.9491]
o7 call [40.7256] [50.9745]
o7 call [41.6908] [50.9237]
o7 call [41.6908] [50.1109]
G04 P0 ( dwell for no time -- G64 should not smooth over this point )
G00 Z0.50000 ( retract )

G00 X44.23080 Y50.08550 ( rapid move to begin. )
F300.00000
o7 call [44.2308] [50.0855]
G04 P0 ( dwell for no time -- G64 should not smooth over this point )
F600.00000
o7 call [44.2308] [48.0281]
o7 call [41.6908] [48.0281]
o7 call [41.7162] [50.9491]
o7 call [43.2656] [50.9745]
o7 call [44.2308] [50.9237]
o7 call [44.2308] [50.1109]
G04 P0 ( dwell for no time -- G64 should not smooth over this point )
G00 Z0.50000 ( retract )

G00 X46.77080 Y50.08550 ( rapid move to begin. )
F300.00000
o7 call [46.7708] [50.0855]
G04 P0 ( dwell for no time -- G64 should not smooth over this point )
F600.00000
o7 call [46.7708] [48.0281]
o7 call [44.2308] [48.0281]
o7 call [44.2562] [50.9491]
o7 call [45.4246] [50.9999]
o7 call [45.7548] [51.0761]
o7 call [46.72] [51.0761]
o7 call [46.7708] [51.0253]
o7 call [46.7708] [50.1109]
G04 P0 ( dwell for no time -- G64 should not smooth over this point )
G00 Z0.50000 ( retract )

G00 X49.31080 Y50.08550 ( rapid move to begin. )
F300.00000
o7 call [49.3108] [50.0855]
G04 P0 ( dwell for no time -- G64 should not smooth over this point )
F600.00000
o7 call [49.3108] [48.0281]
o7 call [46.7708] [48.0281]
o7 call [46.7962] [51.0507]
o7 call [47.5328] [50.9745]
o7 call [49.3108] [50.9237]
o7 call [49.3108] [50.1109]
G04 P0 ( dwell for no time -- G64 should not smooth over this point )
G00 Z0.50000 ( retract )

G00 X51.85080 Y50.08550 ( rapid move to begin. )
F300.00000
o7 call [51.8508] [50.0855]
G04 P0 ( dwell for no time -- G64 should not smooth over this point )
F600.00000
o7 call [51.8508] [48.0281]
o7 call [49.3108] [48.0281]
o7 call [49.3362] [50.9491]
o7 call [49.6918] [50.9999]
o7 call [51.292] [50.9745]
o7 call [51.8508] [50.9237]
o7 call [51.8508] [50.1109]
G04 P0 ( dwell for no time -- G64 should not smooth over this point )
G00 Z0.50000 ( retract )

G00 X54.39080 Y50.08550 ( rapid move to begin. )
F300.00000
o7 call [54.3908] [50.0855]
G04 P0 ( dwell for no time -- G64 should not smooth over this point )
F600.00000
o7 call [54.3908] [48.0281]
o7 call [51.8508] [48.0281]
o7 call [51.8762] [50.9491]
o7 call [52.2318] [50.9999]
o7 call [53.832] [50.9745]
o7 call [54.3908] [50.9237]
o7 call [54.3908] [50.1109]
G04 P0 ( dwell for no time -- G64 should not smooth over this point )
G00 Z0.50000 ( retract )

G00 X56.93080 Y50.08550 ( rapid move to begin. )
F300.00000
o7 call [56.9308] [50.0855]
G04 P0 ( dwell for no time -- G64 should not smooth over this point )
F600.00000
o7 call [56.9308] [48.0281]
o7 call [54.3908] [48.0281]
o7 call [54.4162] [50.9491]
o7 call [54.7718] [50.9999]
o7 call [56.372] [50.9745]
o7 call [56.9308] [50.9237]
o7 call [56.9308] [50.1109]
G04 P0 ( dwell for no time -- G64 should not smooth over this point )
G00 Z0.50000 ( retract )

G00 X59.47080 Y50.08550 ( rapid move to begin. )
F300.00000
o7 call [59.4708] [50.0855]
G04 P0 ( dwell for no time -- G64 should not smooth over this point )
F600.00000
o7 call [59.4708] [48.0281]
o7 call [56.9308] [48.0281]
o7 call [56.9562] [50.9491]
o7 call [57.3118] [50.9999]
o7 call [58.912] [50.9745]
o7 call [59.4708] [50.9237]
o7 call [59.4708] [50.1109]
G04 P0 ( dwell for no time -- G64 should not smooth over this point )
G00 Z0.50000 ( retract )

G00 X62.01080 Y50.08550 ( rapid move to begin. )
F300.00000
o7 call [62.0108] [50.0855]
G04 P0 ( dwell for no time -- G64 should not smooth over this point )
F600.00000
o7 call [62.0108] [48.0281]
o7 call [59.4708] [48.0281]
o7 call [59.4962] [50.9491]
o7 call [59.8518] [50.9999]
o7 call [61.452] [50.9745]
o7 call [62.0108] [50.9237]
o7 call [62.0108] [50.1109]
G04 P0 ( dwell for no time -- G64 should not smooth over this point )
G00 Z0.50000 ( retract )

G00 X65.05880 Y50.08550 ( rapid move to begin. )
F300.00000
o7 call [65.0588] [50.0855]
G04 P0 ( dwell for no time -- G64 should not smooth over this point )
F600.00000
o7 call [65.0588] [48.4853]
o7 call [65.008] [48.0281]
o7 call [62.0108] [48.0281]
o7 call [62.0362] [50.9491]
o7 call [62.3918] [50.9999]
o7 call [64.5762] [50.9491]
o7 call [64.8302] [50.8983]
o7 call [65.008] [50.6697]
o7 call [65.0588] [50.5173]
o7 call [65.0588] [50.1109]
G04 P0 ( dwell for no time -- G64 should not smooth over this point )
G00 Z0.50000 ( retract )

G00 X6.13080 Y47.54550 ( rapid move to begin. )
F300.00000
o7 call [6.1308] [47.5455]
G04 P0 ( dwell for no time -- G64 should not smooth over this point )
F600.00000
o7 call [6.1308] [45.4881]
o7 call [3.0828] [45.4881]
o7 call [3.0574] [47.0883]
o7 call [3.0828] [48.0281]
o7 call [6.1308] [48.0281]
o7 call [6.1308] [47.6217]
G04 P0 ( dwell for no time -- G64 should not smooth over this point )
G00 Z0.50000 ( retract )

G00 X8.67080 Y47.54550 ( rapid move to begin. )
F300.00000
o7 call [8.6708] [47.5455]
G04 P0 ( dwell for no time -- G64 should not smooth over this point )
F600.00000
o7 call [8.6708] [45.4881]
o7 call [6.1308] [45.4881]
o7 call [6.1308] [48.0281]
o7 call [8.6708] [48.0281]
o7 call [8.6708] [47.6217]
G04 P0 ( dwell for no time -- G64 should not smooth over this point )
G00 Z0.50000 ( retract )

G00 X11.21080 Y47.54550 ( rapid move to begin. )
F300.00000
o7 call [11.2108] [47.5455]
G04 P0 ( dwell for no time -- G64 should not smooth over this point )
F600.00000
o7 call [11.2108] [45.4881]
o7 call [8.6708] [45.4881]
o7 call [8.6708] [48.0281]
o7 call [11.2108] [48.0281]
o7 call [11.2108] [47.6217]
G04 P0 ( dwell for no time -- G64 should not smooth over this point )
G00 Z0.50000 ( retract )

G00 X13.75080 Y47.54550 ( rapid move to begin. )
F300.00000
o7 call [13.7508] [47.5455]
G04 P0 ( dwell for no time -- G64 should not smooth over this point )
F600.00000
o7 call [13.7508] [45.4881]
o7 call [11.2108] [45.4881]
o7 call [11.2108] [48.0281]
o7 call [13.7508] [48.0281]
o7 call [13.7508] [47.6217]
G04 P0 ( dwell for no time -- G64 should not smooth over this point )
G00 Z0.50000 ( retract )

G00 X16.29080 Y47.54550 ( rapid move to begin. )
F300.00000
o7 call [16.2908] [47.5455]
G04 P0 ( dwell for no time -- G64 should not smooth over this point )
F600.00000
o7 call [16.2908] [45.4881]
o7 call [13.7508] [45.4881]
o7 call [13.7508] [48.0281]
o7 call [16.2908] [48.0281]
o7 call [16.2908] [47.6217]
G04 P0 ( dwell for no time -- G64 should not smooth over this point )
G00 Z0.50000 ( retract )

G00 X18.83080 Y47.54550 ( rapid move to begin. )
F300.00000
o7 call [18.8308] [47.5455]
G04 P0 ( dwell for no time -- G64 should not smooth over this point )
F600.00000
o7 call [18.8308] [45.4881]
o7 call [16.2908] [45.4881]
o7 call [16.2908] [48.0281]
o7 call [18.8308] [48.0281]
o7 call [18.8308] [47.6217]
G04 P0 ( dwell for no time -- G64 should not smooth over this point )
G00 Z0.50000 ( retract )

G00 X21.37080 Y47.54550 ( rapid move to begin. )
F300.00000
o7 call [21.3708] [47.5455]
G04 P0 ( dwell for no time -- G64 should not smooth over this point )
F600.00000
o7 call [21.3708] [45.4881]
o7 call [18.8308] [45.4881]
o7 call [18.8308] [48.0281]
o7 call [21.3708] [48.0281]
o7 call [21.3708] [47.6217]
G04 P0 ( dwell for no time -- G64 should not smooth over this point )
G00 Z0.50000 ( retract )

G00 X23.91080 Y47.54550 ( rapid move to begin. )
F300.00000
o7 call [23.9108] [47.5455]
G04 P0 ( dwell for no time -- G64 should not smooth over this point )
F600.00000
o7 call [23.9108] [45.4881]
o7 call [21.3708] [45.4881]
o7 call [21.3708] [48.0281]
o7 call [23.9108] [48.0281]
o7 call [23.9108] [47.6217]
G04 P0 ( dwell for no time -- G64 should not smooth over this point )
G00 Z0.50000 ( retract )

G00 X26.45080 Y47.54550 ( rapid move to begin. )
F300.00000
o7 call [26.4508] [47.5455]
G04 P0 ( dwell for no time -- G64 should not smooth over this point )
F600.00000
o7 call [26.4508] [45.4881]
o7 call [23.9108] [45.4881]
o7 call [23.9108] [48.0281]
o7 call [26.4508] [48.0281]
o7 call [26.4508] [47.6217]
G04 P0 ( dwell for no time -- G64 should not smooth over this point )
G00 Z0.50000 ( retract )

G00 X28.99080 Y47.54550 ( rapid move to begin. )
F300.00000
o7 call [28.9908] [47.5455]
G04 P0 ( dwell for no time -- G64 should not smooth over this point )
F600.00000
o7 call [28.9908] [45.4881]
o7 call [26.4508] [45.4881]
o7 call [26.4508] [48.0281]
o7 call [28.9908] [48.0281]
o7 call [28.9908] [47.5709]
G04 P0 ( dwell for no time -- G64 should not smooth over this point )
G00 Z0.50000 ( retract )

G00 X31.53080 Y47.54550 ( rapid move to begin. )
F300.00000
o7 call [31.5308] [47.5455]
G04 P0 ( dwell for no time -- G64 should not smooth over this point )
F600.00000
o7 call [31.5308] [45.4881]
o7 call [28.9908] [45.4881]
o7 call [28.9908] [48.0281]
o7 call [31.5308] [48.0281]
o7 call [31.5308] [47.5709]
G04 P0 ( dwell for no time -- G64 should not smooth over this point )
G00 Z0.50000 ( retract )

G00 X34.07080 Y47.54550 ( rapid move to begin. )
F300.00000
o7 call [34.0708] [47.5455]
G04 P0 ( dwell for no time -- G64 should not smooth over this point )
F600.00000
o7 call [34.0708] [45.4881]
o7 call [31.5308] [45.4881]
o7 call [31.5308] [48.0281]
o7 call [34.0708] [48.0281]
o7 call [34.0708] [47.5709]
G04 P0 ( dwell for no time -- G64 should not smooth over this point )
G00 Z0.50000 ( retract )

G00 X36.61080 Y47.54550 ( rapid move to begin. )
F300.00000
o7 call [36.6108] [47.5455]
G04 P0 ( dwell for no time -- G64 should not smooth over this point )
F600.00000
o7 call [36.6108] [45.4881]
o7 call [34.0708] [45.4881]
o7 call [34.0708] [48.0281]
o7 call [36.6108] [48.0281]
o7 call [36.6108] [47.5709]
G04 P0 ( dwell for no time -- G64 should not smooth over this point )
G00 Z0.50000 ( retract )

G00 X39.15080 Y47.54550 ( rapid move to begin. )
F300.00000
o7 call [39.1508] [47.5455]
G04 P0 ( dwell for no time -- G64 should not smooth over this point )
F600.00000
o7 call [39.1508] [45.4881]
o7 call [36.6108] [45.4881]
o7 call [36.6108] [48.0281]
o7 call [39.1508] [48.0281]
o7 call [39.1508] [47.5709]
G04 P0 ( dwell for no time -- G64 should not smooth over this point )
G00 Z0.50000 ( retract )

G00 X41.69080 Y47.54550 ( rapid move to begin. )
F300.00000
o7 call [41.6908] [47.5455]
G04 P0 ( dwell for no time -- G64 should not smooth over this point )
F600.00000
o7 call [41.6908] [45.4881]
o7 call [39.1508] [45.4881]
o7 call [39.1508] [48.0281]
o7 call [41.6908] [48.0281]
o7 call [41.6908] [47.5709]
G04 P0 ( dwell for no time -- G64 should not smooth over this point )
G00 Z0.50000 ( retract )

G00 X44.23080 Y47.54550 ( rapid move to begin. )
F300.00000
o7 call [44.2308] [47.5455]
G04 P0 ( dwell for no time -- G64 should not smooth over this point )
F600.00000
o7 call [44.2308] [45.4881]
o7 call [41.6908] [45.4881]
o7 call [41.6908] [48.0281]
o7 call [44.2308] [48.0281]
o7 call [44.2308] [47.5709]
G04 P0 ( dwell for no time -- G64 should not smooth over this point )
G00 Z0.50000 ( retract )

G00 X46.77080 Y47.54550 ( rapid move to begin. )
F300.00000
o7 call [46.7708] [47.5455]
G04 P0 ( dwell for no time -- G64 should not smooth over this point )
F600.00000
o7 call [46.7708] [45.4881]
o7 call [44.2308] [45.4881]
o7 call [44.2308] [48.0281]
o7 call [46.7708] [48.0281]
o7 call [46.7708] [47.5709]
G04 P0 ( dwell for no time -- G64 should not smooth over this point )
G00 Z0.50000 ( retract )

G00 X49.31080 Y47.54550 ( rapid move to begin. )
F300.00000
o7 call [49.3108] [47.5455]
G04 P0 ( dwell for no time -- G64 should not smooth over this point )
F600.00000
o7 call [49.3108] [45.4881]
o7 call [46.7708] [45.4881]
o7 call [46.7708] [48.0281]
o7 call [49.3108] [48.0281]
o7 call [49.3108] [47.5709]
G04 P0 ( dwell for no time -- G64 should not smooth over this point )
G00 Z0.50000 ( retract )

G00 X51.85080 Y47.54550 ( rapid move to begin. )
F300.00000
o7 call [51.8508] [47.5455]
G04 P0 ( dwell for no time -- G64 should not smooth over this point )
F600.00000
o7 call [51.8508] [45.4881]
o7 call [49.3108] [45.4881]
o7 call [49.3108] [48.0281]
o7 call [51.8508] [48.0281]
o7 call [51.8508] [47.5709]
G04 P0 ( dwell for no time -- G64 should not smooth over this point )
G00 Z0.50000 ( retract )

G00 X54.39080 Y47.54550 ( rapid move to begin. )
F300.00000
o7 call [54.3908] [47.5455]
G04 P0 ( dwell for no time -- G64 should not smooth over this point )
F600.00000
o7 call [54.3908] [45.4881]
o7 call [51.8508] [45.4881]
o7 call [51.8508] [48.0281]
o7 call [54.3908] [48.0281]
o7 call [54.3908] [47.5709]
G04 P0 ( dwell for no time -- G64 should not smooth over this point )
G00 Z0.50000 ( retract )

G00 X56.93080 Y47.54550 ( rapid move to begin. )
F300.00000
o7 call [56.9308] [47.5455]
G04 P0 ( dwell for no time -- G64 should not smooth over this point )
F600.00000
o7 call [56.9308] [45.4881]
o7 call [54.3908] [45.4881]
o7 call [54.3908] [48.0281]
o7 call [56.9308] [48.0281]
o7 call [56.9308] [47.5709]
G04 P0 ( dwell for no time -- G64 should not smooth over this point )
G00 Z0.50000 ( retract )

G00 X59.47080 Y47.54550 ( rapid move to begin. )
F300.00000
o7 call [59.4708] [47.5455]
G04 P0 ( dwell for no time -- G64 should not smooth over this point )
F600.00000
o7 call [59.4708] [45.4881]
o7 call [56.9308] [45.4881]
o7 call [56.9308] [48.0281]
o7 call [59.4708] [48.0281]
o7 call [59.4708] [47.5709]
G04 P0 ( dwell for no time -- G64 should not smooth over this point )
G00 Z0.50000 ( retract )

G00 X62.01080 Y47.54550 ( rapid move to begin. )
F300.00000
o7 call [62.0108] [47.5455]
G04 P0 ( dwell for no time -- G64 should not smooth over this point )
F600.00000
o7 call [62.0108] [45.4881]
o7 call [59.4708] [45.4881]
o7 call [59.4708] [48.0281]
o7 call [62.0108] [48.0281]
o7 call [62.0108] [47.5709]
G04 P0 ( dwell for no time -- G64 should not smooth over this point )
G00 Z0.50000 ( retract )

G00 X65.05880 Y47.54550 ( rapid move to begin. )
F300.00000
o7 call [65.0588] [47.5455]
G04 P0 ( dwell for no time -- G64 should not smooth over this point )
F600.00000
o7 call [65.0588] [45.9453]
o7 call [65.008] [45.4881]
o7 call [62.0108] [45.4881]
o7 call [62.0108] [48.0281]
o7 call [65.0334] [48.0027]
o7 call [65.0588] [47.5709]
G04 P0 ( dwell for no time -- G64 should not smooth over this point )
G00 Z0.50000 ( retract )

G00 X6.13080 Y45.00550 ( rapid move to begin. )
F300.00000
o7 call [6.1308] [45.0055]
G04 P0 ( dwell for no time -- G64 should not smooth over this point )
F600.00000
o7 call [6.1308] [42.9481]
o7 call [3.0828] [42.9481]
o7 call [3.0574] [44.5483]
o7 call [3.0828] [45.4881]
o7 call [6.1308] [45.4881]
o7 call [6.1308] [45.0817]
G04 P0 ( dwell for no time -- G64 should not smooth over this point )
G00 Z0.50000 ( retract )

G00 X8.67080 Y45.00550 ( rapid move to begin. )
F300.00000
o7 call [8.6708] [45.0055]
G04 P0 ( dwell for no time -- G64 should not smooth over this point )
F600.00000
o7 call [8.6708] [42.9481]
o7 call [6.1308] [42.9481]
o7 call [6.1308] [45.4881]
o7 call [8.6708] [45.4881]
o7 call [8.6708] [45.0817]
G04 P0 ( dwell for no time -- G64 should not smooth over this point )
G00 Z0.50000 ( retract )

G00 X11.21080 Y45.00550 ( rapid move to begin. )
F300.00000
o7 call [11.2108] [45.0055]
G04 P0 ( dwell for no time -- G64 should not smooth over this point )
F600.00000
o7 call [11.2108] [42.9481]
o7 call [8.6708] [42.9481]
o7 call [8.6708] [45.4881]
o7 call [11.2108] [45.4881]
o7 call [11.2108] [45.0817]
G04 P0 ( dwell for no time -- G64 should not smooth over this point )
G00 Z0.50000 ( retract )

G00 X13.75080 Y45.00550 ( rapid move to begin. )
F300.00000
o7 call [13.7508] [45.0055]
G04 P0 ( dwell for no time -- G64 should not smooth over this point )
F600.00000
o7 call [13.7508] [42.9481]
o7 call [11.2108] [42.9481]
o7 call [11.2108] [45.4881]
o7 call [13.7508] [45.4881]
o7 call [13.7508] [45.0817]
G04 P0 ( dwell for no time -- G64 should not smooth over this point )
G00 Z0.50000 ( retract )

G00 X16.29080 Y45.00550 ( rapid move to begin. )
F300.00000
o7 call [16.2908] [45.0055]
G04 P0 ( dwell for no time -- G64 should not smooth over this point )
F600.00000
o7 call [16.2908] [42.9481]
o7 call [13.7508] [42.9481]
o7 call [13.7508] [45.4881]
o7 call [16.2908] [45.4881]
o7 call [16.2908] [45.0817]
G04 P0 ( dwell for no time -- G64 should not smooth over this point )
G00 Z0.50000 ( retract )

G00 X18.83080 Y45.00550 ( rapid move to begin. )
F300.00000
o7 call [18.8308] [45.0055]
G04 P0 ( dwell for no time -- G64 should not smooth over this point )
F600.00000
o7 call [18.8308] [42.9481]
o7 call [16.2908] [42.9481]
o7 call [16.2908] [45.4881]
o7 call [18.8308] [45.4881]
o7 call [18.8308] [45.0817]
G04 P0 ( dwell for no time -- G64 should not smooth over this point )
G00 Z0.50000 ( retract )

G00 X21.37080 Y45.00550 ( rapid move to begin. )
F300.00000
o7 call [21.3708] [45.0055]
G04 P0 ( dwell for no time -- G64 should not smooth over this point )
F600.00000
o7 call [21.3708] [42.9481]
o7 call [18.8308] [42.9481]
o7 call [18.8308] [45.4881]
o7 call [21.3708] [45.4881]
o7 call [21.3708] [45.0817]
G04 P0 ( dwell for no time -- G64 should not smooth over this point )
G00 Z0.50000 ( retract )

G00 X23.91080 Y45.00550 ( rapid move to begin. )
F300.00000
o7 call [23.9108] [45.0055]
G04 P0 ( dwell for no time -- G64 should not smooth over this point )
F600.00000
o7 call [23.9108] [42.9481]
o7 call [21.3708] [42.9481]
o7 call [21.3708] [45.4881]
o7 call [23.9108] [45.4881]
o7 call [23.9108] [45.0817]
G04 P0 ( dwell for no time -- G64 should not smooth over this point )
G00 Z0.50000 ( retract )

G00 X26.45080 Y45.00550 ( rapid move to begin. )
F300.00000
o7 call [26.4508] [45.0055]
G04 P0 ( dwell for no time -- G64 should not smooth over this point )
F600.00000
o7 call [26.4508] [42.9481]
o7 call [23.9108] [42.9481]
o7 call [23.9108] [45.4881]
o7 call [26.4508] [45.4881]
o7 call [26.4508] [45.0817]
G04 P0 ( dwell for no time -- G64 should not smooth over this point )
G00 Z0.50000 ( retract )

G00 X28.99080 Y45.00550 ( rapid move to begin. )
F300.00000
o7 call [28.9908] [45.0055]
G04 P0 ( dwell for no time -- G64 should not smooth over this point )
F600.00000
o7 call [28.9908] [42.9481]
o7 call [26.4508] [42.9481]
o7 call [26.4508] [45.4881]
o7 call [28.9908] [45.4881]
o7 call [28.9908] [45.0309]
G04 P0 ( dwell for no time -- G64 should not smooth over this point )
G00 Z0.50000 ( retract )

G00 X31.53080 Y45.00550 ( rapid move to begin. )
F300.00000
o7 call [31.5308] [45.0055]
G04 P0 ( dwell for no time -- G64 should not smooth over this point )
F600.00000
o7 call [31.5308] [42.9481]
o7 call [28.9908] [42.9481]
o7 call [28.9908] [45.4881]
o7 call [31.5308] [45.4881]
o7 call [31.5308] [45.0309]
G04 P0 ( dwell for no time -- G64 should not smooth over this point )
G00 Z0.50000 ( retract )

G00 X34.07080 Y45.00550 ( rapid move to begin. )
F300.00000
o7 call [34.0708] [45.0055]
G04 P0 ( dwell for no time -- G64 should not smooth over this point )
F600.00000
o7 call [34.0708] [42.9481]
o7 call [31.5308] [42.9481]
o7 call [31.5308] [45.4881]
o7 call [34.0708] [45.4881]
o7 call [34.0708] [45.0309]
G04 P0 ( dwell for no time -- G64 should not smooth over this point )
G00 Z0.50000 ( retract )

G00 X36.61080 Y45.00550 ( rapid move to begin. )
F300.00000
o7 call [36.6108] [45.0055]
G04 P0 ( dwell for no time -- G64 should not smooth over this point )
F600.00000
o7 call [36.6108] [42.9481]
o7 call [34.0708] [42.9481]
o7 call [34.0708] [45.4881]
o7 call [36.6108] [45.4881]
o7 call [36.6108] [45.0309]
G04 P0 ( dwell for no time -- G64 should not smooth over this point )
G00 Z0.50000 ( retract )

G00 X39.15080 Y45.00550 ( rapid move to begin. )
F300.00000
o7 call [39.1508] [45.0055]
G04 P0 ( dwell for no time -- G64 should not smooth over this point )
F600.00000
o7 call [39.1508] [42.9481]
o7 call [36.6108] [42.9481]
o7 call [36.6108] [45.4881]
o7 call [39.1508] [45.4881]
o7 call [39.1508] [45.0309]
G04 P0 ( dwell for no time -- G64 should not smooth over this point )
G00 Z0.50000 ( retract )

G00 X41.69080 Y45.00550 ( rapid move to begin. )
F300.00000
o7 call [41.6908] [45.0055]
G04 P0 ( dwell for no time -- G64 should not smooth over this point )
F600.00000
o7 call [41.6908] [42.9481]
o7 call [39.1508] [42.9481]
o7 call [39.1508] [45.4881]
o7 call [41.6908] [45.4881]
o7 call [41.6908] [45.0309]
G04 P0 ( dwell for no time -- G64 should not smooth over this point )
G00 Z0.50000 ( retract )

G00 X44.23080 Y45.00550 ( rapid move to begin. )
F300.00000
o7 call [44.2308] [45.0055]
G04 P0 ( dwell for no time -- G64 should not smooth over this point )
F600.00000
o7 call [44.2308] [42.9481]
o7 call [41.6908] [42.9481]
o7 call [41.6908] [45.4881]
o7 call [44.2308] [45.4881]
o7 call [44.2308] [45.0309]
G04 P0 ( dwell for no time -- G64 should not smooth over this point )
G00 Z0.50000 ( retract )

G00 X46.77080 Y45.00550 ( rapid move to begin. )
F300.00000
o7 call [46.7708] [45.0055]
G04 P0 ( dwell for no time -- G64 should not smooth over this point )
F600.00000
o7 call [46.7708] [42.9481]
o7 call [44.2308] [42.9481]
o7 call [44.2308] [45.4881]
o7 call [46.7708] [45.4881]
o7 call [46.7708] [45.0309]
G04 P0 ( dwell for no time -- G64 should not smooth over this point )
G00 Z0.50000 ( retract )

G00 X49.31080 Y45.00550 ( rapid move to begin. )
F300.00000
o7 call [49.3108] [45.0055]
G04 P0 ( dwell for no time -- G64 should not smooth over this point )
F600.00000
o7 call [49.3108] [42.9481]
o7 call [46.7708] [42.9481]
o7 call [46.7708] [45.4881]
o7 call [49.3108] [45.4881]
o7 call [49.3108] [45.0309]
G04 P0 ( dwell for no time -- G64 should not smooth over this point )
G00 Z0.50000 ( retract )

G00 X51.85080 Y45.00550 ( rapid move to begin. )
F300.00000
o7 call [51.8508] [45.0055]
G04 P0 ( dwell for no time -- G64 should not smooth over this point )
F600.00000
o7 call [51.8508] [42.9481]
o7 call [49.3108] [42.9481]
o7 call [49.3108] [45.4881]
o7 call [51.8508] [45.4881]
o7 call [51.8508] [45.0309]
G04 P0 ( dwell for no time -- G64 should not smooth over this point )
G00 Z0.50000 ( retract )

G00 X54.39080 Y45.00550 ( rapid move to begin. )
F300.00000
o7 call [54.3908] [45.0055]
G04 P0 ( dwell for no time -- G64 should not smooth over this point )
F600.00000
o7 call [54.3908] [42.9481]
o7 call [51.8508] [42.9481]
o7 call [51.8508] [45.4881]
o7 call [54.3908] [45.4881]
o7 call [54.3908] [45.0309]
G04 P0 ( dwell for no time -- G64 should not smooth over this point )
G00 Z0.50000 ( retract )

G00 X56.93080 Y45.00550 ( rapid move to begin. )
F300.00000
o7 call [56.9308] [45.0055]
G04 P0 ( dwell for no time -- G64 should not smooth over this point )
F600.00000
o7 call [56.9308] [42.9481]
o7 call [54.3908] [42.9481]
o7 call [54.3908] [45.4881]
o7 call [56.9308] [45.4881]
o7 call [56.9308] [45.0309]
G04 P0 ( dwell for no time -- G64 should not smooth over this point )
G00 Z0.50000 ( retract )

G00 X59.47080 Y45.00550 ( rapid move to begin. )
F300.00000
o7 call [59.4708] [45.0055]
G04 P0 ( dwell for no time -- G64 should not smooth over this point )
F600.00000
o7 call [59.4708] [42.9481]
o7 call [56.9308] [42.9481]
o7 call [56.9308] [45.4881]
o7 call [59.4708] [45.4881]
o7 call [59.4708] [45.0309]
G04 P0 ( dwell for no time -- G64 should not smooth over this point )
G00 Z0.50000 ( retract )

G00 X62.01080 Y45.00550 ( rapid move to begin. )
F300.00000
o7 call [62.0108] [45.0055]
G04 P0 ( dwell for no time -- G64 should not smooth over this point )
F600.00000
o7 call [62.0108] [42.9481]
o7 call [59.4708] [42.9481]
o7 call [59.4708] [45.4881]
o7 call [62.0108] [45.4881]
o7 call [62.0108] [45.0309]
G04 P0 ( dwell for no time -- G64 should not smooth over this point )
G00 Z0.50000 ( retract )

G00 X65.05880 Y45.00550 ( rapid move to begin. )
F300.00000
o7 call [65.0588] [45.0055]
G04 P0 ( dwell for no time -- G64 should not smooth over this point )
F600.00000
o7 call [65.0588] [43.4053]
o7 call [65.008] [42.9481]
o7 call [62.0108] [42.9481]
o7 call [62.0108] [45.4881]
o7 call [65.0334] [45.4627]
o7 call [65.0588] [45.0309]
G04 P0 ( dwell for no time -- G64 should not smooth over this point )
G00 Z0.50000 ( retract )

G00 X6.13080 Y42.46550 ( rapid move to begin. )
F300.00000
o7 call [6.1308] [42.4655]
G04 P0 ( dwell for no time -- G64 should not smooth over this point )
F600.00000
o7 call [6.1308] [40.4081]
o7 call [3.0828] [40.4081]
o7 call [3.0574] [42.0083]
o7 call [3.0828] [42.9481]
o7 call [6.1308] [42.9481]
o7 call [6.1308] [42.5417]
G04 P0 ( dwell for no time -- G64 should not smooth over this point )
G00 Z0.50000 ( retract )

G00 X8.67080 Y42.46550 ( rapid move to begin. )
F300.00000
o7 call [8.6708] [42.4655]
G04 P0 ( dwell for no time -- G64 should not smooth over this point )
F600.00000
o7 call [8.6708] [40.4081]
o7 call [6.1308] [40.4081]
o7 call [6.1308] [42.9481]
o7 call [8.6708] [42.9481]
o7 call [8.6708] [42.5417]
G04 P0 ( dwell for no time -- G64 should not smooth over this point )
G00 Z0.50000 ( retract )

G00 X11.21080 Y42.46550 ( rapid move to begin. )
F300.00000
o7 call [11.2108] [42.4655]
G04 P0 ( dwell for no time -- G64 should not smooth over this point )
F600.00000
o7 call [11.2108] [40.4081]
o7 call [8.6708] [40.4081]
o7 call [8.6708] [42.9481]
o7 call [11.2108] [42.9481]
o7 call [11.2108] [42.5417]
G04 P0 ( dwell for no time -- G64 should not smooth over this point )
G00 Z0.50000 ( retract )

G00 X13.75080 Y42.46550 ( rapid move to begin. )
F300.00000
o7 call [13.7508] [42.4655]
G04 P0 ( dwell for no time -- G64 should not smooth over this point )
F600.00000
o7 call [13.7508] [40.4081]
o7 call [11.2108] [40.4081]
o7 call [11.2108] [42.9481]
o7 call [13.7508] [42.9481]
o7 call [13.7508] [42.5417]
G04 P0 ( dwell for no time -- G64 should not smooth over this point )
G00 Z0.50000 ( retract )

G00 X16.29080 Y42.46550 ( rapid move to begin. )
F300.00000
o7 call [16.2908] [42.4655]
G04 P0 ( dwell for no time -- G64 should not smooth over this point )
F600.00000
o7 call [16.2908] [40.4081]
o7 call [13.7508] [40.4081]
o7 call [13.7508] [42.9481]
o7 call [16.2908] [42.9481]
o7 call [16.2908] [42.5417]
G04 P0 ( dwell for no time -- G64 should not smooth over this point )
G00 Z0.50000 ( retract )

G00 X18.83080 Y42.46550 ( rapid move to begin. )
F300.00000
o7 call [18.8308] [42.4655]
G04 P0 ( dwell for no time -- G64 should not smooth over this point )
F600.00000
o7 call [18.8308] [40.4081]
o7 call [16.2908] [40.4081]
o7 call [16.2908] [42.9481]
o7 call [18.8308] [42.9481]
o7 call [18.8308] [42.5417]
G04 P0 ( dwell for no time -- G64 should not smooth over this point )
G00 Z0.50000 ( retract )

G00 X21.37080 Y42.46550 ( rapid move to begin. )
F300.00000
o7 call [21.3708] [42.4655]
G04 P0 ( dwell for no time -- G64 should not smooth over this point )
F600.00000
o7 call [21.3708] [40.4081]
o7 call [18.8308] [40.4081]
o7 call [18.8308] [42.9481]
o7 call [21.3708] [42.9481]
o7 call [21.3708] [42.5417]
G04 P0 ( dwell for no time -- G64 should not smooth over this point )
G00 Z0.50000 ( retract )

G00 X23.91080 Y42.46550 ( rapid move to begin. )
F300.00000
o7 call [23.9108] [42.4655]
G04 P0 ( dwell for no time -- G64 should not smooth over this point )
F600.00000
o7 call [23.9108] [40.4081]
o7 call [21.3708] [40.4081]
o7 call [21.3708] [42.9481]
o7 call [23.9108] [42.9481]
o7 call [23.9108] [42.5417]
G04 P0 ( dwell for no time -- G64 should not smooth over this point )
G00 Z0.50000 ( retract )

G00 X26.45080 Y42.46550 ( rapid move to begin. )
F300.00000
o7 call [26.4508] [42.4655]
G04 P0 ( dwell for no time -- G64 should not smooth over this point )
F600.00000
o7 call [26.4508] [40.4081]
o7 call [23.9108] [40.4081]
o7 call [23.9108] [42.9481]
o7 call [26.4508] [42.9481]
o7 call [26.4508] [42.4909]
G04 P0 ( dwell for no time -- G64 should not smooth over this point )
G00 Z0.50000 ( retract )

G00 X28.99080 Y42.46550 ( rapid move to begin. )
F300.00000
o7 call [28.9908] [42.4655]
G04 P0 ( dwell for no time -- G64 should not smooth over this point )
F600.00000
o7 call [28.9908] [40.4081]
o7 call [26.4508] [40.4081]
o7 call [26.4508] [42.9481]
o7 call [28.9908] [42.9481]
o7 call [28.9908] [42.4909]
G04 P0 ( dwell for no time -- G64 should not smooth over this point )
G00 Z0.50000 ( retract )

G00 X31.53080 Y42.46550 ( rapid move to begin. )
F300.00000
o7 call [31.5308] [42.4655]
G04 P0 ( dwell for no time -- G64 should not smooth over this point )
F600.00000
o7 call [31.5308] [40.4081]
o7 call [28.9908] [40.4081]
o7 call [28.9908] [42.9481]
o7 call [31.5308] [42.9481]
o7 call [31.5308] [42.4909]
G04 P0 ( dwell for no time -- G64 should not smooth over this point )
G00 Z0.50000 ( retract )

G00 X34.07080 Y42.46550 ( rapid move to begin. )
F300.00000
o7 call [34.0708] [42.4655]
G04 P0 ( dwell for no time -- G64 should not smooth over this point )
F600.00000
o7 call [34.0708] [40.4081]
o7 call [31.5308] [40.4081]
o7 call [31.5308] [42.9481]
o7 call [34.0708] [42.9481]
o7 call [34.0708] [42.4909]
G04 P0 ( dwell for no time -- G64 should not smooth over this point )
G00 Z0.50000 ( retract )

G00 X36.61080 Y42.46550 ( rapid move to begin. )
F300.00000
o7 call [36.6108] [42.4655]
G04 P0 ( dwell for no time -- G64 should not smooth over this point )
F600.00000
o7 call [36.6108] [40.4081]
o7 call [34.0708] [40.4081]
o7 call [34.0708] [42.9481]
o7 call [36.6108] [42.9481]
o7 call [36.6108] [42.4909]
G04 P0 ( dwell for no time -- G64 should not smooth over this point )
G00 Z0.50000 ( retract )

G00 X39.15080 Y42.46550 ( rapid move to begin. )
F300.00000
o7 call [39.1508] [42.4655]
G04 P0 ( dwell for no time -- G64 should not smooth over this point )
F600.00000
o7 call [39.1508] [40.4081]
o7 call [36.6108] [40.4081]
o7 call [36.6108] [42.9481]
o7 call [39.1508] [42.9481]
o7 call [39.1508] [42.4909]
G04 P0 ( dwell for no time -- G64 should not smooth over this point )
G00 Z0.50000 ( retract )

G00 X41.69080 Y42.46550 ( rapid move to begin. )
F300.00000
o7 call [41.6908] [42.4655]
G04 P0 ( dwell for no time -- G64 should not smooth over this point )
F600.00000
o7 call [41.6908] [40.4081]
o7 call [39.1508] [40.4081]
o7 call [39.1508] [42.9481]
o7 call [41.6908] [42.9481]
o7 call [41.6908] [42.4909]
G04 P0 ( dwell for no time -- G64 should not smooth over this point )
G00 Z0.50000 ( retract )

G00 X44.23080 Y42.46550 ( rapid move to begin. )
F300.00000
o7 call [44.2308] [42.4655]
G04 P0 ( dwell for no time -- G64 should not smooth over this point )
F600.00000
o7 call [44.2308] [40.4081]
o7 call [41.6908] [40.4081]
o7 call [41.6908] [42.9481]
o7 call [44.2308] [42.9481]
o7 call [44.2308] [42.4909]
G04 P0 ( dwell for no time -- G64 should not smooth over this point )
G00 Z0.50000 ( retract )

G00 X46.77080 Y42.46550 ( rapid move to begin. )
F300.00000
o7 call [46.7708] [42.4655]
G04 P0 ( dwell for no time -- G64 should not smooth over this point )
F600.00000
o7 call [46.7708] [40.4081]
o7 call [44.2308] [40.4081]
o7 call [44.2308] [42.9481]
o7 call [46.7708] [42.9481]
o7 call [46.7708] [42.4909]
G04 P0 ( dwell for no time -- G64 should not smooth over this point )
G00 Z0.50000 ( retract )

G00 X49.31080 Y42.46550 ( rapid move to begin. )
F300.00000
o7 call [49.3108] [42.4655]
G04 P0 ( dwell for no time -- G64 should not smooth over this point )
F600.00000
o7 call [49.3108] [40.4081]
o7 call [46.7708] [40.4081]
o7 call [46.7708] [42.9481]
o7 call [49.3108] [42.9481]
o7 call [49.3108] [42.4909]
G04 P0 ( dwell for no time -- G64 should not smooth over this point )
G00 Z0.50000 ( retract )

G00 X51.85080 Y42.46550 ( rapid move to begin. )
F300.00000
o7 call [51.8508] [42.4655]
G04 P0 ( dwell for no time -- G64 should not smooth over this point )
F600.00000
o7 call [51.8508] [40.4081]
o7 call [49.3108] [40.4081]
o7 call [49.3108] [42.9481]
o7 call [51.8508] [42.9481]
o7 call [51.8508] [42.4909]
G04 P0 ( dwell for no time -- G64 should not smooth over this point )
G00 Z0.50000 ( retract )

G00 X54.39080 Y42.46550 ( rapid move to begin. )
F300.00000
o7 call [54.3908] [42.4655]
G04 P0 ( dwell for no time -- G64 should not smooth over this point )
F600.00000
o7 call [54.3908] [40.4081]
o7 call [51.8508] [40.4081]
o7 call [51.8508] [42.9481]
o7 call [54.3908] [42.9481]
o7 call [54.3908] [42.4909]
G04 P0 ( dwell for no time -- G64 should not smooth over this point )
G00 Z0.50000 ( retract )

G00 X56.93080 Y42.46550 ( rapid move to begin. )
F300.00000
o7 call [56.9308] [42.4655]
G04 P0 ( dwell for no time -- G64 should not smooth over this point )
F600.00000
o7 call [56.9308] [40.4081]
o7 call [54.3908] [40.4081]
o7 call [54.3908] [42.9481]
o7 call [56.9308] [42.9481]
o7 call [56.9308] [42.4909]
G04 P0 ( dwell for no time -- G64 should not smooth over this point )
G00 Z0.50000 ( retract )

G00 X59.47080 Y42.46550 ( rapid move to begin. )
F300.00000
o7 call [59.4708] [42.4655]
G04 P0 ( dwell for no time -- G64 should not smooth over this point )
F600.00000
o7 call [59.4708] [40.4081]
o7 call [56.9308] [40.4081]
o7 call [56.9308] [42.9481]
o7 call [59.4708] [42.9481]
o7 call [59.4708] [42.4909]
G04 P0 ( dwell for no time -- G64 should not smooth over this point )
G00 Z0.50000 ( retract )

G00 X62.01080 Y42.46550 ( rapid move to begin. )
F300.00000
o7 call [62.0108] [42.4655]
G04 P0 ( dwell for no time -- G64 should not smooth over this point )
F600.00000
o7 call [62.0108] [40.4081]
o7 call [59.4708] [40.4081]
o7 call [59.4708] [42.9481]
o7 call [62.0108] [42.9481]
o7 call [62.0108] [42.4909]
G04 P0 ( dwell for no time -- G64 should not smooth over this point )
G00 Z0.50000 ( retract )

G00 X65.05880 Y42.46550 ( rapid move to begin. )
F300.00000
o7 call [65.0588] [42.4655]
G04 P0 ( dwell for no time -- G64 should not smooth over this point )
F600.00000
o7 call [65.0588] [40.8653]
o7 call [65.008] [40.4081]
o7 call [62.0108] [40.4081]
o7 call [62.0108] [42.9481]
o7 call [65.0334] [42.9227]
o7 call [65.0588] [42.4909]
G04 P0 ( dwell for no time -- G64 should not smooth over this point )
G00 Z0.50000 ( retract )

G00 X6.13080 Y39.92550 ( rapid move to begin. )
F300.00000
o7 call [6.1308] [39.9255]
G04 P0 ( dwell for no time -- G64 should not smooth over this point )
F600.00000
o7 call [6.1308] [37.8681]
o7 call [3.0828] [37.8681]
o7 call [3.0574] [39.4683]
o7 call [3.0828] [40.4081]
o7 call [6.1308] [40.4081]
o7 call [6.1308] [40.0017]
G04 P0 ( dwell for no time -- G64 should not smooth over this point )
G00 Z0.50000 ( retract )

G00 X8.67080 Y39.92550 ( rapid move to begin. )
F300.00000
o7 call [8.6708] [39.9255]
G04 P0 ( dwell for no time -- G64 should not smooth over this point )
F600.00000
o7 call [8.6708] [37.8681]
o7 call [6.1308] [37.8681]
o7 call [6.1308] [40.4081]
o7 call [8.6708] [40.4081]
o7 call [8.6708] [40.0017]
G04 P0 ( dwell for no time -- G64 should not smooth over this point )
G00 Z0.50000 ( retract )

G00 X11.21080 Y39.92550 ( rapid move to begin. )
F300.00000
o7 call [11.2108] [39.9255]
G04 P0 ( dwell for no time -- G64 should not smooth over this point )
F600.00000
o7 call [11.2108] [37.8681]
o7 call [8.6708] [37.8681]
o7 call [8.6708] [40.4081]
o7 call [11.2108] [40.4081]
o7 call [11.2108] [40.0017]
G04 P0 ( dwell for no time -- G64 should not smooth over this point )
G00 Z0.50000 ( retract )

G00 X13.75080 Y39.92550 ( rapid move to begin. )
F300.00000
o7 call [13.7508] [39.9255]
G04 P0 ( dwell for no time -- G64 should not smooth over this point )
F600.00000
o7 call [13.7508] [37.8681]
o7 call [11.2108] [37.8681]
o7 call [11.2108] [40.4081]
o7 call [13.7508] [40.4081]
o7 call [13.7508] [40.0017]
G04 P0 ( dwell for no time -- G64 should not smooth over this point )
G00 Z0.50000 ( retract )

G00 X16.29080 Y39.92550 ( rapid move to begin. )
F300.00000
o7 call [16.2908] [39.9255]
G04 P0 ( dwell for no time -- G64 should not smooth over this point )
F600.00000
o7 call [16.2908] [37.8681]
o7 call [13.7508] [37.8681]
o7 call [13.7508] [40.4081]
o7 call [16.2908] [40.4081]
o7 call [16.2908] [40.0017]
G04 P0 ( dwell for no time -- G64 should not smooth over this point )
G00 Z0.50000 ( retract )

G00 X18.83080 Y39.92550 ( rapid move to begin. )
F300.00000
o7 call [18.8308] [39.9255]
G04 P0 ( dwell for no time -- G64 should not smooth over this point )
F600.00000
o7 call [18.8308] [37.8681]
o7 call [16.2908] [37.8681]
o7 call [16.2908] [40.4081]
o7 call [18.8308] [40.4081]
o7 call [18.8308] [40.0017]
G04 P0 ( dwell for no time -- G64 should not smooth over this point )
G00 Z0.50000 ( retract )

G00 X21.37080 Y39.92550 ( rapid move to begin. )
F300.00000
o7 call [21.3708] [39.9255]
G04 P0 ( dwell for no time -- G64 should not smooth over this point )
F600.00000
o7 call [21.3708] [37.8681]
o7 call [18.8308] [37.8681]
o7 call [18.8308] [40.4081]
o7 call [21.3708] [40.4081]
o7 call [21.3708] [40.0017]
G04 P0 ( dwell for no time -- G64 should not smooth over this point )
G00 Z0.50000 ( retract )

G00 X23.91080 Y39.92550 ( rapid move to begin. )
F300.00000
o7 call [23.9108] [39.9255]
G04 P0 ( dwell for no time -- G64 should not smooth over this point )
F600.00000
o7 call [23.9108] [37.8681]
o7 call [21.3708] [37.8681]
o7 call [21.3708] [40.4081]
o7 call [23.9108] [40.4081]
o7 call [23.9108] [39.9509]
G04 P0 ( dwell for no time -- G64 should not smooth over this point )
G00 Z0.50000 ( retract )

G00 X26.45080 Y39.92550 ( rapid move to begin. )
F300.00000
o7 call [26.4508] [39.9255]
G04 P0 ( dwell for no time -- G64 should not smooth over this point )
F600.00000
o7 call [26.4508] [37.8681]
o7 call [23.9108] [37.8681]
o7 call [23.9108] [40.4081]
o7 call [26.4508] [40.4081]
o7 call [26.4508] [39.9509]
G04 P0 ( dwell for no time -- G64 should not smooth over this point )
G00 Z0.50000 ( retract )

G00 X28.99080 Y39.92550 ( rapid move to begin. )
F300.00000
o7 call [28.9908] [39.9255]
G04 P0 ( dwell for no time -- G64 should not smooth over this point )
F600.00000
o7 call [28.9908] [37.8681]
o7 call [26.4508] [37.8681]
o7 call [26.4508] [40.4081]
o7 call [28.9908] [40.4081]
o7 call [28.9908] [39.9509]
G04 P0 ( dwell for no time -- G64 should not smooth over this point )
G00 Z0.50000 ( retract )

G00 X31.53080 Y39.92550 ( rapid move to begin. )
F300.00000
o7 call [31.5308] [39.9255]
G04 P0 ( dwell for no time -- G64 should not smooth over this point )
F600.00000
o7 call [31.5308] [37.8681]
o7 call [28.9908] [37.8681]
o7 call [28.9908] [40.4081]
o7 call [31.5308] [40.4081]
o7 call [31.5308] [39.9509]
G04 P0 ( dwell for no time -- G64 should not smooth over this point )
G00 Z0.50000 ( retract )

G00 X34.07080 Y39.92550 ( rapid move to begin. )
F300.00000
o7 call [34.0708] [39.9255]
G04 P0 ( dwell for no time -- G64 should not smooth over this point )
F600.00000
o7 call [34.0708] [37.8681]
o7 call [31.5308] [37.8681]
o7 call [31.5308] [40.4081]
o7 call [34.0708] [40.4081]
o7 call [34.0708] [39.9509]
G04 P0 ( dwell for no time -- G64 should not smooth over this point )
G00 Z0.50000 ( retract )

G00 X36.61080 Y39.92550 ( rapid move to begin. )
F300.00000
o7 call [36.6108] [39.9255]
G04 P0 ( dwell for no time -- G64 should not smooth over this point )
F600.00000
o7 call [36.6108] [37.8681]
o7 call [34.0708] [37.8681]
o7 call [34.0708] [40.4081]
o7 call [36.6108] [40.4081]
o7 call [36.6108] [39.9509]
G04 P0 ( dwell for no time -- G64 should not smooth over this point )
G00 Z0.50000 ( retract )

G00 X39.15080 Y39.92550 ( rapid move to begin. )
F300.00000
o7 call [39.1508] [39.9255]
G04 P0 ( dwell for no time -- G64 should not smooth over this point )
F600.00000
o7 call [39.1508] [37.8681]
o7 call [36.6108] [37.8681]
o7 call [36.6108] [40.4081]
o7 call [39.1508] [40.4081]
o7 call [39.1508] [39.9509]
G04 P0 ( dwell for no time -- G64 should not smooth over this point )
G00 Z0.50000 ( retract )

G00 X41.69080 Y39.92550 ( rapid move to begin. )
F300.00000
o7 call [41.6908] [39.9255]
G04 P0 ( dwell for no time -- G64 should not smooth over this point )
F600.00000
o7 call [41.6908] [37.8681]
o7 call [39.1508] [37.8681]
o7 call [39.1508] [40.4081]
o7 call [41.6908] [40.4081]
o7 call [41.6908] [39.9509]
G04 P0 ( dwell for no time -- G64 should not smooth over this point )
G00 Z0.50000 ( retract )

G00 X44.23080 Y39.92550 ( rapid move to begin. )
F300.00000
o7 call [44.2308] [39.9255]
G04 P0 ( dwell for no time -- G64 should not smooth over this point )
F600.00000
o7 call [44.2308] [37.8681]
o7 call [41.6908] [37.8681]
o7 call [41.6908] [40.4081]
o7 call [44.2308] [40.4081]
o7 call [44.2308] [39.9509]
G04 P0 ( dwell for no time -- G64 should not smooth over this point )
G00 Z0.50000 ( retract )

G00 X46.77080 Y39.92550 ( rapid move to begin. )
F300.00000
o7 call [46.7708] [39.9255]
G04 P0 ( dwell for no time -- G64 should not smooth over this point )
F600.00000
o7 call [46.7708] [37.8681]
o7 call [44.2308] [37.8681]
o7 call [44.2308] [40.4081]
o7 call [46.7708] [40.4081]
o7 call [46.7708] [39.9509]
G04 P0 ( dwell for no time -- G64 should not smooth over this point )
G00 Z0.50000 ( retract )

G00 X49.31080 Y39.92550 ( rapid move to begin. )
F300.00000
o7 call [49.3108] [39.9255]
G04 P0 ( dwell for no time -- G64 should not smooth over this point )
F600.00000
o7 call [49.3108] [37.8681]
o7 call [46.7708] [37.8681]
o7 call [46.7708] [40.4081]
o7 call [49.3108] [40.4081]
o7 call [49.3108] [39.9509]
G04 P0 ( dwell for no time -- G64 should not smooth over this point )
G00 Z0.50000 ( retract )

G00 X51.85080 Y39.92550 ( rapid move to begin. )
F300.00000
o7 call [51.8508] [39.9255]
G04 P0 ( dwell for no time -- G64 should not smooth over this point )
F600.00000
o7 call [51.8508] [37.8681]
o7 call [49.3108] [37.8681]
o7 call [49.3108] [40.4081]
o7 call [51.8508] [40.4081]
o7 call [51.8508] [39.9509]
G04 P0 ( dwell for no time -- G64 should not smooth over this point )
G00 Z0.50000 ( retract )

G00 X54.39080 Y39.92550 ( rapid move to begin. )
F300.00000
o7 call [54.3908] [39.9255]
G04 P0 ( dwell for no time -- G64 should not smooth over this point )
F600.00000
o7 call [54.3908] [37.8681]
o7 call [51.8508] [37.8681]
o7 call [51.8508] [40.4081]
o7 call [54.3908] [40.4081]
o7 call [54.3908] [39.9509]
G04 P0 ( dwell for no time -- G64 should not smooth over this point )
G00 Z0.50000 ( retract )

G00 X56.93080 Y39.92550 ( rapid move to begin. )
F300.00000
o7 call [56.9308] [39.9255]
G04 P0 ( dwell for no time -- G64 should not smooth over this point )
F600.00000
o7 call [56.9308] [37.8681]
o7 call [54.3908] [37.8681]
o7 call [54.3908] [40.4081]
o7 call [56.9308] [40.4081]
o7 call [56.9308] [39.9509]
G04 P0 ( dwell for no time -- G64 should not smooth over this point )
G00 Z0.50000 ( retract )

G00 X59.47080 Y39.92550 ( rapid move to begin. )
F300.00000
o7 call [59.4708] [39.9255]
G04 P0 ( dwell for no time -- G64 should not smooth over this point )
F600.00000
o7 call [59.4708] [37.8681]
o7 call [56.9308] [37.8681]
o7 call [56.9308] [40.4081]
o7 call [59.4708] [40.4081]
o7 call [59.4708] [39.9509]
G04 P0 ( dwell for no time -- G64 should not smooth over this point )
G00 Z0.50000 ( retract )

G00 X62.01080 Y39.92550 ( rapid move to begin. )
F300.00000
o7 call [62.0108] [39.9255]
G04 P0 ( dwell for no time -- G64 should not smooth over this point )
F600.00000
o7 call [62.0108] [37.8681]
o7 call [59.4708] [37.8681]
o7 call [59.4708] [40.4081]
o7 call [62.0108] [40.4081]
o7 call [62.0108] [39.9509]
G04 P0 ( dwell for no time -- G64 should not smooth over this point )
G00 Z0.50000 ( retract )

G00 X65.05880 Y39.92550 ( rapid move to begin. )
F300.00000
o7 call [65.0588] [39.9255]
G04 P0 ( dwell for no time -- G64 should not smooth over this point )
F600.00000
o7 call [65.0588] [38.3253]
o7 call [65.008] [37.8681]
o7 call [62.0108] [37.8681]
o7 call [62.0108] [40.4081]
o7 call [65.0334] [40.3827]
o7 call [65.0588] [39.9509]
G04 P0 ( dwell for no time -- G64 should not smooth over this point )
G00 Z0.50000 ( retract )

G00 X6.13080 Y37.38550 ( rapid move to begin. )
F300.00000
o7 call [6.1308] [37.3855]
G04 P0 ( dwell for no time -- G64 should not smooth over this point )
F600.00000
o7 call [6.1308] [35.3281]
o7 call [3.0828] [35.3281]
o7 call [3.0574] [36.9283]
o7 call [3.0828] [37.8681]
o7 call [6.1308] [37.8681]
o7 call [6.1308] [37.4617]
G04 P0 ( dwell for no time -- G64 should not smooth over this point )
G00 Z0.50000 ( retract )

G00 X8.67080 Y37.38550 ( rapid move to begin. )
F300.00000
o7 call [8.6708] [37.3855]
G04 P0 ( dwell for no time -- G64 should not smooth over this point )
F600.00000
o7 call [8.6708] [35.3281]
o7 call [6.1308] [35.3281]
o7 call [6.1308] [37.8681]
o7 call [8.6708] [37.8681]
o7 call [8.6708] [37.4617]
G04 P0 ( dwell for no time -- G64 should not smooth over this point )
G00 Z0.50000 ( retract )

G00 X11.21080 Y37.38550 ( rapid move to begin. )
F300.00000
o7 call [11.2108] [37.3855]
G04 P0 ( dwell for no time -- G64 should not smooth over this point )
F600.00000
o7 call [11.2108] [35.3281]
o7 call [8.6708] [35.3281]
o7 call [8.6708] [37.8681]
o7 call [11.2108] [37.8681]
o7 call [11.2108] [37.4617]
G04 P0 ( dwell for no time -- G64 should not smooth over this point )
G00 Z0.50000 ( retract )

G00 X13.75080 Y37.38550 ( rapid move to begin. )
F300.00000
o7 call [13.7508] [37.3855]
G04 P0 ( dwell for no time -- G64 should not smooth over this point )
F600.00000
o7 call [13.7508] [35.3281]
o7 call [11.2108] [35.3281]
o7 call [11.2108] [37.8681]
o7 call [13.7508] [37.8681]
o7 call [13.7508] [37.4617]
G04 P0 ( dwell for no time -- G64 should not smooth over this point )
G00 Z0.50000 ( retract )

G00 X16.29080 Y37.38550 ( rapid move to begin. )
F300.00000
o7 call [16.2908] [37.3855]
G04 P0 ( dwell for no time -- G64 should not smooth over this point )
F600.00000
o7 call [16.2908] [35.3281]
o7 call [13.7508] [35.3281]
o7 call [13.7508] [37.8681]
o7 call [16.2908] [37.8681]
o7 call [16.2908] [37.4617]
G04 P0 ( dwell for no time -- G64 should not smooth over this point )
G00 Z0.50000 ( retract )

G00 X18.83080 Y37.38550 ( rapid move to begin. )
F300.00000
o7 call [18.8308] [37.3855]
G04 P0 ( dwell for no time -- G64 should not smooth over this point )
F600.00000
o7 call [18.8308] [35.3281]
o7 call [16.2908] [35.3281]
o7 call [16.2908] [37.8681]
o7 call [18.8308] [37.8681]
o7 call [18.8308] [37.4617]
G04 P0 ( dwell for no time -- G64 should not smooth over this point )
G00 Z0.50000 ( retract )

G00 X21.37080 Y37.38550 ( rapid move to begin. )
F300.00000
o7 call [21.3708] [37.3855]
G04 P0 ( dwell for no time -- G64 should not smooth over this point )
F600.00000
o7 call [21.3708] [35.3281]
o7 call [18.8308] [35.3281]
o7 call [18.8308] [37.8681]
o7 call [21.3708] [37.8681]
o7 call [21.3708] [37.4617]
G04 P0 ( dwell for no time -- G64 should not smooth over this point )
G00 Z0.50000 ( retract )

G00 X23.91080 Y37.38550 ( rapid move to begin. )
F300.00000
o7 call [23.9108] [37.3855]
G04 P0 ( dwell for no time -- G64 should not smooth over this point )
F600.00000
o7 call [23.9108] [35.3281]
o7 call [21.3708] [35.3281]
o7 call [21.3708] [37.8681]
o7 call [23.9108] [37.8681]
o7 call [23.9108] [37.4109]
G04 P0 ( dwell for no time -- G64 should not smooth over this point )
G00 Z0.50000 ( retract )

G00 X26.45080 Y37.38550 ( rapid move to begin. )
F300.00000
o7 call [26.4508] [37.3855]
G04 P0 ( dwell for no time -- G64 should not smooth over this point )
F600.00000
o7 call [26.4508] [35.3281]
o7 call [23.9108] [35.3281]
o7 call [23.9108] [37.8681]
o7 call [26.4508] [37.8681]
o7 call [26.4508] [37.4109]
G04 P0 ( dwell for no time -- G64 should not smooth over this point )
G00 Z0.50000 ( retract )

G00 X28.99080 Y37.38550 ( rapid move to begin. )
F300.00000
o7 call [28.9908] [37.3855]
G04 P0 ( dwell for no time -- G64 should not smooth over this point )
F600.00000
o7 call [28.9908] [35.3281]
o7 call [26.4508] [35.3281]
o7 call [26.4508] [37.8681]
o7 call [28.9908] [37.8681]
o7 call [28.9908] [37.4109]
G04 P0 ( dwell for no time -- G64 should not smooth over this point )
G00 Z0.50000 ( retract )

G00 X31.53080 Y37.38550 ( rapid move to begin. )
F300.00000
o7 call [31.5308] [37.3855]
G04 P0 ( dwell for no time -- G64 should not smooth over this point )
F600.00000
o7 call [31.5308] [35.3281]
o7 call [28.9908] [35.3281]
o7 call [28.9908] [37.8681]
o7 call [31.5308] [37.8681]
o7 call [31.5308] [37.4109]
G04 P0 ( dwell for no time -- G64 should not smooth over this point )
G00 Z0.50000 ( retract )

G00 X34.07080 Y37.38550 ( rapid move to begin. )
F300.00000
o7 call [34.0708] [37.3855]
G04 P0 ( dwell for no time -- G64 should not smooth over this point )
F600.00000
o7 call [34.0708] [35.3281]
o7 call [31.5308] [35.3281]
o7 call [31.5308] [37.8681]
o7 call [34.0708] [37.8681]
o7 call [34.0708] [37.4109]
G04 P0 ( dwell for no time -- G64 should not smooth over this point )
G00 Z0.50000 ( retract )

G00 X36.61080 Y37.38550 ( rapid move to begin. )
F300.00000
o7 call [36.6108] [37.3855]
G04 P0 ( dwell for no time -- G64 should not smooth over this point )
F600.00000
o7 call [36.6108] [35.3281]
o7 call [34.0708] [35.3281]
o7 call [34.0708] [37.8681]
o7 call [36.6108] [37.8681]
o7 call [36.6108] [37.4109]
G04 P0 ( dwell for no time -- G64 should not smooth over this point )
G00 Z0.50000 ( retract )

G00 X39.15080 Y37.38550 ( rapid move to begin. )
F300.00000
o7 call [39.1508] [37.3855]
G04 P0 ( dwell for no time -- G64 should not smooth over this point )
F600.00000
o7 call [39.1508] [35.3281]
o7 call [36.6108] [35.3281]
o7 call [36.6108] [37.8681]
o7 call [39.1508] [37.8681]
o7 call [39.1508] [37.4109]
G04 P0 ( dwell for no time -- G64 should not smooth over this point )
G00 Z0.50000 ( retract )

G00 X41.69080 Y37.38550 ( rapid move to begin. )
F300.00000
o7 call [41.6908] [37.3855]
G04 P0 ( dwell for no time -- G64 should not smooth over this point )
F600.00000
o7 call [41.6908] [35.3281]
o7 call [39.1508] [35.3281]
o7 call [39.1508] [37.8681]
o7 call [41.6908] [37.8681]
o7 call [41.6908] [37.4109]
G04 P0 ( dwell for no time -- G64 should not smooth over this point )
G00 Z0.50000 ( retract )

G00 X44.23080 Y37.38550 ( rapid move to begin. )
F300.00000
o7 call [44.2308] [37.3855]
G04 P0 ( dwell for no time -- G64 should not smooth over this point )
F600.00000
o7 call [44.2308] [35.3281]
o7 call [41.6908] [35.3281]
o7 call [41.6908] [37.8681]
o7 call [44.2308] [37.8681]
o7 call [44.2308] [37.4109]
G04 P0 ( dwell for no time -- G64 should not smooth over this point )
G00 Z0.50000 ( retract )

G00 X46.77080 Y37.38550 ( rapid move to begin. )
F300.00000
o7 call [46.7708] [37.3855]
G04 P0 ( dwell for no time -- G64 should not smooth over this point )
F600.00000
o7 call [46.7708] [35.3281]
o7 call [44.2308] [35.3281]
o7 call [44.2308] [37.8681]
o7 call [46.7708] [37.8681]
o7 call [46.7708] [37.4109]
G04 P0 ( dwell for no time -- G64 should not smooth over this point )
G00 Z0.50000 ( retract )

G00 X49.31080 Y37.38550 ( rapid move to begin. )
F300.00000
o7 call [49.3108] [37.3855]
G04 P0 ( dwell for no time -- G64 should not smooth over this point )
F600.00000
o7 call [49.3108] [35.3281]
o7 call [46.7708] [35.3281]
o7 call [46.7708] [37.8681]
o7 call [49.3108] [37.8681]
o7 call [49.3108] [37.4109]
G04 P0 ( dwell for no time -- G64 should not smooth over this point )
G00 Z0.50000 ( retract )

G00 X51.85080 Y37.38550 ( rapid move to begin. )
F300.00000
o7 call [51.8508] [37.3855]
G04 P0 ( dwell for no time -- G64 should not smooth over this point )
F600.00000
o7 call [51.8508] [35.3281]
o7 call [49.3108] [35.3281]
o7 call [49.3108] [37.8681]
o7 call [51.8508] [37.8681]
o7 call [51.8508] [37.4109]
G04 P0 ( dwell for no time -- G64 should not smooth over this point )
G00 Z0.50000 ( retract )

G00 X54.39080 Y37.38550 ( rapid move to begin. )
F300.00000
o7 call [54.3908] [37.3855]
G04 P0 ( dwell for no time -- G64 should not smooth over this point )
F600.00000
o7 call [54.3908] [35.3281]
o7 call [51.8508] [35.3281]
o7 call [51.8508] [37.8681]
o7 call [54.3908] [37.8681]
o7 call [54.3908] [37.4109]
G04 P0 ( dwell for no time -- G64 should not smooth over this point )
G00 Z0.50000 ( retract )

G00 X56.93080 Y37.38550 ( rapid move to begin. )
F300.00000
o7 call [56.9308] [37.3855]
G04 P0 ( dwell for no time -- G64 should not smooth over this point )
F600.00000
o7 call [56.9308] [35.3281]
o7 call [54.3908] [35.3281]
o7 call [54.3908] [37.8681]
o7 call [56.9308] [37.8681]
o7 call [56.9308] [37.4109]
G04 P0 ( dwell for no time -- G64 should not smooth over this point )
G00 Z0.50000 ( retract )

G00 X59.47080 Y37.38550 ( rapid move to begin. )
F300.00000
o7 call [59.4708] [37.3855]
G04 P0 ( dwell for no time -- G64 should not smooth over this point )
F600.00000
o7 call [59.4708] [35.3281]
o7 call [56.9308] [35.3281]
o7 call [56.9308] [37.8681]
o7 call [59.4708] [37.8681]
o7 call [59.4708] [37.4109]
G04 P0 ( dwell for no time -- G64 should not smooth over this point )
G00 Z0.50000 ( retract )

G00 X62.01080 Y37.38550 ( rapid move to begin. )
F300.00000
o7 call [62.0108] [37.3855]
G04 P0 ( dwell for no time -- G64 should not smooth over this point )
F600.00000
o7 call [62.0108] [35.3281]
o7 call [59.4708] [35.3281]
o7 call [59.4708] [37.8681]
o7 call [62.0108] [37.8681]
o7 call [62.0108] [37.4109]
G04 P0 ( dwell for no time -- G64 should not smooth over this point )
G00 Z0.50000 ( retract )

G00 X65.05880 Y37.38550 ( rapid move to begin. )
F300.00000
o7 call [65.0588] [37.3855]
G04 P0 ( dwell for no time -- G64 should not smooth over this point )
F600.00000
o7 call [65.0588] [35.7853]
o7 call [65.008] [35.3281]
o7 call [62.0108] [35.3281]
o7 call [62.0108] [37.8681]
o7 call [65.0334] [37.8427]
o7 call [65.0588] [37.4109]
G04 P0 ( dwell for no time -- G64 should not smooth over this point )
G00 Z0.50000 ( retract )

G00 X6.13080 Y34.84550 ( rapid move to begin. )
F300.00000
o7 call [6.1308] [34.8455]
G04 P0 ( dwell for no time -- G64 should not smooth over this point )
F600.00000
o7 call [6.1308] [32.7881]
o7 call [3.0828] [32.7881]
o7 call [3.0574] [34.3883]
o7 call [3.0828] [35.3281]
o7 call [6.1308] [35.3281]
o7 call [6.1308] [34.9217]
G04 P0 ( dwell for no time -- G64 should not smooth over this point )
G00 Z0.50000 ( retract )

G00 X8.67080 Y34.84550 ( rapid move to begin. )
F300.00000
o7 call [8.6708] [34.8455]
G04 P0 ( dwell for no time -- G64 should not smooth over this point )
F600.00000
o7 call [8.6708] [32.7881]
o7 call [6.1308] [32.7881]
o7 call [6.1308] [35.3281]
o7 call [8.6708] [35.3281]
o7 call [8.6708] [34.9217]
G04 P0 ( dwell for no time -- G64 should not smooth over this point )
G00 Z0.50000 ( retract )

G00 X11.21080 Y34.84550 ( rapid move to begin. )
F300.00000
o7 call [11.2108] [34.8455]
G04 P0 ( dwell for no time -- G64 should not smooth over this point )
F600.00000
o7 call [11.2108] [32.7881]
o7 call [8.6708] [32.7881]
o7 call [8.6708] [35.3281]
o7 call [11.2108] [35.3281]
o7 call [11.2108] [34.9217]
G04 P0 ( dwell for no time -- G64 should not smooth over this point )
G00 Z0.50000 ( retract )

G00 X13.75080 Y34.84550 ( rapid move to begin. )
F300.00000
o7 call [13.7508] [34.8455]
G04 P0 ( dwell for no time -- G64 should not smooth over this point )
F600.00000
o7 call [13.7508] [32.7881]
o7 call [11.2108] [32.7881]
o7 call [11.2108] [35.3281]
o7 call [13.7508] [35.3281]
o7 call [13.7508] [34.9217]
G04 P0 ( dwell for no time -- G64 should not smooth over this point )
G00 Z0.50000 ( retract )

G00 X16.29080 Y34.84550 ( rapid move to begin. )
F300.00000
o7 call [16.2908] [34.8455]
G04 P0 ( dwell for no time -- G64 should not smooth over this point )
F600.00000
o7 call [16.2908] [32.7881]
o7 call [13.7508] [32.7881]
o7 call [13.7508] [35.3281]
o7 call [16.2908] [35.3281]
o7 call [16.2908] [34.9217]
G04 P0 ( dwell for no time -- G64 should not smooth over this point )
G00 Z0.50000 ( retract )

G00 X18.83080 Y34.84550 ( rapid move to begin. )
F300.00000
o7 call [18.8308] [34.8455]
G04 P0 ( dwell for no time -- G64 should not smooth over this point )
F600.00000
o7 call [18.8308] [32.7881]
o7 call [16.2908] [32.7881]
o7 call [16.2908] [35.3281]
o7 call [18.8308] [35.3281]
o7 call [18.8308] [34.9217]
G04 P0 ( dwell for no time -- G64 should not smooth over this point )
G00 Z0.50000 ( retract )

G00 X21.37080 Y34.84550 ( rapid move to begin. )
F300.00000
o7 call [21.3708] [34.8455]
G04 P0 ( dwell for no time -- G64 should not smooth over this point )
F600.00000
o7 call [21.3708] [32.7881]
o7 call [18.8308] [32.7881]
o7 call [18.8308] [35.3281]
o7 call [21.3708] [35.3281]
o7 call [21.3708] [34.8709]
G04 P0 ( dwell for no time -- G64 should not smooth over this point )
G00 Z0.50000 ( retract )

G00 X23.91080 Y34.84550 ( rapid move to begin. )
F300.00000
o7 call [23.9108] [34.8455]
G04 P0 ( dwell for no time -- G64 should not smooth over this point )
F600.00000
o7 call [23.9108] [32.7881]
o7 call [21.3708] [32.7881]
o7 call [21.3708] [35.3281]
o7 call [23.9108] [35.3281]
o7 call [23.9108] [34.8709]
G04 P0 ( dwell for no time -- G64 should not smooth over this point )
G00 Z0.50000 ( retract )

G00 X26.45080 Y34.84550 ( rapid move to begin. )
F300.00000
o7 call [26.4508] [34.8455]
G04 P0 ( dwell for no time -- G64 should not smooth over this point )
F600.00000
o7 call [26.4508] [32.7881]
o7 call [23.9108] [32.7881]
o7 call [23.9108] [35.3281]
o7 call [26.4508] [35.3281]
o7 call [26.4508] [34.8709]
G04 P0 ( dwell for no time -- G64 should not smooth over this point )
G00 Z0.50000 ( retract )

G00 X28.99080 Y34.84550 ( rapid move to begin. )
F300.00000
o7 call [28.9908] [34.8455]
G04 P0 ( dwell for no time -- G64 should not smooth over this point )
F600.00000
o7 call [28.9908] [32.7881]
o7 call [26.4508] [32.7881]
o7 call [26.4508] [35.3281]
o7 call [28.9908] [35.3281]
o7 call [28.9908] [34.8709]
G04 P0 ( dwell for no time -- G64 should not smooth over this point )
G00 Z0.50000 ( retract )

G00 X31.53080 Y34.84550 ( rapid move to begin. )
F300.00000
o7 call [31.5308] [34.8455]
G04 P0 ( dwell for no time -- G64 should not smooth over this point )
F600.00000
o7 call [31.5308] [32.7881]
o7 call [28.9908] [32.7881]
o7 call [28.9908] [35.3281]
o7 call [31.5308] [35.3281]
o7 call [31.5308] [34.8709]
G04 P0 ( dwell for no time -- G64 should not smooth over this point )
G00 Z0.50000 ( retract )

G00 X34.07080 Y34.84550 ( rapid move to begin. )
F300.00000
o7 call [34.0708] [34.8455]
G04 P0 ( dwell for no time -- G64 should not smooth over this point )
F600.00000
o7 call [34.0708] [32.7881]
o7 call [31.5308] [32.7881]
o7 call [31.5308] [35.3281]
o7 call [34.0708] [35.3281]
o7 call [34.0708] [34.8709]
G04 P0 ( dwell for no time -- G64 should not smooth over this point )
G00 Z0.50000 ( retract )

G00 X36.61080 Y34.84550 ( rapid move to begin. )
F300.00000
o7 call [36.6108] [34.8455]
G04 P0 ( dwell for no time -- G64 should not smooth over this point )
F600.00000
o7 call [36.6108] [32.7881]
o7 call [34.0708] [32.7881]
o7 call [34.0708] [35.3281]
o7 call [36.6108] [35.3281]
o7 call [36.6108] [34.8709]
G04 P0 ( dwell for no time -- G64 should not smooth over this point )
G00 Z0.50000 ( retract )

G00 X39.15080 Y34.84550 ( rapid move to begin. )
F300.00000
o7 call [39.1508] [34.8455]
G04 P0 ( dwell for no time -- G64 should not smooth over this point )
F600.00000
o7 call [39.1508] [32.7881]
o7 call [36.6108] [32.7881]
o7 call [36.6108] [35.3281]
o7 call [39.1508] [35.3281]
o7 call [39.1508] [34.8709]
G04 P0 ( dwell for no time -- G64 should not smooth over this point )
G00 Z0.50000 ( retract )

G00 X41.69080 Y34.84550 ( rapid move to begin. )
F300.00000
o7 call [41.6908] [34.8455]
G04 P0 ( dwell for no time -- G64 should not smooth over this point )
F600.00000
o7 call [41.6908] [32.7881]
o7 call [39.1508] [32.7881]
o7 call [39.1508] [35.3281]
o7 call [41.6908] [35.3281]
o7 call [41.6908] [34.8709]
G04 P0 ( dwell for no time -- G64 should not smooth over this point )
G00 Z0.50000 ( retract )

G00 X44.23080 Y34.84550 ( rapid move to begin. )
F300.00000
o7 call [44.2308] [34.8455]
G04 P0 ( dwell for no time -- G64 should not smooth over this point )
F600.00000
o7 call [44.2308] [32.7881]
o7 call [41.6908] [32.7881]
o7 call [41.6908] [35.3281]
o7 call [44.2308] [35.3281]
o7 call [44.2308] [34.8709]
G04 P0 ( dwell for no time -- G64 should not smooth over this point )
G00 Z0.50000 ( retract )

G00 X46.77080 Y34.84550 ( rapid move to begin. )
F300.00000
o7 call [46.7708] [34.8455]
G04 P0 ( dwell for no time -- G64 should not smooth over this point )
F600.00000
o7 call [46.7708] [32.7881]
o7 call [44.2308] [32.7881]
o7 call [44.2308] [35.3281]
o7 call [46.7708] [35.3281]
o7 call [46.7708] [34.8709]
G04 P0 ( dwell for no time -- G64 should not smooth over this point )
G00 Z0.50000 ( retract )

G00 X49.31080 Y34.84550 ( rapid move to begin. )
F300.00000
o7 call [49.3108] [34.8455]
G04 P0 ( dwell for no time -- G64 should not smooth over this point )
F600.00000
o7 call [49.3108] [32.7881]
o7 call [46.7708] [32.7881]
o7 call [46.7708] [35.3281]
o7 call [49.3108] [35.3281]
o7 call [49.3108] [34.8709]
G04 P0 ( dwell for no time -- G64 should not smooth over this point )
G00 Z0.50000 ( retract )

G00 X51.85080 Y34.84550 ( rapid move to begin. )
F300.00000
o7 call [51.8508] [34.8455]
G04 P0 ( dwell for no time -- G64 should not smooth over this point )
F600.00000
o7 call [51.8508] [32.7881]
o7 call [49.3108] [32.7881]
o7 call [49.3108] [35.3281]
o7 call [51.8508] [35.3281]
o7 call [51.8508] [34.8709]
G04 P0 ( dwell for no time -- G64 should not smooth over this point )
G00 Z0.50000 ( retract )

G00 X54.39080 Y34.84550 ( rapid move to begin. )
F300.00000
o7 call [54.3908] [34.8455]
G04 P0 ( dwell for no time -- G64 should not smooth over this point )
F600.00000
o7 call [54.3908] [32.7881]
o7 call [51.8508] [32.7881]
o7 call [51.8508] [35.3281]
o7 call [54.3908] [35.3281]
o7 call [54.3908] [34.8709]
G04 P0 ( dwell for no time -- G64 should not smooth over this point )
G00 Z0.50000 ( retract )

G00 X56.93080 Y34.84550 ( rapid move to begin. )
F300.00000
o7 call [56.9308] [34.8455]
G04 P0 ( dwell for no time -- G64 should not smooth over this point )
F600.00000
o7 call [56.9308] [32.7881]
o7 call [54.3908] [32.7881]
o7 call [54.3908] [35.3281]
o7 call [56.9308] [35.3281]
o7 call [56.9308] [34.8709]
G04 P0 ( dwell for no time -- G64 should not smooth over this point )
G00 Z0.50000 ( retract )

G00 X59.47080 Y34.84550 ( rapid move to begin. )
F300.00000
o7 call [59.4708] [34.8455]
G04 P0 ( dwell for no time -- G64 should not smooth over this point )
F600.00000
o7 call [59.4708] [32.7881]
o7 call [56.9308] [32.7881]
o7 call [56.9308] [35.3281]
o7 call [59.4708] [35.3281]
o7 call [59.4708] [34.8709]
G04 P0 ( dwell for no time -- G64 should not smooth over this point )
G00 Z0.50000 ( retract )

G00 X62.01080 Y34.84550 ( rapid move to begin. )
F300.00000
o7 call [62.0108] [34.8455]
G04 P0 ( dwell for no time -- G64 should not smooth over this point )
F600.00000
o7 call [62.0108] [32.7881]
o7 call [59.4708] [32.7881]
o7 call [59.4708] [35.3281]
o7 call [62.0108] [35.3281]
o7 call [62.0108] [34.8709]
G04 P0 ( dwell for no time -- G64 should not smooth over this point )
G00 Z0.50000 ( retract )

G00 X65.05880 Y34.84550 ( rapid move to begin. )
F300.00000
o7 call [65.0588] [34.8455]
G04 P0 ( dwell for no time -- G64 should not smooth over this point )
F600.00000
o7 call [65.0334] [34.4899]
o7 call [64.9318] [34.3883]
o7 call [64.8048] [34.1089]
o7 call [64.6778] [33.4231]
o7 call [64.6524] [33.0421]
o7 call [64.5762] [32.8135]
o7 call [62.0108] [32.7881]
o7 call [62.0108] [35.3281]
o7 call [65.0334] [35.3027]
o7 call [65.0588] [34.8709]
G04 P0 ( dwell for no time -- G64 should not smooth over this point )
G00 Z0.50000 ( retract )

G00 X67.34480 Y33.55010 ( rapid move to begin. )
F300.00000
o7 call [67.3448] [33.5501]
G04 P0 ( dwell for no time -- G64 should not smooth over this point )
F600.00000
o7 call [67.3448] [31.5435]
o7 call [64.7794] [31.5181]
o7 call [64.7032] [31.8483]
o7 call [64.627] [32.5849]
o7 call [64.5762] [32.7373]
o7 call [64.6524] [33.0675]
o7 call [64.7286] [33.8041]
o7 call [64.8048] [34.1343]
o7 call [65.0842] [34.5661]
o7 call [67.294] [34.5407]
o7 call [67.3448] [34.4899]
o7 call [67.3448] [33.5755]
G04 P0 ( dwell for no time -- G64 should not smooth over this point )
G00 Z0.50000 ( retract )

G00 X70.36740 Y33.55010 ( rapid move to begin. )
F300.00000
o7 call [70.3674] [33.5501]
G04 P0 ( dwell for no time -- G64 should not smooth over this point )
F600.00000
o7 call [70.3674] [31.7467]
o7 call [70.2912] [31.5181]
o7 call [67.3448] [31.5181]
o7 call [67.3702] [34.5407]
o7 call [69.7578] [34.5407]
o7 call [70.1642] [34.3375]
o7 call [70.3166] [34.0835]
o7 call [70.3674] [33.5755]
G04 P0 ( dwell for no time -- G64 should not smooth over this point )
G00 Z0.50000 ( retract )

G00 X6.13080 Y32.30550 ( rapid move to begin. )
F300.00000
o7 call [6.1308] [32.3055]
G04 P0 ( dwell for no time -- G64 should not smooth over this point )
F600.00000
o7 call [6.1308] [30.2481]
o7 call [3.0828] [30.2481]
o7 call [3.0574] [31.8483]
o7 call [3.0828] [32.7881]
o7 call [6.1308] [32.7881]
o7 call [6.1308] [32.3817]
G04 P0 ( dwell for no time -- G64 should not smooth over this point )
G00 Z0.50000 ( retract )

G00 X8.67080 Y32.30550 ( rapid move to begin. )
F300.00000
o7 call [8.6708] [32.3055]
G04 P0 ( dwell for no time -- G64 should not smooth over this point )
F600.00000
o7 call [8.6708] [30.2481]
o7 call [6.1308] [30.2481]
o7 call [6.1308] [32.7881]
o7 call [8.6708] [32.7881]
o7 call [8.6708] [32.3817]
G04 P0 ( dwell for no time -- G64 should not smooth over this point )
G00 Z0.50000 ( retract )

G00 X11.21080 Y32.30550 ( rapid move to begin. )
F300.00000
o7 call [11.2108] [32.3055]
G04 P0 ( dwell for no time -- G64 should not smooth over this point )
F600.00000
o7 call [11.2108] [30.2481]
o7 call [8.6708] [30.2481]
o7 call [8.6708] [32.7881]
o7 call [11.2108] [32.7881]
o7 call [11.2108] [32.3817]
G04 P0 ( dwell for no time -- G64 should not smooth over this point )
G00 Z0.50000 ( retract )

G00 X13.75080 Y32.30550 ( rapid move to begin. )
F300.00000
o7 call [13.7508] [32.3055]
G04 P0 ( dwell for no time -- G64 should not smooth over this point )
F600.00000
o7 call [13.7508] [30.2481]
o7 call [11.2108] [30.2481]
o7 call [11.2108] [32.7881]
o7 call [13.7508] [32.7881]
o7 call [13.7508] [32.3817]
G04 P0 ( dwell for no time -- G64 should not smooth over this point )
G00 Z0.50000 ( retract )

G00 X16.29080 Y32.30550 ( rapid move to begin. )
F300.00000
o7 call [16.2908] [32.3055]
G04 P0 ( dwell for no time -- G64 should not smooth over this point )
F600.00000
o7 call [16.2908] [30.2481]
o7 call [13.7508] [30.2481]
o7 call [13.7508] [32.7881]
o7 call [16.2908] [32.7881]
o7 call [16.2908] [32.3817]
G04 P0 ( dwell for no time -- G64 should not smooth over this point )
G00 Z0.50000 ( retract )

G00 X18.83080 Y32.30550 ( rapid move to begin. )
F300.00000
o7 call [18.8308] [32.3055]
G04 P0 ( dwell for no time -- G64 should not smooth over this point )
F600.00000
o7 call [18.8308] [30.2481]
o7 call [16.2908] [30.2481]
o7 call [16.2908] [32.7881]
o7 call [18.8308] [32.7881]
o7 call [18.8308] [32.3817]
G04 P0 ( dwell for no time -- G64 should not smooth over this point )
G00 Z0.50000 ( retract )

G00 X21.37080 Y32.30550 ( rapid move to begin. )
F300.00000
o7 call [21.3708] [32.3055]
G04 P0 ( dwell for no time -- G64 should not smooth over this point )
F600.00000
o7 call [21.3708] [30.2481]
o7 call [18.8308] [30.2481]
o7 call [18.8308] [32.7881]
o7 call [21.3708] [32.7881]
o7 call [21.3708] [32.3309]
G04 P0 ( dwell for no time -- G64 should not smooth over this point )
G00 Z0.50000 ( retract )

G00 X23.91080 Y32.30550 ( rapid move to begin. )
F300.00000
o7 call [23.9108] [32.3055]
G04 P0 ( dwell for no time -- G64 should not smooth over this point )
F600.00000
o7 call [23.9108] [30.2481]
o7 call [21.3708] [30.2481]
o7 call [21.3708] [32.7881]
o7 call [23.9108] [32.7881]
o7 call [23.9108] [32.3309]
G04 P0 ( dwell for no time -- G64 should not smooth over this point )
G00 Z0.50000 ( retract )

G00 X26.45080 Y32.30550 ( rapid move to begin. )
F300.00000
o7 call [26.4508] [32.3055]
G04 P0 ( dwell for no time -- G64 should not smooth over this point )
F600.00000
o7 call [26.4508] [30.2481]
o7 call [23.9108] [30.2481]
o7 call [23.9108] [32.7881]
o7 call [26.4508] [32.7881]
o7 call [26.4508] [32.3309]
G04 P0 ( dwell for no time -- G64 should not smooth over this point )
G00 Z0.50000 ( retract )

G00 X28.99080 Y32.30550 ( rapid move to begin. )
F300.00000
o7 call [28.9908] [32.3055]
G04 P0 ( dwell for no time -- G64 should not smooth over this point )
F600.00000
o7 call [28.9908] [30.2481]
o7 call [26.4508] [30.2481]
o7 call [26.4508] [32.7881]
o7 call [28.9908] [32.7881]
o7 call [28.9908] [32.3309]
G04 P0 ( dwell for no time -- G64 should not smooth over this point )
G00 Z0.50000 ( retract )

G00 X31.53080 Y32.30550 ( rapid move to begin. )
F300.00000
o7 call [31.5308] [32.3055]
G04 P0 ( dwell for no time -- G64 should not smooth over this point )
F600.00000
o7 call [31.5308] [30.2481]
o7 call [28.9908] [30.2481]
o7 call [28.9908] [32.7881]
o7 call [31.5308] [32.7881]
o7 call [31.5308] [32.3309]
G04 P0 ( dwell for no time -- G64 should not smooth over this point )
G00 Z0.50000 ( retract )

G00 X34.07080 Y32.30550 ( rapid move to begin. )
F300.00000
o7 call [34.0708] [32.3055]
G04 P0 ( dwell for no time -- G64 should not smooth over this point )
F600.00000
o7 call [34.0708] [30.2481]
o7 call [31.5308] [30.2481]
o7 call [31.5308] [32.7881]
o7 call [34.0708] [32.7881]
o7 call [34.0708] [32.3309]
G04 P0 ( dwell for no time -- G64 should not smooth over this point )
G00 Z0.50000 ( retract )

G00 X36.61080 Y32.30550 ( rapid move to begin. )
F300.00000
o7 call [36.6108] [32.3055]
G04 P0 ( dwell for no time -- G64 should not smooth over this point )
F600.00000
o7 call [36.6108] [30.2481]
o7 call [34.0708] [30.2481]
o7 call [34.0708] [32.7881]
o7 call [36.6108] [32.7881]
o7 call [36.6108] [32.3309]
G04 P0 ( dwell for no time -- G64 should not smooth over this point )
G00 Z0.50000 ( retract )

G00 X39.15080 Y32.30550 ( rapid move to begin. )
F300.00000
o7 call [39.1508] [32.3055]
G04 P0 ( dwell for no time -- G64 should not smooth over this point )
F600.00000
o7 call [39.1508] [30.2481]
o7 call [36.6108] [30.2481]
o7 call [36.6108] [32.7881]
o7 call [39.1508] [32.7881]
o7 call [39.1508] [32.3309]
G04 P0 ( dwell for no time -- G64 should not smooth over this point )
G00 Z0.50000 ( retract )

G00 X41.69080 Y32.30550 ( rapid move to begin. )
F300.00000
o7 call [41.6908] [32.3055]
G04 P0 ( dwell for no time -- G64 should not smooth over this point )
F600.00000
o7 call [41.6908] [30.2481]
o7 call [39.1508] [30.2481]
o7 call [39.1508] [32.7881]
o7 call [41.6908] [32.7881]
o7 call [41.6908] [32.3309]
G04 P0 ( dwell for no time -- G64 should not smooth over this point )
G00 Z0.50000 ( retract )

G00 X44.23080 Y32.30550 ( rapid move to begin. )
F300.00000
o7 call [44.2308] [32.3055]
G04 P0 ( dwell for no time -- G64 should not smooth over this point )
F600.00000
o7 call [44.2308] [30.2481]
o7 call [41.6908] [30.2481]
o7 call [41.6908] [32.7881]
o7 call [44.2308] [32.7881]
o7 call [44.2308] [32.3309]
G04 P0 ( dwell for no time -- G64 should not smooth over this point )
G00 Z0.50000 ( retract )

G00 X46.77080 Y32.30550 ( rapid move to begin. )
F300.00000
o7 call [46.7708] [32.3055]
G04 P0 ( dwell for no time -- G64 should not smooth over this point )
F600.00000
o7 call [46.7708] [30.2481]
o7 call [44.2308] [30.2481]
o7 call [44.2308] [32.7881]
o7 call [46.7708] [32.7881]
o7 call [46.7708] [32.3309]
G04 P0 ( dwell for no time -- G64 should not smooth over this point )
G00 Z0.50000 ( retract )

G00 X49.31080 Y32.30550 ( rapid move to begin. )
F300.00000
o7 call [49.3108] [32.3055]
G04 P0 ( dwell for no time -- G64 should not smooth over this point )
F600.00000
o7 call [49.3108] [30.2481]
o7 call [46.7708] [30.2481]
o7 call [46.7708] [32.7881]
o7 call [49.3108] [32.7881]
o7 call [49.3108] [32.3309]
G04 P0 ( dwell for no time -- G64 should not smooth over this point )
G00 Z0.50000 ( retract )

G00 X51.85080 Y32.30550 ( rapid move to begin. )
F300.00000
o7 call [51.8508] [32.3055]
G04 P0 ( dwell for no time -- G64 should not smooth over this point )
F600.00000
o7 call [51.8508] [30.2481]
o7 call [49.3108] [30.2481]
o7 call [49.3108] [32.7881]
o7 call [51.8508] [32.7881]
o7 call [51.8508] [32.3309]
G04 P0 ( dwell for no time -- G64 should not smooth over this point )
G00 Z0.50000 ( retract )

G00 X54.39080 Y32.30550 ( rapid move to begin. )
F300.00000
o7 call [54.3908] [32.3055]
G04 P0 ( dwell for no time -- G64 should not smooth over this point )
F600.00000
o7 call [54.3908] [30.2481]
o7 call [51.8508] [30.2481]
o7 call [51.8508] [32.7881]
o7 call [54.3908] [32.7881]
o7 call [54.3908] [32.3309]
G04 P0 ( dwell for no time -- G64 should not smooth over this point )
G00 Z0.50000 ( retract )

G00 X56.93080 Y32.30550 ( rapid move to begin. )
F300.00000
o7 call [56.9308] [32.3055]
G04 P0 ( dwell for no time -- G64 should not smooth over this point )
F600.00000
o7 call [56.9308] [30.2481]
o7 call [54.3908] [30.2481]
o7 call [54.3908] [32.7881]
o7 call [56.9308] [32.7881]
o7 call [56.9308] [32.3309]
G04 P0 ( dwell for no time -- G64 should not smooth over this point )
G00 Z0.50000 ( retract )

G00 X59.47080 Y32.30550 ( rapid move to begin. )
F300.00000
o7 call [59.4708] [32.3055]
G04 P0 ( dwell for no time -- G64 should not smooth over this point )
F600.00000
o7 call [59.4708] [30.2481]
o7 call [56.9308] [30.2481]
o7 call [56.9308] [32.7881]
o7 call [59.4708] [32.7881]
o7 call [59.4708] [32.3309]
G04 P0 ( dwell for no time -- G64 should not smooth over this point )
G00 Z0.50000 ( retract )

G00 X62.01080 Y32.30550 ( rapid move to begin. )
F300.00000
o7 call [62.0108] [32.3055]
G04 P0 ( dwell for no time -- G64 should not smooth over this point )
F600.00000
o7 call [62.0108] [30.2481]
o7 call [59.4708] [30.2481]
o7 call [59.4708] [32.7881]
o7 call [62.0108] [32.7881]
o7 call [62.0108] [32.3309]
G04 P0 ( dwell for no time -- G64 should not smooth over this point )
G00 Z0.50000 ( retract )

G00 X64.67780 Y32.30550 ( rapid move to begin. )
F300.00000
o7 call [64.6778] [32.3055]
G04 P0 ( dwell for no time -- G64 should not smooth over this point )
F600.00000
o7 call [64.754] [31.5943]
o7 call [64.6016] [30.2735]
o7 call [63.0014] [30.2481]
o7 call [62.0108] [30.2735]
o7 call [62.0362] [32.7881]
o7 call [64.5762] [32.7881]
o7 call [64.6778] [32.3309]
G04 P0 ( dwell for no time -- G64 should not smooth over this point )
G00 Z0.50000 ( retract )

G00 X67.34480 Y31.01010 ( rapid move to begin. )
F300.00000
o7 call [67.3448] [31.0101]
G04 P0 ( dwell for no time -- G64 should not smooth over this point )
F600.00000
o7 call [67.3448] [29.0035]
o7 call [64.7794] [28.9781]
o7 call [64.7032] [29.3083]
o7 call [64.627] [30.0449]
o7 call [64.5762] [30.1973]
o7 call [64.7794] [31.5181]
o7 call [67.3194] [31.5181]
o7 call [67.3448] [31.0355]
G04 P0 ( dwell for no time -- G64 should not smooth over this point )
G00 Z0.50000 ( retract )

G00 X70.36740 Y31.01010 ( rapid move to begin. )
F300.00000
o7 call [70.3674] [31.0101]
G04 P0 ( dwell for no time -- G64 should not smooth over this point )
F600.00000
o7 call [70.3674] [29.2067]
o7 call [70.2912] [28.9781]
o7 call [67.3448] [28.9781]
o7 call [67.3448] [31.5181]
o7 call [70.2912] [31.5181]
o7 call [70.342] [31.4673]
o7 call [70.3674] [31.0355]
G04 P0 ( dwell for no time -- G64 should not smooth over this point )
G00 Z0.50000 ( retract )

G00 X6.13080 Y29.76550 ( rapid move to begin. )
F300.00000
o7 call [6.1308] [29.7655]
G04 P0 ( dwell for no time -- G64 should not smooth over this point )
F600.00000
o7 call [6.1308] [27.7081]
o7 call [3.0828] [27.7081]
o7 call [3.0574] [29.3083]
o7 call [3.0828] [30.2481]
o7 call [6.1308] [30.2481]
o7 call [6.1308] [29.8417]
G04 P0 ( dwell for no time -- G64 should not smooth over this point )
G00 Z0.50000 ( retract )

G00 X8.67080 Y29.76550 ( rapid move to begin. )
F300.00000
o7 call [8.6708] [29.7655]
G04 P0 ( dwell for no time -- G64 should not smooth over this point )
F600.00000
o7 call [8.6708] [27.7081]
o7 call [6.1308] [27.7081]
o7 call [6.1308] [30.2481]
o7 call [8.6708] [30.2481]
o7 call [8.6708] [29.8417]
G04 P0 ( dwell for no time -- G64 should not smooth over this point )
G00 Z0.50000 ( retract )

G00 X11.21080 Y29.76550 ( rapid move to begin. )
F300.00000
o7 call [11.2108] [29.7655]
G04 P0 ( dwell for no time -- G64 should not smooth over this point )
F600.00000
o7 call [11.2108] [27.7081]
o7 call [8.6708] [27.7081]
o7 call [8.6708] [30.2481]
o7 call [11.2108] [30.2481]
o7 call [11.2108] [29.8417]
G04 P0 ( dwell for no time -- G64 should not smooth over this point )
G00 Z0.50000 ( retract )

G00 X13.75080 Y29.76550 ( rapid move to begin. )
F300.00000
o7 call [13.7508] [29.7655]
G04 P0 ( dwell for no time -- G64 should not smooth over this point )
F600.00000
o7 call [13.7508] [27.7081]
o7 call [11.2108] [27.7081]
o7 call [11.2108] [30.2481]
o7 call [13.7508] [30.2481]
o7 call [13.7508] [29.8417]
G04 P0 ( dwell for no time -- G64 should not smooth over this point )
G00 Z0.50000 ( retract )

G00 X16.29080 Y29.76550 ( rapid move to begin. )
F300.00000
o7 call [16.2908] [29.7655]
G04 P0 ( dwell for no time -- G64 should not smooth over this point )
F600.00000
o7 call [16.2908] [27.7081]
o7 call [13.7508] [27.7081]
o7 call [13.7508] [30.2481]
o7 call [16.2908] [30.2481]
o7 call [16.2908] [29.8417]
G04 P0 ( dwell for no time -- G64 should not smooth over this point )
G00 Z0.50000 ( retract )

G00 X18.83080 Y29.76550 ( rapid move to begin. )
F300.00000
o7 call [18.8308] [29.7655]
G04 P0 ( dwell for no time -- G64 should not smooth over this point )
F600.00000
o7 call [18.8308] [27.7081]
o7 call [16.2908] [27.7081]
o7 call [16.2908] [30.2481]
o7 call [18.8308] [30.2481]
o7 call [18.8308] [29.7909]
G04 P0 ( dwell for no time -- G64 should not smooth over this point )
G00 Z0.50000 ( retract )

G00 X21.37080 Y29.76550 ( rapid move to begin. )
F300.00000
o7 call [21.3708] [29.7655]
G04 P0 ( dwell for no time -- G64 should not smooth over this point )
F600.00000
o7 call [21.3708] [27.7081]
o7 call [18.8308] [27.7081]
o7 call [18.8308] [30.2481]
o7 call [21.3708] [30.2481]
o7 call [21.3708] [29.7909]
G04 P0 ( dwell for no time -- G64 should not smooth over this point )
G00 Z0.50000 ( retract )

G00 X23.91080 Y29.76550 ( rapid move to begin. )
F300.00000
o7 call [23.9108] [29.7655]
G04 P0 ( dwell for no time -- G64 should not smooth over this point )
F600.00000
o7 call [23.9108] [27.7081]
o7 call [21.3708] [27.7081]
o7 call [21.3708] [30.2481]
o7 call [23.9108] [30.2481]
o7 call [23.9108] [29.7909]
G04 P0 ( dwell for no time -- G64 should not smooth over this point )
G00 Z0.50000 ( retract )

G00 X26.45080 Y29.76550 ( rapid move to begin. )
F300.00000
o7 call [26.4508] [29.7655]
G04 P0 ( dwell for no time -- G64 should not smooth over this point )
F600.00000
o7 call [26.4508] [27.7081]
o7 call [23.9108] [27.7081]
o7 call [23.9108] [30.2481]
o7 call [26.4508] [30.2481]
o7 call [26.4508] [29.7909]
G04 P0 ( dwell for no time -- G64 should not smooth over this point )
G00 Z0.50000 ( retract )

G00 X28.99080 Y29.76550 ( rapid move to begin. )
F300.00000
o7 call [28.9908] [29.7655]
G04 P0 ( dwell for no time -- G64 should not smooth over this point )
F600.00000
o7 call [28.9908] [27.7081]
o7 call [26.4508] [27.7081]
o7 call [26.4508] [30.2481]
o7 call [28.9908] [30.2481]
o7 call [28.9908] [29.7909]
G04 P0 ( dwell for no time -- G64 should not smooth over this point )
G00 Z0.50000 ( retract )

G00 X31.53080 Y29.76550 ( rapid move to begin. )
F300.00000
o7 call [31.5308] [29.7655]
G04 P0 ( dwell for no time -- G64 should not smooth over this point )
F600.00000
o7 call [31.5308] [27.7081]
o7 call [28.9908] [27.7081]
o7 call [28.9908] [30.2481]
o7 call [31.5308] [30.2481]
o7 call [31.5308] [29.7909]
G04 P0 ( dwell for no time -- G64 should not smooth over this point )
G00 Z0.50000 ( retract )

G00 X34.07080 Y29.76550 ( rapid move to begin. )
F300.00000
o7 call [34.0708] [29.7655]
G04 P0 ( dwell for no time -- G64 should not smooth over this point )
F600.00000
o7 call [34.0708] [27.7081]
o7 call [31.5308] [27.7081]
o7 call [31.5308] [30.2481]
o7 call [34.0708] [30.2481]
o7 call [34.0708] [29.7909]
G04 P0 ( dwell for no time -- G64 should not smooth over this point )
G00 Z0.50000 ( retract )

G00 X36.61080 Y29.76550 ( rapid move to begin. )
F300.00000
o7 call [36.6108] [29.7655]
G04 P0 ( dwell for no time -- G64 should not smooth over this point )
F600.00000
o7 call [36.6108] [27.7081]
o7 call [34.0708] [27.7081]
o7 call [34.0708] [30.2481]
o7 call [36.6108] [30.2481]
o7 call [36.6108] [29.7909]
G04 P0 ( dwell for no time -- G64 should not smooth over this point )
G00 Z0.50000 ( retract )

G00 X39.15080 Y29.76550 ( rapid move to begin. )
F300.00000
o7 call [39.1508] [29.7655]
G04 P0 ( dwell for no time -- G64 should not smooth over this point )
F600.00000
o7 call [39.1508] [27.7081]
o7 call [36.6108] [27.7081]
o7 call [36.6108] [30.2481]
o7 call [39.1508] [30.2481]
o7 call [39.1508] [29.7909]
G04 P0 ( dwell for no time -- G64 should not smooth over this point )
G00 Z0.50000 ( retract )

G00 X41.69080 Y29.76550 ( rapid move to begin. )
F300.00000
o7 call [41.6908] [29.7655]
G04 P0 ( dwell for no time -- G64 should not smooth over this point )
F600.00000
o7 call [41.6908] [27.7081]
o7 call [39.1508] [27.7081]
o7 call [39.1508] [30.2481]
o7 call [41.6908] [30.2481]
o7 call [41.6908] [29.7909]
G04 P0 ( dwell for no time -- G64 should not smooth over this point )
G00 Z0.50000 ( retract )

G00 X44.23080 Y29.76550 ( rapid move to begin. )
F300.00000
o7 call [44.2308] [29.7655]
G04 P0 ( dwell for no time -- G64 should not smooth over this point )
F600.00000
o7 call [44.2308] [27.7081]
o7 call [41.6908] [27.7081]
o7 call [41.6908] [30.2481]
o7 call [44.2308] [30.2481]
o7 call [44.2308] [29.7909]
G04 P0 ( dwell for no time -- G64 should not smooth over this point )
G00 Z0.50000 ( retract )

G00 X46.77080 Y29.76550 ( rapid move to begin. )
F300.00000
o7 call [46.7708] [29.7655]
G04 P0 ( dwell for no time -- G64 should not smooth over this point )
F600.00000
o7 call [46.7708] [27.7081]
o7 call [44.2308] [27.7081]
o7 call [44.2308] [30.2481]
o7 call [46.7708] [30.2481]
o7 call [46.7708] [29.7909]
G04 P0 ( dwell for no time -- G64 should not smooth over this point )
G00 Z0.50000 ( retract )

G00 X49.31080 Y29.76550 ( rapid move to begin. )
F300.00000
o7 call [49.3108] [29.7655]
G04 P0 ( dwell for no time -- G64 should not smooth over this point )
F600.00000
