( pcb2gcode 2.5.0 )
( Software-independent Gcode )

( This file uses only one drill bit. Forced by 'onedrill' option )


G94       (Millimeters per minute feed rate.)
G21       (Units == Millimeters.)
G91.1     (Incremental arc distance mode.)
G90       (Absolute coordinates.)
G00 S20000     (RPM spindle speed.)

G00 Z40.00000 (Retract)
T1
M5      (Spindle stop.)
G04 P1.00000
(MSG, Change tool bit to drill size 1.016mm)
M6      (Tool change.)
M0      (Temporary machine stop.)
M3      (Spindle on clockwise.)
G0 Z0.50000
G04 P1.00000

G81 R0.50000 Z-2.00000 F1000.00000 X4.47650 Y8.54050
X4.47650 Y11.08050
X4.47650 Y13.62050
X7.01650 Y13.62050
X7.01650 Y11.08050
X7.01650 Y8.54050
X9.55650 Y11.08050
X9.55650 Y13.62050
X12.09650 Y11.08050
X9.55650 Y8.54050
X12.09650 Y8.54050
X14.63650 Y8.54050
X14.63650 Y11.08050
X17.17650 Y11.08050
X17.17650 Y8.54050
X19.71650 Y11.08050
X19.71650 Y8.54050
X22.25650 Y11.08050
X22.25650 Y8.54050
X24.79650 Y11.08050
X24.79650 Y8.54050
X27.33650 Y11.08050
X27.33650 Y13.62050
X24.79650 Y13.62050
X22.25650 Y13.62050
X19.71650 Y13.62050
X17.17650 Y13.62050
X19.71650 Y16.16050
X22.25650 Y18.70050
X22.25650 Y21.24050
X22.25650 Y23.78050
X19.71650 Y26.32050
X17.17650 Y26.32050
X17.17650 Y23.78050
X17.17650 Y21.24050
X19.71650 Y23.78050
X19.71650 Y21.24050
X19.71650 Y18.70050
X17.17650 Y16.16050
X17.17650 Y18.70050
X14.63650 Y21.24050
X14.63650 Y18.70050
X14.63650 Y16.16050
X12.09650 Y13.62050
X14.63650 Y13.62050
X12.09650 Y16.16050
X9.55650 Y18.70050
X7.01650 Y16.16050
X4.47650 Y16.16050
X4.47650 Y18.70050
X7.01650 Y21.24050
X7.01650 Y23.78050
X7.01650 Y26.32050
X4.47650 Y26.32050
X4.47650 Y23.78050
X4.47650 Y21.24050
X7.01650 Y18.70050
X9.55650 Y16.16050
X12.09650 Y18.70050
X9.55650 Y21.24050
X9.55650 Y23.78050
X9.55650 Y26.32050
X12.09650 Y26.32050
X12.09650 Y23.78050
X12.09650 Y21.24050
X14.63650 Y23.78050
X14.63650 Y26.32050
X17.17650 Y28.86050
X19.71650 Y28.86050
X22.25650 Y28.86050
X24.79650 Y28.86050
X22.25650 Y26.32050
X24.79650 Y26.32050
X27.33650 Y28.86050
X27.33650 Y31.40050
X24.79650 Y31.40050
X22.25650 Y31.40050
X19.71650 Y31.40050
X17.17650 Y31.40050
X14.63650 Y28.86050
X12.09650 Y28.86050
X9.55650 Y28.86050
X7.01650 Y28.86050
X4.47650 Y28.86050
X4.47650 Y31.40050
X7.01650 Y31.40050
X9.55650 Y31.40050
X12.09650 Y31.40050
X14.63650 Y31.40050
X12.09650 Y33.94050
X12.09650 Y36.48050
X9.55650 Y36.48050
X9.55650 Y33.94050
X7.01650 Y36.48050
X7.01650 Y33.94050
X4.47650 Y33.94050
X4.47650 Y36.48050
X4.47650 Y39.02050
X4.47650 Y41.56050
X7.01650 Y41.56050
X7.01650 Y39.02050
X9.55650 Y41.56050
X9.55650 Y39.02050
X12.09650 Y41.56050
X12.09650 Y39.02050
X14.63650 Y41.56050
X14.63650 Y39.02050
X14.63650 Y36.48050
X14.63650 Y33.94050
X17.17650 Y36.48050
X17.17650 Y33.94050
X19.71650 Y36.48050
X19.71650 Y33.94050
X22.25650 Y36.48050
X22.25650 Y33.94050
X24.79650 Y33.94050
X24.79650 Y36.48050
X27.33650 Y33.94050
X27.33650 Y36.48050
X29.87650 Y39.02050
X32.41650 Y41.56050
X32.41650 Y39.02050
X34.95650 Y41.56050
X34.95650 Y39.02050
X37.49650 Y41.56050
X37.49650 Y39.02050
X40.03650 Y41.56050
X40.03650 Y39.02050
X42.57650 Y41.56050
X42.57650 Y39.02050
X37.49650 Y44.10050
X34.95650 Y46.64050
X34.95650 Y44.10050
X37.49650 Y46.64050
X40.03650 Y44.10050
X42.57650 Y46.64050
X42.57650 Y44.10050
X40.03650 Y46.64050
X42.57650 Y49.18050
X40.03650 Y49.18050
X37.49650 Y49.18050
X34.95650 Y49.18050
X32.41650 Y49.18050
X29.87650 Y49.18050
X27.33650 Y49.18050
X24.79650 Y49.18050
X22.25650 Y49.18050
X19.71650 Y49.18050
X19.71650 Y46.64050
X22.25650 Y44.10050
X22.25650 Y46.64050
X24.79650 Y44.10050
X24.79650 Y46.64050
X27.33650 Y46.64050
X27.33650 Y44.10050
X29.87650 Y46.64050
X29.87650 Y44.10050
X32.41650 Y46.64050
X32.41650 Y44.10050
X29.87650 Y41.56050
X27.33650 Y39.02050
X27.33650 Y41.56050
X24.79650 Y39.02050
X24.79650 Y41.56050
X22.25650 Y39.02050
X22.25650 Y41.56050
X19.71650 Y39.02050
X19.71650 Y41.56050
X17.17650 Y39.02050
X17.17650 Y41.56050
X19.71650 Y44.10050
X17.17650 Y46.64050
X17.17650 Y44.10050
X14.63650 Y46.64050
X14.63650 Y44.10050
X12.09650 Y46.64050
X12.09650 Y44.10050
X9.55650 Y46.64050
X9.55650 Y44.10050
X7.01650 Y46.64050
X7.01650 Y44.10050
X4.47650 Y44.10050
X4.47650 Y46.64050
X4.47650 Y49.18050
X7.01650 Y49.18050
X9.55650 Y49.18050
X12.09650 Y49.18050
X14.63650 Y49.18050
X17.17650 Y49.18050
X20.98650 Y52.99050
X23.52650 Y52.99050
X26.06650 Y52.99050
X28.60650 Y52.99050
X31.14650 Y52.99050
X33.68650 Y52.99050
X36.22650 Y52.99050
X38.76650 Y52.99050
X41.30650 Y52.99050
X43.84650 Y52.99050
X45.11650 Y49.18050
X47.65650 Y49.18050
X50.19650 Y49.18050
X47.91050 Y52.99050
X50.45050 Y52.99050
X52.99050 Y52.99050
X55.53050 Y52.99050
X58.07050 Y52.99050
X60.61050 Y52.99050
X63.15050 Y52.99050
X65.69050 Y52.99050
X62.89650 Y49.18050
X60.35650 Y49.18050
X62.89650 Y46.64050
X62.89650 Y44.10050
X62.89650 Y41.56050
X62.89650 Y39.02050
X62.89650 Y36.48050
X62.89650 Y33.94050
X65.69050 Y32.67050
X68.23050 Y32.67050
X68.23050 Y30.13050
X65.69050 Y27.59050
X68.23050 Y27.59050
X65.69050 Y30.13050
X62.89650 Y31.40050
X62.89650 Y28.86050
X62.89650 Y26.32050
X62.89650 Y23.78050
X62.89650 Y21.24050
X62.89650 Y18.70050
X62.89650 Y16.16050
X62.89650 Y13.62050
X62.89650 Y11.08050
X62.89650 Y8.54050
X65.69050 Y4.73050
X63.15050 Y4.73050
X60.61050 Y4.73050
X58.07050 Y4.73050
X55.53050 Y4.73050
X52.99050 Y4.73050
X47.91050 Y4.73050
X45.37050 Y4.73050
X42.83050 Y4.73050
X40.29050 Y4.73050
X37.75050 Y4.73050
X35.21050 Y4.73050
X32.67050 Y4.73050
X30.13050 Y4.73050
X27.33650 Y8.54050
X32.41650 Y13.62050
X29.87650 Y13.62050
X32.41650 Y11.08050
X29.87650 Y11.08050
X29.87650 Y8.54050
X32.41650 Y8.54050
X34.95650 Y8.54050
X37.49650 Y8.54050
X40.03650 Y11.08050
X42.57650 Y11.08050
X40.03650 Y13.62050
X42.57650 Y13.62050
X40.03650 Y16.16050
X42.57650 Y16.16050
X40.03650 Y18.70050
X42.57650 Y18.70050
X40.03650 Y21.24050
X42.57650 Y21.24050
X40.03650 Y23.78050
X42.57650 Y23.78050
X40.03650 Y26.32050
X42.57650 Y26.32050
X40.03650 Y28.86050
X42.57650 Y28.86050
X40.03650 Y31.40050
X42.57650 Y31.40050
X40.03650 Y33.94050
X40.03650 Y36.48050
X42.57650 Y36.48050
X42.57650 Y33.94050
X45.11650 Y36.48050
X45.11650 Y33.94050
X47.65650 Y36.48050
X47.65650 Y33.94050
X45.11650 Y31.40050
X47.65650 Y31.40050
X45.11650 Y28.86050
X47.65650 Y28.86050
X45.11650 Y26.32050
X47.65650 Y26.32050
X45.11650 Y23.78050
X47.65650 Y23.78050
X45.11650 Y21.24050
X47.65650 Y21.24050
X45.11650 Y18.70050
X47.65650 Y18.70050
X45.11650 Y16.16050
X47.65650 Y16.16050
X45.11650 Y13.62050
X47.65650 Y13.62050
X50.19650 Y13.62050
X50.19650 Y16.16050
X50.19650 Y18.70050
X50.19650 Y21.24050
X50.19650 Y23.78050
X50.19650 Y26.32050
X50.19650 Y28.86050
X50.19650 Y31.40050
X50.19650 Y33.94050
X50.19650 Y36.48050
X47.65650 Y39.02050
X45.11650 Y41.56050
X45.11650 Y39.02050
X47.65650 Y41.56050
X45.11650 Y44.10050
X45.11650 Y46.64050
X47.65650 Y46.64050
X47.65650 Y44.10050
X50.19650 Y46.64050
X50.19650 Y44.10050
X50.19650 Y41.56050
X50.19650 Y39.02050
X52.73650 Y41.56050
X55.27650 Y41.56050
X52.73650 Y39.02050
X55.27650 Y39.02050
X52.73650 Y36.48050
X55.27650 Y36.48050
X52.73650 Y33.94050
X55.27650 Y33.94050
X52.73650 Y31.40050
X55.27650 Y31.40050
X52.73650 Y28.86050
X55.27650 Y28.86050
X52.73650 Y26.32050
X55.27650 Y26.32050
X52.73650 Y23.78050
X55.27650 Y23.78050
X52.73650 Y21.24050
X55.27650 Y21.24050
X52.73650 Y18.70050
X55.27650 Y18.70050
X52.73650 Y16.16050
X55.27650 Y16.16050
X52.73650 Y13.62050
X55.27650 Y13.62050
X52.73650 Y11.08050
X55.27650 Y11.08050
X57.81650 Y8.54050
X60.35650 Y8.54050
X60.35650 Y11.08050
X60.35650 Y13.62050
X60.35650 Y16.16050
X60.35650 Y18.70050
X60.35650 Y21.24050
X60.35650 Y23.78050
X60.35650 Y26.32050
X60.35650 Y28.86050
X60.35650 Y31.40050
X60.35650 Y33.94050
X60.35650 Y36.48050
X60.35650 Y39.02050
X60.35650 Y41.56050
X60.35650 Y44.10050
X60.35650 Y46.64050
X57.81650 Y44.10050
X57.81650 Y46.64050
X57.81650 Y49.18050
X55.27650 Y49.18050
X52.73650 Y49.18050
X55.27650 Y46.64050
X52.73650 Y46.64050
X52.73650 Y44.10050
X55.27650 Y44.10050
X57.81650 Y41.56050
X57.81650 Y39.02050
X57.81650 Y36.48050
X57.81650 Y33.94050
X57.81650 Y31.40050
X57.81650 Y28.86050
X57.81650 Y26.32050
X57.81650 Y23.78050
X57.81650 Y21.24050
X57.81650 Y18.70050
X57.81650 Y16.16050
X57.81650 Y13.62050
X57.81650 Y11.08050
X55.27650 Y8.54050
X52.73650 Y8.54050
X50.19650 Y8.54050
X50.19650 Y11.08050
X47.65650 Y8.54050
X45.11650 Y8.54050
X47.65650 Y11.08050
X45.11650 Y11.08050
X42.57650 Y8.54050
X40.03650 Y8.54050
X37.49650 Y11.08050
X34.95650 Y11.08050
X37.49650 Y13.62050
X34.95650 Y13.62050
X37.49650 Y16.16050
X34.95650 Y16.16050
X37.49650 Y18.70050
X34.95650 Y18.70050
X37.49650 Y21.24050
X34.95650 Y21.24050
X37.49650 Y23.78050
X34.95650 Y23.78050
X37.49650 Y26.32050
X34.95650 Y26.32050
X37.49650 Y28.86050
X34.95650 Y28.86050
X37.49650 Y31.40050
X34.95650 Y31.40050
X37.49650 Y33.94050
X37.49650 Y36.48050
X34.95650 Y33.94050
X34.95650 Y36.48050
X32.41650 Y33.94050
X32.41650 Y36.48050
X29.87650 Y36.48050
X29.87650 Y33.94050
X32.41650 Y31.40050
X29.87650 Y31.40050
X32.41650 Y28.86050
X29.87650 Y28.86050
X32.41650 Y26.32050
X29.87650 Y26.32050
X32.41650 Y23.78050
X29.87650 Y23.78050
X32.41650 Y21.24050
X29.87650 Y21.24050
X32.41650 Y18.70050
X29.87650 Y18.70050
X32.41650 Y16.16050
X29.87650 Y16.16050
X27.33650 Y16.16050
X24.79650 Y16.16050
X27.33650 Y18.70050
X27.33650 Y21.24050
X27.33650 Y23.78050
X27.33650 Y26.32050
X24.79650 Y23.78050
X24.79650 Y21.24050
X24.79650 Y18.70050
X22.25650 Y16.16050
G80

G00 Z40.000 ( All done -- retract )


M5      (Spindle off.)
G04 P1.000000
M9      (Coolant off.)
M2      (Program end.)

