( pcb2gcode 1.2.1 )
( Software-independent Gcode )
      

G94 ( Millimeters per minute feed rate. )
G21 ( Units == Millimeters. )

G90 ( Absolute coordinates. )
S10000 ( RPM spindle speed. )
G64 P0.05080 ( set maximum deviation from commanded toolpath )
F600.00000 ( Feedrate. )

F600.00000 ( Feedrate. )
M3 ( Spindle on clockwise. )
G04 P0 ( dwell for no time -- G64 should not smooth over this point )
G00 Z0.50000 ( retract )

G00 X6.28320 Y55.34330 ( rapid move to begin. )
F300.00000
G01 Z-0.07500
G04 P0 ( dwell for no time -- G64 should not smooth over this point )
F600.00000
X6.28320 Y55.34330
X6.23240 Y55.34330
X4.88620 Y53.97170
X4.88620 Y42.54170
X2.34620 Y40.00170
X2.34620 Y7.79450
X4.88620 Y5.25450
X4.88620 Y2.71450
X4.96240 Y2.61290
X70.24040 Y2.58750
X70.34200 Y2.66370
X70.36740 Y55.24170
X70.29120 Y55.34330
X6.28320 Y55.34330
G04 P0 ( dwell for no time -- G64 should not smooth over this point )
G00 Z0.50000 ( retract )

G00 X50.86020 Y54.37810 ( rapid move to begin. )
F300.00000
G01 Z-0.07500
G04 P0 ( dwell for no time -- G64 should not smooth over this point )
F600.00000
X50.86020 Y54.37810
X50.75860 Y54.20030
X50.65700 Y54.09870
X50.58080 Y54.09870
X50.58080 Y52.16830
X50.65700 Y52.16830
X50.75860 Y52.06670
X50.75860 Y52.01590
X50.80940 Y51.99050
X50.88560 Y51.81270
X51.01260 Y51.66030
X51.06340 Y51.66030
X51.31740 Y51.45710
X51.54600 Y51.38090
X51.90160 Y51.33010
X52.02860 Y51.38090
X52.30800 Y51.40630
X52.79060 Y51.73650
X52.81600 Y51.83810
X52.86680 Y51.86350
X52.89220 Y51.96510
X52.94300 Y51.99050
X53.01920 Y52.14290
X53.09540 Y52.62550
X53.17160 Y52.70170
X53.29860 Y52.70170
X53.37480 Y52.62550
X53.45100 Y52.39690
X53.62880 Y52.39690
X53.62880 Y53.87010
X53.45100 Y53.87010
X53.37480 Y53.64150
X53.29860 Y53.56530
X53.17160 Y53.56530
X53.09540 Y53.64150
X53.01920 Y54.12410
X52.71440 Y54.60670
X52.66360 Y54.60670
X52.63820 Y54.65750
X52.58740 Y54.65750
X52.56200 Y54.70830
X52.51120 Y54.70830
X52.30800 Y54.86070
X51.82540 Y54.93690
X51.31740 Y54.80990
X51.29200 Y54.75910
X51.01260 Y54.60670
X50.86020 Y54.37810
G04 P0 ( dwell for no time -- G64 should not smooth over this point )
G00 Z0.50000 ( retract )

G00 X48.32020 Y54.37810 ( rapid move to begin. )
F300.00000
G01 Z-0.07500
G04 P0 ( dwell for no time -- G64 should not smooth over this point )
F600.00000
X48.32020 Y54.37810
X48.16780 Y54.14950
X48.11700 Y54.09870
X48.04080 Y54.09870
X48.04080 Y52.16830
X48.11700 Y52.16830
X48.21860 Y52.06670
X48.21860 Y52.01590
X48.26940 Y51.99050
X48.34560 Y51.81270
X48.47260 Y51.66030
X48.52340 Y51.66030
X48.54880 Y51.60950
X48.59960 Y51.60950
X48.62500 Y51.55870
X48.67580 Y51.55870
X48.87900 Y51.40630
X49.36160 Y51.33010
X49.86960 Y51.45710
X49.89500 Y51.50790
X49.94580 Y51.50790
X49.97120 Y51.55870
X50.02200 Y51.55870
X50.04740 Y51.60950
X50.22520 Y51.71110
X50.42840 Y52.06670
X50.53000 Y52.16830
X50.58080 Y52.16830
X50.58080 Y54.09870
X50.53000 Y54.09870
X50.42840 Y54.20030
X50.42840 Y54.25110
X50.37760 Y54.27650
X50.30140 Y54.45430
X50.17440 Y54.60670
X50.12360 Y54.60670
X50.09820 Y54.65750
X50.04740 Y54.65750
X50.02200 Y54.70830
X49.97120 Y54.70830
X49.76800 Y54.86070
X49.48860 Y54.88610
X49.36160 Y54.93690
X48.87900 Y54.86070
X48.77740 Y54.80990
X48.75200 Y54.75910
X48.47260 Y54.60670
X48.32020 Y54.37810
G04 P0 ( dwell for no time -- G64 should not smooth over this point )
G00 Z0.50000 ( retract )

G00 X45.78020 Y54.37810 ( rapid move to begin. )
F300.00000
G01 Z-0.07500
G04 P0 ( dwell for no time -- G64 should not smooth over this point )
F600.00000
X45.78020 Y54.37810
X45.67860 Y54.20030
X45.57700 Y54.09870
X45.50080 Y54.09870
X45.50080 Y52.16830
X45.57700 Y52.16830
X45.67860 Y52.06670
X45.67860 Y52.01590
X45.72940 Y51.99050
X45.80560 Y51.81270
X45.93260 Y51.66030
X45.98340 Y51.66030
X46.00880 Y51.60950
X46.05960 Y51.60950
X46.08500 Y51.55870
X46.13580 Y51.55870
X46.16120 Y51.50790
X46.33900 Y51.40630
X46.82160 Y51.33010
X47.32960 Y51.45710
X47.43120 Y51.55870
X47.63440 Y51.66030
X47.76140 Y51.81270
X47.88840 Y52.06670
X47.99000 Y52.16830
X48.04080 Y52.16830
X48.04080 Y54.09870
X47.99000 Y54.09870
X47.88840 Y54.20030
X47.88840 Y54.25110
X47.83760 Y54.27650
X47.76140 Y54.45430
X47.63440 Y54.60670
X47.58360 Y54.60670
X47.55820 Y54.65750
X47.50740 Y54.65750
X47.48200 Y54.70830
X47.43120 Y54.70830
X47.22800 Y54.86070
X46.94860 Y54.88610
X46.82160 Y54.93690
X46.33900 Y54.86070
X46.23740 Y54.80990
X46.21200 Y54.75910
X45.93260 Y54.60670
X45.78020 Y54.37810
G04 P0 ( dwell for no time -- G64 should not smooth over this point )
G00 Z0.50000 ( retract )

G00 X43.24020 Y54.37810 ( rapid move to begin. )
F300.00000
G01 Z-0.07500
G04 P0 ( dwell for no time -- G64 should not smooth over this point )
F600.00000
X43.24020 Y54.37810
X43.13860 Y54.20030
X43.03700 Y54.09870
X42.96080 Y54.09870
X42.96080 Y52.16830
X43.03700 Y52.16830
X43.13860 Y52.06670
X43.13860 Y52.01590
X43.18940 Y51.99050
X43.26560 Y51.81270
X43.39260 Y51.66030
X43.44340 Y51.66030
X43.46880 Y51.60950
X43.51960 Y51.60950
X43.54500 Y51.55870
X43.59580 Y51.55870
X43.62120 Y51.50790
X43.79900 Y51.40630
X44.28160 Y51.33010
X44.78960 Y51.45710
X44.89120 Y51.55870
X45.09440 Y51.66030
X45.22140 Y51.81270
X45.34840 Y52.06670
X45.45000 Y52.16830
X45.50080 Y52.16830
X45.50080 Y54.09870
X45.45000 Y54.09870
X45.34840 Y54.20030
X45.34840 Y54.25110
X45.29760 Y54.27650
X45.22140 Y54.45430
X45.09440 Y54.60670
X45.04360 Y54.60670
X45.01820 Y54.65750
X44.96740 Y54.65750
X44.94200 Y54.70830
X44.89120 Y54.70830
X44.68800 Y54.86070
X44.40860 Y54.88610
X44.28160 Y54.93690
X43.79900 Y54.86070
X43.69740 Y54.80990
X43.67200 Y54.75910
X43.39260 Y54.60670
X43.24020 Y54.37810
G04 P0 ( dwell for no time -- G64 should not smooth over this point )
G00 Z0.50000 ( retract )

G00 X40.70020 Y54.37810 ( rapid move to begin. )
F300.00000
G01 Z-0.07500
G04 P0 ( dwell for no time -- G64 should not smooth over this point )
F600.00000
X40.70020 Y54.37810
X40.59860 Y54.20030
X40.49700 Y54.09870
X40.42080 Y54.09870
X40.42080 Y52.16830
X40.49700 Y52.16830
X40.59860 Y52.06670
X40.59860 Y52.01590
X40.64940 Y51.99050
X40.72560 Y51.81270
X40.85260 Y51.66030
X40.90340 Y51.66030
X40.92880 Y51.60950
X40.97960 Y51.60950
X41.00500 Y51.55870
X41.05580 Y51.55870
X41.25900 Y51.40630
X41.74160 Y51.33010
X42.24960 Y51.45710
X42.27500 Y51.50790
X42.55440 Y51.66030
X42.68140 Y51.81270
X42.80840 Y52.06670
X42.91000 Y52.16830
X42.96080 Y52.16830
X42.96080 Y54.09870
X42.91000 Y54.09870
X42.80840 Y54.20030
X42.80840 Y54.25110
X42.75760 Y54.27650
X42.68140 Y54.45430
X42.55440 Y54.60670
X42.50360 Y54.60670
X42.47820 Y54.65750
X42.42740 Y54.65750
X42.40200 Y54.70830
X42.35120 Y54.70830
X42.14800 Y54.86070
X41.86860 Y54.88610
X41.74160 Y54.93690
X41.25900 Y54.86070
X41.15740 Y54.80990
X41.13200 Y54.75910
X40.85260 Y54.60670
X40.70020 Y54.37810
G04 P0 ( dwell for no time -- G64 should not smooth over this point )
G00 Z0.50000 ( retract )

G00 X38.16020 Y54.37810 ( rapid move to begin. )
F300.00000
G01 Z-0.07500
G04 P0 ( dwell for no time -- G64 should not smooth over this point )
F600.00000
X38.16020 Y54.37810
X38.05860 Y54.20030
X37.95700 Y54.09870
X37.88080 Y54.09870
X37.88080 Y52.16830
X37.95700 Y52.16830
X38.05860 Y52.06670
X38.05860 Y52.01590
X38.10940 Y51.99050
X38.18560 Y51.81270
X38.31260 Y51.66030
X38.36340 Y51.66030
X38.38880 Y51.60950
X38.43960 Y51.60950
X38.46500 Y51.55870
X38.51580 Y51.55870
X38.54120 Y51.50790
X38.71900 Y51.40630
X39.20160 Y51.33010
X39.70960 Y51.45710
X39.81120 Y51.55870
X40.01440 Y51.66030
X40.14140 Y51.81270
X40.26840 Y52.06670
X40.37000 Y52.16830
X40.42080 Y52.16830
X40.42080 Y54.09870
X40.37000 Y54.09870
X40.26840 Y54.20030
X40.26840 Y54.25110
X40.21760 Y54.27650
X40.14140 Y54.45430
X40.01440 Y54.60670
X39.96360 Y54.60670
X39.93820 Y54.65750
X39.88740 Y54.65750
X39.86200 Y54.70830
X39.81120 Y54.70830
X39.60800 Y54.86070
X39.32860 Y54.88610
X39.20160 Y54.93690
X38.71900 Y54.86070
X38.61740 Y54.80990
X38.59200 Y54.75910
X38.31260 Y54.60670
X38.16020 Y54.37810
G04 P0 ( dwell for no time -- G64 should not smooth over this point )
G00 Z0.50000 ( retract )

G00 X35.62020 Y54.37810 ( rapid move to begin. )
F300.00000
G01 Z-0.07500
G04 P0 ( dwell for no time -- G64 should not smooth over this point )
F600.00000
X35.62020 Y54.37810
X35.51860 Y54.20030
X35.41700 Y54.09870
X35.34080 Y54.09870
X35.34080 Y52.16830
X35.41700 Y52.16830
X35.51860 Y52.06670
X35.51860 Y52.01590
X35.56940 Y51.99050
X35.64560 Y51.81270
X35.77260 Y51.66030
X35.82340 Y51.66030
X35.84880 Y51.60950
X35.89960 Y51.60950
X35.92500 Y51.55870
X35.97580 Y51.55870
X36.17900 Y51.40630
X36.66160 Y51.33010
X37.16960 Y51.45710
X37.19500 Y51.50790
X37.47440 Y51.66030
X37.60140 Y51.81270
X37.72840 Y52.06670
X37.83000 Y52.16830
X37.88080 Y52.16830
X37.88080 Y54.09870
X37.83000 Y54.09870
X37.72840 Y54.20030
X37.72840 Y54.25110
X37.67760 Y54.27650
X37.60140 Y54.45430
X37.47440 Y54.60670
X37.42360 Y54.60670
X37.39820 Y54.65750
X37.34740 Y54.65750
X37.32200 Y54.70830
X37.27120 Y54.70830
X37.06800 Y54.86070
X36.78860 Y54.88610
X36.66160 Y54.93690
X36.17900 Y54.86070
X36.07740 Y54.80990
X36.05200 Y54.75910
X35.77260 Y54.60670
X35.62020 Y54.37810
G04 P0 ( dwell for no time -- G64 should not smooth over this point )
G00 Z0.50000 ( retract )

G00 X33.08020 Y54.37810 ( rapid move to begin. )
F300.00000
G01 Z-0.07500
G04 P0 ( dwell for no time -- G64 should not smooth over this point )
F600.00000
X33.08020 Y54.37810
X32.97860 Y54.20030
X32.87700 Y54.09870
X32.80080 Y54.09870
X32.80080 Y52.16830
X32.87700 Y52.16830
X32.97860 Y52.06670
X32.97860 Y52.01590
X33.02940 Y51.99050
X33.10560 Y51.81270
X33.23260 Y51.66030
X33.28340 Y51.66030
X33.30880 Y51.60950
X33.35960 Y51.60950
X33.38500 Y51.55870
X33.43580 Y51.55870
X33.46120 Y51.50790
X33.63900 Y51.40630
X34.12160 Y51.33010
X34.62960 Y51.45710
X34.65500 Y51.50790
X34.93440 Y51.66030
X35.06140 Y51.81270
X35.18840 Y52.06670
X35.29000 Y52.16830
X35.34080 Y52.16830
X35.34080 Y54.09870
X35.29000 Y54.09870
X35.18840 Y54.20030
X35.18840 Y54.25110
X35.13760 Y54.27650
X35.06140 Y54.45430
X34.93440 Y54.60670
X34.88360 Y54.60670
X34.85820 Y54.65750
X34.80740 Y54.65750
X34.78200 Y54.70830
X34.73120 Y54.70830
X34.52800 Y54.86070
X34.24860 Y54.88610
X34.12160 Y54.93690
X33.63900 Y54.86070
X33.53740 Y54.80990
X33.51200 Y54.75910
X33.23260 Y54.60670
X33.08020 Y54.37810
G04 P0 ( dwell for no time -- G64 should not smooth over this point )
G00 Z0.50000 ( retract )

G00 X30.54020 Y54.37810 ( rapid move to begin. )
F300.00000
G01 Z-0.07500
G04 P0 ( dwell for no time -- G64 should not smooth over this point )
F600.00000
X30.54020 Y54.37810
X30.43860 Y54.20030
X30.33700 Y54.09870
X30.26080 Y54.09870
X30.26080 Y52.16830
X30.33700 Y52.16830
X30.43860 Y52.06670
X30.43860 Y52.01590
X30.48940 Y51.99050
X30.56560 Y51.81270
X30.69260 Y51.66030
X30.74340 Y51.66030
X30.76880 Y51.60950
X30.81960 Y51.60950
X30.84500 Y51.55870
X30.89580 Y51.55870
X30.92120 Y51.50790
X31.09900 Y51.40630
X31.58160 Y51.33010
X32.08960 Y51.45710
X32.19120 Y51.55870
X32.39440 Y51.66030
X32.52140 Y51.81270
X32.64840 Y52.06670
X32.75000 Y52.16830
X32.80080 Y52.16830
X32.80080 Y54.09870
X32.75000 Y54.09870
X32.64840 Y54.20030
X32.64840 Y54.25110
X32.59760 Y54.27650
X32.52140 Y54.45430
X32.39440 Y54.60670
X32.34360 Y54.60670
X32.31820 Y54.65750
X32.26740 Y54.65750
X32.24200 Y54.70830
X32.19120 Y54.70830
X31.98800 Y54.86070
X31.70860 Y54.88610
X31.58160 Y54.93690
X31.09900 Y54.86070
X30.99740 Y54.80990
X30.97200 Y54.75910
X30.69260 Y54.60670
X30.54020 Y54.37810
G04 P0 ( dwell for no time -- G64 should not smooth over this point )
G00 Z0.50000 ( retract )

G00 X28.00020 Y54.37810 ( rapid move to begin. )
F300.00000
G01 Z-0.07500
G04 P0 ( dwell for no time -- G64 should not smooth over this point )
F600.00000
X28.00020 Y54.37810
X27.82240 Y54.12410
X27.79700 Y53.84470
X27.74620 Y53.71770
X27.74620 Y52.54930
X27.87320 Y52.04130
X27.92400 Y52.01590
X27.92400 Y51.96510
X27.97480 Y51.93970
X27.97480 Y51.88890
X28.15260 Y51.66030
X28.20340 Y51.66030
X28.22880 Y51.60950
X28.27960 Y51.60950
X28.30500 Y51.55870
X28.35580 Y51.55870
X28.55900 Y51.40630
X29.04160 Y51.33010
X29.54960 Y51.45710
X29.57500 Y51.50790
X29.85440 Y51.66030
X29.98140 Y51.81270
X30.10840 Y52.06670
X30.21000 Y52.16830
X30.26080 Y52.16830
X30.26080 Y54.09870
X30.21000 Y54.09870
X30.10840 Y54.20030
X30.10840 Y54.25110
X30.05760 Y54.27650
X29.98140 Y54.45430
X29.85440 Y54.60670
X29.80360 Y54.60670
X29.77820 Y54.65750
X29.72740 Y54.65750
X29.70200 Y54.70830
X29.65120 Y54.70830
X29.44800 Y54.86070
X29.16860 Y54.88610
X29.04160 Y54.93690
X28.55900 Y54.86070
X28.45740 Y54.80990
X28.43200 Y54.75910
X28.15260 Y54.60670
X28.00020 Y54.37810
G04 P0 ( dwell for no time -- G64 should not smooth over this point )
G00 Z0.50000 ( retract )

G00 X23.93620 Y54.37810 ( rapid move to begin. )
F300.00000
G01 Z-0.07500
G04 P0 ( dwell for no time -- G64 should not smooth over this point )
F600.00000
X23.93620 Y54.37810
X23.83460 Y54.20030
X23.73300 Y54.09870
X23.65680 Y54.09870
X23.65680 Y52.16830
X23.73300 Y52.16830
X23.83460 Y52.06670
X23.83460 Y52.01590
X23.88540 Y51.99050
X23.96160 Y51.81270
X24.08860 Y51.66030
X24.13940 Y51.66030
X24.16480 Y51.60950
X24.21560 Y51.60950
X24.24100 Y51.55870
X24.29180 Y51.55870
X24.49500 Y51.40630
X24.97760 Y51.33010
X25.48560 Y51.45710
X25.51100 Y51.50790
X25.56180 Y51.50790
X25.58720 Y51.55870
X25.63800 Y51.55870
X25.86660 Y51.73650
X25.89200 Y51.83810
X25.94280 Y51.86350
X25.96820 Y51.96510
X26.01900 Y51.99050
X26.09520 Y52.14290
X26.19680 Y52.54930
X26.19680 Y53.71770
X26.09520 Y54.12410
X26.01900 Y54.27650
X25.96820 Y54.30190
X25.94280 Y54.40350
X25.89200 Y54.42890
X25.81580 Y54.58130
X25.58720 Y54.70830
X25.56180 Y54.75910
X25.51100 Y54.75910
X25.48560 Y54.80990
X24.97760 Y54.93690
X24.49500 Y54.86070
X24.39340 Y54.80990
X24.36800 Y54.75910
X24.08860 Y54.60670
X23.93620 Y54.37810
G04 P0 ( dwell for no time -- G64 should not smooth over this point )
G00 Z0.50000 ( retract )

G00 X21.39620 Y54.37810 ( rapid move to begin. )
F300.00000
G01 Z-0.07500
G04 P0 ( dwell for no time -- G64 should not smooth over this point )
F600.00000
X21.39620 Y54.37810
X21.24380 Y54.14950
X21.19300 Y54.09870
X21.11680 Y54.09870
X21.11680 Y52.16830
X21.19300 Y52.16830
X21.29460 Y52.06670
X21.29460 Y52.01590
X21.34540 Y51.99050
X21.42160 Y51.81270
X21.54860 Y51.66030
X21.59940 Y51.66030
X21.62480 Y51.60950
X21.67560 Y51.60950
X21.70100 Y51.55870
X21.75180 Y51.55870
X21.95500 Y51.40630
X22.43760 Y51.33010
X22.94560 Y51.45710
X22.97100 Y51.50790
X23.25040 Y51.66030
X23.37740 Y51.81270
X23.50440 Y52.06670
X23.60600 Y52.16830
X23.65680 Y52.16830
X23.65680 Y54.09870
X23.60600 Y54.09870
X23.50440 Y54.20030
X23.50440 Y54.25110
X23.45360 Y54.27650
X23.37740 Y54.45430
X23.25040 Y54.60670
X23.19960 Y54.60670
X23.17420 Y54.65750
X23.12340 Y54.65750
X23.09800 Y54.70830
X23.04720 Y54.70830
X22.84400 Y54.86070
X22.56460 Y54.88610
X22.43760 Y54.93690
X21.95500 Y54.86070
X21.85340 Y54.80990
X21.82800 Y54.75910
X21.54860 Y54.60670
X21.39620 Y54.37810
G04 P0 ( dwell for no time -- G64 should not smooth over this point )
G00 Z0.50000 ( retract )

G00 X18.85620 Y54.37810 ( rapid move to begin. )
F300.00000
G01 Z-0.07500
G04 P0 ( dwell for no time -- G64 should not smooth over this point )
F600.00000
X18.85620 Y54.37810
X18.70380 Y54.14950
X18.65300 Y54.09870
X18.57680 Y54.09870
X18.57680 Y52.16830
X18.65300 Y52.16830
X18.75460 Y52.06670
X18.75460 Y52.01590
X18.80540 Y51.99050
X18.88160 Y51.81270
X19.00860 Y51.66030
X19.05940 Y51.66030
X19.08480 Y51.60950
X19.13560 Y51.60950
X19.16100 Y51.55870
X19.21180 Y51.55870
X19.23720 Y51.50790
X19.41500 Y51.40630
X19.89760 Y51.33010
X20.40560 Y51.45710
X20.43100 Y51.50790
X20.71040 Y51.66030
X20.83740 Y51.81270
X20.96440 Y52.06670
X21.06600 Y52.16830
X21.11680 Y52.16830
X21.11680 Y54.09870
X21.06600 Y54.09870
X20.96440 Y54.20030
X20.96440 Y54.25110
X20.91360 Y54.27650
X20.83740 Y54.45430
X20.71040 Y54.60670
X20.65960 Y54.60670
X20.63420 Y54.65750
X20.58340 Y54.65750
X20.55800 Y54.70830
X20.50720 Y54.70830
X20.30400 Y54.86070
X20.02460 Y54.88610
X19.89760 Y54.93690
X19.41500 Y54.86070
X19.31340 Y54.80990
X19.28800 Y54.75910
X19.00860 Y54.60670
X18.85620 Y54.37810
G04 P0 ( dwell for no time -- G64 should not smooth over this point )
G00 Z0.50000 ( retract )

G00 X16.31620 Y54.37810 ( rapid move to begin. )
F300.00000
G01 Z-0.07500
G04 P0 ( dwell for no time -- G64 should not smooth over this point )
F600.00000
X16.31620 Y54.37810
X16.21460 Y54.20030
X16.11300 Y54.09870
X16.03680 Y54.09870
X16.03680 Y52.16830
X16.11300 Y52.16830
X16.21460 Y52.06670
X16.34160 Y51.81270
X16.46860 Y51.66030
X16.51940 Y51.66030
X16.54480 Y51.60950
X16.59560 Y51.60950
X16.62100 Y51.55870
X16.67180 Y51.55870
X16.69720 Y51.50790
X16.87500 Y51.40630
X17.35760 Y51.33010
X17.86560 Y51.45710
X17.89100 Y51.50790
X18.17040 Y51.66030
X18.29740 Y51.81270
X18.42440 Y52.06670
X18.52600 Y52.16830
X18.57680 Y52.16830
X18.57680 Y54.09870
X18.52600 Y54.09870
X18.42440 Y54.20030
X18.42440 Y54.25110
X18.37360 Y54.27650
X18.29740 Y54.45430
X18.17040 Y54.60670
X18.11960 Y54.60670
X18.09420 Y54.65750
X18.04340 Y54.65750
X18.01800 Y54.70830
X17.96720 Y54.70830
X17.76400 Y54.86070
X17.48460 Y54.88610
X17.35760 Y54.93690
X16.87500 Y54.86070
X16.77340 Y54.80990
X16.74800 Y54.75910
X16.46860 Y54.60670
X16.31620 Y54.37810
G04 P0 ( dwell for no time -- G64 should not smooth over this point )
G00 Z0.50000 ( retract )

G00 X13.77620 Y54.37810 ( rapid move to begin. )
F300.00000
G01 Z-0.07500
G04 P0 ( dwell for no time -- G64 should not smooth over this point )
F600.00000
X13.77620 Y54.37810
X13.67460 Y54.20030
X13.57300 Y54.09870
X13.49680 Y54.09870
X13.49680 Y52.16830
X13.57300 Y52.16830
X13.67460 Y52.06670
X13.80160 Y51.81270
X13.92860 Y51.66030
X13.97940 Y51.66030
X14.00480 Y51.60950
X14.05560 Y51.60950
X14.08100 Y51.55870
X14.13180 Y51.55870
X14.33500 Y51.40630
X14.81760 Y51.33010
X15.32560 Y51.45710
X15.35100 Y51.50790
X15.63040 Y51.66030
X15.75740 Y51.81270
X15.88440 Y52.06670
X15.98600 Y52.16830
X16.03680 Y52.16830
X16.03680 Y54.09870
X15.98600 Y54.09870
X15.88440 Y54.20030
X15.88440 Y54.25110
X15.83360 Y54.27650
X15.75740 Y54.45430
X15.63040 Y54.60670
X15.57960 Y54.60670
X15.55420 Y54.65750
X15.50340 Y54.65750
X15.47800 Y54.70830
X15.42720 Y54.70830
X15.22400 Y54.86070
X14.94460 Y54.88610
X14.81760 Y54.93690
X14.33500 Y54.86070
X14.23340 Y54.80990
X14.20800 Y54.75910
X13.92860 Y54.60670
X13.77620 Y54.37810
G04 P0 ( dwell for no time -- G64 should not smooth over this point )
G00 Z0.50000 ( retract )

G00 X11.23620 Y54.37810 ( rapid move to begin. )
F300.00000
G01 Z-0.07500
G04 P0 ( dwell for no time -- G64 should not smooth over this point )
F600.00000
X11.23620 Y54.37810
X11.08380 Y54.14950
X11.03300 Y54.09870
X10.95680 Y54.09870
X10.95680 Y52.16830
X11.03300 Y52.16830
X11.13460 Y52.06670
X11.26160 Y51.81270
X11.38860 Y51.66030
X11.43940 Y51.66030
X11.46480 Y51.60950
X11.51560 Y51.60950
X11.54100 Y51.55870
X11.59180 Y51.55870
X11.61720 Y51.50790
X11.79500 Y51.40630
X12.27760 Y51.33010
X12.78560 Y51.45710
X12.81100 Y51.50790
X12.86180 Y51.50790
X12.88720 Y51.55870
X12.93800 Y51.55870
X12.96340 Y51.60950
X13.14120 Y51.71110
X13.34440 Y52.06670
X13.44600 Y52.16830
X13.49680 Y52.16830
X13.49680 Y54.09870
X13.44600 Y54.09870
X13.34440 Y54.20030
X13.34440 Y54.25110
X13.29360 Y54.27650
X13.21740 Y54.45430
X13.09040 Y54.60670
X13.03960 Y54.60670
X13.01420 Y54.65750
X12.96340 Y54.65750
X12.93800 Y54.70830
X12.88720 Y54.70830
X12.68400 Y54.86070
X12.40460 Y54.88610
X12.27760 Y54.93690
X11.79500 Y54.86070
X11.69340 Y54.80990
X11.51560 Y54.65750
X11.38860 Y54.60670
X11.23620 Y54.37810
G04 P0 ( dwell for no time -- G64 should not smooth over this point )
G00 Z0.50000 ( retract )

G00 X8.69620 Y54.37810 ( rapid move to begin. )
F300.00000
G01 Z-0.07500
G04 P0 ( dwell for no time -- G64 should not smooth over this point )
F600.00000
X8.69620 Y54.37810
X8.54380 Y54.14950
X8.49300 Y54.09870
X8.41680 Y54.09870
X8.41680 Y52.16830
X8.49300 Y52.16830
X8.59460 Y52.06670
X8.72160 Y51.81270
X8.84860 Y51.66030
X8.89940 Y51.66030
X8.92480 Y51.60950
X8.97560 Y51.60950
X9.00100 Y51.55870
X9.05180 Y51.55870
X9.07720 Y51.50790
X9.25500 Y51.40630
X9.73760 Y51.33010
X10.24560 Y51.45710
X10.27100 Y51.50790
X10.32180 Y51.50790
X10.34720 Y51.55870
X10.57580 Y51.68570
X10.67740 Y51.81270
X10.70280 Y51.91430
X10.75360 Y51.93970
X10.75360 Y51.99050
X10.80440 Y52.01590
X10.80440 Y52.06670
X10.90600 Y52.16830
X10.95680 Y52.16830
X10.95680 Y54.09870
X10.90600 Y54.09870
X10.80440 Y54.20030
X10.67740 Y54.45430
X10.55040 Y54.60670
X10.49960 Y54.60670
X10.47420 Y54.65750
X10.42340 Y54.65750
X10.39800 Y54.70830
X10.34720 Y54.70830
X10.14400 Y54.86070
X9.86460 Y54.88610
X9.73760 Y54.93690
X9.25500 Y54.86070
X9.15340 Y54.80990
X8.97560 Y54.65750
X8.84860 Y54.60670
X8.69620 Y54.37810
G04 P0 ( dwell for no time -- G64 should not smooth over this point )
G00 Z0.50000 ( retract )

G00 X6.15620 Y54.37810 ( rapid move to begin. )
F300.00000
G01 Z-0.07500
G04 P0 ( dwell for no time -- G64 should not smooth over this point )
F600.00000
X6.15620 Y54.37810
X5.97840 Y54.12410
X5.95300 Y53.84470
X5.90220 Y53.71770
X5.90220 Y52.54930
X6.02920 Y52.04130
X6.08000 Y52.01590
X6.08000 Y51.96510
X6.30860 Y51.66030
X6.35940 Y51.66030
X6.38480 Y51.60950
X6.43560 Y51.60950
X6.46100 Y51.55870
X6.51180 Y51.55870
X6.53720 Y51.50790
X6.71500 Y51.40630
X7.19760 Y51.33010
X7.70560 Y51.45710
X7.88340 Y51.60950
X8.01040 Y51.66030
X8.13740 Y51.81270
X8.26440 Y52.06670
X8.36600 Y52.16830
X8.41680 Y52.16830
X8.41680 Y54.09870
X8.36600 Y54.09870
X8.26440 Y54.20030
X8.26440 Y54.25110
X8.21360 Y54.27650
X8.13740 Y54.45430
X8.01040 Y54.60670
X7.95960 Y54.60670
X7.93420 Y54.65750
X7.88340 Y54.65750
X7.85800 Y54.70830
X7.80720 Y54.70830
X7.60400 Y54.86070
X7.32460 Y54.88610
X7.19760 Y54.93690
X6.71500 Y54.86070
X6.61340 Y54.80990
X6.58800 Y54.75910
X6.30860 Y54.60670
X6.15620 Y54.37810
G04 P0 ( dwell for no time -- G64 should not smooth over this point )
G00 Z0.50000 ( retract )

G00 X67.34480 Y50.08550 ( rapid move to begin. )
F300.00000
G01 Z-0.07500
G04 P0 ( dwell for no time -- G64 should not smooth over this point )
F600.00000
X67.34480 Y50.08550
X67.26860 Y50.03470
X67.24320 Y49.93310
X67.16700 Y49.85690
X67.09080 Y49.85690
X67.09080 Y48.02810
X68.91960 Y48.02810
X68.91960 Y48.10430
X69.02120 Y48.20590
X69.14820 Y48.25670
X69.47840 Y48.58690
X69.65620 Y49.04410
X69.65620 Y49.60290
X69.42760 Y50.08550
X69.09740 Y50.41570
X68.86880 Y50.49190
X68.76720 Y50.56810
X68.69100 Y50.56810
X68.64020 Y50.61890
X68.08140 Y50.61890
X67.75120 Y50.44110
X67.67500 Y50.44110
X67.34480 Y50.08550
G04 P0 ( dwell for no time -- G64 should not smooth over this point )
G00 Z0.50000 ( retract )

G00 X64.80480 Y50.08550 ( rapid move to begin. )
F300.00000
G01 Z-0.07500
G04 P0 ( dwell for no time -- G64 should not smooth over this point )
F600.00000
X64.80480 Y50.08550
X64.72860 Y50.03470
X64.70320 Y49.93310
X64.62700 Y49.85690
X64.55080 Y49.85690
X64.55080 Y48.02810
X67.09080 Y48.02810
X67.09080 Y49.85690
X67.04000 Y49.85690
X66.93840 Y49.95850
X66.88760 Y50.08550
X66.55740 Y50.41570
X66.32880 Y50.49190
X66.22720 Y50.56810
X66.15100 Y50.56810
X66.10020 Y50.61890
X65.54140 Y50.61890
X65.21120 Y50.44110
X65.13500 Y50.44110
X64.80480 Y50.08550
G04 P0 ( dwell for no time -- G64 should not smooth over this point )
G00 Z0.50000 ( retract )

G00 X62.26480 Y50.08550 ( rapid move to begin. )
F300.00000
G01 Z-0.07500
G04 P0 ( dwell for no time -- G64 should not smooth over this point )
F600.00000
X62.26480 Y50.08550
X62.18860 Y50.03470
X62.16320 Y49.93310
X62.08700 Y49.85690
X62.01080 Y49.85690
X62.01080 Y48.02810
X64.55080 Y48.02810
X64.55080 Y49.85690
X64.50000 Y49.85690
X64.39840 Y49.95850
X64.34760 Y50.08550
X64.01740 Y50.41570
X63.78880 Y50.49190
X63.68720 Y50.56810
X63.61100 Y50.56810
X63.56020 Y50.61890
X63.00140 Y50.61890
X62.67120 Y50.44110
X62.59500 Y50.44110
X62.26480 Y50.08550
G04 P0 ( dwell for no time -- G64 should not smooth over this point )
G00 Z0.50000 ( retract )

G00 X59.72480 Y50.08550 ( rapid move to begin. )
F300.00000
G01 Z-0.07500
G04 P0 ( dwell for no time -- G64 should not smooth over this point )
F600.00000
X59.72480 Y50.08550
X59.64860 Y50.03470
X59.62320 Y49.93310
X59.54700 Y49.85690
X59.47080 Y49.85690
X59.47080 Y48.02810
X62.01080 Y48.02810
X62.01080 Y49.85690
X61.96000 Y49.85690
X61.85840 Y49.95850
X61.80760 Y50.08550
X61.47740 Y50.41570
X61.24880 Y50.49190
X61.14720 Y50.56810
X61.07100 Y50.56810
X61.02020 Y50.61890
X60.46140 Y50.61890
X60.13120 Y50.44110
X60.05500 Y50.44110
X59.72480 Y50.08550
G04 P0 ( dwell for no time -- G64 should not smooth over this point )
G00 Z0.50000 ( retract )

G00 X57.18480 Y50.08550 ( rapid move to begin. )
F300.00000
G01 Z-0.07500
G04 P0 ( dwell for no time -- G64 should not smooth over this point )
F600.00000
X57.18480 Y50.08550
X57.10860 Y50.03470
X57.08320 Y49.93310
X57.00700 Y49.85690
X56.93080 Y49.85690
X56.93080 Y48.02810
X59.47080 Y48.02810
X59.47080 Y49.85690
X59.42000 Y49.85690
X59.31840 Y49.95850
X59.26760 Y50.08550
X58.93740 Y50.41570
X58.70880 Y50.49190
X58.60720 Y50.56810
X58.53100 Y50.56810
X58.48020 Y50.61890
X57.92140 Y50.61890
X57.59120 Y50.44110
X57.51500 Y50.44110
X57.18480 Y50.08550
G04 P0 ( dwell for no time -- G64 should not smooth over this point )
G00 Z0.50000 ( retract )

G00 X54.64480 Y50.08550 ( rapid move to begin. )
F300.00000
G01 Z-0.07500
G04 P0 ( dwell for no time -- G64 should not smooth over this point )
F600.00000
X54.64480 Y50.08550
X54.56860 Y50.03470
X54.54320 Y49.93310
X54.46700 Y49.85690
X54.39080 Y49.85690
X54.39080 Y48.02810
X56.93080 Y48.02810
X56.93080 Y49.85690
X56.88000 Y49.85690
X56.77840 Y49.95850
X56.72760 Y50.08550
X56.39740 Y50.41570
X56.16880 Y50.49190
X56.06720 Y50.56810
X55.99100 Y50.56810
X55.94020 Y50.61890
X55.38140 Y50.61890
X55.05120 Y50.44110
X54.97500 Y50.44110
X54.64480 Y50.08550
G04 P0 ( dwell for no time -- G64 should not smooth over this point )
G00 Z0.50000 ( retract )

G00 X52.10480 Y50.08550 ( rapid move to begin. )
F300.00000
G01 Z-0.07500
G04 P0 ( dwell for no time -- G64 should not smooth over this point )
F600.00000
X52.10480 Y50.08550
X52.02860 Y50.03470
X52.00320 Y49.93310
X51.92700 Y49.85690
X51.85080 Y49.85690
X51.85080 Y48.02810
X54.39080 Y48.02810
X54.39080 Y49.85690
X54.34000 Y49.85690
X54.23840 Y49.95850
X54.18760 Y50.08550
X53.85740 Y50.41570
X53.62880 Y50.49190
X53.52720 Y50.56810
X53.45100 Y50.56810
X53.40020 Y50.61890
X52.84140 Y50.61890
X52.51120 Y50.44110
X52.43500 Y50.44110
X52.10480 Y50.08550
G04 P0 ( dwell for no time -- G64 should not smooth over this point )
G00 Z0.50000 ( retract )

G00 X49.56480 Y50.08550 ( rapid move to begin. )
F300.00000
G01 Z-0.07500
G04 P0 ( dwell for no time -- G64 should not smooth over this point )
F600.00000
X49.56480 Y50.08550
X49.48860 Y50.03470
X49.46320 Y49.93310
X49.38700 Y49.85690
X49.31080 Y49.85690
X49.31080 Y48.02810
X51.85080 Y48.02810
X51.85080 Y49.85690
X51.80000 Y49.85690
X51.69840 Y49.95850
X51.64760 Y50.08550
X51.31740 Y50.41570
X51.08880 Y50.49190
X50.98720 Y50.56810
X50.91100 Y50.56810
X50.86020 Y50.61890
X50.30140 Y50.61890
X49.97120 Y50.44110
X49.89500 Y50.44110
X49.56480 Y50.08550
G04 P0 ( dwell for no time -- G64 should not smooth over this point )
G00 Z0.50000 ( retract )

G00 X47.02480 Y50.08550 ( rapid move to begin. )
F300.00000
G01 Z-0.07500
G04 P0 ( dwell for no time -- G64 should not smooth over this point )
F600.00000
X47.02480 Y50.08550
X46.94860 Y50.03470
X46.92320 Y49.93310
X46.84700 Y49.85690
X46.77080 Y49.85690
X46.77080 Y48.02810
X49.31080 Y48.02810
X49.31080 Y49.85690
X49.26000 Y49.85690
X49.15840 Y49.95850
X49.10760 Y50.08550
X48.77740 Y50.41570
X48.54880 Y50.49190
X48.44720 Y50.56810
X48.37100 Y50.56810
X48.32020 Y50.61890
X47.76140 Y50.61890
X47.43120 Y50.44110
X47.35500 Y50.44110
X47.02480 Y50.08550
G04 P0 ( dwell for no time -- G64 should not smooth over this point )
G00 Z0.50000 ( retract )

G00 X44.48480 Y50.08550 ( rapid move to begin. )
F300.00000
G01 Z-0.07500
G04 P0 ( dwell for no time -- G64 should not smooth over this point )
F600.00000
X44.48480 Y50.08550
X44.40860 Y50.03470
X44.38320 Y49.93310
X44.30700 Y49.85690
X44.23080 Y49.85690
X44.23080 Y48.02810
X46.77080 Y48.02810
X46.77080 Y49.85690
X46.72000 Y49.85690
X46.61840 Y49.95850
X46.56760 Y50.08550
X46.23740 Y50.41570
X46.00880 Y50.49190
X45.90720 Y50.56810
X45.83100 Y50.56810
X45.78020 Y50.61890
X45.22140 Y50.61890
X44.89120 Y50.44110
X44.81500 Y50.44110
X44.48480 Y50.08550
G04 P0 ( dwell for no time -- G64 should not smooth over this point )
G00 Z0.50000 ( retract )

G00 X41.94480 Y50.08550 ( rapid move to begin. )
F300.00000
G01 Z-0.07500
G04 P0 ( dwell for no time -- G64 should not smooth over this point )
F600.00000
X41.94480 Y50.08550
X41.86860 Y50.03470
X41.84320 Y49.93310
X41.76700 Y49.85690
X41.69080 Y49.85690
X41.69080 Y48.02810
X44.23080 Y48.02810
X44.23080 Y49.85690
X44.18000 Y49.85690
X44.07840 Y49.95850
X44.02760 Y50.08550
X43.69740 Y50.41570
X43.46880 Y50.49190
X43.36720 Y50.56810
X43.29100 Y50.56810
X43.24020 Y50.61890
X42.68140 Y50.61890
X42.35120 Y50.44110
X42.27500 Y50.44110
X41.94480 Y50.08550
G04 P0 ( dwell for no time -- G64 should not smooth over this point )
G00 Z0.50000 ( retract )

G00 X39.40480 Y50.08550 ( rapid move to begin. )
F300.00000
G01 Z-0.07500
G04 P0 ( dwell for no time -- G64 should not smooth over this point )
F600.00000
X39.40480 Y50.08550
X39.32860 Y50.03470
X39.30320 Y49.93310
X39.22700 Y49.85690
X39.15080 Y49.85690
X39.15080 Y48.02810
X41.69080 Y48.02810
X41.69080 Y49.85690
X41.64000 Y49.85690
X41.53840 Y49.95850
X41.48760 Y50.08550
X41.15740 Y50.41570
X40.92880 Y50.49190
X40.82720 Y50.56810
X40.75100 Y50.56810
X40.70020 Y50.61890
X40.14140 Y50.61890
X39.81120 Y50.44110
X39.73500 Y50.44110
X39.40480 Y50.08550
G04 P0 ( dwell for no time -- G64 should not smooth over this point )
G00 Z0.50000 ( retract )

G00 X36.86480 Y50.08550 ( rapid move to begin. )
F300.00000
G01 Z-0.07500
G04 P0 ( dwell for no time -- G64 should not smooth over this point )
F600.00000
X36.86480 Y50.08550
X36.78860 Y50.03470
X36.76320 Y49.93310
X36.68700 Y49.85690
X36.61080 Y49.85690
X36.61080 Y48.02810
X39.15080 Y48.02810
X39.15080 Y49.85690
X39.10000 Y49.85690
X38.99840 Y49.95850
X38.94760 Y50.08550
X38.61740 Y50.41570
X38.38880 Y50.49190
X38.28720 Y50.56810
X38.21100 Y50.56810
X38.16020 Y50.61890
X37.60140 Y50.61890
X37.27120 Y50.44110
X37.19500 Y50.44110
X36.86480 Y50.08550
G04 P0 ( dwell for no time -- G64 should not smooth over this point )
G00 Z0.50000 ( retract )

G00 X34.32480 Y50.08550 ( rapid move to begin. )
F300.00000
G01 Z-0.07500
G04 P0 ( dwell for no time -- G64 should not smooth over this point )
F600.00000
X34.32480 Y50.08550
X34.24860 Y50.03470
X34.22320 Y49.93310
X34.14700 Y49.85690
X34.07080 Y49.85690
X34.07080 Y48.02810
X36.61080 Y48.02810
X36.61080 Y49.85690
X36.56000 Y49.85690
X36.45840 Y49.95850
X36.40760 Y50.08550
X36.07740 Y50.41570
X35.84880 Y50.49190
X35.74720 Y50.56810
X35.67100 Y50.56810
X35.62020 Y50.61890
X35.06140 Y50.61890
X34.73120 Y50.44110
X34.65500 Y50.44110
X34.32480 Y50.08550
G04 P0 ( dwell for no time -- G64 should not smooth over this point )
G00 Z0.50000 ( retract )

G00 X31.78480 Y50.08550 ( rapid move to begin. )
F300.00000
G01 Z-0.07500
G04 P0 ( dwell for no time -- G64 should not smooth over this point )
F600.00000
X31.78480 Y50.08550
X31.70860 Y50.03470
X31.68320 Y49.93310
X31.60700 Y49.85690
X31.53080 Y49.85690
X31.53080 Y48.02810
X34.07080 Y48.02810
X34.07080 Y49.85690
X34.02000 Y49.85690
X33.91840 Y49.95850
X33.86760 Y50.08550
X33.53740 Y50.41570
X33.30880 Y50.49190
X33.20720 Y50.56810
X33.13100 Y50.56810
X33.08020 Y50.61890
X32.52140 Y50.61890
X32.19120 Y50.44110
X32.11500 Y50.44110
X31.78480 Y50.08550
G04 P0 ( dwell for no time -- G64 should not smooth over this point )
G00 Z0.50000 ( retract )

G00 X29.24480 Y50.08550 ( rapid move to begin. )
F300.00000
G01 Z-0.07500
G04 P0 ( dwell for no time -- G64 should not smooth over this point )
F600.00000
X29.24480 Y50.08550
X29.16860 Y50.03470
X29.14320 Y49.93310
X29.06700 Y49.85690
X28.99080 Y49.85690
X28.99080 Y48.02810
X31.53080 Y48.02810
X31.53080 Y49.85690
X31.48000 Y49.85690
X31.37840 Y49.95850
X31.32760 Y50.08550
X30.99740 Y50.41570
X30.76880 Y50.49190
X30.66720 Y50.56810
X30.59100 Y50.56810
X30.54020 Y50.61890
X29.98140 Y50.61890
X29.65120 Y50.44110
X29.57500 Y50.44110
X29.24480 Y50.08550
G04 P0 ( dwell for no time -- G64 should not smooth over this point )
G00 Z0.50000 ( retract )

G00 X26.70480 Y50.08550 ( rapid move to begin. )
F300.00000
G01 Z-0.07500
G04 P0 ( dwell for no time -- G64 should not smooth over this point )
F600.00000
X26.70480 Y50.08550
X26.62860 Y50.03470
X26.60320 Y49.93310
X26.52700 Y49.85690
X26.45080 Y49.85690
X26.45080 Y48.02810
X28.99080 Y48.02810
X28.99080 Y49.85690
X28.94000 Y49.85690
X28.83840 Y49.95850
X28.78760 Y50.08550
X28.45740 Y50.41570
X28.22880 Y50.49190
X28.12720 Y50.56810
X28.05100 Y50.56810
X28.00020 Y50.61890
X27.44140 Y50.61890
X27.11120 Y50.44110
X27.03500 Y50.44110
X26.70480 Y50.08550
G04 P0 ( dwell for no time -- G64 should not smooth over this point )
G00 Z0.50000 ( retract )

G00 X24.16480 Y50.08550 ( rapid move to begin. )
F300.00000
G01 Z-0.07500
G04 P0 ( dwell for no time -- G64 should not smooth over this point )
F600.00000
X24.16480 Y50.08550
X24.08860 Y50.03470
X24.06320 Y49.93310
X23.98700 Y49.85690
X23.91080 Y49.85690
X23.91080 Y48.02810
X26.45080 Y48.02810
X26.45080 Y49.85690
X26.40000 Y49.85690
X26.29840 Y49.95850
X26.24760 Y50.08550
X25.91740 Y50.41570
X25.68880 Y50.49190
X25.58720 Y50.56810
X25.51100 Y50.56810
X25.46020 Y50.61890
X24.90140 Y50.61890
X24.57120 Y50.44110
X24.49500 Y50.44110
X24.16480 Y50.08550
G04 P0 ( dwell for no time -- G64 should not smooth over this point )
G00 Z0.50000 ( retract )

G00 X21.62480 Y50.08550 ( rapid move to begin. )
F300.00000
G01 Z-0.07500
G04 P0 ( dwell for no time -- G64 should not smooth over this point )
F600.00000
X21.62480 Y50.08550
X21.54860 Y50.03470
X21.52320 Y49.93310
X21.44700 Y49.85690
X21.37080 Y49.85690
X21.37080 Y48.02810
X23.91080 Y48.02810
X23.91080 Y49.85690
X23.86000 Y49.85690
X23.75840 Y49.95850
X23.70760 Y50.08550
X23.37740 Y50.41570
X23.14880 Y50.49190
X23.04720 Y50.56810
X22.97100 Y50.56810
X22.92020 Y50.61890
X22.36140 Y50.61890
X22.03120 Y50.44110
X21.95500 Y50.44110
X21.62480 Y50.08550
G04 P0 ( dwell for no time -- G64 should not smooth over this point )
G00 Z0.50000 ( retract )

G00 X19.08480 Y50.08550 ( rapid move to begin. )
F300.00000
G01 Z-0.07500
G04 P0 ( dwell for no time -- G64 should not smooth over this point )
F600.00000
X19.08480 Y50.08550
X19.00860 Y50.03470
X18.98320 Y49.93310
X18.90700 Y49.85690
X18.83080 Y49.85690
X18.83080 Y48.02810
X21.37080 Y48.02810
X21.37080 Y49.85690
X21.32000 Y49.85690
X21.21840 Y49.95850
X21.16760 Y50.08550
X20.83740 Y50.41570
X20.60880 Y50.49190
X20.50720 Y50.56810
X20.43100 Y50.56810
X20.38020 Y50.61890
X19.82140 Y50.61890
X19.49120 Y50.44110
X19.41500 Y50.44110
X19.08480 Y50.08550
G04 P0 ( dwell for no time -- G64 should not smooth over this point )
G00 Z0.50000 ( retract )

G00 X16.54480 Y50.08550 ( rapid move to begin. )
F300.00000
G01 Z-0.07500
G04 P0 ( dwell for no time -- G64 should not smooth over this point )
F600.00000
X16.54480 Y50.08550
X16.46860 Y50.03470
X16.44320 Y49.93310
X16.36700 Y49.85690
X16.29080 Y49.85690
X16.29080 Y48.02810
X18.83080 Y48.02810
X18.83080 Y49.85690
X18.78000 Y49.85690
X18.67840 Y49.95850
X18.62760 Y50.08550
X18.29740 Y50.41570
X18.06880 Y50.49190
X17.96720 Y50.56810
X17.89100 Y50.56810
X17.84020 Y50.61890
X17.28140 Y50.61890
X16.95120 Y50.44110
X16.87500 Y50.44110
X16.54480 Y50.08550
G04 P0 ( dwell for no time -- G64 should not smooth over this point )
G00 Z0.50000 ( retract )

G00 X14.00480 Y50.08550 ( rapid move to begin. )
F300.00000
G01 Z-0.07500
G04 P0 ( dwell for no time -- G64 should not smooth over this point )
F600.00000
X14.00480 Y50.08550
X13.92860 Y50.03470
X13.90320 Y49.93310
X13.82700 Y49.85690
X13.75080 Y49.85690
X13.75080 Y48.02810
X16.29080 Y48.02810
X16.29080 Y49.85690
X16.24000 Y49.85690
X16.13840 Y49.95850
X16.08760 Y50.08550
X15.75740 Y50.41570
X15.52880 Y50.49190
X15.42720 Y50.56810
X15.35100 Y50.56810
X15.30020 Y50.61890
X14.74140 Y50.61890
X14.41120 Y50.44110
X14.33500 Y50.44110
X14.00480 Y50.08550
G04 P0 ( dwell for no time -- G64 should not smooth over this point )
G00 Z0.50000 ( retract )

G00 X11.46480 Y50.08550 ( rapid move to begin. )
F300.00000
G01 Z-0.07500
G04 P0 ( dwell for no time -- G64 should not smooth over this point )
F600.00000
X11.46480 Y50.08550
X11.38860 Y50.03470
X11.36320 Y49.93310
X11.28700 Y49.85690
X11.21080 Y49.85690
X11.21080 Y48.02810
X13.75080 Y48.02810
X13.75080 Y49.85690
X13.70000 Y49.85690
X13.59840 Y49.95850
X13.54760 Y50.08550
X13.21740 Y50.41570
X12.98880 Y50.49190
X12.88720 Y50.56810
X12.81100 Y50.56810
X12.76020 Y50.61890
X12.20140 Y50.61890
X11.87120 Y50.44110
X11.79500 Y50.44110
X11.46480 Y50.08550
G04 P0 ( dwell for no time -- G64 should not smooth over this point )
G00 Z0.50000 ( retract )

G00 X8.92480 Y50.08550 ( rapid move to begin. )
F300.00000
G01 Z-0.07500
G04 P0 ( dwell for no time -- G64 should not smooth over this point )
F600.00000
X8.92480 Y50.08550
X8.82320 Y50.00930
X8.82320 Y49.93310
X8.64540 Y49.60290
X8.64540 Y49.04410
X8.69620 Y48.99330
X8.69620 Y48.91710
X8.77240 Y48.81550
X8.84860 Y48.58690
X9.22960 Y48.20590
X9.35660 Y48.15510
X9.40740 Y48.10430
X9.40740 Y48.02810
X11.21080 Y48.02810
X11.21080 Y49.85690
X11.16000 Y49.85690
X11.05840 Y49.95850
X11.00760 Y50.08550
X10.67740 Y50.41570
X10.44880 Y50.49190
X10.34720 Y50.56810
X10.27100 Y50.56810
X10.22020 Y50.61890
X9.66140 Y50.61890
X9.33120 Y50.44110
X9.25500 Y50.44110
X8.92480 Y50.08550
G04 P0 ( dwell for no time -- G64 should not smooth over this point )
G00 Z0.50000 ( retract )

G00 X67.09080 Y47.54550 ( rapid move to begin. )
F300.00000
G01 Z-0.07500
G04 P0 ( dwell for no time -- G64 should not smooth over this point )
F600.00000
X67.09080 Y47.54550
X67.09080 Y45.48810
X68.91960 Y45.48810
X68.91960 Y45.56430
X69.02120 Y45.66590
X69.14820 Y45.71670
X69.47840 Y46.04690
X69.65620 Y46.50410
X69.65620 Y47.06290
X69.42760 Y47.54550
X69.09740 Y47.87570
X68.99580 Y47.90110
X68.91960 Y47.97730
X68.91960 Y48.02810
X67.09080 Y48.02810
X67.09080 Y47.54550
G04 P0 ( dwell for no time -- G64 should not smooth over this point )
G00 Z0.50000 ( retract )

G00 X64.55080 Y47.54550 ( rapid move to begin. )
F300.00000
G01 Z-0.07500
G04 P0 ( dwell for no time -- G64 should not smooth over this point )
F600.00000
X64.55080 Y47.54550
X64.55080 Y45.48810
X67.09080 Y45.48810
X67.09080 Y48.02810
X64.55080 Y48.02810
X64.55080 Y47.54550
G04 P0 ( dwell for no time -- G64 should not smooth over this point )
G00 Z0.50000 ( retract )

G00 X62.01080 Y47.54550 ( rapid move to begin. )
F300.00000
G01 Z-0.07500
G04 P0 ( dwell for no time -- G64 should not smooth over this point )
F600.00000
X62.01080 Y47.54550
X62.01080 Y45.48810
X64.55080 Y45.48810
X64.55080 Y48.02810
X62.01080 Y48.02810
X62.01080 Y47.54550
G04 P0 ( dwell for no time -- G64 should not smooth over this point )
G00 Z0.50000 ( retract )

G00 X59.47080 Y47.54550 ( rapid move to begin. )
F300.00000
G01 Z-0.07500
G04 P0 ( dwell for no time -- G64 should not smooth over this point )
F600.00000
X59.47080 Y47.54550
X59.47080 Y45.48810
X62.01080 Y45.48810
X62.01080 Y48.02810
X59.47080 Y48.02810
X59.47080 Y47.54550
G04 P0 ( dwell for no time -- G64 should not smooth over this point )
G00 Z0.50000 ( retract )

G00 X56.93080 Y47.54550 ( rapid move to begin. )
F300.00000
G01 Z-0.07500
G04 P0 ( dwell for no time -- G64 should not smooth over this point )
F600.00000
X56.93080 Y47.54550
X56.93080 Y45.48810
X59.47080 Y45.48810
X59.47080 Y48.02810
X56.93080 Y48.02810
X56.93080 Y47.54550
G04 P0 ( dwell for no time -- G64 should not smooth over this point )
G00 Z0.50000 ( retract )

G00 X54.39080 Y47.54550 ( rapid move to begin. )
F300.00000
G01 Z-0.07500
G04 P0 ( dwell for no time -- G64 should not smooth over this point )
F600.00000
X54.39080 Y47.54550
X54.39080 Y45.48810
X56.93080 Y45.48810
X56.93080 Y48.02810
X54.39080 Y48.02810
X54.39080 Y47.54550
G04 P0 ( dwell for no time -- G64 should not smooth over this point )
G00 Z0.50000 ( retract )

G00 X51.85080 Y47.54550 ( rapid move to begin. )
F300.00000
G01 Z-0.07500
G04 P0 ( dwell for no time -- G64 should not smooth over this point )
F600.00000
X51.85080 Y47.54550
X51.85080 Y45.48810
X54.39080 Y45.48810
X54.39080 Y48.02810
X51.85080 Y48.02810
X51.85080 Y47.54550
G04 P0 ( dwell for no time -- G64 should not smooth over this point )
G00 Z0.50000 ( retract )

G00 X49.31080 Y47.54550 ( rapid move to begin. )
F300.00000
G01 Z-0.07500
G04 P0 ( dwell for no time -- G64 should not smooth over this point )
F600.00000
X49.31080 Y47.54550
X49.31080 Y45.48810
X51.85080 Y45.48810
X51.85080 Y48.02810
X49.31080 Y48.02810
X49.31080 Y47.54550
G04 P0 ( dwell for no time -- G64 should not smooth over this point )
G00 Z0.50000 ( retract )

G00 X46.77080 Y47.54550 ( rapid move to begin. )
F300.00000
G01 Z-0.07500
G04 P0 ( dwell for no time -- G64 should not smooth over this point )
F600.00000
X46.77080 Y47.54550
X46.77080 Y45.48810
X49.31080 Y45.48810
X49.31080 Y48.02810
X46.77080 Y48.02810
X46.77080 Y47.54550
G04 P0 ( dwell for no time -- G64 should not smooth over this point )
G00 Z0.50000 ( retract )

G00 X44.23080 Y47.54550 ( rapid move to begin. )
F300.00000
G01 Z-0.07500
G04 P0 ( dwell for no time -- G64 should not smooth over this point )
F600.00000
X44.23080 Y47.54550
X44.23080 Y45.48810
X46.77080 Y45.48810
X46.77080 Y48.02810
X44.23080 Y48.02810
X44.23080 Y47.54550
G04 P0 ( dwell for no time -- G64 should not smooth over this point )
G00 Z0.50000 ( retract )

G00 X41.69080 Y47.54550 ( rapid move to begin. )
F300.00000
G01 Z-0.07500
G04 P0 ( dwell for no time -- G64 should not smooth over this point )
F600.00000
X41.69080 Y47.54550
X41.69080 Y45.48810
X44.23080 Y45.48810
X44.23080 Y48.02810
X41.69080 Y48.02810
X41.69080 Y47.54550
G04 P0 ( dwell for no time -- G64 should not smooth over this point )
G00 Z0.50000 ( retract )

G00 X39.15080 Y47.54550 ( rapid move to begin. )
F300.00000
G01 Z-0.07500
G04 P0 ( dwell for no time -- G64 should not smooth over this point )
F600.00000
X39.15080 Y47.54550
X39.15080 Y45.48810
X41.69080 Y45.48810
X41.69080 Y48.02810
X39.15080 Y48.02810
X39.15080 Y47.54550
G04 P0 ( dwell for no time -- G64 should not smooth over this point )
G00 Z0.50000 ( retract )

G00 X36.61080 Y47.54550 ( rapid move to begin. )
F300.00000
G01 Z-0.07500
G04 P0 ( dwell for no time -- G64 should not smooth over this point )
F600.00000
X36.61080 Y47.54550
X36.61080 Y45.48810
X39.15080 Y45.48810
X39.15080 Y48.02810
X36.61080 Y48.02810
X36.61080 Y47.54550
G04 P0 ( dwell for no time -- G64 should not smooth over this point )
G00 Z0.50000 ( retract )

G00 X34.07080 Y47.54550 ( rapid move to begin. )
F300.00000
G01 Z-0.07500
G04 P0 ( dwell for no time -- G64 should not smooth over this point )
F600.00000
X34.07080 Y47.54550
X34.07080 Y45.48810
X36.61080 Y45.48810
X36.61080 Y48.02810
X34.07080 Y48.02810
X34.07080 Y47.54550
G04 P0 ( dwell for no time -- G64 should not smooth over this point )
G00 Z0.50000 ( retract )

G00 X31.53080 Y47.54550 ( rapid move to begin. )
F300.00000
G01 Z-0.07500
G04 P0 ( dwell for no time -- G64 should not smooth over this point )
F600.00000
X31.53080 Y47.54550
X31.53080 Y45.48810
X34.07080 Y45.48810
X34.07080 Y48.02810
X31.53080 Y48.02810
X31.53080 Y47.54550
G04 P0 ( dwell for no time -- G64 should not smooth over this point )
G00 Z0.50000 ( retract )

G00 X28.99080 Y47.54550 ( rapid move to begin. )
F300.00000
G01 Z-0.07500
G04 P0 ( dwell for no time -- G64 should not smooth over this point )
F600.00000
X28.99080 Y47.54550
X28.99080 Y45.48810
X31.53080 Y45.48810
X31.53080 Y48.02810
X28.99080 Y48.02810
X28.99080 Y47.54550
G04 P0 ( dwell for no time -- G64 should not smooth over this point )
G00 Z0.50000 ( retract )

G00 X26.45080 Y47.54550 ( rapid move to begin. )
F300.00000
G01 Z-0.07500
G04 P0 ( dwell for no time -- G64 should not smooth over this point )
F600.00000
X26.45080 Y47.54550
X26.45080 Y45.48810
X28.99080 Y45.48810
X28.99080 Y48.02810
X26.45080 Y48.02810
X26.45080 Y47.54550
G04 P0 ( dwell for no time -- G64 should not smooth over this point )
G00 Z0.50000 ( retract )

G00 X23.91080 Y47.54550 ( rapid move to begin. )
F300.00000
G01 Z-0.07500
G04 P0 ( dwell for no time -- G64 should not smooth over this point )
F600.00000
X23.91080 Y47.54550
X23.91080 Y45.48810
X26.45080 Y45.48810
X26.45080 Y48.02810
X23.91080 Y48.02810
X23.91080 Y47.54550
G04 P0 ( dwell for no time -- G64 should not smooth over this point )
G00 Z0.50000 ( retract )

G00 X21.37080 Y47.54550 ( rapid move to begin. )
F300.00000
G01 Z-0.07500
G04 P0 ( dwell for no time -- G64 should not smooth over this point )
F600.00000
X21.37080 Y47.54550
X21.37080 Y45.48810
X23.91080 Y45.48810
X23.91080 Y48.02810
X21.37080 Y48.02810
X21.37080 Y47.54550
G04 P0 ( dwell for no time -- G64 should not smooth over this point )
G00 Z0.50000 ( retract )

G00 X18.83080 Y47.54550 ( rapid move to begin. )
F300.00000
G01 Z-0.07500
G04 P0 ( dwell for no time -- G64 should not smooth over this point )
F600.00000
X18.83080 Y47.54550
X18.83080 Y45.48810
X21.37080 Y45.48810
X21.37080 Y48.02810
X18.83080 Y48.02810
X18.83080 Y47.54550
G04 P0 ( dwell for no time -- G64 should not smooth over this point )
G00 Z0.50000 ( retract )

G00 X16.29080 Y47.54550 ( rapid move to begin. )
F300.00000
G01 Z-0.07500
G04 P0 ( dwell for no time -- G64 should not smooth over this point )
F600.00000
X16.29080 Y47.54550
X16.29080 Y45.48810
X18.83080 Y45.48810
X18.83080 Y48.02810
X16.29080 Y48.02810
X16.29080 Y47.54550
G04 P0 ( dwell for no time -- G64 should not smooth over this point )
G00 Z0.50000 ( retract )

G00 X13.75080 Y47.54550 ( rapid move to begin. )
F300.00000
G01 Z-0.07500
G04 P0 ( dwell for no time -- G64 should not smooth over this point )
F600.00000
X13.75080 Y47.54550
X13.75080 Y45.48810
X16.29080 Y45.48810
X16.29080 Y48.02810
X13.75080 Y48.02810
X13.75080 Y47.54550
G04 P0 ( dwell for no time -- G64 should not smooth over this point )
G00 Z0.50000 ( retract )

G00 X11.21080 Y47.54550 ( rapid move to begin. )
F300.00000
G01 Z-0.07500
G04 P0 ( dwell for no time -- G64 should not smooth over this point )
F600.00000
X11.21080 Y47.54550
X11.21080 Y45.48810
X13.75080 Y45.48810
X13.75080 Y48.02810
X11.21080 Y48.02810
X11.21080 Y47.54550
G04 P0 ( dwell for no time -- G64 should not smooth over this point )
G00 Z0.50000 ( retract )

G00 X8.92480 Y47.54550 ( rapid move to begin. )
F300.00000
G01 Z-0.07500
G04 P0 ( dwell for no time -- G64 should not smooth over this point )
F600.00000
X8.92480 Y47.54550
X8.82320 Y47.46930
X8.82320 Y47.39310
X8.64540 Y47.06290
X8.64540 Y46.50410
X8.69620 Y46.45330
X8.69620 Y46.37710
X8.77240 Y46.27550
X8.84860 Y46.04690
X9.22960 Y45.66590
X9.35660 Y45.61510
X9.40740 Y45.56430
X9.40740 Y45.48810
X11.21080 Y45.48810
X11.21080 Y48.02810
X9.40740 Y48.02810
X9.35660 Y47.92650
X9.22960 Y47.87570
X8.92480 Y47.54550
G04 P0 ( dwell for no time -- G64 should not smooth over this point )
G00 Z0.50000 ( retract )

G00 X67.09080 Y45.00550 ( rapid move to begin. )
F300.00000
G01 Z-0.07500
G04 P0 ( dwell for no time -- G64 should not smooth over this point )
F600.00000
X67.09080 Y45.00550
X67.09080 Y42.94810
X68.91960 Y42.94810
X68.91960 Y43.02430
X69.02120 Y43.12590
X69.14820 Y43.17670
X69.47840 Y43.50690
X69.65620 Y43.96410
X69.65620 Y44.52290
X69.42760 Y45.00550
X69.09740 Y45.33570
X68.99580 Y45.36110
X68.91960 Y45.43730
X68.91960 Y45.48810
X67.09080 Y45.48810
X67.09080 Y45.00550
G04 P0 ( dwell for no time -- G64 should not smooth over this point )
G00 Z0.50000 ( retract )

G00 X64.55080 Y45.00550 ( rapid move to begin. )
F300.00000
G01 Z-0.07500
G04 P0 ( dwell for no time -- G64 should not smooth over this point )
F600.00000
X64.55080 Y45.00550
X64.55080 Y42.94810
X67.09080 Y42.94810
X67.09080 Y45.48810
X64.55080 Y45.48810
X64.55080 Y45.00550
G04 P0 ( dwell for no time -- G64 should not smooth over this point )
G00 Z0.50000 ( retract )

G00 X62.01080 Y45.00550 ( rapid move to begin. )
F300.00000
G01 Z-0.07500
G04 P0 ( dwell for no time -- G64 should not smooth over this point )
F600.00000
X62.01080 Y45.00550
X62.01080 Y42.94810
X64.55080 Y42.94810
X64.55080 Y45.48810
X62.01080 Y45.48810
X62.01080 Y45.00550
G04 P0 ( dwell for no time -- G64 should not smooth over this point )
G00 Z0.50000 ( retract )

G00 X59.47080 Y45.00550 ( rapid move to begin. )
F300.00000
G01 Z-0.07500
G04 P0 ( dwell for no time -- G64 should not smooth over this point )
F600.00000
X59.47080 Y45.00550
X59.47080 Y42.94810
X62.01080 Y42.94810
X62.01080 Y45.48810
X59.47080 Y45.48810
X59.47080 Y45.00550
G04 P0 ( dwell for no time -- G64 should not smooth over this point )
G00 Z0.50000 ( retract )

G00 X56.93080 Y45.00550 ( rapid move to begin. )
F300.00000
G01 Z-0.07500
G04 P0 ( dwell for no time -- G64 should not smooth over this point )
F600.00000
X56.93080 Y45.00550
X56.93080 Y42.94810
X59.47080 Y42.94810
X59.47080 Y45.48810
X56.93080 Y45.48810
X56.93080 Y45.00550
G04 P0 ( dwell for no time -- G64 should not smooth over this point )
G00 Z0.50000 ( retract )

G00 X54.39080 Y45.00550 ( rapid move to begin. )
F300.00000
G01 Z-0.07500
G04 P0 ( dwell for no time -- G64 should not smooth over this point )
F600.00000
X54.39080 Y45.00550
X54.39080 Y42.94810
X56.93080 Y42.94810
X56.93080 Y45.48810
X54.39080 Y45.48810
X54.39080 Y45.00550
G04 P0 ( dwell for no time -- G64 should not smooth over this point )
G00 Z0.50000 ( retract )

G00 X51.85080 Y45.00550 ( rapid move to begin. )
F300.00000
G01 Z-0.07500
G04 P0 ( dwell for no time -- G64 should not smooth over this point )
F600.00000
X51.85080 Y45.00550
X51.85080 Y42.94810
X54.39080 Y42.94810
X54.39080 Y45.48810
X51.85080 Y45.48810
X51.85080 Y45.00550
G04 P0 ( dwell for no time -- G64 should not smooth over this point )
G00 Z0.50000 ( retract )

G00 X49.31080 Y45.00550 ( rapid move to begin. )
F300.00000
G01 Z-0.07500
G04 P0 ( dwell for no time -- G64 should not smooth over this point )
F600.00000
X49.31080 Y45.00550
X49.31080 Y42.94810
X51.85080 Y42.94810
X51.85080 Y45.48810
X49.31080 Y45.48810
X49.31080 Y45.00550
G04 P0 ( dwell for no time -- G64 should not smooth over this point )
G00 Z0.50000 ( retract )

G00 X46.77080 Y45.00550 ( rapid move to begin. )
F300.00000
G01 Z-0.07500
G04 P0 ( dwell for no time -- G64 should not smooth over this point )
F600.00000
X46.77080 Y45.00550
X46.77080 Y42.94810
X49.31080 Y42.94810
X49.31080 Y45.48810
X46.77080 Y45.48810
X46.77080 Y45.00550
G04 P0 ( dwell for no time -- G64 should not smooth over this point )
G00 Z0.50000 ( retract )

G00 X44.23080 Y45.00550 ( rapid move to begin. )
F300.00000
G01 Z-0.07500
G04 P0 ( dwell for no time -- G64 should not smooth over this point )
F600.00000
X44.23080 Y45.00550
X44.23080 Y42.94810
X46.77080 Y42.94810
X46.77080 Y45.48810
X44.23080 Y45.48810
X44.23080 Y45.00550
G04 P0 ( dwell for no time -- G64 should not smooth over this point )
G00 Z0.50000 ( retract )

G00 X41.69080 Y45.00550 ( rapid move to begin. )
F300.00000
G01 Z-0.07500
G04 P0 ( dwell for no time -- G64 should not smooth over this point )
F600.00000
X41.69080 Y45.00550
X41.69080 Y42.94810
X44.23080 Y42.94810
X44.23080 Y45.48810
X41.69080 Y45.48810
X41.69080 Y45.00550
G04 P0 ( dwell for no time -- G64 should not smooth over this point )
G00 Z0.50000 ( retract )

G00 X39.15080 Y45.00550 ( rapid move to begin. )
F300.00000
G01 Z-0.07500
G04 P0 ( dwell for no time -- G64 should not smooth over this point )
F600.00000
X39.15080 Y45.00550
X39.15080 Y42.94810
X41.69080 Y42.94810
X41.69080 Y45.48810
X39.15080 Y45.48810
X39.15080 Y45.00550
G04 P0 ( dwell for no time -- G64 should not smooth over this point )
G00 Z0.50000 ( retract )

G00 X36.61080 Y45.00550 ( rapid move to begin. )
F300.00000
G01 Z-0.07500
G04 P0 ( dwell for no time -- G64 should not smooth over this point )
F600.00000
X36.61080 Y45.00550
X36.61080 Y42.94810
X39.15080 Y42.94810
X39.15080 Y45.48810
X36.61080 Y45.48810
X36.61080 Y45.00550
G04 P0 ( dwell for no time -- G64 should not smooth over this point )
G00 Z0.50000 ( retract )

G00 X34.07080 Y45.00550 ( rapid move to begin. )
F300.00000
G01 Z-0.07500
G04 P0 ( dwell for no time -- G64 should not smooth over this point )
F600.00000
X34.07080 Y45.00550
X34.07080 Y42.94810
X36.61080 Y42.94810
X36.61080 Y45.48810
X34.07080 Y45.48810
X34.07080 Y45.00550
G04 P0 ( dwell for no time -- G64 should not smooth over this point )
G00 Z0.50000 ( retract )

G00 X31.53080 Y45.00550 ( rapid move to begin. )
F300.00000
G01 Z-0.07500
G04 P0 ( dwell for no time -- G64 should not smooth over this point )
F600.00000
X31.53080 Y45.00550
X31.53080 Y42.94810
X34.07080 Y42.94810
X34.07080 Y45.48810
X31.53080 Y45.48810
X31.53080 Y45.00550
G04 P0 ( dwell for no time -- G64 should not smooth over this point )
G00 Z0.50000 ( retract )

G00 X28.99080 Y45.00550 ( rapid move to begin. )
F300.00000
G01 Z-0.07500
G04 P0 ( dwell for no time -- G64 should not smooth over this point )
F600.00000
X28.99080 Y45.00550
X28.99080 Y42.94810
X31.53080 Y42.94810
X31.53080 Y45.48810
X28.99080 Y45.48810
X28.99080 Y45.00550
G04 P0 ( dwell for no time -- G64 should not smooth over this point )
G00 Z0.50000 ( retract )

G00 X26.45080 Y45.00550 ( rapid move to begin. )
F300.00000
G01 Z-0.07500
G04 P0 ( dwell for no time -- G64 should not smooth over this point )
F600.00000
X26.45080 Y45.00550
X26.45080 Y42.94810
X28.99080 Y42.94810
X28.99080 Y45.48810
X26.45080 Y45.48810
X26.45080 Y45.00550
G04 P0 ( dwell for no time -- G64 should not smooth over this point )
G00 Z0.50000 ( retract )

G00 X23.91080 Y45.00550 ( rapid move to begin. )
F300.00000
G01 Z-0.07500
G04 P0 ( dwell for no time -- G64 should not smooth over this point )
F600.00000
X23.91080 Y45.00550
X23.91080 Y42.94810
X26.45080 Y42.94810
X26.45080 Y45.48810
X23.91080 Y45.48810
X23.91080 Y45.00550
G04 P0 ( dwell for no time -- G64 should not smooth over this point )
G00 Z0.50000 ( retract )

G00 X21.37080 Y45.00550 ( rapid move to begin. )
F300.00000
G01 Z-0.07500
G04 P0 ( dwell for no time -- G64 should not smooth over this point )
F600.00000
X21.37080 Y45.00550
X21.37080 Y42.94810
X23.91080 Y42.94810
X23.91080 Y45.48810
X21.37080 Y45.48810
X21.37080 Y45.00550
G04 P0 ( dwell for no time -- G64 should not smooth over this point )
G00 Z0.50000 ( retract )

G00 X18.83080 Y45.00550 ( rapid move to begin. )
F300.00000
G01 Z-0.07500
G04 P0 ( dwell for no time -- G64 should not smooth over this point )
F600.00000
X18.83080 Y45.00550
X18.83080 Y42.94810
X21.37080 Y42.94810
X21.37080 Y45.48810
X18.83080 Y45.48810
X18.83080 Y45.00550
G04 P0 ( dwell for no time -- G64 should not smooth over this point )
G00 Z0.50000 ( retract )

G00 X16.29080 Y45.00550 ( rapid move to begin. )
F300.00000
G01 Z-0.07500
G04 P0 ( dwell for no time -- G64 should not smooth over this point )
F600.00000
X16.29080 Y45.00550
X16.29080 Y42.94810
X18.83080 Y42.94810
X18.83080 Y45.48810
X16.29080 Y45.48810
X16.29080 Y45.00550
G04 P0 ( dwell for no time -- G64 should not smooth over this point )
G00 Z0.50000 ( retract )

G00 X13.75080 Y45.00550 ( rapid move to begin. )
F300.00000
G01 Z-0.07500
G04 P0 ( dwell for no time -- G64 should not smooth over this point )
F600.00000
X13.75080 Y45.00550
X13.75080 Y42.94810
X16.29080 Y42.94810
X16.29080 Y45.48810
X13.75080 Y45.48810
X13.75080 Y45.00550
G04 P0 ( dwell for no time -- G64 should not smooth over this point )
G00 Z0.50000 ( retract )

G00 X11.21080 Y45.00550 ( rapid move to begin. )
F300.00000
G01 Z-0.07500
G04 P0 ( dwell for no time -- G64 should not smooth over this point )
F600.00000
X11.21080 Y45.00550
X11.21080 Y42.94810
X13.75080 Y42.94810
X13.75080 Y45.48810
X11.21080 Y45.48810
X11.21080 Y45.00550
G04 P0 ( dwell for no time -- G64 should not smooth over this point )
G00 Z0.50000 ( retract )

G00 X8.92480 Y45.00550 ( rapid move to begin. )
F300.00000
G01 Z-0.07500
G04 P0 ( dwell for no time -- G64 should not smooth over this point )
F600.00000
X8.92480 Y45.00550
X8.82320 Y44.92930
X8.82320 Y44.85310
X8.64540 Y44.52290
X8.64540 Y43.96410
X8.69620 Y43.91330
X8.69620 Y43.83710
X8.77240 Y43.73550
X8.84860 Y43.50690
X9.22960 Y43.12590
X9.35660 Y43.07510
X9.40740 Y43.02430
X9.40740 Y42.94810
X11.21080 Y42.94810
X11.21080 Y45.48810
X9.40740 Y45.48810
X9.38200 Y45.41190
X9.22960 Y45.33570
X8.92480 Y45.00550
G04 P0 ( dwell for no time -- G64 should not smooth over this point )
G00 Z0.50000 ( retract )

G00 X67.09080 Y42.46550 ( rapid move to begin. )
F300.00000
G01 Z-0.07500
G04 P0 ( dwell for no time -- G64 should not smooth over this point )
F600.00000
X67.09080 Y42.46550
X67.09080 Y40.40810
X68.91960 Y40.40810
X68.91960 Y40.48430
X69.02120 Y40.58590
X69.14820 Y40.63670
X69.47840 Y40.96690
X69.65620 Y41.42410
X69.65620 Y41.98290
X69.42760 Y42.46550
X69.09740 Y42.79570
X68.99580 Y42.82110
X68.91960 Y42.89730
X68.91960 Y42.94810
X67.09080 Y42.94810
X67.09080 Y42.46550
G04 P0 ( dwell for no time -- G64 should not smooth over this point )
G00 Z0.50000 ( retract )

G00 X64.55080 Y42.46550 ( rapid move to begin. )
F300.00000
G01 Z-0.07500
G04 P0 ( dwell for no time -- G64 should not smooth over this point )
F600.00000
X64.55080 Y42.46550
X64.55080 Y40.40810
X67.09080 Y40.40810
X67.09080 Y42.94810
X64.55080 Y42.94810
X64.55080 Y42.46550
G04 P0 ( dwell for no time -- G64 should not smooth over this point )
G00 Z0.50000 ( retract )

G00 X62.01080 Y42.46550 ( rapid move to begin. )
F300.00000
G01 Z-0.07500
G04 P0 ( dwell for no time -- G64 should not smooth over this point )
F600.00000
X62.01080 Y42.46550
X62.01080 Y40.40810
X64.55080 Y40.40810
X64.55080 Y42.94810
X62.01080 Y42.94810
X62.01080 Y42.46550
G04 P0 ( dwell for no time -- G64 should not smooth over this point )
G00 Z0.50000 ( retract )

G00 X59.47080 Y42.46550 ( rapid move to begin. )
F300.00000
G01 Z-0.07500
G04 P0 ( dwell for no time -- G64 should not smooth over this point )
F600.00000
X59.47080 Y42.46550
X59.47080 Y40.40810
X62.01080 Y40.40810
X62.01080 Y42.94810
X59.47080 Y42.94810
X59.47080 Y42.46550
G04 P0 ( dwell for no time -- G64 should not smooth over this point )
G00 Z0.50000 ( retract )

G00 X56.93080 Y42.46550 ( rapid move to begin. )
F300.00000
G01 Z-0.07500
G04 P0 ( dwell for no time -- G64 should not smooth over this point )
F600.00000
X56.93080 Y42.46550
X56.93080 Y40.40810
X59.47080 Y40.40810
X59.47080 Y42.94810
X56.93080 Y42.94810
X56.93080 Y42.46550
G04 P0 ( dwell for no time -- G64 should not smooth over this point )
G00 Z0.50000 ( retract )

G00 X54.39080 Y42.46550 ( rapid move to begin. )
F300.00000
G01 Z-0.07500
G04 P0 ( dwell for no time -- G64 should not smooth over this point )
F600.00000
X54.39080 Y42.46550
X54.39080 Y40.40810
X56.93080 Y40.40810
X56.93080 Y42.94810
X54.39080 Y42.94810
X54.39080 Y42.46550
G04 P0 ( dwell for no time -- G64 should not smooth over this point )
G00 Z0.50000 ( retract )

G00 X51.85080 Y42.46550 ( rapid move to begin. )
F300.00000
G01 Z-0.07500
G04 P0 ( dwell for no time -- G64 should not smooth over this point )
F600.00000
X51.85080 Y42.46550
X51.85080 Y40.40810
X54.39080 Y40.40810
X54.39080 Y42.94810
X51.85080 Y42.94810
X51.85080 Y42.46550
G04 P0 ( dwell for no time -- G64 should not smooth over this point )
G00 Z0.50000 ( retract )

G00 X49.31080 Y42.46550 ( rapid move to begin. )
F300.00000
G01 Z-0.07500
G04 P0 ( dwell for no time -- G64 should not smooth over this point )
F600.00000
X49.31080 Y42.46550
X49.31080 Y40.40810
X51.85080 Y40.40810
X51.85080 Y42.94810
X49.31080 Y42.94810
X49.31080 Y42.46550
G04 P0 ( dwell for no time -- G64 should not smooth over this point )
G00 Z0.50000 ( retract )

G00 X46.77080 Y42.46550 ( rapid move to begin. )
F300.00000
G01 Z-0.07500
G04 P0 ( dwell for no time -- G64 should not smooth over this point )
F600.00000
X46.77080 Y42.46550
X46.77080 Y40.40810
X49.31080 Y40.40810
X49.31080 Y42.94810
X46.77080 Y42.94810
X46.77080 Y42.46550
G04 P0 ( dwell for no time -- G64 should not smooth over this point )
G00 Z0.50000 ( retract )

G00 X44.23080 Y42.46550 ( rapid move to begin. )
F300.00000
G01 Z-0.07500
G04 P0 ( dwell for no time -- G64 should not smooth over this point )
F600.00000
X44.23080 Y42.46550
X44.23080 Y40.40810
X46.77080 Y40.40810
X46.77080 Y42.94810
X44.23080 Y42.94810
X44.23080 Y42.46550
G04 P0 ( dwell for no time -- G64 should not smooth over this point )
G00 Z0.50000 ( retract )

G00 X41.69080 Y42.46550 ( rapid move to begin. )
F300.00000
G01 Z-0.07500
G04 P0 ( dwell for no time -- G64 should not smooth over this point )
F600.00000
X41.69080 Y42.46550
X41.69080 Y40.40810
X44.23080 Y40.40810
X44.23080 Y42.94810
X41.69080 Y42.94810
X41.69080 Y42.46550
G04 P0 ( dwell for no time -- G64 should not smooth over this point )
G00 Z0.50000 ( retract )

G00 X39.15080 Y42.46550 ( rapid move to begin. )
F300.00000
G01 Z-0.07500
G04 P0 ( dwell for no time -- G64 should not smooth over this point )
F600.00000
X39.15080 Y42.46550
X39.15080 Y40.40810
X41.69080 Y40.40810
X41.69080 Y42.94810
X39.15080 Y42.94810
X39.15080 Y42.46550
G04 P0 ( dwell for no time -- G64 should not smooth over this point )
G00 Z0.50000 ( retract )

G00 X36.61080 Y42.46550 ( rapid move to begin. )
F300.00000
G01 Z-0.07500
G04 P0 ( dwell for no time -- G64 should not smooth over this point )
F600.00000
X36.61080 Y42.46550
X36.61080 Y40.40810
X39.15080 Y40.40810
X39.15080 Y42.94810
X36.61080 Y42.94810
X36.61080 Y42.46550
G04 P0 ( dwell for no time -- G64 should not smooth over this point )
G00 Z0.50000 ( retract )

G00 X34.07080 Y42.46550 ( rapid move to begin. )
F300.00000
G01 Z-0.07500
G04 P0 ( dwell for no time -- G64 should not smooth over this point )
F600.00000
X34.07080 Y42.46550
X34.07080 Y40.40810
X36.61080 Y40.40810
X36.61080 Y42.94810
X34.07080 Y42.94810
X34.07080 Y42.46550
G04 P0 ( dwell for no time -- G64 should not smooth over this point )
G00 Z0.50000 ( retract )

G00 X31.53080 Y42.46550 ( rapid move to begin. )
F300.00000
G01 Z-0.07500
G04 P0 ( dwell for no time -- G64 should not smooth over this point )
F600.00000
X31.53080 Y42.46550
X31.53080 Y40.40810
X34.07080 Y40.40810
X34.07080 Y42.94810
X31.53080 Y42.94810
X31.53080 Y42.46550
G04 P0 ( dwell for no time -- G64 should not smooth over this point )
G00 Z0.50000 ( retract )

G00 X28.99080 Y42.46550 ( rapid move to begin. )
F300.00000
G01 Z-0.07500
G04 P0 ( dwell for no time -- G64 should not smooth over this point )
F600.00000
X28.99080 Y42.46550
X28.99080 Y40.40810
X31.53080 Y40.40810
X31.53080 Y42.94810
X28.99080 Y42.94810
X28.99080 Y42.46550
G04 P0 ( dwell for no time -- G64 should not smooth over this point )
G00 Z0.50000 ( retract )

G00 X26.45080 Y42.46550 ( rapid move to begin. )
F300.00000
G01 Z-0.07500
G04 P0 ( dwell for no time -- G64 should not smooth over this point )
F600.00000
X26.45080 Y42.46550
X26.45080 Y40.40810
X28.99080 Y40.40810
X28.99080 Y42.94810
X26.45080 Y42.94810
X26.45080 Y42.46550
G04 P0 ( dwell for no time -- G64 should not smooth over this point )
G00 Z0.50000 ( retract )

G00 X23.91080 Y42.46550 ( rapid move to begin. )
F300.00000
G01 Z-0.07500
G04 P0 ( dwell for no time -- G64 should not smooth over this point )
F600.00000
X23.91080 Y42.46550
X23.91080 Y40.40810
X26.45080 Y40.40810
X26.45080 Y42.94810
X23.91080 Y42.94810
X23.91080 Y42.46550
G04 P0 ( dwell for no time -- G64 should not smooth over this point )
G00 Z0.50000 ( retract )

G00 X21.37080 Y42.46550 ( rapid move to begin. )
F300.00000
G01 Z-0.07500
G04 P0 ( dwell for no time -- G64 should not smooth over this point )
F600.00000
X21.37080 Y42.46550
X21.37080 Y40.40810
X23.91080 Y40.40810
X23.91080 Y42.94810
X21.37080 Y42.94810
X21.37080 Y42.46550
G04 P0 ( dwell for no time -- G64 should not smooth over this point )
G00 Z0.50000 ( retract )

G00 X18.83080 Y42.46550 ( rapid move to begin. )
F300.00000
G01 Z-0.07500
G04 P0 ( dwell for no time -- G64 should not smooth over this point )
F600.00000
X18.83080 Y42.46550
X18.83080 Y40.40810
X21.37080 Y40.40810
X21.37080 Y42.94810
X18.83080 Y42.94810
X18.83080 Y42.46550
G04 P0 ( dwell for no time -- G64 should not smooth over this point )
G00 Z0.50000 ( retract )

G00 X16.29080 Y42.46550 ( rapid move to begin. )
F300.00000
G01 Z-0.07500
G04 P0 ( dwell for no time -- G64 should not smooth over this point )
F600.00000
X16.29080 Y42.46550
X16.29080 Y40.40810
X18.83080 Y40.40810
X18.83080 Y42.94810
X16.29080 Y42.94810
X16.29080 Y42.46550
G04 P0 ( dwell for no time -- G64 should not smooth over this point )
G00 Z0.50000 ( retract )

G00 X13.75080 Y42.46550 ( rapid move to begin. )
F300.00000
G01 Z-0.07500
G04 P0 ( dwell for no time -- G64 should not smooth over this point )
F600.00000
X13.75080 Y42.46550
X13.75080 Y40.40810
X16.29080 Y40.40810
X16.29080 Y42.94810
X13.75080 Y42.94810
X13.75080 Y42.46550
G04 P0 ( dwell for no time -- G64 should not smooth over this point )
G00 Z0.50000 ( retract )

G00 X11.21080 Y42.46550 ( rapid move to begin. )
F300.00000
G01 Z-0.07500
G04 P0 ( dwell for no time -- G64 should not smooth over this point )
F600.00000
X11.21080 Y42.46550
X11.21080 Y40.40810
X13.75080 Y40.40810
X13.75080 Y42.94810
X11.21080 Y42.94810
X11.21080 Y42.46550
G04 P0 ( dwell for no time -- G64 should not smooth over this point )
G00 Z0.50000 ( retract )

G00 X8.92480 Y42.46550 ( rapid move to begin. )
F300.00000
G01 Z-0.07500
G04 P0 ( dwell for no time -- G64 should not smooth over this point )
F600.00000
X8.92480 Y42.46550
X8.82320 Y42.38930
X8.82320 Y42.31310
X8.64540 Y41.98290
X8.64540 Y41.42410
X8.69620 Y41.37330
X8.69620 Y41.29710
X8.77240 Y41.19550
X8.84860 Y40.96690
X9.22960 Y40.58590
X9.35660 Y40.53510
X9.40740 Y40.48430
X9.40740 Y40.40810
X11.21080 Y40.40810
X11.21080 Y42.94810
X9.40740 Y42.94810
X9.38200 Y42.87190
X9.22960 Y42.79570
X8.92480 Y42.46550
G04 P0 ( dwell for no time -- G64 should not smooth over this point )
G00 Z0.50000 ( retract )

G00 X67.09080 Y39.92550 ( rapid move to begin. )
F300.00000
G01 Z-0.07500
G04 P0 ( dwell for no time -- G64 should not smooth over this point )
F600.00000
X67.09080 Y39.92550
X67.09080 Y37.86810
X68.91960 Y37.86810
X68.91960 Y37.94430
X69.02120 Y38.04590
X69.14820 Y38.09670
X69.47840 Y38.42690
X69.65620 Y38.88410
X69.65620 Y39.44290
X69.42760 Y39.92550
X69.09740 Y40.25570
X68.99580 Y40.28110
X68.91960 Y40.35730
X68.91960 Y40.40810
X67.09080 Y40.40810
X67.09080 Y39.92550
G04 P0 ( dwell for no time -- G64 should not smooth over this point )
G00 Z0.50000 ( retract )

G00 X64.55080 Y39.92550 ( rapid move to begin. )
F300.00000
G01 Z-0.07500
G04 P0 ( dwell for no time -- G64 should not smooth over this point )
F600.00000
X64.55080 Y39.92550
X64.55080 Y37.86810
X67.09080 Y37.86810
X67.09080 Y40.40810
X64.55080 Y40.40810
X64.55080 Y39.92550
G04 P0 ( dwell for no time -- G64 should not smooth over this point )
G00 Z0.50000 ( retract )

G00 X62.01080 Y39.92550 ( rapid move to begin. )
F300.00000
G01 Z-0.07500
G04 P0 ( dwell for no time -- G64 should not smooth over this point )
F600.00000
X62.01080 Y39.92550
X62.01080 Y37.86810
X64.55080 Y37.86810
X64.55080 Y40.40810
X62.01080 Y40.40810
X62.01080 Y39.92550
G04 P0 ( dwell for no time -- G64 should not smooth over this point )
G00 Z0.50000 ( retract )

G00 X59.47080 Y39.92550 ( rapid move to begin. )
F300.00000
G01 Z-0.07500
G04 P0 ( dwell for no time -- G64 should not smooth over this point )
F600.00000
X59.47080 Y39.92550
X59.47080 Y37.86810
X62.01080 Y37.86810
X62.01080 Y40.40810
X59.47080 Y40.40810
X59.47080 Y39.92550
G04 P0 ( dwell for no time -- G64 should not smooth over this point )
G00 Z0.50000 ( retract )

G00 X56.93080 Y39.92550 ( rapid move to begin. )
F300.00000
G01 Z-0.07500
G04 P0 ( dwell for no time -- G64 should not smooth over this point )
F600.00000
X56.93080 Y39.92550
X56.93080 Y37.86810
X59.47080 Y37.86810
X59.47080 Y40.40810
X56.93080 Y40.40810
X56.93080 Y39.92550
G04 P0 ( dwell for no time -- G64 should not smooth over this point )
G00 Z0.50000 ( retract )

G00 X54.39080 Y39.92550 ( rapid move to begin. )
F300.00000
G01 Z-0.07500
G04 P0 ( dwell for no time -- G64 should not smooth over this point )
F600.00000
X54.39080 Y39.92550
X54.39080 Y37.86810
X56.93080 Y37.86810
X56.93080 Y40.40810
X54.39080 Y40.40810
X54.39080 Y39.92550
G04 P0 ( dwell for no time -- G64 should not smooth over this point )
G00 Z0.50000 ( retract )

G00 X51.85080 Y39.92550 ( rapid move to begin. )
F300.00000
G01 Z-0.07500
G04 P0 ( dwell for no time -- G64 should not smooth over this point )
F600.00000
X51.85080 Y39.92550
X51.85080 Y37.86810
X54.39080 Y37.86810
X54.39080 Y40.40810
X51.85080 Y40.40810
X51.85080 Y39.92550
G04 P0 ( dwell for no time -- G64 should not smooth over this point )
G00 Z0.50000 ( retract )

G00 X49.31080 Y39.92550 ( rapid move to begin. )
F300.00000
G01 Z-0.07500
G04 P0 ( dwell for no time -- G64 should not smooth over this point )
F600.00000
X49.31080 Y39.92550
X49.31080 Y37.86810
X51.85080 Y37.86810
X51.85080 Y40.40810
X49.31080 Y40.40810
X49.31080 Y39.92550
G04 P0 ( dwell for no time -- G64 should not smooth over this point )
G00 Z0.50000 ( retract )

G00 X46.77080 Y39.92550 ( rapid move to begin. )
F300.00000
G01 Z-0.07500
G04 P0 ( dwell for no time -- G64 should not smooth over this point )
F600.00000
X46.77080 Y39.92550
X46.77080 Y37.86810
X49.31080 Y37.86810
X49.31080 Y40.40810
X46.77080 Y40.40810
X46.77080 Y39.92550
G04 P0 ( dwell for no time -- G64 should not smooth over this point )
G00 Z0.50000 ( retract )

G00 X44.23080 Y39.92550 ( rapid move to begin. )
F300.00000
G01 Z-0.07500
G04 P0 ( dwell for no time -- G64 should not smooth over this point )
F600.00000
X44.23080 Y39.92550
X44.23080 Y37.86810
X46.77080 Y37.86810
X46.77080 Y40.40810
X44.23080 Y40.40810
X44.23080 Y39.92550
G04 P0 ( dwell for no time -- G64 should not smooth over this point )
G00 Z0.50000 ( retract )

G00 X41.69080 Y39.92550 ( rapid move to begin. )
F300.00000
G01 Z-0.07500
G04 P0 ( dwell for no time -- G64 should not smooth over this point )
F600.00000
X41.69080 Y39.92550
X41.69080 Y37.86810
X44.23080 Y37.86810
X44.23080 Y40.40810
X41.69080 Y40.40810
X41.69080 Y39.92550
G04 P0 ( dwell for no time -- G64 should not smooth over this point )
G00 Z0.50000 ( retract )

G00 X39.15080 Y39.92550 ( rapid move to begin. )
F300.00000
G01 Z-0.07500
G04 P0 ( dwell for no time -- G64 should not smooth over this point )
F600.00000
X39.15080 Y39.92550
X39.15080 Y37.86810
X41.69080 Y37.86810
X41.69080 Y40.40810
X39.15080 Y40.40810
X39.15080 Y39.92550
G04 P0 ( dwell for no time -- G64 should not smooth over this point )
G00 Z0.50000 ( retract )

G00 X36.61080 Y39.92550 ( rapid move to begin. )
F300.00000
G01 Z-0.07500
G04 P0 ( dwell for no time -- G64 should not smooth over this point )
F600.00000
X36.61080 Y39.92550
X36.61080 Y37.86810
X39.15080 Y37.86810
X39.15080 Y40.40810
X36.61080 Y40.40810
X36.61080 Y39.92550
G04 P0 ( dwell for no time -- G64 should not smooth over this point )
G00 Z0.50000 ( retract )

G00 X34.07080 Y39.92550 ( rapid move to begin. )
F300.00000
G01 Z-0.07500
G04 P0 ( dwell for no time -- G64 should not smooth over this point )
F600.00000
X34.07080 Y39.92550
X34.07080 Y37.86810
X36.61080 Y37.86810
X36.61080 Y40.40810
X34.07080 Y40.40810
X34.07080 Y39.92550
G04 P0 ( dwell for no time -- G64 should not smooth over this point )
G00 Z0.50000 ( retract )

G00 X31.53080 Y39.92550 ( rapid move to begin. )
F300.00000
G01 Z-0.07500
G04 P0 ( dwell for no time -- G64 should not smooth over this point )
F600.00000
X31.53080 Y39.92550
X31.53080 Y37.86810
X34.07080 Y37.86810
X34.07080 Y40.40810
X31.53080 Y40.40810
X31.53080 Y39.92550
G04 P0 ( dwell for no time -- G64 should not smooth over this point )
G00 Z0.50000 ( retract )

G00 X28.99080 Y39.92550 ( rapid move to begin. )
F300.00000
G01 Z-0.07500
G04 P0 ( dwell for no time -- G64 should not smooth over this point )
F600.00000
X28.99080 Y39.92550
X28.99080 Y37.86810
X31.53080 Y37.86810
X31.53080 Y40.40810
X28.99080 Y40.40810
X28.99080 Y39.92550
G04 P0 ( dwell for no time -- G64 should not smooth over this point )
G00 Z0.50000 ( retract )

G00 X26.45080 Y39.92550 ( rapid move to begin. )
F300.00000
G01 Z-0.07500
G04 P0 ( dwell for no time -- G64 should not smooth over this point )
F600.00000
X26.45080 Y39.92550
X26.45080 Y37.86810
X28.99080 Y37.86810
X28.99080 Y40.40810
X26.45080 Y40.40810
X26.45080 Y39.92550
G04 P0 ( dwell for no time -- G64 should not smooth over this point )
G00 Z0.50000 ( retract )

G00 X23.91080 Y39.92550 ( rapid move to begin. )
F300.00000
G01 Z-0.07500
G04 P0 ( dwell for no time -- G64 should not smooth over this point )
F600.00000
X23.91080 Y39.92550
X23.91080 Y37.86810
X26.45080 Y37.86810
X26.45080 Y40.40810
X23.91080 Y40.40810
X23.91080 Y39.92550
G04 P0 ( dwell for no time -- G64 should not smooth over this point )
G00 Z0.50000 ( retract )

G00 X21.37080 Y39.92550 ( rapid move to begin. )
F300.00000
G01 Z-0.07500
G04 P0 ( dwell for no time -- G64 should not smooth over this point )
F600.00000
X21.37080 Y39.92550
X21.37080 Y37.86810
X23.91080 Y37.86810
X23.91080 Y40.40810
X21.37080 Y40.40810
X21.37080 Y39.92550
G04 P0 ( dwell for no time -- G64 should not smooth over this point )
G00 Z0.50000 ( retract )

G00 X18.83080 Y39.92550 ( rapid move to begin. )
F300.00000
G01 Z-0.07500
G04 P0 ( dwell for no time -- G64 should not smooth over this point )
F600.00000
X18.83080 Y39.92550
X18.83080 Y37.86810
X21.37080 Y37.86810
X21.37080 Y40.40810
X18.83080 Y40.40810
X18.83080 Y39.92550
G04 P0 ( dwell for no time -- G64 should not smooth over this point )
G00 Z0.50000 ( retract )

G00 X16.29080 Y39.92550 ( rapid move to begin. )
F300.00000
G01 Z-0.07500
G04 P0 ( dwell for no time -- G64 should not smooth over this point )
F600.00000
X16.29080 Y39.92550
X16.29080 Y37.86810
X18.83080 Y37.86810
X18.83080 Y40.40810
X16.29080 Y40.40810
X16.29080 Y39.92550
G04 P0 ( dwell for no time -- G64 should not smooth over this point )
G00 Z0.50000 ( retract )

G00 X13.75080 Y39.92550 ( rapid move to begin. )
F300.00000
G01 Z-0.07500
G04 P0 ( dwell for no time -- G64 should not smooth over this point )
F600.00000
X13.75080 Y39.92550
X13.75080 Y37.86810
X16.29080 Y37.86810
X16.29080 Y40.40810
X13.75080 Y40.40810
X13.75080 Y39.92550
G04 P0 ( dwell for no time -- G64 should not smooth over this point )
G00 Z0.50000 ( retract )

G00 X11.21080 Y39.92550 ( rapid move to begin. )
F300.00000
G01 Z-0.07500
G04 P0 ( dwell for no time -- G64 should not smooth over this point )
F600.00000
X11.21080 Y39.92550
X11.21080 Y37.86810
X13.75080 Y37.86810
X13.75080 Y40.40810
X11.21080 Y40.40810
X11.21080 Y39.92550
G04 P0 ( dwell for no time -- G64 should not smooth over this point )
G00 Z0.50000 ( retract )

G00 X8.92480 Y39.92550 ( rapid move to begin. )
F300.00000
G01 Z-0.07500
G04 P0 ( dwell for no time -- G64 should not smooth over this point )
F600.00000
X8.92480 Y39.92550
X8.82320 Y39.84930
X8.82320 Y39.77310
X8.64540 Y39.44290
X8.64540 Y38.88410
X8.69620 Y38.83330
X8.69620 Y38.75710
X8.77240 Y38.65550
X8.84860 Y38.42690
X9.22960 Y38.04590
X9.35660 Y37.99510
X9.40740 Y37.94430
X9.40740 Y37.86810
X11.21080 Y37.86810
X11.21080 Y40.40810
X9.40740 Y40.40810
X9.35660 Y40.30650
X9.22960 Y40.25570
X8.92480 Y39.92550
G04 P0 ( dwell for no time -- G64 should not smooth over this point )
G00 Z0.50000 ( retract )

G00 X67.09080 Y37.38550 ( rapid move to begin. )
F300.00000
G01 Z-0.07500
G04 P0 ( dwell for no time -- G64 should not smooth over this point )
F600.00000
X67.09080 Y37.38550
X67.09080 Y35.32810
X68.91960 Y35.32810
X68.91960 Y35.40430
X69.02120 Y35.50590
X69.14820 Y35.55670
X69.47840 Y35.88690
X69.65620 Y36.34410
X69.65620 Y36.90290
X69.42760 Y37.38550
X69.09740 Y37.71570
X68.99580 Y37.74110
X68.91960 Y37.81730
X68.91960 Y37.86810
X67.09080 Y37.86810
X67.09080 Y37.38550
G04 P0 ( dwell for no time -- G64 should not smooth over this point )
G00 Z0.50000 ( retract )

G00 X64.55080 Y37.38550 ( rapid move to begin. )
F300.00000
G01 Z-0.07500
G04 P0 ( dwell for no time -- G64 should not smooth over this point )
F600.00000
X64.55080 Y37.38550
X64.55080 Y35.32810
X67.09080 Y35.32810
X67.09080 Y37.86810
X64.55080 Y37.86810
X64.55080 Y37.38550
G04 P0 ( dwell for no time -- G64 should not smooth over this point )
G00 Z0.50000 ( retract )

G00 X62.01080 Y37.38550 ( rapid move to begin. )
F300.00000
G01 Z-0.07500
G04 P0 ( dwell for no time -- G64 should not smooth over this point )
F600.00000
X62.01080 Y37.38550
X62.01080 Y35.32810
X64.55080 Y35.32810
X64.55080 Y37.86810
X62.01080 Y37.86810
X62.01080 Y37.38550
G04 P0 ( dwell for no time -- G64 should not smooth over this point )
G00 Z0.50000 ( retract )

G00 X59.47080 Y37.38550 ( rapid move to begin. )
F300.00000
G01 Z-0.07500
G04 P0 ( dwell for no time -- G64 should not smooth over this point )
F600.00000
X59.47080 Y37.38550
X59.47080 Y35.32810
X62.01080 Y35.32810
X62.01080 Y37.86810
X59.47080 Y37.86810
X59.47080 Y37.38550
G04 P0 ( dwell for no time -- G64 should not smooth over this point )
G00 Z0.50000 ( retract )

G00 X56.93080 Y37.38550 ( rapid move to begin. )
F300.00000
G01 Z-0.07500
G04 P0 ( dwell for no time -- G64 should not smooth over this point )
F600.00000
X56.93080 Y37.38550
X56.93080 Y35.32810
X59.47080 Y35.32810
X59.47080 Y37.86810
X56.93080 Y37.86810
X56.93080 Y37.38550
G04 P0 ( dwell for no time -- G64 should not smooth over this point )
G00 Z0.50000 ( retract )

G00 X54.39080 Y37.38550 ( rapid move to begin. )
F300.00000
G01 Z-0.07500
G04 P0 ( dwell for no time -- G64 should not smooth over this point )
F600.00000
X54.39080 Y37.38550
X54.39080 Y35.32810
X56.93080 Y35.32810
X56.93080 Y37.86810
X54.39080 Y37.86810
X54.39080 Y37.38550
G04 P0 ( dwell for no time -- G64 should not smooth over this point )
G00 Z0.50000 ( retract )

G00 X51.85080 Y37.38550 ( rapid move to begin. )
F300.00000
G01 Z-0.07500
G04 P0 ( dwell for no time -- G64 should not smooth over this point )
F600.00000
X51.85080 Y37.38550
X51.85080 Y35.32810
X54.39080 Y35.32810
X54.39080 Y37.86810
X51.85080 Y37.86810
X51.85080 Y37.38550
G04 P0 ( dwell for no time -- G64 should not smooth over this point )
G00 Z0.50000 ( retract )

G00 X49.31080 Y37.38550 ( rapid move to begin. )
F300.00000
G01 Z-0.07500
G04 P0 ( dwell for no time -- G64 should not smooth over this point )
F600.00000
X49.31080 Y37.38550
X49.31080 Y35.32810
X51.85080 Y35.32810
X51.85080 Y37.86810
X49.31080 Y37.86810
X49.31080 Y37.38550
G04 P0 ( dwell for no time -- G64 should not smooth over this point )
G00 Z0.50000 ( retract )

G00 X46.77080 Y37.38550 ( rapid move to begin. )
F300.00000
G01 Z-0.07500
G04 P0 ( dwell for no time -- G64 should not smooth over this point )
F600.00000
X46.77080 Y37.38550
X46.77080 Y35.32810
X49.31080 Y35.32810
X49.31080 Y37.86810
X46.77080 Y37.86810
X46.77080 Y37.38550
G04 P0 ( dwell for no time -- G64 should not smooth over this point )
G00 Z0.50000 ( retract )

G00 X44.23080 Y37.38550 ( rapid move to begin. )
F300.00000
G01 Z-0.07500
G04 P0 ( dwell for no time -- G64 should not smooth over this point )
F600.00000
X44.23080 Y37.38550
X44.23080 Y35.32810
X46.77080 Y35.32810
X46.77080 Y37.86810
X44.23080 Y37.86810
X44.23080 Y37.38550
G04 P0 ( dwell for no time -- G64 should not smooth over this point )
G00 Z0.50000 ( retract )

G00 X41.69080 Y37.38550 ( rapid move to begin. )
F300.00000
G01 Z-0.07500
G04 P0 ( dwell for no time -- G64 should not smooth over this point )
F600.00000
X41.69080 Y37.38550
X41.69080 Y35.32810
X44.23080 Y35.32810
X44.23080 Y37.86810
X41.69080 Y37.86810
X41.69080 Y37.38550
G04 P0 ( dwell for no time -- G64 should not smooth over this point )
G00 Z0.50000 ( retract )

G00 X39.15080 Y37.38550 ( rapid move to begin. )
F300.00000
G01 Z-0.07500
G04 P0 ( dwell for no time -- G64 should not smooth over this point )
F600.00000
X39.15080 Y37.38550
X39.15080 Y35.32810
X41.69080 Y35.32810
X41.69080 Y37.86810
X39.15080 Y37.86810
X39.15080 Y37.38550
G04 P0 ( dwell for no time -- G64 should not smooth over this point )
G00 Z0.50000 ( retract )

G00 X36.61080 Y37.38550 ( rapid move to begin. )
F300.00000
G01 Z-0.07500
G04 P0 ( dwell for no time -- G64 should not smooth over this point )
F600.00000
X36.61080 Y37.38550
X36.61080 Y35.32810
X39.15080 Y35.32810
X39.15080 Y37.86810
X36.61080 Y37.86810
X36.61080 Y37.38550
G04 P0 ( dwell for no time -- G64 should not smooth over this point )
G00 Z0.50000 ( retract )

G00 X34.07080 Y37.38550 ( rapid move to begin. )
F300.00000
G01 Z-0.07500
G04 P0 ( dwell for no time -- G64 should not smooth over this point )
F600.00000
X34.07080 Y37.38550
X34.07080 Y35.32810
X36.61080 Y35.32810
X36.61080 Y37.86810
X34.07080 Y37.86810
X34.07080 Y37.38550
G04 P0 ( dwell for no time -- G64 should not smooth over this point )
G00 Z0.50000 ( retract )

G00 X31.53080 Y37.38550 ( rapid move to begin. )
F300.00000
G01 Z-0.07500
G04 P0 ( dwell for no time -- G64 should not smooth over this point )
F600.00000
X31.53080 Y37.38550
X31.53080 Y35.32810
X34.07080 Y35.32810
X34.07080 Y37.86810
X31.53080 Y37.86810
X31.53080 Y37.38550
G04 P0 ( dwell for no time -- G64 should not smooth over this point )
G00 Z0.50000 ( retract )

G00 X28.99080 Y37.38550 ( rapid move to begin. )
F300.00000
G01 Z-0.07500
G04 P0 ( dwell for no time -- G64 should not smooth over this point )
F600.00000
X28.99080 Y37.38550
X28.99080 Y35.32810
X31.53080 Y35.32810
X31.53080 Y37.86810
X28.99080 Y37.86810
X28.99080 Y37.38550
G04 P0 ( dwell for no time -- G64 should not smooth over this point )
G00 Z0.50000 ( retract )

G00 X26.45080 Y37.38550 ( rapid move to begin. )
F300.00000
G01 Z-0.07500
G04 P0 ( dwell for no time -- G64 should not smooth over this point )
F600.00000
X26.45080 Y37.38550
X26.45080 Y35.32810
X28.99080 Y35.32810
X28.99080 Y37.86810
X26.45080 Y37.86810
X26.45080 Y37.38550
G04 P0 ( dwell for no time -- G64 should not smooth over this point )
G00 Z0.50000 ( retract )

G00 X23.91080 Y37.38550 ( rapid move to begin. )
F300.00000
G01 Z-0.07500
G04 P0 ( dwell for no time -- G64 should not smooth over this point )
F600.00000
X23.91080 Y37.38550
X23.91080 Y35.32810
X26.45080 Y35.32810
X26.45080 Y37.86810
X23.91080 Y37.86810
X23.91080 Y37.38550
G04 P0 ( dwell for no time -- G64 should not smooth over this point )
G00 Z0.50000 ( retract )

G00 X21.37080 Y37.38550 ( rapid move to begin. )
F300.00000
G01 Z-0.07500
G04 P0 ( dwell for no time -- G64 should not smooth over this point )
F600.00000
X21.37080 Y37.38550
X21.37080 Y35.32810
X23.91080 Y35.32810
X23.91080 Y37.86810
X21.37080 Y37.86810
X21.37080 Y37.38550
G04 P0 ( dwell for no time -- G64 should not smooth over this point )
G00 Z0.50000 ( retract )

G00 X18.83080 Y37.38550 ( rapid move to begin. )
F300.00000
G01 Z-0.07500
G04 P0 ( dwell for no time -- G64 should not smooth over this point )
F600.00000
X18.83080 Y37.38550
X18.83080 Y35.32810
X21.37080 Y35.32810
X21.37080 Y37.86810
X18.83080 Y37.86810
X18.83080 Y37.38550
G04 P0 ( dwell for no time -- G64 should not smooth over this point )
G00 Z0.50000 ( retract )

G00 X16.29080 Y37.38550 ( rapid move to begin. )
F300.00000
G01 Z-0.07500
G04 P0 ( dwell for no time -- G64 should not smooth over this point )
F600.00000
X16.29080 Y37.38550
X16.29080 Y35.32810
X18.83080 Y35.32810
X18.83080 Y37.86810
X16.29080 Y37.86810
X16.29080 Y37.38550
G04 P0 ( dwell for no time -- G64 should not smooth over this point )
G00 Z0.50000 ( retract )

G00 X13.75080 Y37.38550 ( rapid move to begin. )
F300.00000
G01 Z-0.07500
G04 P0 ( dwell for no time -- G64 should not smooth over this point )
F600.00000
X13.75080 Y37.38550
X13.75080 Y35.32810
X16.29080 Y35.32810
X16.29080 Y37.86810
X13.75080 Y37.86810
X13.75080 Y37.38550
G04 P0 ( dwell for no time -- G64 should not smooth over this point )
G00 Z0.50000 ( retract )

G00 X11.21080 Y37.38550 ( rapid move to begin. )
F300.00000
G01 Z-0.07500
G04 P0 ( dwell for no time -- G64 should not smooth over this point )
F600.00000
X11.21080 Y37.38550
X11.21080 Y35.32810
X13.75080 Y35.32810
X13.75080 Y37.86810
X11.21080 Y37.86810
X11.21080 Y37.38550
G04 P0 ( dwell for no time -- G64 should not smooth over this point )
G00 Z0.50000 ( retract )

G00 X8.92480 Y37.38550 ( rapid move to begin. )
F300.00000
G01 Z-0.07500
G04 P0 ( dwell for no time -- G64 should not smooth over this point )
F600.00000
X8.92480 Y37.38550
X8.82320 Y37.30930
X8.82320 Y37.23310
X8.64540 Y36.90290
X8.64540 Y36.34410
X8.69620 Y36.29330
X8.69620 Y36.21710
X8.77240 Y36.11550
X8.84860 Y35.88690
X9.22960 Y35.50590
X9.35660 Y35.45510
X9.40740 Y35.40430
X9.40740 Y35.32810
X11.21080 Y35.32810
X11.21080 Y37.86810
X9.40740 Y37.86810
X9.35660 Y37.76650
X9.22960 Y37.71570
X8.92480 Y37.38550
G04 P0 ( dwell for no time -- G64 should not smooth over this point )
G00 Z0.50000 ( retract )

G00 X67.09080 Y34.84550 ( rapid move to begin. )
F300.00000
G01 Z-0.07500
G04 P0 ( dwell for no time -- G64 should not smooth over this point )
F600.00000
X67.09080 Y34.84550
X67.09080 Y32.78810
X68.91960 Y32.78810
X68.91960 Y32.86430
X69.02120 Y32.96590
X69.14820 Y33.01670
X69.47840 Y33.34690
X69.65620 Y33.80410
X69.65620 Y34.36290
X69.42760 Y34.84550
X69.09740 Y35.17570
X68.99580 Y35.20110
X68.91960 Y35.27730
X68.91960 Y35.32810
X67.09080 Y35.32810
X67.09080 Y34.84550
G04 P0 ( dwell for no time -- G64 should not smooth over this point )
G00 Z0.50000 ( retract )

G00 X64.55080 Y34.84550 ( rapid move to begin. )
F300.00000
G01 Z-0.07500
G04 P0 ( dwell for no time -- G64 should not smooth over this point )
F600.00000
X64.55080 Y34.84550
X64.55080 Y32.78810
X67.09080 Y32.78810
X67.09080 Y35.32810
X64.55080 Y35.32810
X64.55080 Y34.84550
G04 P0 ( dwell for no time -- G64 should not smooth over this point )
G00 Z0.50000 ( retract )

G00 X62.01080 Y34.84550 ( rapid move to begin. )
F300.00000
G01 Z-0.07500
G04 P0 ( dwell for no time -- G64 should not smooth over this point )
F600.00000
X62.01080 Y34.84550
X62.01080 Y32.78810
X64.55080 Y32.78810
X64.55080 Y35.32810
X62.01080 Y35.32810
X62.01080 Y34.84550
G04 P0 ( dwell for no time -- G64 should not smooth over this point )
G00 Z0.50000 ( retract )

G00 X59.47080 Y34.84550 ( rapid move to begin. )
F300.00000
G01 Z-0.07500
G04 P0 ( dwell for no time -- G64 should not smooth over this point )
F600.00000
X59.47080 Y34.84550
X59.47080 Y32.78810
X62.01080 Y32.78810
X62.01080 Y35.32810
X59.47080 Y35.32810
X59.47080 Y34.84550
G04 P0 ( dwell for no time -- G64 should not smooth over this point )
G00 Z0.50000 ( retract )

G00 X56.93080 Y34.84550 ( rapid move to begin. )
F300.00000
G01 Z-0.07500
G04 P0 ( dwell for no time -- G64 should not smooth over this point )
F600.00000
X56.93080 Y34.84550
X56.93080 Y32.78810
X59.47080 Y32.78810
X59.47080 Y35.32810
X56.93080 Y35.32810
X56.93080 Y34.84550
G04 P0 ( dwell for no time -- G64 should not smooth over this point )
G00 Z0.50000 ( retract )

G00 X54.39080 Y34.84550 ( rapid move to begin. )
F300.00000
G01 Z-0.07500
G04 P0 ( dwell for no time -- G64 should not smooth over this point )
F600.00000
X54.39080 Y34.84550
X54.39080 Y32.78810
X56.93080 Y32.78810
X56.93080 Y35.32810
X54.39080 Y35.32810
X54.39080 Y34.84550
G04 P0 ( dwell for no time -- G64 should not smooth over this point )
G00 Z0.50000 ( retract )

G00 X51.85080 Y34.84550 ( rapid move to begin. )
F300.00000
G01 Z-0.07500
G04 P0 ( dwell for no time -- G64 should not smooth over this point )
F600.00000
X51.85080 Y34.84550
X51.85080 Y32.78810
X54.39080 Y32.78810
X54.39080 Y35.32810
X51.85080 Y35.32810
X51.85080 Y34.84550
G04 P0 ( dwell for no time -- G64 should not smooth over this point )
G00 Z0.50000 ( retract )

G00 X49.31080 Y34.84550 ( rapid move to begin. )
F300.00000
G01 Z-0.07500
G04 P0 ( dwell for no time -- G64 should not smooth over this point )
F600.00000
X49.31080 Y34.84550
X49.31080 Y32.78810
X51.85080 Y32.78810
X51.85080 Y35.32810
X49.31080 Y35.32810
X49.31080 Y34.84550
G04 P0 ( dwell for no time -- G64 should not smooth over this point )
G00 Z0.50000 ( retract )

G00 X46.77080 Y34.84550 ( rapid move to begin. )
F300.00000
G01 Z-0.07500
G04 P0 ( dwell for no time -- G64 should not smooth over this point )
F600.00000
X46.77080 Y34.84550
X46.77080 Y32.78810
X49.31080 Y32.78810
X49.31080 Y35.32810
X46.77080 Y35.32810
X46.77080 Y34.84550
G04 P0 ( dwell for no time -- G64 should not smooth over this point )
G00 Z0.50000 ( retract )

G00 X44.23080 Y34.84550 ( rapid move to begin. )
F300.00000
G01 Z-0.07500
G04 P0 ( dwell for no time -- G64 should not smooth over this point )
F600.00000
X44.23080 Y34.84550
X44.23080 Y32.78810
X46.77080 Y32.78810
X46.77080 Y35.32810
X44.23080 Y35.32810
X44.23080 Y34.84550
G04 P0 ( dwell for no time -- G64 should not smooth over this point )
G00 Z0.50000 ( retract )

G00 X41.69080 Y34.84550 ( rapid move to begin. )
F300.00000
G01 Z-0.07500
G04 P0 ( dwell for no time -- G64 should not smooth over this point )
F600.00000
X41.69080 Y34.84550
X41.69080 Y32.78810
X44.23080 Y32.78810
X44.23080 Y35.32810
X41.69080 Y35.32810
X41.69080 Y34.84550
G04 P0 ( dwell for no time -- G64 should not smooth over this point )
G00 Z0.50000 ( retract )

G00 X39.15080 Y34.84550 ( rapid move to begin. )
F300.00000
G01 Z-0.07500
G04 P0 ( dwell for no time -- G64 should not smooth over this point )
F600.00000
X39.15080 Y34.84550
X39.15080 Y32.78810
X41.69080 Y32.78810
X41.69080 Y35.32810
X39.15080 Y35.32810
X39.15080 Y34.84550
G04 P0 ( dwell for no time -- G64 should not smooth over this point )
G00 Z0.50000 ( retract )

G00 X36.61080 Y34.84550 ( rapid move to begin. )
F300.00000
G01 Z-0.07500
G04 P0 ( dwell for no time -- G64 should not smooth over this point )
F600.00000
X36.61080 Y34.84550
X36.61080 Y32.78810
X39.15080 Y32.78810
X39.15080 Y35.32810
X36.61080 Y35.32810
X36.61080 Y34.84550
G04 P0 ( dwell for no time -- G64 should not smooth over this point )
G00 Z0.50000 ( retract )

G00 X34.07080 Y34.84550 ( rapid move to begin. )
F300.00000
G01 Z-0.07500
G04 P0 ( dwell for no time -- G64 should not smooth over this point )
F600.00000
X34.07080 Y34.84550
X34.07080 Y32.78810
X36.61080 Y32.78810
X36.61080 Y35.32810
X34.07080 Y35.32810
X34.07080 Y34.84550
G04 P0 ( dwell for no time -- G64 should not smooth over this point )
G00 Z0.50000 ( retract )

G00 X31.53080 Y34.84550 ( rapid move to begin. )
F300.00000
G01 Z-0.07500
G04 P0 ( dwell for no time -- G64 should not smooth over this point )
F600.00000
X31.53080 Y34.84550
X31.53080 Y32.78810
X34.07080 Y32.78810
X34.07080 Y35.32810
X31.53080 Y35.32810
X31.53080 Y34.84550
G04 P0 ( dwell for no time -- G64 should not smooth over this point )
G00 Z0.50000 ( retract )

G00 X28.99080 Y34.84550 ( rapid move to begin. )
F300.00000
G01 Z-0.07500
G04 P0 ( dwell for no time -- G64 should not smooth over this point )
F600.00000
X28.99080 Y34.84550
X28.99080 Y32.78810
X31.53080 Y32.78810
X31.53080 Y35.32810
X28.99080 Y35.32810
X28.99080 Y34.84550
G04 P0 ( dwell for no time -- G64 should not smooth over this point )
G00 Z0.50000 ( retract )

G00 X26.45080 Y34.84550 ( rapid move to begin. )
F300.00000
G01 Z-0.07500
G04 P0 ( dwell for no time -- G64 should not smooth over this point )
F600.00000
X26.45080 Y34.84550
X26.45080 Y32.78810
X28.99080 Y32.78810
X28.99080 Y35.32810
X26.45080 Y35.32810
X26.45080 Y34.84550
G04 P0 ( dwell for no time -- G64 should not smooth over this point )
G00 Z0.50000 ( retract )

G00 X23.91080 Y34.84550 ( rapid move to begin. )
F300.00000
G01 Z-0.07500
G04 P0 ( dwell for no time -- G64 should not smooth over this point )
F600.00000
X23.91080 Y34.84550
X23.91080 Y32.78810
X26.45080 Y32.78810
X26.45080 Y35.32810
X23.91080 Y35.32810
X23.91080 Y34.84550
G04 P0 ( dwell for no time -- G64 should not smooth over this point )
G00 Z0.50000 ( retract )

G00 X21.37080 Y34.84550 ( rapid move to begin. )
F300.00000
G01 Z-0.07500
G04 P0 ( dwell for no time -- G64 should not smooth over this point )
F600.00000
X21.37080 Y34.84550
X21.37080 Y32.78810
X23.91080 Y32.78810
X23.91080 Y35.32810
X21.37080 Y35.32810
X21.37080 Y34.84550
G04 P0 ( dwell for no time -- G64 should not smooth over this point )
G00 Z0.50000 ( retract )

G00 X18.83080 Y34.84550 ( rapid move to begin. )
F300.00000
G01 Z-0.07500
G04 P0 ( dwell for no time -- G64 should not smooth over this point )
F600.00000
X18.83080 Y34.84550
X18.83080 Y32.78810
X21.37080 Y32.78810
X21.37080 Y35.32810
X18.83080 Y35.32810
X18.83080 Y34.84550
G04 P0 ( dwell for no time -- G64 should not smooth over this point )
G00 Z0.50000 ( retract )

G00 X16.29080 Y34.84550 ( rapid move to begin. )
F300.00000
G01 Z-0.07500
G04 P0 ( dwell for no time -- G64 should not smooth over this point )
F600.00000
X16.29080 Y34.84550
X16.29080 Y32.78810
X18.83080 Y32.78810
X18.83080 Y35.32810
X16.29080 Y35.32810
X16.29080 Y34.84550
G04 P0 ( dwell for no time -- G64 should not smooth over this point )
G00 Z0.50000 ( retract )

G00 X13.75080 Y34.84550 ( rapid move to begin. )
F300.00000
G01 Z-0.07500
G04 P0 ( dwell for no time -- G64 should not smooth over this point )
F600.00000
X13.75080 Y34.84550
X13.75080 Y32.78810
X16.29080 Y32.78810
X16.29080 Y35.32810
X13.75080 Y35.32810
X13.75080 Y34.84550
G04 P0 ( dwell for no time -- G64 should not smooth over this point )
G00 Z0.50000 ( retract )

G00 X11.21080 Y34.84550 ( rapid move to begin. )
F300.00000
G01 Z-0.07500
G04 P0 ( dwell for no time -- G64 should not smooth over this point )
F600.00000
X11.21080 Y34.84550
X11.21080 Y32.78810
X13.75080 Y32.78810
X13.75080 Y35.32810
X11.21080 Y35.32810
X11.21080 Y34.84550
G04 P0 ( dwell for no time -- G64 should not smooth over this point )
G00 Z0.50000 ( retract )

G00 X8.92480 Y34.84550 ( rapid move to begin. )
F300.00000
G01 Z-0.07500
G04 P0 ( dwell for no time -- G64 should not smooth over this point )
F600.00000
X8.92480 Y34.84550
X8.82320 Y34.76930
X8.82320 Y34.69310
X8.64540 Y34.36290
X8.64540 Y33.80410
X8.69620 Y33.75330
X8.69620 Y33.67710
X8.77240 Y33.57550
X8.84860 Y33.34690
X9.22960 Y32.96590
X9.35660 Y32.91510
X9.40740 Y32.86430
X9.40740 Y32.78810
X11.21080 Y32.78810
X11.21080 Y35.32810
X9.40740 Y35.32810
X9.35660 Y35.22650
X9.22960 Y35.17570
X8.92480 Y34.84550
G04 P0 ( dwell for no time -- G64 should not smooth over this point )
G00 Z0.50000 ( retract )

G00 X5.87680 Y33.55010 ( rapid move to begin. )
F300.00000
G01 Z-0.07500
G04 P0 ( dwell for no time -- G64 should not smooth over this point )
F600.00000
X5.87680 Y33.55010
X5.87680 Y31.51810
X8.03580 Y31.51810
X8.03580 Y31.92450
X8.23900 Y32.12770
X8.23900 Y32.20390
X8.41680 Y32.53410
X8.41680 Y33.06750
X8.36600 Y33.11830
X8.36600 Y33.19450
X8.28980 Y33.29610
X8.21360 Y33.52470
X8.03580 Y33.70250
X8.03580 Y34.05810
X5.87680 Y34.05810
X5.87680 Y33.55010
G04 P0 ( dwell for no time -- G64 should not smooth over this point )
G00 Z0.50000 ( retract )

G00 X2.98120 Y33.55010 ( rapid move to begin. )
F300.00000
G01 Z-0.07500
G04 P0 ( dwell for no time -- G64 should not smooth over this point )
F600.00000
X2.98120 Y33.55010
X2.98120 Y31.51810
X5.87680 Y31.51810
X5.87680 Y34.05810
X2.98120 Y34.05810
X2.98120 Y33.55010
G04 P0 ( dwell for no time -- G64 should not smooth over this point )
G00 Z0.50000 ( retract )

G00 X67.09080 Y32.30550 ( rapid move to begin. )
F300.00000
G01 Z-0.07500
G04 P0 ( dwell for no time -- G64 should not smooth over this point )
F600.00000
X67.09080 Y32.30550
X67.09080 Y30.24810
X68.91960 Y30.24810
X68.91960 Y30.32430
X69.02120 Y30.42590
X69.14820 Y30.47670
X69.47840 Y30.80690
X69.65620 Y31.26410
X69.65620 Y31.82290
X69.42760 Y32.30550
X69.09740 Y32.63570
X68.99580 Y32.66110
X68.91960 Y32.73730
X68.91960 Y32.78810
X67.09080 Y32.78810
X67.09080 Y32.30550
G04 P0 ( dwell for no time -- G64 should not smooth over this point )
G00 Z0.50000 ( retract )

G00 X64.55080 Y32.30550 ( rapid move to begin. )
F300.00000
G01 Z-0.07500
G04 P0 ( dwell for no time -- G64 should not smooth over this point )
F600.00000
X64.55080 Y32.30550
X64.55080 Y30.24810
X67.09080 Y30.24810
X67.09080 Y32.78810
X64.55080 Y32.78810
X64.55080 Y32.30550
G04 P0 ( dwell for no time -- G64 should not smooth over this point )
G00 Z0.50000 ( retract )

G00 X62.01080 Y32.30550 ( rapid move to begin. )
F300.00000
G01 Z-0.07500
G04 P0 ( dwell for no time -- G64 should not smooth over this point )
F600.00000
X62.01080 Y32.30550
X62.01080 Y30.24810
X64.55080 Y30.24810
X64.55080 Y32.78810
X62.01080 Y32.78810
X62.01080 Y32.30550
G04 P0 ( dwell for no time -- G64 should not smooth over this point )
G00 Z0.50000 ( retract )

G00 X59.47080 Y32.30550 ( rapid move to begin. )
F300.00000
G01 Z-0.07500
G04 P0 ( dwell for no time -- G64 should not smooth over this point )
F600.00000
X59.47080 Y32.30550
X59.47080 Y30.24810
X62.01080 Y30.24810
X62.01080 Y32.78810
X59.47080 Y32.78810
X59.47080 Y32.30550
G04 P0 ( dwell for no time -- G64 should not smooth over this point )
G00 Z0.50000 ( retract )

G00 X56.93080 Y32.30550 ( rapid move to begin. )
F300.00000
G01 Z-0.07500
G04 P0 ( dwell for no time -- G64 should not smooth over this point )
F600.00000
X56.93080 Y32.30550
X56.93080 Y30.24810
X59.47080 Y30.24810
X59.47080 Y32.78810
X56.93080 Y32.78810
X56.93080 Y32.30550
G04 P0 ( dwell for no time -- G64 should not smooth over this point )
G00 Z0.50000 ( retract )

G00 X54.39080 Y32.30550 ( rapid move to begin. )
F300.00000
G01 Z-0.07500
G04 P0 ( dwell for no time -- G64 should not smooth over this point )
F600.00000
X54.39080 Y32.30550
X54.39080 Y30.24810
X56.93080 Y30.24810
X56.93080 Y32.78810
X54.39080 Y32.78810
X54.39080 Y32.30550
G04 P0 ( dwell for no time -- G64 should not smooth over this point )
G00 Z0.50000 ( retract )

G00 X51.85080 Y32.30550 ( rapid move to begin. )
F300.00000
G01 Z-0.07500
G04 P0 ( dwell for no time -- G64 should not smooth over this point )
F600.00000
X51.85080 Y32.30550
X51.85080 Y30.24810
X54.39080 Y30.24810
X54.39080 Y32.78810
X51.85080 Y32.78810
X51.85080 Y32.30550
G04 P0 ( dwell for no time -- G64 should not smooth over this point )
G00 Z0.50000 ( retract )

G00 X49.31080 Y32.30550 ( rapid move to begin. )
F300.00000
G01 Z-0.07500
G04 P0 ( dwell for no time -- G64 should not smooth over this point )
F600.00000
X49.31080 Y32.30550
X49.31080 Y30.24810
X51.85080 Y30.24810
X51.85080 Y32.78810
X49.31080 Y32.78810
X49.31080 Y32.30550
G04 P0 ( dwell for no time -- G64 should not smooth over this point )
G00 Z0.50000 ( retract )

G00 X46.77080 Y32.30550 ( rapid move to begin. )
F300.00000
G01 Z-0.07500
G04 P0 ( dwell for no time -- G64 should not smooth over this point )
F600.00000
X46.77080 Y32.30550
X46.77080 Y30.24810
X49.31080 Y30.24810
X49.31080 Y32.78810
X46.77080 Y32.78810
X46.77080 Y32.30550
G04 P0 ( dwell for no time -- G64 should not smooth over this point )
G00 Z0.50000 ( retract )

G00 X44.23080 Y32.30550 ( rapid move to begin. )
F300.00000
G01 Z-0.07500
G04 P0 ( dwell for no time -- G64 should not smooth over this point )
F600.00000
X44.23080 Y32.30550
X44.23080 Y30.24810
X46.77080 Y30.24810
X46.77080 Y32.78810
X44.23080 Y32.78810
X44.23080 Y32.30550
G04 P0 ( dwell for no time -- G64 should not smooth over this point )
G00 Z0.50000 ( retract )

G00 X41.69080 Y32.30550 ( rapid move to begin. )
F300.00000
G01 Z-0.07500
G04 P0 ( dwell for no time -- G64 should not smooth over this point )
F600.00000
X41.69080 Y32.30550
X41.69080 Y30.24810
X44.23080 Y30.24810
X44.23080 Y32.78810
X41.69080 Y32.78810
X41.69080 Y32.30550
G04 P0 ( dwell for no time -- G64 should not smooth over this point )
G00 Z0.50000 ( retract )

G00 X39.15080 Y32.30550 ( rapid move to begin. )
F300.00000
G01 Z-0.07500
G04 P0 ( dwell for no time -- G64 should not smooth over this point )
F600.00000
X39.15080 Y32.30550
X39.15080 Y30.24810
X41.69080 Y30.24810
X41.69080 Y32.78810
X39.15080 Y32.78810
X39.15080 Y32.30550
G04 P0 ( dwell for no time -- G64 should not smooth over this point )
G00 Z0.50000 ( retract )

G00 X36.61080 Y32.30550 ( rapid move to begin. )
F300.00000
G01 Z-0.07500
G04 P0 ( dwell for no time -- G64 should not smooth over this point )
F600.00000
X36.61080 Y32.30550
X36.61080 Y30.24810
X39.15080 Y30.24810
X39.15080 Y32.78810
X36.61080 Y32.78810
X36.61080 Y32.30550
G04 P0 ( dwell for no time -- G64 should not smooth over this point )
G00 Z0.50000 ( retract )

G00 X34.07080 Y32.30550 ( rapid move to begin. )
F300.00000
G01 Z-0.07500
G04 P0 ( dwell for no time -- G64 should not smooth over this point )
F600.00000
X34.07080 Y32.30550
X34.07080 Y30.24810
X36.61080 Y30.24810
X36.61080 Y32.78810
X34.07080 Y32.78810
X34.07080 Y32.30550
