( pcb2gcode 2.5.0 )
( Gcode for linuxcnc )


G94 ( Millimeters per minute feed rate. )
G21 ( Units == Millimeters. )

G90 ( Absolute coordinates. )
G00 S10000 ( RPM spindle speed. )
G64 P0.01016 ( set maximum deviation from commanded toolpath )
G01 F600.00000 ( Feedrate. )

o1 sub ( G01 with Z-correction subroutine )
    #4 = 0 ( x-tile offset [minus the initial offset] )
    #5 = 0 ( y-tile offset [minus the initial offset] )
    #6 = [ FIX[ [ #1 - 1.19050 + #4 ] / 8.82250 ] ] ( Lower left point X index )
    #7 = [ FIX[ [ #2 - 1.19048 + #5 ] / 9.22334 ] ] ( Lower left point Y index )
    #8 = [ #6 * 7 + [ #7 + 1 ] + 500 ] ( Upper left point parameter number )
    #9 = [ [ #6 + 1 ] *7 + [ #7 + 1 ] + 500 ] ( Upper right point parameter number )
    #10 = [ #6 * 7 + #7 + 500 ] ( Lower left point parameter number )
    #11 = [ [ #6 + 1 ] * 7 + #7 + 500 ] ( Lower right point parameter number )
    #12 = [ [ #2 + #5 - 1.19048 - #7 * 9.22334 ] / 9.22334 ] ( Distance between the point and the left border of the rectangle, normalized to 1 )
    #13 = [ [ #1 + #4 - 1.19050 - #6 * 8.82250 ] / 8.82250 ] ( Distance between the point and the bottom border of the rectangle, normalized to 1 ) 
    #14 = [ ##10 + [ ##8 - ##10 ] * #12 ] ( Linear interpolation of the x-min elements )
    #15 = [ ##11 + [ ##9 - ##11 ] * #12 ] ( Linear interpolation of the x-max elements )
    #16 = [ #14 + [ #15 - #14 ] * #13 ] ( Linear interpolation of previously interpolated points )
    G01 X#1 Y#2 Z[#3 + #16]
o1 endsub

o2 sub ( Y probe subroutine )
    G0 Z0.500 ( Move to probe height )
    X[#101 * 8.82250 + 1.19050] Y[#102 * 9.22334 + 1.19048] ( Move to the current probe point )
    G38.2 Z-3 F100.000000 ( Probe it )
    #[#101 * 7 + #102 + 500] = #5063 ( Save the probe in the correct parameter )
    #102 = [#102 + #103] ( Increment/decrement by 1 the Y counter )
o2 endsub

o3 sub ( X probe subroutine )
    o4 repeat [#104]
        o2 call
    o4 endrepeat
    #104 = 7
    #103 = [0 - #103]
    #102 = [#102 + #103]
    #101 = [#101 + 1] ( Increment by 1 the X counter )
o3 endsub

#107 = 0
#108 = 0

(MSG, Attach the probe tool)
M0 ( Temporary machine stop. )
G0 Z0.500 ( Move Z to safe height )
G0 X1.19050 Y1.19048 ( Move XY to start point )
G0 Z0.500 ( Move Z to probe height )
(PROBEOPEN RawProbeLog.txt) ( Record all probes in RawProbeLog.txt )
G38.2 Z-3 F100.000000 ( Z-probe )
#500 = 0 ( Probe point [0, 0] is our reference )
G10 L20 P0 Z0 ( Set the current Z as zero-value )

( We now start the real probing: move the Z axis to the probing height, move to )
( the probing XY position, probe it and save the result, parameter #5063, )
( in a numbered parameter; we will make 9 probes on the X-axis and )
( 7 probes on the Y-axis, for a grand total of 63 probes )

#101 = 0 ( X iterator )
#102 = 1 ( Y iterator )
#103 = 1 ( UP or DOWN increment )
#104 = 6 ( number of Y points; the 1st Y row can be done one time less )
o5 repeat [9]
    o3 call
o5 endrepeat

G0 Z0.500 ( Move Z to safe height )
(PROBECLOSE) ( Close the probe log file )
( Probing has ended, each Z-coordinate will be corrected with a bilinear interpolation )
(MSG, Detach the probe tool)
M0 ( Temporary machine stop. )


G00 Z40.00000 (Retract to tool change height)
T0
M5      (Spindle stop.)
G04 P1.00000 (Wait for spindle to stop)
(MSG, Change tool bit to mill diameter 2.00000mm)
M6      (Tool change.)
M0      (Temporary machine stop.)
M3 ( Spindle on clockwise. )
G04 P1.00000 (Wait for spindle to get up to speed)
G04 P0 ( dwell for no time -- G64 should not smooth over this point )
G00 Z0.50000 ( retract )

G00 X71.77052 Y2.19050 ( rapid move to begin. )
G01 F300.00000
( Mill infeed pass 1/1 )
o1 call [71.77052] [2.19050] [-0.07500]
G04 P0 ( dwell for no time -- G64 should not smooth over this point )
G01 F600.00000
o1 call [71.77052] [10.41381] [-0.07500]
o1 call [71.77052] [19.63715] [-0.07500]
o1 call [71.77052] [28.86049] [-0.07500]
o1 call [71.77052] [38.08382] [-0.07500]
o1 call [71.77052] [47.30716] [-0.07500]
o1 call [71.77052] [55.53050] [-0.07500]
o1 call [71.75130] [55.72557] [-0.07500]
o1 call [71.69440] [55.91318] [-0.07500]
o1 call [71.60199] [56.08605] [-0.07500]
o1 call [71.47761] [56.23759] [-0.07500]
o1 call [71.32607] [56.36197] [-0.07500]
o1 call [71.15320] [56.45437] [-0.07500]
o1 call [70.96560] [56.51127] [-0.07500]
o1 call [70.77050] [56.53050] [-0.07500]
o1 call [70.77050] [56.53050] [-0.07500]
o1 call [62.94802] [56.53050] [-0.07500]
o1 call [54.12552] [56.53050] [-0.07500]
o1 call [45.30302] [56.53050] [-0.07500]
o1 call [36.48051] [56.53050] [-0.07500]
o1 call [27.65801] [56.53050] [-0.07500]
o1 call [18.83551] [56.53050] [-0.07500]
o1 call [10.01300] [56.53050] [-0.07500]
o1 call [6.00050] [56.53050] [-0.07500]
o1 call [6.00050] [56.53050] [-0.07500]
o1 call [5.80543] [56.51127] [-0.07500]
o1 call [5.61782] [56.45437] [-0.07500]
o1 call [5.44495] [56.36197] [-0.07500]
o1 call [5.29341] [56.23759] [-0.07500]
o1 call [4.02341] [54.96759] [-0.07500]
o1 call [3.89903] [54.81605] [-0.07500]
o1 call [3.80663] [54.64318] [-0.07500]
o1 call [3.74973] [54.45557] [-0.07500]
o1 call [3.73050] [54.26050] [-0.07500]
o1 call [3.73050] [47.30716] [-0.07500]
o1 call [3.73050] [43.24470] [-0.07500]
o1 call [1.48341] [40.99759] [-0.07500]
o1 call [1.35903] [40.84605] [-0.07500]
o1 call [1.26663] [40.67318] [-0.07500]
o1 call [1.20973] [40.48557] [-0.07500]
o1 call [1.19050] [40.29050] [-0.07500]
o1 call [1.19050] [38.08382] [-0.07500]
o1 call [1.19050] [28.86049] [-0.07500]
o1 call [1.19050] [19.63715] [-0.07500]
o1 call [1.19050] [10.41381] [-0.07500]
o1 call [1.19050] [7.27050] [-0.07500]
o1 call [1.20973] [7.07540] [-0.07500]
o1 call [1.26663] [6.88780] [-0.07500]
o1 call [1.35903] [6.71493] [-0.07500]
o1 call [1.48341] [6.56339] [-0.07500]
o1 call [3.73050] [4.31628] [-0.07500]
o1 call [3.73050] [2.19050] [-0.07500]
o1 call [3.74973] [1.99540] [-0.07500]
o1 call [3.80663] [1.80780] [-0.07500]
o1 call [3.89903] [1.63493] [-0.07500]
o1 call [4.02341] [1.48339] [-0.07500]
o1 call [4.17495] [1.35901] [-0.07500]
o1 call [4.34782] [1.26660] [-0.07500]
o1 call [4.53543] [1.20970] [-0.07500]
o1 call [4.73050] [1.19048] [-0.07500]
o1 call [10.01300] [1.19048] [-0.07500]
o1 call [18.83551] [1.19048] [-0.07500]
o1 call [27.65801] [1.19048] [-0.07500]
o1 call [36.48051] [1.19048] [-0.07500]
o1 call [45.30302] [1.19048] [-0.07500]
o1 call [54.12552] [1.19048] [-0.07500]
o1 call [62.94802] [1.19048] [-0.07500]
o1 call [70.77050] [1.19048] [-0.07500]
o1 call [70.96560] [1.20970] [-0.07500]
o1 call [71.15320] [1.26660] [-0.07500]
o1 call [71.32607] [1.35901] [-0.07500]
o1 call [71.47761] [1.48339] [-0.07500]
o1 call [71.60199] [1.63493] [-0.07500]
o1 call [71.69440] [1.80780] [-0.07500]
o1 call [71.75130] [1.99540] [-0.07500]
o1 call [71.77052] [2.19050] [-0.07500]
G04 P0 ( dwell for no time -- G64 should not smooth over this point )
G00 Z0.50000 ( retract )

G00 X64.67453 Y8.45909 ( rapid move to begin. )
G01 F300.00000
( Mill infeed pass 1/1 )
o1 call [64.67453] [8.45909] [-0.07500]
G04 P0 ( dwell for no time -- G64 should not smooth over this point )
G01 F600.00000
o1 call [64.56177] [8.34500] [-0.07500]
o1 call [64.44379] [8.20860] [-0.07500]
o1 call [64.39081] [8.13212] [-0.07500]
o1 call [64.33853] [8.04627] [-0.07500]
o1 call [64.27976] [7.93857] [-0.07500]
o1 call [64.12914] [7.77550] [-0.07500]
o1 call [63.99553] [7.65762] [-0.07500]
o1 call [63.90922] [7.61249] [-0.07500]
o1 call [63.75555] [7.54637] [-0.07500]
o1 call [63.61263] [7.49900] [-0.07500]
o1 call [63.48814] [7.48869] [-0.07500]
o1 call [63.32088] [7.48861] [-0.07500]
o1 call [63.19825] [7.49862] [-0.07500]
o1 call [63.10381] [7.52788] [-0.07500]
o1 call [62.94802] [7.59243] [-0.07500]
o1 call [62.89980] [7.61241] [-0.07500]
o1 call [62.81504] [7.65658] [-0.07500]
o1 call [62.67994] [7.77553] [-0.07500]
o1 call [62.52914] [7.93847] [-0.07500]
o1 call [62.47041] [8.04672] [-0.07500]
o1 call [62.41837] [8.13214] [-0.07500]
o1 call [62.36513] [8.20890] [-0.07500]
o1 call [62.24667] [8.34571] [-0.07500]
o1 call [62.13453] [8.45909] [-0.07500]
o1 call [62.13453] [10.41381] [-0.07500]
o1 call [62.13453] [19.63715] [-0.07500]
o1 call [62.13453] [28.86049] [-0.07500]
o1 call [62.13453] [38.08382] [-0.07500]
o1 call [62.13453] [47.30716] [-0.07500]
o1 call [62.13453] [49.26196] [-0.07500]
o1 call [62.24728] [49.37595] [-0.07500]
o1 call [62.36526] [49.51233] [-0.07500]
o1 call [62.41827] [49.58883] [-0.07500]
o1 call [62.47054] [49.67466] [-0.07500]
o1 call [62.52929] [49.78238] [-0.07500]
o1 call [62.67991] [49.94542] [-0.07500]
o1 call [62.81352] [50.06333] [-0.07500]
o1 call [62.89983] [50.10846] [-0.07500]
o1 call [62.94802] [50.12919] [-0.07500]
o1 call [63.05350] [50.17455] [-0.07500]
o1 call [63.19642] [50.22193] [-0.07500]
o1 call [63.32088] [50.23224] [-0.07500]
o1 call [63.48814] [50.23231] [-0.07500]
o1 call [63.61082] [50.22231] [-0.07500]
o1 call [63.70524] [50.19302] [-0.07500]
o1 call [63.90925] [50.10854] [-0.07500]
o1 call [63.99403] [50.06437] [-0.07500]
o1 call [64.12911] [49.94542] [-0.07500]
o1 call [64.27991] [49.78248] [-0.07500]
o1 call [64.33864] [49.67420] [-0.07500]
o1 call [64.39068] [49.58881] [-0.07500]
o1 call [64.44394] [49.51200] [-0.07500]
o1 call [64.55235] [49.38525] [-0.07500]
o1 call [64.67453] [49.26196] [-0.07500]
G04 P0 ( dwell for no time -- G64 should not smooth over this point )
G00 Z0.50000 ( retract )

G00 X67.21453 Y49.26196 ( rapid move to begin. )
G01 F300.00000
( Mill infeed pass 1/1 )
o1 call [67.21453] [49.26196] [-0.07500]
G04 P0 ( dwell for no time -- G64 should not smooth over this point )
G01 F600.00000
o1 call [67.09235] [49.38525] [-0.07500]
o1 call [66.98394] [49.51200] [-0.07500]
o1 call [66.93068] [49.58881] [-0.07500]
o1 call [66.87864] [49.67420] [-0.07500]
o1 call [66.81991] [49.78248] [-0.07500]
o1 call [66.66911] [49.94542] [-0.07500]
o1 call [66.53403] [50.06437] [-0.07500]
o1 call [66.44925] [50.10854] [-0.07500]
o1 call [66.24524] [50.19302] [-0.07500]
o1 call [66.15082] [50.22231] [-0.07500]
o1 call [66.02817] [50.23231] [-0.07500]
o1 call [65.86088] [50.23224] [-0.07500]
o1 call [65.73645] [50.22193] [-0.07500]
o1 call [65.59350] [50.17455] [-0.07500]
o1 call [65.43983] [50.10846] [-0.07500]
o1 call [65.35352] [50.06333] [-0.07500]
o1 call [65.21991] [49.94542] [-0.07500]
o1 call [65.06929] [49.78238] [-0.07500]
o1 call [65.01054] [49.67466] [-0.07500]
o1 call [64.95827] [49.58883] [-0.07500]
o1 call [64.90526] [49.51233] [-0.07500]
o1 call [64.78728] [49.37595] [-0.07500]
o1 call [64.67453] [49.26196] [-0.07500]
o1 call [64.67453] [47.30716] [-0.07500]
o1 call [64.67453] [38.08382] [-0.07500]
o1 call [64.67453] [28.86049] [-0.07500]
o1 call [64.67453] [19.63715] [-0.07500]
o1 call [64.67453] [10.41381] [-0.07500]
o1 call [64.67453] [8.45909] [-0.07500]
o1 call [64.78667] [8.34571] [-0.07500]
o1 call [64.90513] [8.20890] [-0.07500]
o1 call [64.95837] [8.13214] [-0.07500]
o1 call [65.01041] [8.04672] [-0.07500]
o1 call [65.06914] [7.93847] [-0.07500]
o1 call [65.21994] [7.77553] [-0.07500]
o1 call [65.35504] [7.65658] [-0.07500]
o1 call [65.43980] [7.61241] [-0.07500]
o1 call [65.64381] [7.52793] [-0.07500]
o1 call [65.73828] [7.49862] [-0.07500]
o1 call [65.86091] [7.48861] [-0.07500]
o1 call [66.02817] [7.48869] [-0.07500]
o1 call [66.15263] [7.49900] [-0.07500]
o1 call [66.29555] [7.54637] [-0.07500]
o1 call [66.44922] [7.61249] [-0.07500]
o1 call [66.53553] [7.65762] [-0.07500]
o1 call [66.66914] [7.77550] [-0.07500]
o1 call [66.81976] [7.93857] [-0.07500]
o1 call [66.87853] [8.04627] [-0.07500]
o1 call [66.93081] [8.13212] [-0.07500]
o1 call [66.98379] [8.20860] [-0.07500]
o1 call [67.10177] [8.34500] [-0.07500]
o1 call [67.21453] [8.45909] [-0.07500]
G04 P0 ( dwell for no time -- G64 should not smooth over this point )
G00 Z0.50000 ( retract )

G00 X68.56758 Y9.81047 ( rapid move to begin. )
G01 F300.00000
( Mill infeed pass 1/1 )
o1 call [68.56758] [9.81047] [-0.07500]
G04 P0 ( dwell for no time -- G64 should not smooth over this point )
G01 F600.00000
o1 call [68.71823] [9.66087] [-0.07500]
o1 call [68.79479] [9.59790] [-0.07500]
o1 call [68.93880] [9.49704] [-0.07500]
o1 call [69.07403] [9.42437] [-0.07500]
o1 call [69.20911] [9.30542] [-0.07500]
o1 call [69.32435] [9.18409] [-0.07500]
o1 call [69.36804] [9.13189] [-0.07500]
o1 call [69.45745] [8.94449] [-0.07500]
o1 call [69.52801] [8.74896] [-0.07500]
o1 call [69.53784] [8.56714] [-0.07500]
o1 call [69.52834] [8.33379] [-0.07500]
o1 call [69.45745] [8.13646] [-0.07500]
o1 call [69.36900] [7.95058] [-0.07500]
o1 call [69.32425] [7.89694] [-0.07500]
o1 call [69.20914] [7.77550] [-0.07500]
o1 call [69.07553] [7.65762] [-0.07500]
o1 call [68.98922] [7.61249] [-0.07500]
o1 call [68.83555] [7.54637] [-0.07500]
o1 call [68.69263] [7.49900] [-0.07500]
o1 call [68.56814] [7.48869] [-0.07500]
o1 call [68.40091] [7.48861] [-0.07500]
o1 call [68.27825] [7.49862] [-0.07500]
o1 call [68.13352] [7.54642] [-0.07500]
o1 call [67.93103] [7.63644] [-0.07500]
o1 call [67.89504] [7.65658] [-0.07500]
o1 call [67.79870] [7.73877] [-0.07500]
o1 call [67.64470] [7.89684] [-0.07500]
o1 call [67.60104] [7.94901] [-0.07500]
o1 call [67.55042] [8.04672] [-0.07500]
o1 call [67.49837] [8.13214] [-0.07500]
o1 call [67.44513] [8.20890] [-0.07500]
o1 call [67.32667] [8.34571] [-0.07500]
o1 call [67.21453] [8.45909] [-0.07500]
o1 call [67.21453] [10.41381] [-0.07500]
o1 call [67.21453] [19.63715] [-0.07500]
o1 call [67.21453] [28.86049] [-0.07500]
o1 call [67.21453] [38.08382] [-0.07500]
o1 call [67.21453] [47.30716] [-0.07500]
o1 call [67.21453] [49.26196] [-0.07500]
o1 call [67.32728] [49.37595] [-0.07500]
o1 call [67.44526] [49.51233] [-0.07500]
o1 call [67.49827] [49.58883] [-0.07500]
o1 call [67.55054] [49.67466] [-0.07500]
o1 call [67.60929] [49.78238] [-0.07500]
o1 call [67.75991] [49.94542] [-0.07500]
o1 call [67.89352] [50.06333] [-0.07500]
o1 call [67.97983] [50.10846] [-0.07500]
o1 call [68.13350] [50.17455] [-0.07500]
o1 call [68.27642] [50.22193] [-0.07500]
o1 call [68.40088] [50.23224] [-0.07500]
o1 call [68.56817] [50.23231] [-0.07500]
o1 call [68.69082] [50.22231] [-0.07500]
o1 call [68.78524] [50.19302] [-0.07500]
o1 call [68.98925] [50.10854] [-0.07500]
o1 call [69.03804] [50.08451] [-0.07500]
o1 call [69.07403] [50.06437] [-0.07500]
o1 call [69.17035] [49.98217] [-0.07500]
o1 call [69.32435] [49.82409] [-0.07500]
o1 call [69.36804] [49.77189] [-0.07500]
o1 call [69.43636] [49.63348] [-0.07500]
o1 call [69.45745] [49.58449] [-0.07500]
o1 call [69.52801] [49.38896] [-0.07500]
o1 call [69.53784] [49.15383] [-0.07500]
o1 call [69.52834] [48.97379] [-0.07500]
o1 call [69.45745] [48.77646] [-0.07500]
o1 call [69.36898] [48.59059] [-0.07500]
o1 call [69.35976] [48.57857] [-0.07500]
o1 call [69.20914] [48.41550] [-0.07500]
o1 call [69.07556] [48.29762] [-0.07500]
o1 call [68.93837] [48.22378] [-0.07500]
o1 call [68.79476] [48.12312] [-0.07500]
o1 call [68.72407] [48.06620] [-0.07500]
o1 call [68.56758] [47.91047] [-0.07500]
o1 call [62.94802] [47.91047] [-0.07500]
o1 call [54.12552] [47.91047] [-0.07500]
o1 call [45.30302] [47.91047] [-0.07500]
o1 call [36.48051] [47.91047] [-0.07500]
o1 call [27.65801] [47.91047] [-0.07500]
o1 call [18.83551] [47.91047] [-0.07500]
o1 call [10.01300] [47.91047] [-0.07500]
o1 call [9.98147] [47.91047] [-0.07500]
o1 call [9.82429] [48.06679] [-0.07500]
o1 call [9.75426] [48.12305] [-0.07500]
o1 call [9.61027] [48.22391] [-0.07500]
o1 call [9.47507] [48.29655] [-0.07500]
o1 call [9.33994] [48.41553] [-0.07500]
o1 call [9.22470] [48.53686] [-0.07500]
o1 call [9.18104] [48.58904] [-0.07500]
o1 call [9.11269] [48.72747] [-0.07500]
o1 call [9.09160] [48.77646] [-0.07500]
o1 call [9.02107] [48.97197] [-0.07500]
o1 call [9.01124] [49.15383] [-0.07500]
o1 call [9.02074] [49.38713] [-0.07500]
o1 call [9.09160] [49.58449] [-0.07500]
o1 call [9.18007] [49.77034] [-0.07500]
o1 call [9.18929] [49.78238] [-0.07500]
o1 call [9.33991] [49.94542] [-0.07500]
o1 call [9.47352] [50.06333] [-0.07500]
o1 call [9.55983] [50.10846] [-0.07500]
o1 call [9.76379] [50.19312] [-0.07500]
o1 call [9.85642] [50.22193] [-0.07500]
o1 call [9.98088] [50.23224] [-0.07500]
o1 call [10.01300] [50.23225] [-0.07500]
o1 call [10.14814] [50.23231] [-0.07500]
o1 call [10.27082] [50.22231] [-0.07500]
o1 call [10.41553] [50.17450] [-0.07500]
o1 call [10.56925] [50.10854] [-0.07500]
o1 call [10.65403] [50.06437] [-0.07500]
o1 call [10.78911] [49.94542] [-0.07500]
o1 call [10.90435] [49.82411] [-0.07500]
o1 call [10.94804] [49.77191] [-0.07500]
o1 call [10.99864] [49.67420] [-0.07500]
o1 call [11.05068] [49.58881] [-0.07500]
o1 call [11.10394] [49.51200] [-0.07500]
o1 call [11.21235] [49.38525] [-0.07500]
o1 call [11.33453] [49.26196] [-0.07500]
o1 call [11.33453] [47.30716] [-0.07500]
o1 call [11.33453] [38.08382] [-0.07500]
o1 call [11.33453] [28.86049] [-0.07500]
o1 call [11.33453] [19.63715] [-0.07500]
o1 call [11.33453] [10.41381] [-0.07500]
o1 call [11.33453] [8.45897] [-0.07500]
o1 call [11.22177] [8.34500] [-0.07500]
o1 call [11.10379] [8.20860] [-0.07500]
o1 call [11.05081] [8.13212] [-0.07500]
o1 call [10.99853] [8.04627] [-0.07500]
o1 call [10.94900] [7.95061] [-0.07500]
o1 call [10.90425] [7.89694] [-0.07500]
o1 call [10.78914] [7.77550] [-0.07500]
o1 call [10.65553] [7.65762] [-0.07500]
o1 call [10.56922] [7.61249] [-0.07500]
o1 call [10.41555] [7.54637] [-0.07500]
o1 call [10.27263] [7.49900] [-0.07500]
o1 call [10.14817] [7.48869] [-0.07500]
o1 call [10.01300] [7.48862] [-0.07500]
o1 call [9.98088] [7.48861] [-0.07500]
o1 call [9.85825] [7.49862] [-0.07500]
o1 call [9.76381] [7.52788] [-0.07500]
o1 call [9.55980] [7.61241] [-0.07500]
o1 call [9.47504] [7.65658] [-0.07500]
o1 call [9.33994] [7.77553] [-0.07500]
o1 call [9.18914] [7.93847] [-0.07500]
o1 call [9.11269] [8.08747] [-0.07500]
o1 call [9.09160] [8.13646] [-0.07500]
o1 call [9.02107] [8.33197] [-0.07500]
o1 call [9.01124] [8.51383] [-0.07500]
o1 call [9.02074] [8.74713] [-0.07500]
o1 call [9.09160] [8.94449] [-0.07500]
o1 call [9.11266] [8.99351] [-0.07500]
o1 call [9.18007] [9.13034] [-0.07500]
o1 call [9.22480] [9.18401] [-0.07500]
o1 call [9.33991] [9.30545] [-0.07500]
o1 call [9.47352] [9.42333] [-0.07500]
o1 call [9.61070] [9.49717] [-0.07500]
o1 call [9.75429] [9.59783] [-0.07500]
o1 call [9.83156] [9.66143] [-0.07500]
o1 call [9.98162] [9.81047] [-0.07500]
o1 call [10.01300] [9.81047] [-0.07500]
o1 call [18.83551] [9.81047] [-0.07500]
o1 call [27.65801] [9.81047] [-0.07500]
o1 call [36.48051] [9.81047] [-0.07500]
o1 call [45.30302] [9.81047] [-0.07500]
o1 call [54.12552] [9.81047] [-0.07500]
o1 call [62.94802] [9.81047] [-0.07500]
o1 call [68.56758] [9.81047] [-0.07500]
o1 call [68.72407] [9.96620] [-0.07500]
o1 call [68.79476] [10.02312] [-0.07500]
o1 call [68.93837] [10.12378] [-0.07500]
o1 call [69.07556] [10.19762] [-0.07500]
o1 call [69.20914] [10.31550] [-0.07500]
o1 call [69.30233] [10.41381] [-0.07500]
o1 call [69.32425] [10.43694] [-0.07500]
o1 call [69.36898] [10.49058] [-0.07500]
o1 call [69.45745] [10.67646] [-0.07500]
o1 call [69.52834] [10.87379] [-0.07500]
o1 call [69.53784] [11.10714] [-0.07500]
o1 call [69.52801] [11.28896] [-0.07500]
o1 call [69.45745] [11.48449] [-0.07500]
o1 call [69.43636] [11.53348] [-0.07500]
o1 call [69.35991] [11.68248] [-0.07500]
o1 call [69.20911] [11.84542] [-0.07500]
o1 call [69.07403] [11.96437] [-0.07500]
o1 call [68.93880] [12.03704] [-0.07500]
o1 call [68.79479] [12.13790] [-0.07500]
o1 call [68.71823] [12.20087] [-0.07500]
o1 call [68.56758] [12.35047] [-0.07500]
o1 call [62.94802] [12.35047] [-0.07500]
o1 call [54.12552] [12.35047] [-0.07500]
o1 call [45.30302] [12.35047] [-0.07500]
o1 call [36.48051] [12.35047] [-0.07500]
o1 call [27.65801] [12.35047] [-0.07500]
o1 call [18.83551] [12.35047] [-0.07500]
o1 call [10.01300] [12.35047] [-0.07500]
o1 call [9.98162] [12.35047] [-0.07500]
o1 call [9.83156] [12.20143] [-0.07500]
o1 call [9.75429] [12.13783] [-0.07500]
o1 call [9.61070] [12.03717] [-0.07500]
o1 call [9.47352] [11.96333] [-0.07500]
o1 call [9.33991] [11.84545] [-0.07500]
o1 call [9.18929] [11.68238] [-0.07500]
o1 call [9.18007] [11.67034] [-0.07500]
o1 call [9.09160] [11.48449] [-0.07500]
o1 call [9.02074] [11.28713] [-0.07500]
o1 call [9.01121] [11.10714] [-0.07500]
o1 call [9.02107] [10.87197] [-0.07500]
o1 call [9.09160] [10.67646] [-0.07500]
o1 call [9.18104] [10.48904] [-0.07500]
o1 call [9.22470] [10.43686] [-0.07500]
o1 call [9.24659] [10.41381] [-0.07500]
o1 call [9.33994] [10.31553] [-0.07500]
o1 call [9.47507] [10.19655] [-0.07500]
o1 call [9.61027] [10.12391] [-0.07500]
o1 call [9.75426] [10.02305] [-0.07500]
o1 call [9.83087] [9.96006] [-0.07500]
o1 call [9.98162] [9.81047] [-0.07500]
G04 P0 ( dwell for no time -- G64 should not smooth over this point )
G00 Z0.50000 ( retract )

G00 X11.33453 Y8.45897 ( rapid move to begin. )
G01 F300.00000
( Mill infeed pass 1/1 )
o1 call [11.33453] [8.45897] [-0.07500]
G04 P0 ( dwell for no time -- G64 should not smooth over this point )
G01 F600.00000
o1 call [11.45667] [8.33570] [-0.07500]
o1 call [11.56513] [8.20890] [-0.07500]
o1 call [11.61837] [8.13214] [-0.07500]
o1 call [11.67041] [8.04672] [-0.07500]
o1 call [11.72914] [7.93847] [-0.07500]
o1 call [11.87994] [7.77553] [-0.07500]
o1 call [12.01504] [7.65658] [-0.07500]
o1 call [12.09980] [7.61241] [-0.07500]
o1 call [12.30381] [7.52788] [-0.07500]
o1 call [12.39825] [7.49862] [-0.07500]
o1 call [12.52091] [7.48861] [-0.07500]
o1 call [12.68814] [7.48869] [-0.07500]
o1 call [12.81263] [7.49900] [-0.07500]
o1 call [12.95555] [7.54637] [-0.07500]
o1 call [13.10922] [7.61249] [-0.07500]
o1 call [13.19553] [7.65762] [-0.07500]
o1 call [13.32914] [7.77550] [-0.07500]
o1 call [13.47976] [7.93857] [-0.07500]
o1 call [13.53853] [8.04627] [-0.07500]
o1 call [13.59081] [8.13212] [-0.07500]
o1 call [13.64379] [8.20860] [-0.07500]
o1 call [13.76177] [8.34500] [-0.07500]
o1 call [13.87453] [8.45897] [-0.07500]
G04 P0 ( dwell for no time -- G64 should not smooth over this point )
G00 Z0.50000 ( retract )

G00 X16.41453 Y8.45897 ( rapid move to begin. )
G01 F300.00000
( Mill infeed pass 1/1 )
o1 call [16.41453] [8.45897] [-0.07500]
G04 P0 ( dwell for no time -- G64 should not smooth over this point )
G01 F600.00000
o1 call [16.30177] [8.34500] [-0.07500]
o1 call [16.18379] [8.20860] [-0.07500]
o1 call [16.13081] [8.13212] [-0.07500]
o1 call [16.07853] [8.04627] [-0.07500]
o1 call [16.01976] [7.93857] [-0.07500]
o1 call [15.86914] [7.77550] [-0.07500]
o1 call [15.73553] [7.65762] [-0.07500]
o1 call [15.64922] [7.61249] [-0.07500]
o1 call [15.49555] [7.54637] [-0.07500]
o1 call [15.35263] [7.49900] [-0.07500]
o1 call [15.22814] [7.48869] [-0.07500]
o1 call [15.06088] [7.48861] [-0.07500]
o1 call [14.93825] [7.49862] [-0.07500]
o1 call [14.84381] [7.52788] [-0.07500]
o1 call [14.63980] [7.61241] [-0.07500]
o1 call [14.55504] [7.65658] [-0.07500]
o1 call [14.41994] [7.77553] [-0.07500]
o1 call [14.26914] [7.93847] [-0.07500]
o1 call [14.21041] [8.04672] [-0.07500]
o1 call [14.15837] [8.13214] [-0.07500]
o1 call [14.10513] [8.20890] [-0.07500]
o1 call [13.99667] [8.33570] [-0.07500]
o1 call [13.87453] [8.45897] [-0.07500]
o1 call [13.87453] [10.41381] [-0.07500]
o1 call [13.87453] [19.63715] [-0.07500]
o1 call [13.87453] [28.86049] [-0.07500]
o1 call [13.87453] [38.08382] [-0.07500]
o1 call [13.87453] [47.30716] [-0.07500]
o1 call [13.87453] [49.26196] [-0.07500]
o1 call [13.98728] [49.37595] [-0.07500]
o1 call [14.10526] [49.51233] [-0.07500]
o1 call [14.15827] [49.58883] [-0.07500]
o1 call [14.21054] [49.67466] [-0.07500]
o1 call [14.26929] [49.78238] [-0.07500]
o1 call [14.41991] [49.94542] [-0.07500]
o1 call [14.55352] [50.06333] [-0.07500]
o1 call [14.63983] [50.10846] [-0.07500]
o1 call [14.79350] [50.17455] [-0.07500]
o1 call [14.93642] [50.22193] [-0.07500]
o1 call [15.06088] [50.23224] [-0.07500]
o1 call [15.22817] [50.23231] [-0.07500]
o1 call [15.35082] [50.22231] [-0.07500]
o1 call [15.44524] [50.19302] [-0.07500]
o1 call [15.64925] [50.10854] [-0.07500]
o1 call [15.73403] [50.06437] [-0.07500]
o1 call [15.86911] [49.94542] [-0.07500]
o1 call [16.01991] [49.78248] [-0.07500]
o1 call [16.07864] [49.67420] [-0.07500]
o1 call [16.13068] [49.58881] [-0.07500]
o1 call [16.18394] [49.51200] [-0.07500]
o1 call [16.30238] [49.37519] [-0.07500]
o1 call [16.41453] [49.26183] [-0.07500]
G04 P0 ( dwell for no time -- G64 should not smooth over this point )
G00 Z0.50000 ( retract )

G00 X23.78050 Y53.46876 ( rapid move to begin. )
G01 F300.00000
( Mill infeed pass 1/1 )
o1 call [23.78050] [53.46876] [-0.07500]
G04 P0 ( dwell for no time -- G64 should not smooth over this point )
G01 F600.00000
o1 call [23.85528] [53.54399] [-0.07500]
o1 call [23.94270] [53.64485] [-0.07500]
o1 call [24.02068] [53.74932] [-0.07500]
o1 call [24.07829] [53.83843] [-0.07500]
o1 call [24.13209] [53.93675] [-0.07500]
o1 call [24.21626] [54.07213] [-0.07500]
o1 call [24.34466] [54.24168] [-0.07500]
o1 call [24.51845] [54.36629] [-0.07500]
o1 call [24.67047] [54.45334] [-0.07500]
o1 call [24.76069] [54.47899] [-0.07500]
o1 call [24.97087] [54.51930] [-0.07500]
o1 call [25.05053] [54.52715] [-0.07500]
o1 call [25.18433] [54.51110] [-0.07500]
o1 call [25.34036] [54.47899] [-0.07500]
o1 call [25.43061] [54.45334] [-0.07500]
o1 call [25.58258] [54.36632] [-0.07500]
o1 call [25.75642] [54.24168] [-0.07500]
o1 call [25.88481] [54.07213] [-0.07500]
o1 call [25.97882] [53.92027] [-0.07500]
o1 call [26.02898] [53.73264] [-0.07500]
o1 call [26.06653] [53.49827] [-0.07500]
o1 call [26.06653] [52.48265] [-0.07500]
o1 call [26.03932] [52.29848] [-0.07500]
o1 call [25.97882] [52.06063] [-0.07500]
o1 call [25.88481] [51.90879] [-0.07500]
o1 call [25.75642] [51.73925] [-0.07500]
o1 call [25.58258] [51.61461] [-0.07500]
o1 call [25.43061] [51.52759] [-0.07500]
o1 call [25.34036] [51.50193] [-0.07500]
o1 call [25.18433] [51.46983] [-0.07500]
o1 call [25.05053] [51.45377] [-0.07500]
o1 call [24.91672] [51.46985] [-0.07500]
o1 call [24.76069] [51.50193] [-0.07500]
o1 call [24.67047] [51.52759] [-0.07500]
o1 call [24.51845] [51.61463] [-0.07500]
o1 call [24.34415] [51.73965] [-0.07500]
o1 call [24.21570] [51.90849] [-0.07500]
o1 call [24.13120] [52.04364] [-0.07500]
o1 call [24.09142] [52.11867] [-0.07500]
o1 call [24.03315] [52.21303] [-0.07500]
o1 call [23.97839] [52.28966] [-0.07500]
o1 call [23.91606] [52.36995] [-0.07500]
o1 call [23.78050] [52.51217] [-0.07500]
o1 call [23.78050] [53.46876] [-0.07500]
o1 call [23.64499] [53.61097] [-0.07500]
o1 call [23.58268] [53.69118] [-0.07500]
o1 call [23.52792] [53.76789] [-0.07500]
o1 call [23.46963] [53.86225] [-0.07500]
o1 call [23.42985] [53.93731] [-0.07500]
o1 call [23.34535] [54.07246] [-0.07500]
o1 call [23.21690] [54.24127] [-0.07500]
o1 call [23.04260] [54.36629] [-0.07500]
o1 call [22.89061] [54.45334] [-0.07500]
o1 call [22.80036] [54.47899] [-0.07500]
o1 call [22.64433] [54.51110] [-0.07500]
o1 call [22.51055] [54.52715] [-0.07500]
o1 call [22.37672] [54.51110] [-0.07500]
o1 call [22.22069] [54.47899] [-0.07500]
o1 call [22.13049] [54.45336] [-0.07500]
o1 call [21.97845] [54.36629] [-0.07500]
o1 call [21.80415] [54.24127] [-0.07500]
o1 call [21.67570] [54.07244] [-0.07500]
o1 call [21.59120] [53.93728] [-0.07500]
o1 call [21.51048] [53.79197] [-0.07500]
o1 call [21.48071] [53.74932] [-0.07500]
o1 call [21.40273] [53.64485] [-0.07500]
o1 call [21.31528] [53.54399] [-0.07500]
o1 call [21.24053] [53.46876] [-0.07500]
o1 call [21.24053] [52.51217] [-0.07500]
o1 call [21.16580] [52.43696] [-0.07500]
o1 call [21.07840] [52.33607] [-0.07500]
o1 call [21.00037] [52.23160] [-0.07500]
o1 call [20.94276] [52.14250] [-0.07500]
o1 call [20.88899] [52.04412] [-0.07500]
o1 call [20.80481] [51.90879] [-0.07500]
o1 call [20.67644] [51.73925] [-0.07500]
o1 call [20.50260] [51.61461] [-0.07500]
o1 call [20.35061] [51.52759] [-0.07500]
o1 call [20.26036] [51.50193] [-0.07500]
o1 call [20.10436] [51.46983] [-0.07500]
o1 call [19.97055] [51.45377] [-0.07500]
o1 call [19.83672] [51.46985] [-0.07500]
o1 call [19.68069] [51.50196] [-0.07500]
o1 call [19.59049] [51.52759] [-0.07500]
o1 call [19.43845] [51.61466] [-0.07500]
o1 call [19.26466] [51.73925] [-0.07500]
o1 call [19.13624] [51.90879] [-0.07500]
o1 call [19.05209] [52.04412] [-0.07500]
o1 call [18.99829] [52.14250] [-0.07500]
o1 call [18.94068] [52.23160] [-0.07500]
o1 call [18.83551] [52.36796] [-0.07500]
o1 call [18.82539] [52.38108] [-0.07500]
o1 call [18.70053] [52.51461] [-0.07500]
o1 call [18.70053] [53.46632] [-0.07500]
o1 call [18.57563] [53.59987] [-0.07500]
o1 call [18.46037] [53.74932] [-0.07500]
o1 call [18.40271] [53.83853] [-0.07500]
o1 call [18.34896] [53.93680] [-0.07500]
o1 call [18.26481] [54.07213] [-0.07500]
o1 call [18.13642] [54.24168] [-0.07500]
o1 call [17.96258] [54.36632] [-0.07500]
o1 call [17.81061] [54.45334] [-0.07500]
o1 call [17.72036] [54.47899] [-0.07500]
o1 call [17.51018] [54.51930] [-0.07500]
o1 call [17.43053] [54.52715] [-0.07500]
o1 call [17.35087] [54.51930] [-0.07500]
o1 call [17.14069] [54.47899] [-0.07500]
o1 call [17.05047] [54.45334] [-0.07500]
o1 call [16.89845] [54.36629] [-0.07500]
o1 call [16.72466] [54.24168] [-0.07500]
o1 call [16.59626] [54.07213] [-0.07500]
o1 call [16.51209] [53.93675] [-0.07500]
o1 call [16.45829] [53.83843] [-0.07500]
o1 call [16.40068] [53.74932] [-0.07500]
o1 call [16.28539] [53.59982] [-0.07500]
o1 call [16.16050] [53.46634] [-0.07500]
o1 call [16.16050] [52.51458] [-0.07500]
o1 call [16.03563] [52.38105] [-0.07500]
o1 call [15.92037] [52.23160] [-0.07500]
o1 call [15.86268] [52.14239] [-0.07500]
o1 call [15.80896] [52.04412] [-0.07500]
o1 call [15.72481] [51.90879] [-0.07500]
o1 call [15.59642] [51.73925] [-0.07500]
o1 call [15.42263] [51.61463] [-0.07500]
o1 call [15.27061] [51.52759] [-0.07500]
o1 call [15.18036] [51.50193] [-0.07500]
o1 call [15.02433] [51.46983] [-0.07500]
o1 call [14.89055] [51.45377] [-0.07500]
o1 call [14.75672] [51.46985] [-0.07500]
o1 call [14.60069] [51.50193] [-0.07500]
o1 call [14.51047] [51.52759] [-0.07500]
o1 call [14.35845] [51.61463] [-0.07500]
o1 call [14.18466] [51.73925] [-0.07500]
o1 call [14.05624] [51.90879] [-0.07500]
o1 call [13.97209] [52.04412] [-0.07500]
o1 call [13.91829] [52.14250] [-0.07500]
o1 call [13.86068] [52.23160] [-0.07500]
o1 call [13.74539] [52.38108] [-0.07500]
o1 call [13.62053] [52.51461] [-0.07500]
o1 call [13.62053] [53.46632] [-0.07500]
o1 call [13.62053] [52.51461] [-0.07500]
o1 call [13.49563] [52.38105] [-0.07500]
o1 call [13.38037] [52.23160] [-0.07500]
o1 call [13.32269] [52.14239] [-0.07500]
o1 call [13.26896] [52.04412] [-0.07500]
o1 call [13.18481] [51.90879] [-0.07500]
o1 call [13.05642] [51.73925] [-0.07500]
o1 call [12.88263] [51.61463] [-0.07500]
o1 call [12.73061] [51.52759] [-0.07500]
o1 call [12.64036] [51.50193] [-0.07500]
o1 call [12.43015] [51.46162] [-0.07500]
o1 call [12.35053] [51.45377] [-0.07500]
o1 call [12.21672] [51.46985] [-0.07500]
o1 call [12.06069] [51.50193] [-0.07500]
o1 call [11.97047] [51.52759] [-0.07500]
o1 call [11.81845] [51.61463] [-0.07500]
o1 call [11.64443] [51.73950] [-0.07500]
o1 call [11.51624] [51.90879] [-0.07500]
o1 call [11.43209] [52.04412] [-0.07500]
o1 call [11.37829] [52.14250] [-0.07500]
o1 call [11.32068] [52.23160] [-0.07500]
o1 call [11.20539] [52.38108] [-0.07500]
o1 call [11.08053] [52.51461] [-0.07500]
o1 call [11.08053] [53.46632] [-0.07500]
o1 call [11.08053] [52.51461] [-0.07500]
o1 call [10.95563] [52.38105] [-0.07500]
o1 call [10.84037] [52.23160] [-0.07500]
o1 call [10.78269] [52.14239] [-0.07500]
o1 call [10.72896] [52.04412] [-0.07500]
o1 call [10.64481] [51.90879] [-0.07500]
o1 call [10.51642] [51.73925] [-0.07500]
o1 call [10.34258] [51.61461] [-0.07500]
o1 call [10.19061] [51.52759] [-0.07500]
o1 call [10.10036] [51.50193] [-0.07500]
o1 call [10.01300] [51.48396] [-0.07500]
o1 call [9.94433] [51.46983] [-0.07500]
o1 call [9.81055] [51.45377] [-0.07500]
o1 call [9.67672] [51.46985] [-0.07500]
o1 call [9.52069] [51.50193] [-0.07500]
o1 call [9.43047] [51.52759] [-0.07500]
o1 call [9.27845] [51.61463] [-0.07500]
o1 call [9.10466] [51.73925] [-0.07500]
o1 call [8.97624] [51.90879] [-0.07500]
o1 call [8.89209] [52.04412] [-0.07500]
o1 call [8.83829] [52.14250] [-0.07500]
o1 call [8.78068] [52.23160] [-0.07500]
o1 call [8.66539] [52.38108] [-0.07500]
o1 call [8.54050] [52.51458] [-0.07500]
o1 call [8.54050] [53.46634] [-0.07500]
o1 call [8.41563] [53.59987] [-0.07500]
o1 call [8.30037] [53.74932] [-0.07500]
o1 call [8.24271] [53.83853] [-0.07500]
o1 call [8.18896] [53.93680] [-0.07500]
o1 call [8.10481] [54.07213] [-0.07500]
o1 call [7.97662] [54.24145] [-0.07500]
o1 call [7.93329] [54.27523] [-0.07500]
o1 call [7.75678] [54.39479] [-0.07500]
o1 call [7.65059] [54.45334] [-0.07500]
o1 call [7.61370] [54.46507] [-0.07500]
o1 call [7.40433] [54.51110] [-0.07500]
o1 call [7.27053] [54.52715] [-0.07500]
o1 call [7.13672] [54.51110] [-0.07500]
o1 call [6.92737] [54.46507] [-0.07500]
o1 call [6.89049] [54.45336] [-0.07500]
o1 call [6.78427] [54.39479] [-0.07500]
o1 call [6.60774] [54.27521] [-0.07500]
o1 call [6.56466] [54.24168] [-0.07500]
o1 call [6.43626] [54.07213] [-0.07500]
o1 call [6.34223] [53.92027] [-0.07500]
o1 call [6.29207] [53.73264] [-0.07500]
o1 call [6.25453] [53.49847] [-0.07500]
o1 call [6.25455] [52.48247] [-0.07500]
o1 call [6.29207] [52.24829] [-0.07500]
o1 call [6.34226] [52.06063] [-0.07500]
o1 call [6.43624] [51.90879] [-0.07500]
o1 call [6.56443] [51.73950] [-0.07500]
o1 call [6.73845] [51.61463] [-0.07500]
o1 call [6.89047] [51.52759] [-0.07500]
o1 call [6.92735] [51.51588] [-0.07500]
o1 call [7.13672] [51.46985] [-0.07500]
o1 call [7.27053] [51.45377] [-0.07500]
o1 call [7.40433] [51.46983] [-0.07500]
o1 call [7.56036] [51.50193] [-0.07500]
o1 call [7.65061] [51.52759] [-0.07500]
o1 call [7.80258] [51.61461] [-0.07500]
o1 call [7.97642] [51.73925] [-0.07500]
o1 call [8.10481] [51.90879] [-0.07500]
o1 call [8.18896] [52.04412] [-0.07500]
o1 call [8.24268] [52.14239] [-0.07500]
o1 call [8.30037] [52.23160] [-0.07500]
o1 call [8.41563] [52.38105] [-0.07500]
o1 call [8.54050] [52.51458] [-0.07500]
o1 call [8.54050] [53.46634] [-0.07500]
o1 call [8.66539] [53.59982] [-0.07500]
o1 call [8.78068] [53.74932] [-0.07500]
o1 call [8.83829] [53.83843] [-0.07500]
o1 call [8.89209] [53.93675] [-0.07500]
o1 call [8.97626] [54.07213] [-0.07500]
o1 call [9.10463] [54.24168] [-0.07500]
o1 call [9.27845] [54.36629] [-0.07500]
o1 call [9.43049] [54.45336] [-0.07500]
o1 call [9.52069] [54.47899] [-0.07500]
o1 call [9.67672] [54.51110] [-0.07500]
o1 call [9.81055] [54.52715] [-0.07500]
o1 call [9.94433] [54.51110] [-0.07500]
o1 call [10.01300] [54.49697] [-0.07500]
o1 call [10.10036] [54.47899] [-0.07500]
o1 call [10.19061] [54.45334] [-0.07500]
o1 call [10.34258] [54.36632] [-0.07500]
o1 call [10.51642] [54.24168] [-0.07500]
o1 call [10.64481] [54.07213] [-0.07500]
o1 call [10.72896] [53.93680] [-0.07500]
o1 call [10.78271] [53.83853] [-0.07500]
o1 call [10.84037] [53.74932] [-0.07500]
o1 call [10.95563] [53.59987] [-0.07500]
o1 call [11.08053] [53.46632] [-0.07500]
o1 call [11.20539] [53.59982] [-0.07500]
o1 call [11.32068] [53.74932] [-0.07500]
o1 call [11.37829] [53.83843] [-0.07500]
o1 call [11.43209] [53.93675] [-0.07500]
o1 call [11.51626] [54.07213] [-0.07500]
o1 call [11.64466] [54.24168] [-0.07500]
o1 call [11.68774] [54.27521] [-0.07500]
o1 call [11.86427] [54.39479] [-0.07500]
o1 call [11.97047] [54.45334] [-0.07500]
o1 call [12.06069] [54.47899] [-0.07500]
o1 call [12.27090] [54.51930] [-0.07500]
o1 call [12.35053] [54.52715] [-0.07500]
o1 call [12.43015] [54.51930] [-0.07500]
o1 call [12.64036] [54.47899] [-0.07500]
o1 call [12.73061] [54.45334] [-0.07500]
o1 call [12.88260] [54.36629] [-0.07500]
o1 call [13.05662] [54.24145] [-0.07500]
o1 call [13.18481] [54.07213] [-0.07500]
o1 call [13.26896] [53.93680] [-0.07500]
o1 call [13.32271] [53.83853] [-0.07500]
o1 call [13.38037] [53.74932] [-0.07500]
o1 call [13.49563] [53.59987] [-0.07500]
o1 call [13.62053] [53.46632] [-0.07500]
o1 call [13.74539] [53.59982] [-0.07500]
o1 call [13.86068] [53.74932] [-0.07500]
o1 call [13.91829] [53.83843] [-0.07500]
o1 call [13.97209] [53.93675] [-0.07500]
o1 call [14.05626] [54.07213] [-0.07500]
o1 call [14.18466] [54.24168] [-0.07500]
o1 call [14.22774] [54.27521] [-0.07500]
o1 call [14.40427] [54.39479] [-0.07500]
o1 call [14.51047] [54.45334] [-0.07500]
o1 call [14.54737] [54.46507] [-0.07500]
o1 call [14.75672] [54.51110] [-0.07500]
o1 call [14.89053] [54.52715] [-0.07500]
o1 call [15.02433] [54.51110] [-0.07500]
o1 call [15.18036] [54.47899] [-0.07500]
o1 call [15.27061] [54.45334] [-0.07500]
o1 call [15.42260] [54.36629] [-0.07500]
o1 call [15.59642] [54.24168] [-0.07500]
o1 call [15.72481] [54.07213] [-0.07500]
o1 call [15.80896] [53.93680] [-0.07500]
o1 call [15.86271] [53.83853] [-0.07500]
o1 call [15.92037] [53.74932] [-0.07500]
o1 call [16.03563] [53.59987] [-0.07500]
o1 call [16.16050] [53.46634] [-0.07500]
o1 call [16.16050] [52.51458] [-0.07500]
o1 call [16.28539] [52.38108] [-0.07500]
o1 call [16.40068] [52.23160] [-0.07500]
o1 call [16.45829] [52.14250] [-0.07500]
o1 call [16.51209] [52.04412] [-0.07500]
o1 call [16.59624] [51.90879] [-0.07500]
o1 call [16.72466] [51.73925] [-0.07500]
o1 call [16.89845] [51.61463] [-0.07500]
o1 call [17.05047] [51.52759] [-0.07500]
o1 call [17.14069] [51.50193] [-0.07500]
o1 call [17.35087] [51.46162] [-0.07500]
o1 call [17.43053] [51.45377] [-0.07500]
o1 call [17.51018] [51.46162] [-0.07500]
o1 call [17.72036] [51.50193] [-0.07500]
o1 call [17.81061] [51.52759] [-0.07500]
o1 call [17.96258] [51.61461] [-0.07500]
o1 call [18.13642] [51.73925] [-0.07500]
o1 call [18.26481] [51.90879] [-0.07500]
o1 call [18.34896] [52.04412] [-0.07500]
o1 call [18.40268] [52.14239] [-0.07500]
o1 call [18.46037] [52.23160] [-0.07500]
o1 call [18.57563] [52.38105] [-0.07500]
o1 call [18.70053] [52.51461] [-0.07500]
o1 call [18.70053] [53.46632] [-0.07500]
o1 call [18.82539] [53.59982] [-0.07500]
o1 call [18.83551] [53.61294] [-0.07500]
o1 call [18.94068] [53.74932] [-0.07500]
o1 call [18.99829] [53.83843] [-0.07500]
o1 call [19.05209] [53.93675] [-0.07500]
o1 call [19.13626] [54.07213] [-0.07500]
o1 call [19.26463] [54.24168] [-0.07500]
o1 call [19.43845] [54.36629] [-0.07500]
o1 call [19.59049] [54.45336] [-0.07500]
o1 call [19.68069] [54.47899] [-0.07500]
o1 call [19.83672] [54.51110] [-0.07500]
o1 call [19.97053] [54.52715] [-0.07500]
o1 call [20.05015] [54.51930] [-0.07500]
o1 call [20.26036] [54.47899] [-0.07500]
o1 call [20.35059] [54.45334] [-0.07500]
o1 call [20.50260] [54.36632] [-0.07500]
o1 call [20.67644] [54.24168] [-0.07500]
o1 call [20.77466] [54.11534] [-0.07500]
o1 call [20.88899] [53.93680] [-0.07500]
o1 call [20.94276] [53.83843] [-0.07500]
o1 call [21.00037] [53.74932] [-0.07500]
o1 call [21.07840] [53.64485] [-0.07500]
o1 call [21.16582] [53.54397] [-0.07500]
o1 call [21.24053] [53.46876] [-0.07500]
o1 call [21.24053] [52.51217] [-0.07500]
o1 call [21.37609] [52.36990] [-0.07500]
o1 call [21.43839] [52.28966] [-0.07500]
o1 call [21.49318] [52.21303] [-0.07500]
o1 call [21.55142] [52.11867] [-0.07500]
o1 call [21.59120] [52.04364] [-0.07500]
o1 call [21.67570] [51.90851] [-0.07500]
o1 call [21.80418] [51.73965] [-0.07500]
o1 call [21.97847] [51.61463] [-0.07500]
o1 call [22.13047] [51.52759] [-0.07500]
o1 call [22.22069] [51.50193] [-0.07500]
o1 call [22.37672] [51.46985] [-0.07500]
o1 call [22.51055] [51.45377] [-0.07500]
o1 call [22.64433] [51.46983] [-0.07500]
o1 call [22.85370] [51.51588] [-0.07500]
o1 call [22.89061] [51.52759] [-0.07500]
o1 call [22.99678] [51.58616] [-0.07500]
o1 call [23.04258] [51.61461] [-0.07500]
o1 call [23.21642] [51.73925] [-0.07500]
o1 call [23.34481] [51.90879] [-0.07500]
o1 call [23.42896] [52.04412] [-0.07500]
o1 call [23.48269] [52.14239] [-0.07500]
o1 call [23.54037] [52.23160] [-0.07500]
o1 call [23.61835] [52.33607] [-0.07500]
o1 call [23.70580] [52.43696] [-0.07500]
o1 call [23.78050] [52.51217] [-0.07500]
G04 P0 ( dwell for no time -- G64 should not smooth over this point )
G00 Z0.50000 ( retract )

G00 X24.03453 Y49.26183 ( rapid move to begin. )
G01 F300.00000
( Mill infeed pass 1/1 )
o1 call [24.03453] [49.26183] [-0.07500]
G04 P0 ( dwell for no time -- G64 should not smooth over this point )
G01 F600.00000
o1 call [24.14728] [49.37595] [-0.07500]
o1 call [24.26526] [49.51233] [-0.07500]
o1 call [24.31827] [49.58883] [-0.07500]
o1 call [24.37054] [49.67466] [-0.07500]
o1 call [24.42929] [49.78238] [-0.07500]
o1 call [24.57991] [49.94542] [-0.07500]
o1 call [24.71352] [50.06333] [-0.07500]
o1 call [24.79983] [50.10846] [-0.07500]
o1 call [24.95350] [50.17455] [-0.07500]
o1 call [25.09642] [50.22193] [-0.07500]
o1 call [25.22088] [50.23224] [-0.07500]
o1 call [25.38817] [50.23231] [-0.07500]
o1 call [25.51082] [50.22231] [-0.07500]
o1 call [25.60524] [50.19302] [-0.07500]
o1 call [25.80925] [50.10854] [-0.07500]
o1 call [25.89403] [50.06437] [-0.07500]
o1 call [26.02911] [49.94542] [-0.07500]
o1 call [26.17991] [49.78248] [-0.07500]
o1 call [26.23864] [49.67420] [-0.07500]
o1 call [26.29068] [49.58881] [-0.07500]
o1 call [26.34394] [49.51200] [-0.07500]
o1 call [26.45235] [49.38525] [-0.07500]
o1 call [26.57453] [49.26196] [-0.07500]
G04 P0 ( dwell for no time -- G64 should not smooth over this point )
G00 Z0.50000 ( retract )

G00 X29.11453 Y49.26196 ( rapid move to begin. )
G01 F300.00000
( Mill infeed pass 1/1 )
o1 call [29.11453] [49.26196] [-0.07500]
G04 P0 ( dwell for no time -- G64 should not smooth over this point )
G01 F600.00000
o1 call [28.99235] [49.38525] [-0.07500]
o1 call [28.88394] [49.51200] [-0.07500]
o1 call [28.83068] [49.58881] [-0.07500]
o1 call [28.77864] [49.67420] [-0.07500]
o1 call [28.71991] [49.78248] [-0.07500]
o1 call [28.56911] [49.94542] [-0.07500]
o1 call [28.43403] [50.06437] [-0.07500]
o1 call [28.34925] [50.10854] [-0.07500]
o1 call [28.14524] [50.19302] [-0.07500]
o1 call [28.05082] [50.22231] [-0.07500]
o1 call [27.92814] [50.23231] [-0.07500]
o1 call [27.76088] [50.23224] [-0.07500]
o1 call [27.65801] [50.22371] [-0.07500]
o1 call [27.63642] [50.22193] [-0.07500]
o1 call [27.49350] [50.17455] [-0.07500]
o1 call [27.33983] [50.10846] [-0.07500]
o1 call [27.25352] [50.06333] [-0.07500]
o1 call [27.11991] [49.94542] [-0.07500]
o1 call [26.96929] [49.78238] [-0.07500]
o1 call [26.91054] [49.67466] [-0.07500]
o1 call [26.85827] [49.58883] [-0.07500]
o1 call [26.80526] [49.51233] [-0.07500]
o1 call [26.68728] [49.37595] [-0.07500]
o1 call [26.57453] [49.26196] [-0.07500]
o1 call [26.57453] [47.30716] [-0.07500]
o1 call [26.57453] [38.08382] [-0.07500]
o1 call [26.57453] [28.86049] [-0.07500]
o1 call [26.57453] [19.63715] [-0.07500]
o1 call [26.57453] [10.41381] [-0.07500]
o1 call [26.57453] [8.45897] [-0.07500]
o1 call [26.69667] [8.33570] [-0.07500]
o1 call [26.78410] [8.23534] [-0.07500]
o1 call [26.83505] [8.16829] [-0.07500]
o1 call [26.91041] [8.04672] [-0.07500]
o1 call [26.96914] [7.93847] [-0.07500]
o1 call [27.11994] [7.77553] [-0.07500]
o1 call [27.25504] [7.65658] [-0.07500]
o1 call [27.33980] [7.61241] [-0.07500]
o1 call [27.54381] [7.52788] [-0.07500]
o1 call [27.63825] [7.49862] [-0.07500]
o1 call [27.65801] [7.49701] [-0.07500]
o1 call [27.76088] [7.48861] [-0.07500]
o1 call [27.92817] [7.48869] [-0.07500]
o1 call [28.05263] [7.49900] [-0.07500]
o1 call [28.19555] [7.54637] [-0.07500]
o1 call [28.34922] [7.61249] [-0.07500]
o1 call [28.43553] [7.65762] [-0.07500]
o1 call [28.56914] [7.77550] [-0.07500]
o1 call [28.71976] [7.93857] [-0.07500]
o1 call [28.77853] [8.04627] [-0.07500]
o1 call [28.83081] [8.13212] [-0.07500]
o1 call [28.88379] [8.20860] [-0.07500]
o1 call [29.00177] [8.34500] [-0.07500]
o1 call [29.11453] [8.45897] [-0.07500]
o1 call [29.11453] [10.41381] [-0.07500]
o1 call [29.11453] [19.63715] [-0.07500]
o1 call [29.11453] [28.86049] [-0.07500]
o1 call [29.11453] [38.08382] [-0.07500]
o1 call [29.11453] [47.30716] [-0.07500]
o1 call [29.11453] [49.26196] [-0.07500]
o1 call [29.22728] [49.37595] [-0.07500]
o1 call [29.34526] [49.51233] [-0.07500]
o1 call [29.39827] [49.58883] [-0.07500]
o1 call [29.45054] [49.67466] [-0.07500]
o1 call [29.50929] [49.78238] [-0.07500]
o1 call [29.65991] [49.94542] [-0.07500]
o1 call [29.79352] [50.06333] [-0.07500]
o1 call [29.87983] [50.10846] [-0.07500]
o1 call [30.03350] [50.17455] [-0.07500]
o1 call [30.17642] [50.22193] [-0.07500]
o1 call [30.30088] [50.23224] [-0.07500]
o1 call [30.46814] [50.23231] [-0.07500]
o1 call [30.59082] [50.22231] [-0.07500]
o1 call [30.68524] [50.19302] [-0.07500]
o1 call [30.88925] [50.10854] [-0.07500]
o1 call [30.97403] [50.06437] [-0.07500]
o1 call [31.10911] [49.94542] [-0.07500]
o1 call [31.25991] [49.78248] [-0.07500]
o1 call [31.31864] [49.67420] [-0.07500]
o1 call [31.37068] [49.58881] [-0.07500]
o1 call [31.42394] [49.51200] [-0.07500]
o1 call [31.54238] [49.37519] [-0.07500]
o1 call [31.65453] [49.26183] [-0.07500]
o1 call [31.65453] [47.30716] [-0.07500]
o1 call [31.65453] [38.08382] [-0.07500]
o1 call [31.65453] [28.86049] [-0.07500]
o1 call [31.65453] [19.63715] [-0.07500]
o1 call [31.65453] [10.41381] [-0.07500]
o1 call [31.65453] [8.45897] [-0.07500]
o1 call [31.77667] [8.33570] [-0.07500]
o1 call [31.88513] [8.20890] [-0.07500]
o1 call [31.93837] [8.13214] [-0.07500]
o1 call [31.99041] [8.04672] [-0.07500]
o1 call [32.04914] [7.93847] [-0.07500]
o1 call [32.19994] [7.77553] [-0.07500]
o1 call [32.33504] [7.65658] [-0.07500]
o1 call [32.41980] [7.61241] [-0.07500]
o1 call [32.62381] [7.52788] [-0.07500]
o1 call [32.71825] [7.49862] [-0.07500]
o1 call [32.84088] [7.48861] [-0.07500]
o1 call [33.00817] [7.48869] [-0.07500]
o1 call [33.13263] [7.49900] [-0.07500]
o1 call [33.27555] [7.54637] [-0.07500]
o1 call [33.42922] [7.61249] [-0.07500]
o1 call [33.51553] [7.65762] [-0.07500]
o1 call [33.64914] [7.77550] [-0.07500]
o1 call [33.79976] [7.93857] [-0.07500]
o1 call [33.85853] [8.04627] [-0.07500]
o1 call [33.91081] [8.13212] [-0.07500]
o1 call [33.96379] [8.20860] [-0.07500]
o1 call [34.08177] [8.34500] [-0.07500]
o1 call [34.19453] [8.45897] [-0.07500]
G04 P0 ( dwell for no time -- G64 should not smooth over this point )
G00 Z0.50000 ( retract )

G00 X33.94053 Y5.94155 ( rapid move to begin. )
G01 F300.00000
( Mill infeed pass 1/1 )
o1 call [33.94053] [5.94155] [-0.07500]
G04 P0 ( dwell for no time -- G64 should not smooth over this point )
G01 F600.00000
o1 call [34.04634] [6.00263] [-0.07500]
o1 call [34.17167] [6.06669] [-0.07500]
o1 call [34.33100] [6.13761] [-0.07500]
o1 call [34.43087] [6.17606] [-0.07500]
o1 call [34.59016] [6.22780] [-0.07500]
o1 call [34.67296] [6.25005] [-0.07500]
o1 call [34.83227] [6.28389] [-0.07500]
o1 call [34.90446] [6.29534] [-0.07500]
o1 call [35.13090] [6.31561] [-0.07500]
o1 call [35.35729] [6.31206] [-0.07500]
o1 call [35.51660] [6.29532] [-0.07500]
o1 call [35.58876] [6.28384] [-0.07500]
o1 call [35.74807] [6.24995] [-0.07500]
o1 call [35.83082] [6.22770] [-0.07500]
o1 call [35.99010] [6.17594] [-0.07500]
o1 call [36.08992] [6.13751] [-0.07500]
o1 call [36.24923] [6.06657] [-0.07500]
o1 call [36.37448] [6.00251] [-0.07500]
o1 call [36.48051] [5.94127] [-0.07500]
o1 call [36.48053] [5.94127] [-0.07500]
o1 call [36.58657] [6.00248] [-0.07500]
o1 call [36.71187] [6.06654] [-0.07500]
o1 call [36.87118] [6.13746] [-0.07500]
o1 call [36.97100] [6.17589] [-0.07500]
o1 call [37.13028] [6.22763] [-0.07500]
o1 call [37.21304] [6.24985] [-0.07500]
o1 call [37.37237] [6.28371] [-0.07500]
o1 call [37.44448] [6.29514] [-0.07500]
o1 call [37.60381] [6.31188] [-0.07500]
o1 call [37.67087] [6.31541] [-0.07500]
o1 call [37.89724] [6.31185] [-0.07500]
o1 call [38.05654] [6.29509] [-0.07500]
o1 call [38.12868] [6.28363] [-0.07500]
o1 call [38.28796] [6.24975] [-0.07500]
o1 call [38.37064] [6.22755] [-0.07500]
o1 call [38.52992] [6.17579] [-0.07500]
o1 call [38.62975] [6.13733] [-0.07500]
o1 call [38.78903] [6.06639] [-0.07500]
o1 call [38.91425] [6.00235] [-0.07500]
o1 call [39.02053] [5.94099] [-0.07500]
o1 call [39.12682] [6.00235] [-0.07500]
o1 call [39.25205] [6.06636] [-0.07500]
o1 call [39.41138] [6.13728] [-0.07500]
o1 call [39.51115] [6.17568] [-0.07500]
o1 call [39.67044] [6.22742] [-0.07500]
o1 call [39.75314] [6.24965] [-0.07500]
o1 call [39.91245] [6.28351] [-0.07500]
o1 call [39.98453] [6.29494] [-0.07500]
o1 call [40.14384] [6.31168] [-0.07500]
o1 call [40.37018] [6.31518] [-0.07500]
o1 call [40.43718] [6.31165] [-0.07500]
o1 call [40.59649] [6.29489] [-0.07500]
o1 call [40.66860] [6.28343] [-0.07500]
o1 call [40.82789] [6.24957] [-0.07500]
o1 call [40.91049] [6.22735] [-0.07500]
o1 call [41.06977] [6.17558] [-0.07500]
o1 call [41.16954] [6.13715] [-0.07500]
o1 call [41.32885] [6.06624] [-0.07500]
o1 call [41.45400] [6.00223] [-0.07500]
o1 call [41.56053] [5.94071] [-0.07500]
o1 call [41.66705] [6.00220] [-0.07500]
o1 call [41.79222] [6.06618] [-0.07500]
o1 call [41.95156] [6.13710] [-0.07500]
o1 call [42.05128] [6.17551] [-0.07500]
o1 call [42.21056] [6.22725] [-0.07500]
o1 call [42.29321] [6.24945] [-0.07500]
o1 call [42.45252] [6.28330] [-0.07500]
o1 call [42.52458] [6.29473] [-0.07500]
o1 call [42.68389] [6.31147] [-0.07500]
o1 call [42.91015] [6.31498] [-0.07500]
o1 call [42.97716] [6.31145] [-0.07500]
o1 call [43.13647] [6.29468] [-0.07500]
o1 call [43.20848] [6.28325] [-0.07500]
o1 call [43.36779] [6.24937] [-0.07500]
o1 call [43.45041] [6.22714] [-0.07500]
o1 call [43.60970] [6.17538] [-0.07500]
o1 call [43.70937] [6.13700] [-0.07500]
o1 call [43.81079] [6.09184] [-0.07500]
o1 call [43.86723] [5.92900] [-0.07500]
o1 call [43.90990] [5.76972] [-0.07500]
o1 call [43.92920] [5.67922] [-0.07500]
o1 call [43.95442] [5.51991] [-0.07500]
o1 call [43.96311] [5.43756] [-0.07500]
o1 call [43.97248] [5.23845] [-0.07500]
o1 call [43.97248] [4.22250] [-0.07500]
o1 call [43.96311] [4.02339] [-0.07500]
o1 call [43.95442] [3.94104] [-0.07500]
o1 call [43.92920] [3.78173] [-0.07500]
o1 call [43.90990] [3.69123] [-0.07500]
o1 call [43.86723] [3.53195] [-0.07500]
o1 call [43.81079] [3.36911] [-0.07500]
o1 call [43.70937] [3.32395] [-0.07500]
o1 call [43.60965] [3.28554] [-0.07500]
o1 call [43.45036] [3.23378] [-0.07500]
o1 call [43.36779] [3.21158] [-0.07500]
o1 call [43.20850] [3.17772] [-0.07500]
o1 call [43.13647] [3.16627] [-0.07500]
o1 call [42.97716] [3.14950] [-0.07500]
o1 call [42.75087] [3.14597] [-0.07500]
o1 call [42.52458] [3.16622] [-0.07500]
o1 call [42.45252] [3.17765] [-0.07500]
o1 call [42.29321] [3.21150] [-0.07500]
o1 call [42.21064] [3.23370] [-0.07500]
o1 call [42.05133] [3.28544] [-0.07500]
o1 call [41.95156] [3.32385] [-0.07500]
o1 call [41.79222] [3.39476] [-0.07500]
o1 call [41.66708] [3.45875] [-0.07500]
o1 call [41.56053] [3.52024] [-0.07500]
o1 call [41.56053] [5.94071] [-0.07500]
o1 call [41.56053] [3.52024] [-0.07500]
o1 call [41.45400] [3.45872] [-0.07500]
o1 call [41.32885] [3.39471] [-0.07500]
o1 call [41.16954] [3.32380] [-0.07500]
o1 call [41.06977] [3.28537] [-0.07500]
o1 call [40.91049] [3.23360] [-0.07500]
o1 call [40.82789] [3.21140] [-0.07500]
o1 call [40.66860] [3.17752] [-0.07500]
o1 call [40.59649] [3.16606] [-0.07500]
o1 call [40.43718] [3.14930] [-0.07500]
o1 call [40.21087] [3.14577] [-0.07500]
o1 call [39.98453] [3.16601] [-0.07500]
o1 call [39.91245] [3.17744] [-0.07500]
o1 call [39.75314] [3.21130] [-0.07500]
o1 call [39.67044] [3.23353] [-0.07500]
o1 call [39.51115] [3.28527] [-0.07500]
o1 call [39.41138] [3.32367] [-0.07500]
o1 call [39.25205] [3.39459] [-0.07500]
o1 call [39.12682] [3.45859] [-0.07500]
o1 call [39.02053] [3.51996] [-0.07500]
o1 call [39.02053] [5.94099] [-0.07500]
o1 call [39.02053] [3.51996] [-0.07500]
o1 call [38.91425] [3.45859] [-0.07500]
o1 call [38.78903] [3.39456] [-0.07500]
o1 call [38.62972] [3.32362] [-0.07500]
o1 call [38.52992] [3.28519] [-0.07500]
o1 call [38.37062] [3.23342] [-0.07500]
o1 call [38.28796] [3.21120] [-0.07500]
o1 call [38.12868] [3.17732] [-0.07500]
o1 call [38.05654] [3.16586] [-0.07500]
o1 call [37.89724] [3.14910] [-0.07500]
o1 call [37.83018] [3.14557] [-0.07500]
o1 call [37.60381] [3.14907] [-0.07500]
o1 call [37.44451] [3.16581] [-0.07500]
o1 call [37.37237] [3.17726] [-0.07500]
o1 call [37.21304] [3.21110] [-0.07500]
o1 call [37.13028] [3.23335] [-0.07500]
o1 call [36.97100] [3.28509] [-0.07500]
o1 call [36.87120] [3.32352] [-0.07500]
o1 call [36.71187] [3.39443] [-0.07500]
o1 call [36.58660] [3.45847] [-0.07500]
o1 call [36.48053] [3.51968] [-0.07500]
o1 call [36.48053] [5.94127] [-0.07500]
o1 call [36.48053] [3.51968] [-0.07500]
o1 call [36.48051] [3.51967] [-0.07500]
o1 call [36.37448] [3.45844] [-0.07500]
o1 call [36.24921] [3.39438] [-0.07500]
o1 call [36.08992] [3.32347] [-0.07500]
o1 call [35.99005] [3.28499] [-0.07500]
o1 call [35.83077] [3.23322] [-0.07500]
o1 call [35.74807] [3.21100] [-0.07500]
o1 call [35.58878] [3.17711] [-0.07500]
o1 call [35.51660] [3.16566] [-0.07500]
o1 call [35.35729] [3.14889] [-0.07500]
o1 call [35.29015] [3.14536] [-0.07500]
o1 call [35.06376] [3.14887] [-0.07500]
o1 call [34.90446] [3.16561] [-0.07500]
o1 call [34.83224] [3.17706] [-0.07500]
o1 call [34.67296] [3.21092] [-0.07500]
o1 call [34.59023] [3.23314] [-0.07500]
o1 call [34.43092] [3.28488] [-0.07500]
o1 call [34.33100] [3.32334] [-0.07500]
o1 call [34.17169] [3.39426] [-0.07500]
o1 call [34.04634] [3.45832] [-0.07500]
o1 call [33.94053] [3.51940] [-0.07500]
o1 call [33.83471] [3.45832] [-0.07500]
o1 call [33.70941] [3.39423] [-0.07500]
o1 call [33.55010] [3.32329] [-0.07500]
o1 call [33.45018] [3.28481] [-0.07500]
o1 call [33.29089] [3.23304] [-0.07500]
o1 call [33.20814] [3.21079] [-0.07500]
o1 call [33.04886] [3.17693] [-0.07500]
o1 call [32.97662] [3.16545] [-0.07500]
o1 call [32.81734] [3.14869] [-0.07500]
o1 call [32.59087] [3.14513] [-0.07500]
o1 call [32.52371] [3.14866] [-0.07500]
o1 call [32.36440] [3.16540] [-0.07500]
o1 call [32.29219] [3.17686] [-0.07500]
o1 call [32.05788] [3.23045] [-0.07500]
o1 call [31.89608] [3.55534] [-0.07500]
o1 call [31.75148] [3.78379] [-0.07500]
o1 call [31.70411] [3.87399] [-0.07500]
o1 call [31.64856] [3.96454] [-0.07500]
o1 call [31.60352] [4.03022] [-0.07500]
o1 call [31.52948] [4.12679] [-0.07500]
o1 call [31.40053] [4.26847] [-0.07500]
o1 call [31.40053] [5.19245] [-0.07500]
o1 call [31.52948] [5.33413] [-0.07500]
o1 call [31.60355] [5.43073] [-0.07500]
o1 call [31.64856] [5.49639] [-0.07500]
o1 call [31.70408] [5.58694] [-0.07500]
o1 call [31.75148] [5.67713] [-0.07500]
o1 call [31.89608] [5.90561] [-0.07500]
o1 call [32.05788] [6.23050] [-0.07500]
o1 call [32.13286] [6.25026] [-0.07500]
o1 call [32.29219] [6.28409] [-0.07500]
o1 call [32.36440] [6.29557] [-0.07500]
o1 call [32.52371] [6.31228] [-0.07500]
o1 call [32.75015] [6.31579] [-0.07500]
o1 call [32.97665] [6.29552] [-0.07500]
o1 call [33.04886] [6.28404] [-0.07500]
o1 call [33.20814] [6.25016] [-0.07500]
o1 call [33.29089] [6.22791] [-0.07500]
o1 call [33.45018] [6.17614] [-0.07500]
o1 call [33.55010] [6.13766] [-0.07500]
o1 call [33.70941] [6.06672] [-0.07500]
o1 call [33.83473] [6.00263] [-0.07500]
o1 call [33.94053] [5.94155] [-0.07500]
o1 call [33.94053] [3.51940] [-0.07500]
G04 P0 ( dwell for no time -- G64 should not smooth over this point )
G00 Z0.50000 ( retract )

G00 X31.65453 Y8.45897 ( rapid move to begin. )
G01 F300.00000
( Mill infeed pass 1/1 )
o1 call [31.65453] [8.45897] [-0.07500]
G04 P0 ( dwell for no time -- G64 should not smooth over this point )
G01 F600.00000
o1 call [31.54177] [8.34500] [-0.07500]
o1 call [31.42379] [8.20860] [-0.07500]
o1 call [31.37081] [8.13212] [-0.07500]
o1 call [31.31853] [8.04627] [-0.07500]
o1 call [31.25976] [7.93857] [-0.07500]
o1 call [31.10914] [7.77550] [-0.07500]
o1 call [30.97553] [7.65762] [-0.07500]
o1 call [30.88922] [7.61249] [-0.07500]
o1 call [30.73555] [7.54637] [-0.07500]
o1 call [30.59263] [7.49900] [-0.07500]
o1 call [30.46817] [7.48869] [-0.07500]
o1 call [30.30088] [7.48861] [-0.07500]
o1 call [30.17825] [7.49862] [-0.07500]
o1 call [30.08381] [7.52788] [-0.07500]
o1 call [29.87980] [7.61241] [-0.07500]
o1 call [29.79504] [7.65658] [-0.07500]
o1 call [29.65994] [7.77553] [-0.07500]
o1 call [29.50914] [7.93847] [-0.07500]
o1 call [29.45041] [8.04672] [-0.07500]
o1 call [29.39837] [8.13214] [-0.07500]
o1 call [29.34513] [8.20890] [-0.07500]
o1 call [29.23667] [8.33570] [-0.07500]
o1 call [29.11453] [8.45897] [-0.07500]
G04 P0 ( dwell for no time -- G64 should not smooth over this point )
G00 Z0.50000 ( retract )

G00 X26.32053 Y4.26642 ( rapid move to begin. )
G01 F300.00000
( Mill infeed pass 1/1 )
o1 call [26.32053] [4.26642] [-0.07500]
G04 P0 ( dwell for no time -- G64 should not smooth over this point )
G01 F600.00000
o1 call [26.23592] [4.17802] [-0.07500]
o1 call [26.15710] [4.08407] [-0.07500]
o1 call [26.11796] [4.03022] [-0.07500]
o1 call [26.05596] [3.94122] [-0.07500]
o1 call [25.96978] [3.78369] [-0.07500]
o1 call [25.88530] [3.64854] [-0.07500]
o1 call [25.75685] [3.47963] [-0.07500]
o1 call [25.58258] [3.35461] [-0.07500]
o1 call [25.43061] [3.26759] [-0.07500]
o1 call [25.34036] [3.24193] [-0.07500]
o1 call [25.13015] [3.20162] [-0.07500]
o1 call [25.05053] [3.19377] [-0.07500]
o1 call [24.91672] [3.20983] [-0.07500]
o1 call [24.76069] [3.24193] [-0.07500]
o1 call [24.67047] [3.26759] [-0.07500]
o1 call [24.51845] [3.35463] [-0.07500]
o1 call [24.34466] [3.47925] [-0.07500]
o1 call [24.21624] [3.64882] [-0.07500]
o1 call [24.12226] [3.80063] [-0.07500]
o1 call [24.06175] [4.03845] [-0.07500]
o1 call [24.03455] [4.22250] [-0.07500]
o1 call [24.03453] [5.23845] [-0.07500]
o1 call [24.07207] [5.47264] [-0.07500]
o1 call [24.12226] [5.66029] [-0.07500]
o1 call [24.21626] [5.81213] [-0.07500]
o1 call [24.34466] [5.98168] [-0.07500]
o1 call [24.51845] [6.10629] [-0.07500]
o1 call [24.67047] [6.19334] [-0.07500]
o1 call [24.76069] [6.21899] [-0.07500]
o1 call [24.91672] [6.25110] [-0.07500]
o1 call [25.05053] [6.26715] [-0.07500]
o1 call [25.18433] [6.25110] [-0.07500]
o1 call [25.34036] [6.21899] [-0.07500]
o1 call [25.43061] [6.19334] [-0.07500]
o1 call [25.58258] [6.10632] [-0.07500]
o1 call [25.75665] [5.98148] [-0.07500]
o1 call [25.88530] [5.81241] [-0.07500]
o1 call [25.96975] [5.67726] [-0.07500]
o1 call [26.05596] [5.51970] [-0.07500]
o1 call [26.11793] [5.43073] [-0.07500]
o1 call [26.15710] [5.37685] [-0.07500]
o1 call [26.23592] [5.28292] [-0.07500]
o1 call [26.32053] [5.19451] [-0.07500]
o1 call [26.32053] [4.26642] [-0.07500]
G04 P0 ( dwell for no time -- G64 should not smooth over this point )
G00 Z0.50000 ( retract )

G00 X21.49453 Y8.45897 ( rapid move to begin. )
G01 F300.00000
( Mill infeed pass 1/1 )
o1 call [21.49453] [8.45897] [-0.07500]
G04 P0 ( dwell for no time -- G64 should not smooth over this point )
G01 F600.00000
o1 call [21.61667] [8.33570] [-0.07500]
o1 call [21.72513] [8.20890] [-0.07500]
o1 call [21.77837] [8.13214] [-0.07500]
o1 call [21.83041] [8.04672] [-0.07500]
o1 call [21.88914] [7.93847] [-0.07500]
o1 call [22.03994] [7.77553] [-0.07500]
o1 call [22.17504] [7.65658] [-0.07500]
o1 call [22.25980] [7.61241] [-0.07500]
o1 call [22.46381] [7.52788] [-0.07500]
o1 call [22.55825] [7.49862] [-0.07500]
o1 call [22.68088] [7.48861] [-0.07500]
o1 call [22.84817] [7.48869] [-0.07500]
o1 call [22.97263] [7.49900] [-0.07500]
o1 call [23.11555] [7.54637] [-0.07500]
o1 call [23.26922] [7.61249] [-0.07500]
o1 call [23.35553] [7.65762] [-0.07500]
o1 call [23.48914] [7.77550] [-0.07500]
o1 call [23.63976] [7.93857] [-0.07500]
o1 call [23.69853] [8.04627] [-0.07500]
o1 call [23.75081] [8.13212] [-0.07500]
o1 call [23.80379] [8.20860] [-0.07500]
o1 call [23.92177] [8.34500] [-0.07500]
o1 call [24.03453] [8.45897] [-0.07500]
G04 P0 ( dwell for no time -- G64 should not smooth over this point )
G00 Z0.50000 ( retract )

G00 X26.57453 Y8.45897 ( rapid move to begin. )
G01 F300.00000
( Mill infeed pass 1/1 )
o1 call [26.57453] [8.45897] [-0.07500]
G04 P0 ( dwell for no time -- G64 should not smooth over this point )
G01 F600.00000
o1 call [26.46177] [8.34500] [-0.07500]
o1 call [26.34379] [8.20860] [-0.07500]
o1 call [26.29081] [8.13212] [-0.07500]
o1 call [26.23853] [8.04627] [-0.07500]
o1 call [26.17976] [7.93857] [-0.07500]
o1 call [26.02914] [7.77550] [-0.07500]
o1 call [25.89553] [7.65762] [-0.07500]
o1 call [25.80922] [7.61249] [-0.07500]
o1 call [25.65555] [7.54637] [-0.07500]
o1 call [25.51263] [7.49900] [-0.07500]
o1 call [25.38817] [7.48869] [-0.07500]
o1 call [25.22088] [7.48861] [-0.07500]
o1 call [25.09825] [7.49862] [-0.07500]
o1 call [25.00381] [7.52788] [-0.07500]
o1 call [24.79980] [7.61241] [-0.07500]
o1 call [24.71504] [7.65658] [-0.07500]
o1 call [24.57994] [7.77553] [-0.07500]
o1 call [24.42914] [7.93847] [-0.07500]
o1 call [24.37041] [8.04672] [-0.07500]
o1 call [24.31837] [8.13214] [-0.07500]
o1 call [24.26513] [8.20890] [-0.07500]
o1 call [24.15667] [8.33570] [-0.07500]
o1 call [24.03453] [8.45897] [-0.07500]
o1 call [24.03453] [10.41381] [-0.07500]
o1 call [24.03453] [19.63715] [-0.07500]
o1 call [24.03453] [28.86049] [-0.07500]
o1 call [24.03453] [38.08382] [-0.07500]
o1 call [24.03453] [47.30716] [-0.07500]
o1 call [24.03453] [49.26183] [-0.07500]
o1 call [23.92238] [49.37519] [-0.07500]
o1 call [23.80394] [49.51200] [-0.07500]
o1 call [23.75068] [49.58881] [-0.07500]
o1 call [23.69864] [49.67420] [-0.07500]
o1 call [23.63991] [49.78248] [-0.07500]
o1 call [23.48911] [49.94542] [-0.07500]
o1 call [23.35403] [50.06437] [-0.07500]
o1 call [23.26925] [50.10854] [-0.07500]
o1 call [23.06524] [50.19302] [-0.07500]
o1 call [22.97082] [50.22231] [-0.07500]
o1 call [22.84817] [50.23231] [-0.07500]
o1 call [22.68091] [50.23224] [-0.07500]
o1 call [22.55642] [50.22193] [-0.07500]
o1 call [22.41350] [50.17455] [-0.07500]
o1 call [22.25983] [50.10846] [-0.07500]
o1 call [22.17352] [50.06333] [-0.07500]
o1 call [22.03991] [49.94545] [-0.07500]
o1 call [21.88929] [49.78238] [-0.07500]
o1 call [21.83047] [49.67450] [-0.07500]
o1 call [21.77827] [49.58883] [-0.07500]
o1 call [21.72544] [49.51255] [-0.07500]
o1 call [21.60733] [49.37598] [-0.07500]
o1 call [21.49453] [49.26196] [-0.07500]
o1 call [21.49453] [47.30716] [-0.07500]
o1 call [21.49453] [38.08382] [-0.07500]
o1 call [21.49453] [28.86049] [-0.07500]
o1 call [21.49453] [19.63715] [-0.07500]
o1 call [21.49453] [10.41381] [-0.07500]
o1 call [21.49453] [8.45897] [-0.07500]
o1 call [21.38177] [8.34500] [-0.07500]
o1 call [21.26379] [8.20860] [-0.07500]
o1 call [21.21081] [8.13212] [-0.07500]
o1 call [21.15853] [8.04627] [-0.07500]
o1 call [21.09978] [7.93857] [-0.07500]
o1 call [20.94914] [7.77550] [-0.07500]
o1 call [20.81556] [7.65762] [-0.07500]
o1 call [20.72922] [7.61246] [-0.07500]
o1 call [20.57555] [7.54637] [-0.07500]
o1 call [20.43265] [7.49900] [-0.07500]
o1 call [20.30814] [7.48869] [-0.07500]
o1 call [20.14088] [7.48861] [-0.07500]
o1 call [20.01828] [7.49862] [-0.07500]
o1 call [19.92384] [7.52788] [-0.07500]
o1 call [19.71983] [7.61241] [-0.07500]
o1 call [19.63504] [7.65658] [-0.07500]
o1 call [19.49994] [7.77553] [-0.07500]
o1 call [19.34914] [7.93847] [-0.07500]
o1 call [19.29044] [8.04672] [-0.07500]
o1 call [19.23840] [8.13214] [-0.07500]
o1 call [19.18513] [8.20890] [-0.07500]
o1 call [19.07667] [8.33570] [-0.07500]
o1 call [18.95453] [8.45897] [-0.07500]
o1 call [18.95453] [10.41381] [-0.07500]
o1 call [18.95453] [19.63715] [-0.07500]
o1 call [18.95453] [28.86049] [-0.07500]
o1 call [18.95453] [38.08382] [-0.07500]
o1 call [18.95453] [47.30716] [-0.07500]
o1 call [18.95453] [49.26183] [-0.07500]
o1 call [19.06730] [49.37595] [-0.07500]
o1 call [19.18528] [49.51233] [-0.07500]
o1 call [19.23827] [49.58883] [-0.07500]
o1 call [19.29054] [49.67466] [-0.07500]
o1 call [19.34929] [49.78238] [-0.07500]
o1 call [19.49994] [49.94542] [-0.07500]
o1 call [19.63352] [50.06333] [-0.07500]
o1 call [19.71983] [50.10846] [-0.07500]
o1 call [19.87350] [50.17455] [-0.07500]
o1 call [20.01642] [50.22193] [-0.07500]
o1 call [20.14088] [50.23224] [-0.07500]
o1 call [20.30814] [50.23231] [-0.07500]
o1 call [20.43082] [50.22231] [-0.07500]
o1 call [20.52524] [50.19302] [-0.07500]
o1 call [20.72925] [50.10854] [-0.07500]
o1 call [20.81403] [50.06437] [-0.07500]
o1 call [20.94911] [49.94542] [-0.07500]
o1 call [21.09994] [49.78248] [-0.07500]
o1 call [21.15876] [49.67407] [-0.07500]
o1 call [21.23405] [49.55258] [-0.07500]
o1 call [21.28505] [49.48545] [-0.07500]
o1 call [21.37238] [49.38525] [-0.07500]
o1 call [21.49453] [49.26196] [-0.07500]
G04 P0 ( dwell for no time -- G64 should not smooth over this point )
G00 Z0.50000 ( retract )

G00 X18.95453 Y49.26183 ( rapid move to begin. )
G01 F300.00000
( Mill infeed pass 1/1 )
o1 call [18.95453] [49.26183] [-0.07500]
G04 P0 ( dwell for no time -- G64 should not smooth over this point )
G01 F600.00000
o1 call [18.84238] [49.37519] [-0.07500]
o1 call [18.83551] [49.38313] [-0.07500]
o1 call [18.72394] [49.51200] [-0.07500]
o1 call [18.67068] [49.58881] [-0.07500]
o1 call [18.61864] [49.67420] [-0.07500]
o1 call [18.55991] [49.78248] [-0.07500]
o1 call [18.40911] [49.94542] [-0.07500]
o1 call [18.27403] [50.06437] [-0.07500]
o1 call [18.18925] [50.10854] [-0.07500]
o1 call [17.98524] [50.19302] [-0.07500]
o1 call [17.89082] [50.22231] [-0.07500]
o1 call [17.76817] [50.23231] [-0.07500]
o1 call [17.60088] [50.23224] [-0.07500]
o1 call [17.47642] [50.22193] [-0.07500]
o1 call [17.33350] [50.17455] [-0.07500]
o1 call [17.17983] [50.10846] [-0.07500]
o1 call [17.09352] [50.06333] [-0.07500]
o1 call [16.95991] [49.94542] [-0.07500]
o1 call [16.80929] [49.78238] [-0.07500]
o1 call [16.75054] [49.67466] [-0.07500]
o1 call [16.69827] [49.58883] [-0.07500]
o1 call [16.64526] [49.51233] [-0.07500]
o1 call [16.52728] [49.37595] [-0.07500]
o1 call [16.41453] [49.26183] [-0.07500]
o1 call [16.41453] [47.30716] [-0.07500]
o1 call [16.41453] [38.08382] [-0.07500]
o1 call [16.41453] [28.86049] [-0.07500]
o1 call [16.41453] [19.63715] [-0.07500]
o1 call [16.41453] [10.41381] [-0.07500]
o1 call [16.41453] [8.45897] [-0.07500]
o1 call [16.53667] [8.33570] [-0.07500]
o1 call [16.64513] [8.20890] [-0.07500]
o1 call [16.69837] [8.13214] [-0.07500]
o1 call [16.75042] [8.04672] [-0.07500]
o1 call [16.80914] [7.93847] [-0.07500]
o1 call [16.95994] [7.77553] [-0.07500]
o1 call [17.09504] [7.65658] [-0.07500]
o1 call [17.17980] [7.61241] [-0.07500]
o1 call [17.38381] [7.52788] [-0.07500]
o1 call [17.47825] [7.49862] [-0.07500]
o1 call [17.60088] [7.48861] [-0.07500]
o1 call [17.76817] [7.48869] [-0.07500]
o1 call [17.89263] [7.49900] [-0.07500]
o1 call [18.03555] [7.54637] [-0.07500]
o1 call [18.18922] [7.61249] [-0.07500]
o1 call [18.27553] [7.65762] [-0.07500]
o1 call [18.40914] [7.77550] [-0.07500]
o1 call [18.55976] [7.93857] [-0.07500]
o1 call [18.61853] [8.04627] [-0.07500]
o1 call [18.67081] [8.13212] [-0.07500]
o1 call [18.72379] [8.20860] [-0.07500]
o1 call [18.83551] [8.33775] [-0.07500]
o1 call [18.84177] [8.34500] [-0.07500]
o1 call [18.95453] [8.45897] [-0.07500]
G04 P0 ( dwell for no time -- G64 should not smooth over this point )
G00 Z0.50000 ( retract )

G00 X8.54053 Y3.52055 ( rapid move to begin. )
G01 F300.00000
( Mill infeed pass 1/1 )
o1 call [8.54053] [3.52055] [-0.07500]
G04 P0 ( dwell for no time -- G64 should not smooth over this point )
G01 F600.00000
o1 call [8.54053] [5.94040] [-0.07500]
o1 call [8.64731] [6.00207] [-0.07500]
o1 call [8.77243] [6.06603] [-0.07500]
o1 call [8.93174] [6.13695] [-0.07500]
o1 call [9.03141] [6.17533] [-0.07500]
o1 call [9.19066] [6.22709] [-0.07500]
o1 call [9.27329] [6.24929] [-0.07500]
o1 call [9.43260] [6.28315] [-0.07500]
o1 call [9.50461] [6.29458] [-0.07500]
o1 call [9.66392] [6.31132] [-0.07500]
o1 call [9.73087] [6.31485] [-0.07500]
o1 call [9.95713] [6.31132] [-0.07500]
o1 call [10.01300] [6.30545] [-0.07500]
o1 call [10.11644] [6.29458] [-0.07500]
o1 call [10.18848] [6.28315] [-0.07500]
o1 call [10.34776] [6.24929] [-0.07500]
o1 call [10.43031] [6.22709] [-0.07500]
o1 call [10.58962] [6.17535] [-0.07500]
o1 call [10.68931] [6.13695] [-0.07500]
o1 call [10.84862] [6.06603] [-0.07500]
o1 call [10.97374] [6.00207] [-0.07500]
o1 call [11.08053] [5.94040] [-0.07500]
o1 call [11.08053] [3.52055] [-0.07500]
o1 call [11.08053] [5.94040] [-0.07500]
o1 call [11.18731] [6.00207] [-0.07500]
o1 call [11.31243] [6.06603] [-0.07500]
o1 call [11.47174] [6.13695] [-0.07500]
o1 call [11.57141] [6.17533] [-0.07500]
o1 call [11.73066] [6.22709] [-0.07500]
o1 call [11.81329] [6.24929] [-0.07500]
o1 call [11.97260] [6.28315] [-0.07500]
o1 call [12.04461] [6.29458] [-0.07500]
o1 call [12.20392] [6.31132] [-0.07500]
o1 call [12.27090] [6.31485] [-0.07500]
o1 call [12.49713] [6.31132] [-0.07500]
o1 call [12.65644] [6.29458] [-0.07500]
o1 call [12.72845] [6.28315] [-0.07500]
o1 call [12.88776] [6.24929] [-0.07500]
o1 call [12.97039] [6.22709] [-0.07500]
o1 call [13.12965] [6.17533] [-0.07500]
o1 call [13.22931] [6.13695] [-0.07500]
o1 call [13.38862] [6.06603] [-0.07500]
o1 call [13.51374] [6.00207] [-0.07500]
o1 call [13.62053] [5.94040] [-0.07500]
o1 call [13.62053] [3.52055] [-0.07500]
o1 call [13.62053] [5.94040] [-0.07500]
o1 call [13.72731] [6.00207] [-0.07500]
o1 call [13.85243] [6.06603] [-0.07500]
o1 call [14.01174] [6.13695] [-0.07500]
o1 call [14.11141] [6.17533] [-0.07500]
o1 call [14.27066] [6.22709] [-0.07500]
o1 call [14.35329] [6.24929] [-0.07500]
o1 call [14.51260] [6.28315] [-0.07500]
o1 call [14.58461] [6.29458] [-0.07500]
o1 call [14.74392] [6.31132] [-0.07500]
o1 call [14.81087] [6.31485] [-0.07500]
o1 call [15.03713] [6.31132] [-0.07500]
o1 call [15.19644] [6.29458] [-0.07500]
o1 call [15.26845] [6.28315] [-0.07500]
o1 call [15.42776] [6.24929] [-0.07500]
o1 call [15.51039] [6.22709] [-0.07500]
o1 call [15.66965] [6.17533] [-0.07500]
o1 call [15.76931] [6.13695] [-0.07500]
o1 call [15.92862] [6.06603] [-0.07500]
o1 call [16.05374] [6.00207] [-0.07500]
o1 call [16.16053] [5.94040] [-0.07500]
o1 call [16.16053] [3.52055] [-0.07500]
o1 call [16.16053] [5.94040] [-0.07500]
o1 call [16.26731] [6.00207] [-0.07500]
o1 call [16.39243] [6.06603] [-0.07500]
o1 call [16.55174] [6.13695] [-0.07500]
o1 call [16.65141] [6.17533] [-0.07500]
o1 call [16.81066] [6.22709] [-0.07500]
o1 call [16.89329] [6.24929] [-0.07500]
o1 call [17.05260] [6.28315] [-0.07500]
o1 call [17.12461] [6.29458] [-0.07500]
o1 call [17.35087] [6.31485] [-0.07500]
o1 call [17.57713] [6.31132] [-0.07500]
o1 call [17.73644] [6.29458] [-0.07500]
o1 call [17.80848] [6.28315] [-0.07500]
o1 call [17.96776] [6.24929] [-0.07500]
o1 call [18.05031] [6.22709] [-0.07500]
o1 call [18.20962] [6.17535] [-0.07500]
o1 call [18.30931] [6.13695] [-0.07500]
o1 call [18.46862] [6.06603] [-0.07500]
o1 call [18.59374] [6.00207] [-0.07500]
o1 call [18.70053] [5.94040] [-0.07500]
o1 call [18.70053] [3.52055] [-0.07500]
o1 call [18.80731] [3.45887] [-0.07500]
o1 call [18.83551] [3.44446] [-0.07500]
o1 call [18.93243] [3.39492] [-0.07500]
o1 call [19.09176] [3.32400] [-0.07500]
o1 call [19.19143] [3.28562] [-0.07500]
o1 call [19.35066] [3.23386] [-0.07500]
o1 call [19.43329] [3.21166] [-0.07500]
o1 call [19.59260] [3.17780] [-0.07500]
o1 call [19.66463] [3.16637] [-0.07500]
o1 call [19.82394] [3.14963] [-0.07500]
o1 call [20.05015] [3.14610] [-0.07500]
o1 call [20.27644] [3.16637] [-0.07500]
o1 call [20.34848] [3.17780] [-0.07500]
o1 call [20.50776] [3.21166] [-0.07500]
o1 call [20.59034] [3.23386] [-0.07500]
o1 call [20.74962] [3.28560] [-0.07500]
o1 call [20.84931] [3.32400] [-0.07500]
o1 call [20.95081] [3.36919] [-0.07500]
o1 call [21.00723] [3.53195] [-0.07500]
o1 call [21.04990] [3.69123] [-0.07500]
o1 call [21.06920] [3.78173] [-0.07500]
o1 call [21.09445] [3.94104] [-0.07500]
o1 call [21.10311] [4.02339] [-0.07500]
o1 call [21.11248] [4.22250] [-0.07500]
o1 call [21.11248] [5.23845] [-0.07500]
o1 call [21.10311] [5.43756] [-0.07500]
o1 call [21.09445] [5.51991] [-0.07500]
o1 call [21.06920] [5.67922] [-0.07500]
o1 call [21.04990] [5.76972] [-0.07500]
o1 call [21.00723] [5.92900] [-0.07500]
o1 call [20.95081] [6.09176] [-0.07500]
o1 call [20.84931] [6.13695] [-0.07500]
o1 call [20.74962] [6.17535] [-0.07500]
o1 call [20.59034] [6.22709] [-0.07500]
o1 call [20.50776] [6.24929] [-0.07500]
o1 call [20.34848] [6.28315] [-0.07500]
o1 call [20.27644] [6.29458] [-0.07500]
o1 call [20.11713] [6.31132] [-0.07500]
o1 call [20.05015] [6.31485] [-0.07500]
o1 call [19.82394] [6.31132] [-0.07500]
o1 call [19.66463] [6.29458] [-0.07500]
o1 call [19.59260] [6.28315] [-0.07500]
o1 call [19.43329] [6.24929] [-0.07500]
o1 call [19.35066] [6.22709] [-0.07500]
o1 call [19.19143] [6.17533] [-0.07500]
o1 call [19.09176] [6.13695] [-0.07500]
o1 call [18.93243] [6.06603] [-0.07500]
o1 call [18.83551] [6.01649] [-0.07500]
o1 call [18.80731] [6.00207] [-0.07500]
o1 call [18.70053] [5.94040] [-0.07500]
o1 call [18.70053] [3.52055] [-0.07500]
o1 call [18.59374] [3.45887] [-0.07500]
o1 call [18.46862] [3.39492] [-0.07500]
o1 call [18.30931] [3.32400] [-0.07500]
o1 call [18.20962] [3.28560] [-0.07500]
o1 call [18.05031] [3.23386] [-0.07500]
o1 call [17.96776] [3.21166] [-0.07500]
o1 call [17.80848] [3.17780] [-0.07500]
o1 call [17.73644] [3.16637] [-0.07500]
o1 call [17.51015] [3.14610] [-0.07500]
o1 call [17.28392] [3.14963] [-0.07500]
o1 call [17.12461] [3.16637] [-0.07500]
o1 call [17.05260] [3.17780] [-0.07500]
o1 call [16.89329] [3.21166] [-0.07500]
o1 call [16.81066] [3.23386] [-0.07500]
o1 call [16.65141] [3.28562] [-0.07500]
o1 call [16.55174] [3.32400] [-0.07500]
o1 call [16.39243] [3.39492] [-0.07500]
o1 call [16.26731] [3.45887] [-0.07500]
o1 call [16.16053] [3.52055] [-0.07500]
o1 call [16.05374] [3.45887] [-0.07500]
o1 call [15.92862] [3.39492] [-0.07500]
o1 call [15.76931] [3.32400] [-0.07500]
o1 call [15.66965] [3.28562] [-0.07500]
o1 call [15.51039] [3.23386] [-0.07500]
o1 call [15.42776] [3.21166] [-0.07500]
o1 call [15.26845] [3.17780] [-0.07500]
o1 call [15.19644] [3.16637] [-0.07500]
o1 call [14.97018] [3.14610] [-0.07500]
o1 call [14.81087] [3.14610] [-0.07500]
o1 call [14.58461] [3.16637] [-0.07500]
o1 call [14.51260] [3.17780] [-0.07500]
o1 call [14.35329] [3.21166] [-0.07500]
o1 call [14.27066] [3.23386] [-0.07500]
o1 call [14.11141] [3.28562] [-0.07500]
o1 call [14.01174] [3.32400] [-0.07500]
o1 call [13.85243] [3.39492] [-0.07500]
o1 call [13.72731] [3.45887] [-0.07500]
o1 call [13.62053] [3.52055] [-0.07500]
o1 call [13.51374] [3.45887] [-0.07500]
o1 call [13.38862] [3.39492] [-0.07500]
o1 call [13.22931] [3.32400] [-0.07500]
o1 call [13.12965] [3.28562] [-0.07500]
o1 call [12.97039] [3.23386] [-0.07500]
o1 call [12.88776] [3.21166] [-0.07500]
o1 call [12.72845] [3.17780] [-0.07500]
o1 call [12.65644] [3.16637] [-0.07500]
o1 call [12.43015] [3.14610] [-0.07500]
o1 call [12.27090] [3.14610] [-0.07500]
o1 call [12.04461] [3.16637] [-0.07500]
o1 call [11.97260] [3.17780] [-0.07500]
o1 call [11.81329] [3.21166] [-0.07500]
o1 call [11.73066] [3.23386] [-0.07500]
o1 call [11.57141] [3.28562] [-0.07500]
o1 call [11.47174] [3.32400] [-0.07500]
o1 call [11.31243] [3.39492] [-0.07500]
o1 call [11.18731] [3.45887] [-0.07500]
o1 call [11.08053] [3.52055] [-0.07500]
o1 call [10.97374] [3.45887] [-0.07500]
o1 call [10.84862] [3.39492] [-0.07500]
o1 call [10.68931] [3.32400] [-0.07500]
o1 call [10.58962] [3.28560] [-0.07500]
o1 call [10.43031] [3.23386] [-0.07500]
o1 call [10.34776] [3.21166] [-0.07500]
o1 call [10.18848] [3.17780] [-0.07500]
o1 call [10.11644] [3.16637] [-0.07500]
o1 call [10.01300] [3.15710] [-0.07500]
o1 call [9.89015] [3.14610] [-0.07500]
o1 call [9.73087] [3.14610] [-0.07500]
o1 call [9.50461] [3.16637] [-0.07500]
o1 call [9.43260] [3.17780] [-0.07500]
o1 call [9.27329] [3.21166] [-0.07500]
o1 call [9.19066] [3.23386] [-0.07500]
o1 call [9.03141] [3.28562] [-0.07500]
o1 call [8.93174] [3.32400] [-0.07500]
o1 call [8.77243] [3.39492] [-0.07500]
o1 call [8.64731] [3.45887] [-0.07500]
o1 call [8.54053] [3.52055] [-0.07500]
o1 call [8.43374] [3.45887] [-0.07500]
o1 call [8.30862] [3.39492] [-0.07500]
o1 call [8.14931] [3.32400] [-0.07500]
o1 call [8.04962] [3.28560] [-0.07500]
o1 call [7.89031] [3.23386] [-0.07500]
o1 call [7.80776] [3.21166] [-0.07500]
o1 call [7.64848] [3.17780] [-0.07500]
o1 call [7.57644] [3.16637] [-0.07500]
o1 call [7.35015] [3.14610] [-0.07500]
o1 call [7.19087] [3.14610] [-0.07500]
o1 call [6.96461] [3.16637] [-0.07500]
o1 call [6.89260] [3.17780] [-0.07500]
o1 call [6.73329] [3.21166] [-0.07500]
o1 call [6.65066] [3.23386] [-0.07500]
o1 call [6.49141] [3.28562] [-0.07500]
o1 call [6.39174] [3.32400] [-0.07500]
o1 call [6.20268] [3.40863] [-0.07500]
o1 call [6.13220] [3.65720] [-0.07500]
o1 call [6.10995] [3.76164] [-0.07500]
o1 call [6.08473] [3.92095] [-0.07500]
o1 call [6.07462] [4.01666] [-0.07500]
o1 call [6.06504] [4.22250] [-0.07500]
o1 call [6.06504] [5.23845] [-0.07500]
o1 call [6.07462] [5.44429] [-0.07500]
o1 call [6.08473] [5.54000] [-0.07500]
o1 call [6.10995] [5.69931] [-0.07500]
o1 call [6.13220] [5.80375] [-0.07500]
o1 call [6.20268] [6.05232] [-0.07500]
o1 call [6.39174] [6.13695] [-0.07500]
o1 call [6.49141] [6.17533] [-0.07500]
o1 call [6.65066] [6.22709] [-0.07500]
o1 call [6.73329] [6.24929] [-0.07500]
o1 call [6.89260] [6.28315] [-0.07500]
o1 call [6.96461] [6.29458] [-0.07500]
o1 call [7.19087] [6.31485] [-0.07500]
o1 call [7.35015] [6.31485] [-0.07500]
o1 call [7.57644] [6.29458] [-0.07500]
o1 call [7.64848] [6.28315] [-0.07500]
o1 call [7.80776] [6.24929] [-0.07500]
o1 call [7.89031] [6.22709] [-0.07500]
o1 call [8.04962] [6.17535] [-0.07500]
o1 call [8.14931] [6.13695] [-0.07500]
o1 call [8.30862] [6.06603] [-0.07500]
o1 call [8.43374] [6.00207] [-0.07500]
o1 call [8.54053] [5.94040] [-0.07500]
G04 P0 ( dwell for no time -- G64 should not smooth over this point )
G00 Z0.50000 ( retract )

G00 X5.82623 Y9.59353 ( rapid move to begin. )
G01 F300.00000
( Mill infeed pass 1/1 )
o1 call [5.82623] [9.59353] [-0.07500]
G04 P0 ( dwell for no time -- G64 should not smooth over this point )
G01 F600.00000
o1 call [5.65978] [9.19074] [-0.07500]
o1 call [5.35189] [8.88231] [-0.07500]
o1 call [4.94940] [8.71518] [-0.07500]
o1 call [4.51356] [8.71477] [-0.07500]
o1 call [4.11079] [8.88119] [-0.07500]
o1 call [3.80236] [9.18911] [-0.07500]
o1 call [3.63523] [9.59160] [-0.07500]
o1 call [3.63482] [10.02744] [-0.07500]
o1 call [3.79447] [10.41381] [-0.07500]
o1 call [3.80124] [10.43021] [-0.07500]
o1 call [4.10914] [10.73864] [-0.07500]
o1 call [4.51165] [10.90577] [-0.07500]
o1 call [4.94749] [10.90618] [-0.07500]
o1 call [5.35023] [10.73976] [-0.07500]
o1 call [5.65869] [10.43183] [-0.07500]
o1 call [5.66618] [10.41381] [-0.07500]
o1 call [5.82582] [10.02935] [-0.07500]
o1 call [5.82623] [9.59353] [-0.07500]
G04 P0 ( dwell for no time -- G64 should not smooth over this point )
G00 Z0.50000 ( retract )

G00 X9.98162 Y12.35047 ( rapid move to begin. )
G01 F300.00000
( Mill infeed pass 1/1 )
o1 call [9.98162] [12.35047] [-0.07500]
G04 P0 ( dwell for no time -- G64 should not smooth over this point )
G01 F600.00000
o1 call [9.83087] [12.50006] [-0.07500]
o1 call [9.75426] [12.56305] [-0.07500]
o1 call [9.61027] [12.66391] [-0.07500]
o1 call [9.47507] [12.73655] [-0.07500]
o1 call [9.33994] [12.85553] [-0.07500]
o1 call [9.22470] [12.97684] [-0.07500]
o1 call [9.18104] [13.02901] [-0.07500]
o1 call [9.09160] [13.21646] [-0.07500]
o1 call [9.02107] [13.41197] [-0.07500]
o1 call [9.01121] [13.64712] [-0.07500]
o1 call [9.02074] [13.82713] [-0.07500]
o1 call [9.09160] [14.02446] [-0.07500]
o1 call [9.18007] [14.21031] [-0.07500]
o1 call [9.18929] [14.22238] [-0.07500]
o1 call [9.33991] [14.38545] [-0.07500]
o1 call [9.47352] [14.50333] [-0.07500]
o1 call [9.61070] [14.57717] [-0.07500]
o1 call [9.75429] [14.67783] [-0.07500]
o1 call [9.83156] [14.74143] [-0.07500]
o1 call [9.98162] [14.89047] [-0.07500]
G04 P0 ( dwell for no time -- G64 should not smooth over this point )
G00 Z0.50000 ( retract )

G00 X9.98162 Y17.43047 ( rapid move to begin. )
G01 F300.00000
( Mill infeed pass 1/1 )
o1 call [9.98162] [17.43047] [-0.07500]
G04 P0 ( dwell for no time -- G64 should not smooth over this point )
G01 F600.00000
o1 call [9.83087] [17.58006] [-0.07500]
o1 call [9.75426] [17.64305] [-0.07500]
o1 call [9.61027] [17.74391] [-0.07500]
o1 call [9.47507] [17.81655] [-0.07500]
o1 call [9.33994] [17.93553] [-0.07500]
o1 call [9.22470] [18.05686] [-0.07500]
o1 call [9.18104] [18.10904] [-0.07500]
o1 call [9.09160] [18.29646] [-0.07500]
o1 call [9.02107] [18.49197] [-0.07500]
o1 call [9.01121] [18.72714] [-0.07500]
o1 call [9.02074] [18.90713] [-0.07500]
o1 call [9.09160] [19.10449] [-0.07500]
o1 call [9.18007] [19.29034] [-0.07500]
o1 call [9.18929] [19.30238] [-0.07500]
o1 call [9.33991] [19.46545] [-0.07500]
o1 call [9.47352] [19.58333] [-0.07500]
o1 call [9.57352] [19.63715] [-0.07500]
o1 call [9.61070] [19.65717] [-0.07500]
o1 call [9.75429] [19.75783] [-0.07500]
o1 call [9.83156] [19.82143] [-0.07500]
o1 call [9.98162] [19.97047] [-0.07500]
G04 P0 ( dwell for no time -- G64 should not smooth over this point )
G00 Z0.50000 ( retract )

G00 X9.98162 Y22.51047 ( rapid move to begin. )
G01 F300.00000
( Mill infeed pass 1/1 )
o1 call [9.98162] [22.51047] [-0.07500]
G04 P0 ( dwell for no time -- G64 should not smooth over this point )
G01 F600.00000
o1 call [9.83087] [22.66006] [-0.07500]
o1 call [9.75426] [22.72305] [-0.07500]
o1 call [9.61027] [22.82391] [-0.07500]
o1 call [9.47507] [22.89655] [-0.07500]
o1 call [9.33994] [23.01553] [-0.07500]
o1 call [9.22470] [23.13686] [-0.07500]
o1 call [9.18104] [23.18904] [-0.07500]
o1 call [9.09160] [23.37646] [-0.07500]
o1 call [9.02107] [23.57197] [-0.07500]
o1 call [9.01121] [23.80714] [-0.07500]
o1 call [9.02074] [23.98713] [-0.07500]
o1 call [9.09160] [24.18449] [-0.07500]
o1 call [9.18007] [24.37034] [-0.07500]
o1 call [9.18929] [24.38238] [-0.07500]
o1 call [9.33991] [24.54545] [-0.07500]
o1 call [9.47352] [24.66333] [-0.07500]
o1 call [9.61070] [24.73717] [-0.07500]
o1 call [9.75429] [24.83783] [-0.07500]
o1 call [9.83156] [24.90143] [-0.07500]
o1 call [9.98162] [25.05047] [-0.07500]
G04 P0 ( dwell for no time -- G64 should not smooth over this point )
G00 Z0.50000 ( retract )

G00 X3.86182 Y31.40047 ( rapid move to begin. )
G01 F300.00000
( Mill infeed pass 1/1 )
o1 call [3.86182] [31.40047] [-0.07500]
G04 P0 ( dwell for no time -- G64 should not smooth over this point )
G01 F600.00000
o1 call [3.79898] [31.27711] [-0.07500]
o1 call [3.73505] [31.13403] [-0.07500]
o1 call [3.67391] [30.97469] [-0.07500]
o1 call [3.63490] [30.85504] [-0.07500]
o1 call [3.59220] [30.69575] [-0.07500]
o1 call [3.56995] [30.59131] [-0.07500]
o1 call [3.54473] [30.43200] [-0.07500]
o1 call [3.53462] [30.33629] [-0.07500]
o1 call [3.52629] [30.17701] [-0.07500]
o1 call [3.52629] [30.08399] [-0.07500]
o1 call [3.53462] [29.92466] [-0.07500]
o1 call [3.54473] [29.82895] [-0.07500]
o1 call [3.56995] [29.66964] [-0.07500]
o1 call [3.59220] [29.56520] [-0.07500]
o1 call [3.63307] [29.41275] [-0.07500]
o1 call [3.74828] [29.35321] [-0.07500]
o1 call [3.90741] [29.28214] [-0.07500]
o1 call [4.08940] [29.20965] [-0.07500]
o1 call [4.24874] [29.12804] [-0.07500]
o1 call [4.41282] [29.01892] [-0.07500]
o1 call [4.50449] [28.94991] [-0.07500]
o1 call [4.60470] [28.86049] [-0.07500]
o1 call [4.60472] [28.86047] [-0.07500]
o1 call [4.85636] [28.86047] [-0.07500]
o1 call [4.85637] [28.86049] [-0.07500]
o1 call [4.90883] [28.90840] [-0.07500]
o1 call [5.01308] [28.99355] [-0.07500]
o1 call [5.12692] [29.07488] [-0.07500]
o1 call [5.21234] [29.12806] [-0.07500]
o1 call [5.37162] [29.20965] [-0.07500]
o1 call [5.55371] [29.28206] [-0.07500]
o1 call [5.71302] [29.35301] [-0.07500]
o1 call [5.82161] [29.40853] [-0.07500]
o1 call [6.00053] [29.51201] [-0.07500]
G04 P0 ( dwell for no time -- G64 should not smooth over this point )
G00 Z0.50000 ( retract )

G00 X9.98147 Y27.59047 ( rapid move to begin. )
G01 F300.00000
( Mill infeed pass 1/1 )
o1 call [9.98147] [27.59047] [-0.07500]
G04 P0 ( dwell for no time -- G64 should not smooth over this point )
G01 F600.00000
o1 call [9.82429] [27.74679] [-0.07500]
o1 call [9.75426] [27.80305] [-0.07500]
o1 call [9.61027] [27.90391] [-0.07500]
o1 call [9.47507] [27.97655] [-0.07500]
o1 call [9.33994] [28.09553] [-0.07500]
o1 call [9.22470] [28.21684] [-0.07500]
o1 call [9.18104] [28.26901] [-0.07500]
o1 call [9.09160] [28.45646] [-0.07500]
o1 call [9.02107] [28.65197] [-0.07500]
o1 call [9.01233] [28.86049] [-0.07500]
o1 call [9.01121] [28.88714] [-0.07500]
o1 call [9.02074] [29.06713] [-0.07500]
o1 call [9.09160] [29.26449] [-0.07500]
o1 call [9.18007] [29.45034] [-0.07500]
o1 call [9.18929] [29.46238] [-0.07500]
o1 call [9.33991] [29.62545] [-0.07500]
o1 call [9.47352] [29.74333] [-0.07500]
o1 call [9.61070] [29.81717] [-0.07500]
o1 call [9.75429] [29.91783] [-0.07500]
o1 call [9.83156] [29.98143] [-0.07500]
o1 call [9.98147] [30.13047] [-0.07500]
G04 P0 ( dwell for no time -- G64 should not smooth over this point )
G00 Z0.50000 ( retract )

G00 X7.60608 Y31.40047 ( rapid move to begin. )
G01 F300.00000
( Mill infeed pass 1/1 )
o1 call [7.60608] [31.40047] [-0.07500]
G04 P0 ( dwell for no time -- G64 should not smooth over this point )
G01 F600.00000
o1 call [7.69526] [31.28023] [-0.07500]
o1 call [7.79882] [31.12120] [-0.07500]
o1 call [7.88256] [30.98259] [-0.07500]
o1 call [7.97182] [30.86913] [-0.07500]
o1 call [8.12178] [30.70142] [-0.07500]
o1 call [8.20873] [30.51907] [-0.07500]
o1 call [8.27639] [30.33146] [-0.07500]
o1 call [8.28581] [30.15709] [-0.07500]
o1 call [8.27672] [29.93124] [-0.07500]
o1 call [8.20873] [29.74188] [-0.07500]
o1 call [8.18769] [29.69288] [-0.07500]
o1 call [8.12313] [29.56184] [-0.07500]
o1 call [8.01518] [29.44175] [-0.07500]
o1 call [7.89895] [29.30132] [-0.07500]
o1 call [7.69544] [28.98034] [-0.07500]
o1 call [7.60642] [28.86049] [-0.07500]
o1 call [7.60642] [28.86047] [-0.07500]
o1 call [7.69516] [28.74003] [-0.07500]
o1 call [7.86905] [28.46370] [-0.07500]
o1 call [7.92417] [28.38758] [-0.07500]
o1 call [8.00126] [28.29505] [-0.07500]
o1 call [8.07972] [28.21189] [-0.07500]
o1 call [8.12178] [28.16142] [-0.07500]
o1 call [8.18764] [28.02804] [-0.07500]
o1 call [8.27639] [27.79146] [-0.07500]
o1 call [8.28581] [27.61709] [-0.07500]
o1 call [8.27672] [27.39124] [-0.07500]
o1 call [8.20873] [27.20188] [-0.07500]
o1 call [8.12313] [27.02184] [-0.07500]
o1 call [7.93677] [26.80894] [-0.07500]
o1 call [7.88218] [26.73645] [-0.07500]
o1 call [7.83001] [26.65273] [-0.07500]
o1 call [7.62148] [26.60643] [-0.07500]
o1 call [7.40377] [26.58039] [-0.07500]
o1 call [7.19087] [26.57760] [-0.07500]
o1 call [6.97797] [26.59713] [-0.07500]
o1 call [6.76029] [26.64029] [-0.07500]
o1 call [6.61488] [26.68369] [-0.07500]
o1 call [6.52399] [26.86320] [-0.07500]
o1 call [6.48975] [26.91997] [-0.07500]
o1 call [6.42072] [27.01656] [-0.07500]
o1 call [6.31549] [27.22631] [-0.07500]
o1 call [6.27449] [27.29680] [-0.07500]
o1 call [6.16753] [27.44242] [-0.07500]
o1 call [6.03898] [27.58567] [-0.07500]
o1 call [6.14945] [27.70848] [-0.07500]
o1 call [6.26159] [27.86165] [-0.07500]
o1 call [6.31480] [27.95037] [-0.07500]
o1 call [6.42044] [28.16416] [-0.07500]
o1 call [6.50873] [28.29197] [-0.07500]
o1 call [6.65353] [28.57516] [-0.07500]
o1 call [6.82679] [28.86047] [-0.07500]
o1 call [7.60642] [28.86047] [-0.07500]
o1 call [6.82679] [28.86047] [-0.07500]
o1 call [6.82678] [28.86049] [-0.07500]
o1 call [6.73944] [28.96002] [-0.07500]
o1 call [6.68633] [29.01420] [-0.07500]
o1 call [6.56222] [29.13312] [-0.07500]
o1 call [6.49080] [29.19278] [-0.07500]
o1 call [6.39768] [29.26515] [-0.07500]
o1 call [6.27901] [29.34488] [-0.07500]
o1 call [6.00053] [29.51201] [-0.07500]
o1 call [6.00053] [31.34703] [-0.07500]
o1 call [6.05209] [31.40047] [-0.07500]
o1 call [7.60608] [31.40047] [-0.07500]
o1 call [7.69509] [31.52110] [-0.07500]
o1 call [7.88218] [31.81648] [-0.07500]
o1 call [7.97182] [31.93184] [-0.07500]
o1 call [8.12252] [32.10060] [-0.07500]
o1 call [8.20873] [32.28188] [-0.07500]
o1 call [8.27672] [32.47124] [-0.07500]
o1 call [8.28581] [32.69709] [-0.07500]
o1 call [8.27639] [32.87146] [-0.07500]
o1 call [8.20873] [33.05907] [-0.07500]
o1 call [8.12221] [33.24058] [-0.07500]
o1 call [7.98876] [33.38879] [-0.07500]
o1 call [7.92417] [33.46758] [-0.07500]
o1 call [7.86905] [33.54370] [-0.07500]
o1 call [7.83004] [33.60819] [-0.07500]
o1 call [7.62148] [33.65452] [-0.07500]
o1 call [7.56308] [33.66379] [-0.07500]
o1 call [7.35015] [33.68335] [-0.07500]
o1 call [7.19087] [33.68335] [-0.07500]
o1 call [6.97797] [33.66379] [-0.07500]
o1 call [6.76029] [33.62066] [-0.07500]
o1 call [6.69194] [33.60230] [-0.07500]
o1 call [6.53266] [33.55053] [-0.07500]
o1 call [6.44828] [33.51805] [-0.07500]
o1 call [6.28897] [33.44711] [-0.07500]
o1 call [6.18064] [33.39173] [-0.07500]
o1 call [6.00053] [33.28752] [-0.07500]
o1 call [6.00053] [31.45392] [-0.07500]
o1 call [5.94896] [31.40047] [-0.07500]
o1 call [6.00053] [31.45392] [-0.07500]
o1 call [6.05209] [31.40047] [-0.07500]
o1 call [6.00053] [31.34703] [-0.07500]
o1 call [5.94896] [31.40047] [-0.07500]
o1 call [3.86182] [31.40047] [-0.07500]
o1 call [3.79898] [31.52384] [-0.07500]
o1 call [3.73505] [31.66692] [-0.07500]
o1 call [3.67391] [31.82625] [-0.07500]
o1 call [3.63490] [31.94591] [-0.07500]
o1 call [3.59220] [32.10520] [-0.07500]
o1 call [3.56995] [32.20964] [-0.07500]
o1 call [3.54473] [32.36895] [-0.07500]
o1 call [3.53462] [32.46466] [-0.07500]
o1 call [3.52629] [32.62399] [-0.07500]
o1 call [3.52629] [32.71701] [-0.07500]
o1 call [3.53462] [32.87629] [-0.07500]
o1 call [3.54473] [32.97200] [-0.07500]
o1 call [3.56995] [33.13131] [-0.07500]
o1 call [3.59220] [33.23575] [-0.07500]
o1 call [3.63279] [33.38721] [-0.07500]
o1 call [3.74897] [33.44711] [-0.07500]
o1 call [3.90828] [33.51805] [-0.07500]
o1 call [3.99266] [33.55053] [-0.07500]
o1 call [4.15194] [33.60230] [-0.07500]
o1 call [4.22029] [33.62066] [-0.07500]
o1 call [4.43797] [33.66379] [-0.07500]
o1 call [4.65087] [33.68335] [-0.07500]
o1 call [4.81018] [33.68335] [-0.07500]
o1 call [5.02308] [33.66379] [-0.07500]
o1 call [5.24076] [33.62066] [-0.07500]
o1 call [5.30906] [33.60230] [-0.07500]
o1 call [5.46834] [33.55056] [-0.07500]
o1 call [5.55277] [33.51805] [-0.07500]
o1 call [5.71208] [33.44711] [-0.07500]
o1 call [5.82041] [33.39173] [-0.07500]
o1 call [6.00053] [33.28752] [-0.07500]
G04 P0 ( dwell for no time -- G64 should not smooth over this point )
G00 Z0.50000 ( retract )

G00 X9.98147 Y32.67047 ( rapid move to begin. )
G01 F300.00000
( Mill infeed pass 1/1 )
o1 call [9.98147] [32.67047] [-0.07500]
G04 P0 ( dwell for no time -- G64 should not smooth over this point )
G01 F600.00000
o1 call [9.82429] [32.82679] [-0.07500]
o1 call [9.75426] [32.88305] [-0.07500]
o1 call [9.61027] [32.98391] [-0.07500]
o1 call [9.47507] [33.05655] [-0.07500]
o1 call [9.33994] [33.17553] [-0.07500]
o1 call [9.22470] [33.29684] [-0.07500]
o1 call [9.18104] [33.34901] [-0.07500]
o1 call [9.09160] [33.53646] [-0.07500]
o1 call [9.02107] [33.73197] [-0.07500]
o1 call [9.01121] [33.96714] [-0.07500]
o1 call [9.02074] [34.14713] [-0.07500]
o1 call [9.09160] [34.34449] [-0.07500]
o1 call [9.18007] [34.53034] [-0.07500]
o1 call [9.18929] [34.54238] [-0.07500]
o1 call [9.33991] [34.70545] [-0.07500]
o1 call [9.47352] [34.82333] [-0.07500]
o1 call [9.61070] [34.89717] [-0.07500]
o1 call [9.75429] [34.99783] [-0.07500]
o1 call [9.83156] [35.06143] [-0.07500]
o1 call [9.98147] [35.21047] [-0.07500]
G04 P0 ( dwell for no time -- G64 should not smooth over this point )
G00 Z0.50000 ( retract )

G00 X5.82623 Y37.53353 ( rapid move to begin. )
G01 F300.00000
( Mill infeed pass 1/1 )
o1 call [5.82623] [37.53353] [-0.07500]
G04 P0 ( dwell for no time -- G64 should not smooth over this point )
G01 F600.00000
o1 call [5.65981] [37.13074] [-0.07500]
o1 call [5.35189] [36.82231] [-0.07500]
o1 call [4.94940] [36.65518] [-0.07500]
o1 call [4.51356] [36.65477] [-0.07500]
o1 call [4.11079] [36.82119] [-0.07500]
o1 call [3.80236] [37.12911] [-0.07500]
o1 call [3.63523] [37.53163] [-0.07500]
o1 call [3.63482] [37.96744] [-0.07500]
o1 call [3.68292] [38.08382] [-0.07500]
o1 call [3.80127] [38.37021] [-0.07500]
o1 call [4.10917] [38.67864] [-0.07500]
o1 call [4.51165] [38.84577] [-0.07500]
o1 call [4.94749] [38.84618] [-0.07500]
o1 call [5.35023] [38.67976] [-0.07500]
o1 call [5.65869] [38.37183] [-0.07500]
o1 call [5.77829] [38.08382] [-0.07500]
o1 call [5.82582] [37.96935] [-0.07500]
o1 call [5.82623] [37.53353] [-0.07500]
G04 P0 ( dwell for no time -- G64 should not smooth over this point )
G00 Z0.50000 ( retract )

G00 X9.98147 Y37.75047 ( rapid move to begin. )
G01 F300.00000
( Mill infeed pass 1/1 )
o1 call [9.98147] [37.75047] [-0.07500]
G04 P0 ( dwell for no time -- G64 should not smooth over this point )
G01 F600.00000
o1 call [9.82429] [37.90679] [-0.07500]
o1 call [9.75426] [37.96305] [-0.07500]
o1 call [9.61027] [38.06391] [-0.07500]
o1 call [9.57321] [38.08382] [-0.07500]
o1 call [9.47507] [38.13655] [-0.07500]
o1 call [9.33994] [38.25553] [-0.07500]
o1 call [9.22470] [38.37684] [-0.07500]
o1 call [9.18104] [38.42901] [-0.07500]
o1 call [9.09160] [38.61646] [-0.07500]
o1 call [9.02107] [38.81197] [-0.07500]
o1 call [9.01121] [39.04714] [-0.07500]
o1 call [9.02074] [39.22713] [-0.07500]
o1 call [9.09160] [39.42449] [-0.07500]
o1 call [9.18007] [39.61034] [-0.07500]
o1 call [9.18929] [39.62238] [-0.07500]
o1 call [9.33991] [39.78545] [-0.07500]
o1 call [9.47352] [39.90333] [-0.07500]
o1 call [9.61070] [39.97717] [-0.07500]
o1 call [9.75429] [40.07783] [-0.07500]
o1 call [9.83156] [40.14143] [-0.07500]
o1 call [9.98147] [40.29047] [-0.07500]
G04 P0 ( dwell for no time -- G64 should not smooth over this point )
G00 Z0.50000 ( retract )

G00 X9.98147 Y42.83047 ( rapid move to begin. )
G01 F300.00000
( Mill infeed pass 1/1 )
o1 call [9.98147] [42.83047] [-0.07500]
G04 P0 ( dwell for no time -- G64 should not smooth over this point )
G01 F600.00000
o1 call [9.82429] [42.98679] [-0.07500]
o1 call [9.75426] [43.04305] [-0.07500]
o1 call [9.61027] [43.14391] [-0.07500]
o1 call [9.47507] [43.21655] [-0.07500]
o1 call [9.33994] [43.33553] [-0.07500]
o1 call [9.22470] [43.45686] [-0.07500]
o1 call [9.18104] [43.50904] [-0.07500]
o1 call [9.09160] [43.69646] [-0.07500]
o1 call [9.02107] [43.89197] [-0.07500]
o1 call [9.01121] [44.12714] [-0.07500]
o1 call [9.02074] [44.30713] [-0.07500]
o1 call [9.09160] [44.50449] [-0.07500]
o1 call [9.18007] [44.69034] [-0.07500]
o1 call [9.18929] [44.70238] [-0.07500]
o1 call [9.33991] [44.86545] [-0.07500]
o1 call [9.47352] [44.98333] [-0.07500]
o1 call [9.61070] [45.05717] [-0.07500]
o1 call [9.75429] [45.15783] [-0.07500]
o1 call [9.83156] [45.22143] [-0.07500]
o1 call [9.98147] [45.37047] [-0.07500]
G04 P0 ( dwell for no time -- G64 should not smooth over this point )
G00 Z0.50000 ( retract )

G00 X13.87453 Y49.26196 ( rapid move to begin. )
G01 F300.00000
( Mill infeed pass 1/1 )
o1 call [13.87453] [49.26196] [-0.07500]
G04 P0 ( dwell for no time -- G64 should not smooth over this point )
G01 F600.00000
o1 call [13.75235] [49.38525] [-0.07500]
o1 call [13.64394] [49.51200] [-0.07500]
o1 call [13.59068] [49.58881] [-0.07500]
o1 call [13.53864] [49.67420] [-0.07500]
o1 call [13.47991] [49.78248] [-0.07500]
o1 call [13.32911] [49.94542] [-0.07500]
o1 call [13.19403] [50.06437] [-0.07500]
o1 call [13.10925] [50.10854] [-0.07500]
o1 call [12.90524] [50.19302] [-0.07500]
o1 call [12.81082] [50.22231] [-0.07500]
o1 call [12.68814] [50.23231] [-0.07500]
o1 call [12.52091] [50.23224] [-0.07500]
o1 call [12.39642] [50.22193] [-0.07500]
o1 call [12.25350] [50.17455] [-0.07500]
o1 call [12.09983] [50.10846] [-0.07500]
o1 call [12.01352] [50.06333] [-0.07500]
o1 call [11.87991] [49.94542] [-0.07500]
o1 call [11.72929] [49.78238] [-0.07500]
o1 call [11.67054] [49.67466] [-0.07500]
o1 call [11.61827] [49.58883] [-0.07500]
o1 call [11.56526] [49.51233] [-0.07500]
o1 call [11.44728] [49.37595] [-0.07500]
o1 call [11.33453] [49.26196] [-0.07500]
G04 P0 ( dwell for no time -- G64 should not smooth over this point )
G00 Z0.50000 ( retract )

G00 X9.98147 Y47.91047 ( rapid move to begin. )
G01 F300.00000
( Mill infeed pass 1/1 )
o1 call [9.98147] [47.91047] [-0.07500]
G04 P0 ( dwell for no time -- G64 should not smooth over this point )
G01 F600.00000
o1 call [9.83156] [47.76143] [-0.07500]
o1 call [9.75429] [47.69783] [-0.07500]
o1 call [9.61070] [47.59717] [-0.07500]
o1 call [9.47352] [47.52333] [-0.07500]
o1 call [9.33991] [47.40545] [-0.07500]
o1 call [9.24913] [47.30716] [-0.07500]
o1 call [9.18929] [47.24238] [-0.07500]
o1 call [9.18007] [47.23034] [-0.07500]
o1 call [9.09160] [47.04449] [-0.07500]
o1 call [9.02074] [46.84713] [-0.07500]
o1 call [9.01121] [46.66714] [-0.07500]
o1 call [9.02107] [46.43197] [-0.07500]
o1 call [9.09160] [46.23646] [-0.07500]
o1 call [9.18104] [46.04901] [-0.07500]
o1 call [9.22470] [45.99684] [-0.07500]
o1 call [9.33994] [45.87553] [-0.07500]
o1 call [9.47507] [45.75655] [-0.07500]
o1 call [9.61027] [45.68391] [-0.07500]
o1 call [9.75426] [45.58305] [-0.07500]
o1 call [9.82429] [45.52679] [-0.07500]
o1 call [9.98147] [45.37047] [-0.07500]
o1 call [10.01300] [45.37047] [-0.07500]
o1 call [18.83551] [45.37047] [-0.07500]
o1 call [27.65801] [45.37047] [-0.07500]
o1 call [36.48051] [45.37047] [-0.07500]
o1 call [45.30302] [45.37047] [-0.07500]
o1 call [54.12552] [45.37047] [-0.07500]
o1 call [62.94802] [45.37047] [-0.07500]
o1 call [68.56758] [45.37047] [-0.07500]
o1 call [68.71823] [45.22087] [-0.07500]
o1 call [68.79479] [45.15790] [-0.07500]
o1 call [68.93880] [45.05704] [-0.07500]
o1 call [69.07403] [44.98437] [-0.07500]
o1 call [69.20911] [44.86542] [-0.07500]
o1 call [69.35991] [44.70248] [-0.07500]
o1 call [69.43636] [44.55348] [-0.07500]
o1 call [69.45745] [44.50449] [-0.07500]
o1 call [69.52801] [44.30896] [-0.07500]
o1 call [69.53784] [44.12714] [-0.07500]
o1 call [69.52834] [43.89379] [-0.07500]
o1 call [69.45745] [43.69646] [-0.07500]
o1 call [69.36898] [43.51058] [-0.07500]
o1 call [69.32425] [43.45694] [-0.07500]
o1 call [69.20914] [43.33550] [-0.07500]
o1 call [69.07556] [43.21762] [-0.07500]
o1 call [68.93837] [43.14378] [-0.07500]
o1 call [68.79476] [43.04312] [-0.07500]
o1 call [68.72407] [42.98620] [-0.07500]
o1 call [68.56758] [42.83047] [-0.07500]
o1 call [62.94802] [42.83047] [-0.07500]
o1 call [54.12552] [42.83047] [-0.07500]
o1 call [45.30302] [42.83047] [-0.07500]
o1 call [36.48051] [42.83047] [-0.07500]
o1 call [27.65801] [42.83047] [-0.07500]
o1 call [18.83551] [42.83047] [-0.07500]
o1 call [10.01300] [42.83047] [-0.07500]
o1 call [9.98147] [42.83047] [-0.07500]
o1 call [9.83156] [42.68143] [-0.07500]
o1 call [9.75429] [42.61783] [-0.07500]
o1 call [9.61070] [42.51717] [-0.07500]
o1 call [9.47352] [42.44333] [-0.07500]
o1 call [9.33991] [42.32545] [-0.07500]
o1 call [9.18929] [42.16238] [-0.07500]
o1 call [9.18007] [42.15034] [-0.07500]
o1 call [9.09160] [41.96449] [-0.07500]
o1 call [9.02074] [41.76713] [-0.07500]
o1 call [9.01121] [41.58714] [-0.07500]
o1 call [9.02107] [41.35197] [-0.07500]
o1 call [9.09160] [41.15646] [-0.07500]
o1 call [9.18104] [40.96901] [-0.07500]
o1 call [9.22470] [40.91684] [-0.07500]
o1 call [9.33994] [40.79553] [-0.07500]
o1 call [9.47507] [40.67655] [-0.07500]
o1 call [9.61027] [40.60391] [-0.07500]
o1 call [9.75426] [40.50305] [-0.07500]
o1 call [9.82429] [40.44679] [-0.07500]
o1 call [9.98147] [40.29047] [-0.07500]
o1 call [10.01300] [40.29047] [-0.07500]
o1 call [18.83551] [40.29047] [-0.07500]
o1 call [27.65801] [40.29047] [-0.07500]
o1 call [36.48051] [40.29047] [-0.07500]
o1 call [45.30302] [40.29047] [-0.07500]
o1 call [54.12552] [40.29047] [-0.07500]
o1 call [62.94802] [40.29047] [-0.07500]
o1 call [68.56758] [40.29047] [-0.07500]
o1 call [68.71823] [40.14087] [-0.07500]
o1 call [68.79479] [40.07790] [-0.07500]
o1 call [68.93880] [39.97704] [-0.07500]
o1 call [69.07403] [39.90437] [-0.07500]
o1 call [69.20911] [39.78542] [-0.07500]
o1 call [69.35991] [39.62248] [-0.07500]
o1 call [69.43636] [39.47348] [-0.07500]
