( pcb2gcode 1.2.1 )
( Software-independent Gcode )
      

G94 ( Millimeters per minute feed rate. )
G21 ( Units == Millimeters. )

G90 ( Absolute coordinates. )
S10000 ( RPM spindle speed. )
G64 P0.05080 ( set maximum deviation from commanded toolpath )
F600.00000 ( Feedrate. )

F600.00000 ( Feedrate. )
M3 ( Spindle on clockwise. )
G04 P0 ( dwell for no time -- G64 should not smooth over this point )
G00 Z0.50000 ( retract )

G00 X4.27660 Y55.34330 ( rapid move to begin. )
G01 Z-1.65000 F300.00000 ( plunge. )
G04 P0 ( dwell for no time -- G64 should not smooth over this point )
F600.00000
X4.27660 Y55.34330
X4.07340 Y55.16550
X3.89560 Y54.93690
X3.89560 Y43.55770
X1.45720 Y41.11930
X1.38100 Y40.99230
X1.35560 Y6.88010
X1.40640 Y6.72770
X3.89560 Y4.23850
X3.89560 Y1.80010
X3.94640 Y1.64770
X4.09880 Y1.59690
X36.37680 Y1.59690
Z-0.60000
X38.87680 Y1.59690
Z-1.65000 F300.00000
F600.00000X71.15480 Y1.59690
X71.30720 Y1.64770
X71.35800 Y1.80010
X71.35800 Y55.44490
X71.30720 Y56.30850
X71.15480 Y56.35930
X39.48640 Y56.35930
Z-0.60000
X36.98640 Y56.35930
Z-1.65000 F300.00000
F600.00000X5.31800 Y56.35930
X4.27660 Y55.36870

G04 P0 ( dwell for no time -- G64 should not smooth over this point )
G00 Z40.00000 ( retract )


M5 ( Spindle off. )
M9 ( Coolant off. )
M2 ( Program end. )

