( pcb2gcode 2.5.0 )
( Software-independent Gcode )


G94 ( Millimeters per minute feed rate. )
G21 ( Units == Millimeters. )

G90 ( Absolute coordinates. )
G00 S10000 ( RPM spindle speed. )
G64 P0.01016 ( set maximum deviation from commanded toolpath )
G01 F600.00000 ( Feedrate. )


G00 Z40.00000 (Retract to tool change height)
T0
M5      (Spindle stop.)
G04 P1.00000 (Wait for spindle to stop)
(MSG, Change tool bit to mill diameter 2.00000mm)
M6      (Tool change.)
M0      (Temporary machine stop.)
M3 ( Spindle on clockwise. )
G04 P1.00000 (Wait for spindle to get up to speed)
G04 P0 ( dwell for no time -- G64 should not smooth over this point )
G00 Z0.50000 ( retract )

G00 X71.77052 Y2.19050 ( rapid move to begin. )
G01 F300.00000
( Mill infeed pass 1/1 )
G01 Z-0.07500
G04 P0 ( dwell for no time -- G64 should not smooth over this point )
G01 F600.00000
G01 X71.77052 Y2.19050
G01 X71.77052 Y55.53050
G01 X71.75130 Y55.72557
G01 X71.69440 Y55.91318
G01 X71.60199 Y56.08605
G01 X71.47761 Y56.23759
G01 X71.32607 Y56.36197
G01 X71.15320 Y56.45437
G01 X70.96560 Y56.51127
G01 X70.77050 Y56.53050
G01 X6.00050 Y56.53050
G01 X5.80543 Y56.51127
G01 X5.61782 Y56.45437
G01 X5.44495 Y56.36197
G01 X5.29341 Y56.23759
G01 X4.02341 Y54.96759
G01 X3.89903 Y54.81605
G01 X3.80663 Y54.64318
G01 X3.74973 Y54.45557
G01 X3.73050 Y54.26050
G01 X3.73050 Y43.24470
G01 X1.48341 Y40.99759
G01 X1.35903 Y40.84605
G01 X1.26663 Y40.67318
G01 X1.20973 Y40.48557
G01 X1.19050 Y40.29050
G01 X1.19050 Y7.27050
G01 X1.20973 Y7.07540
G01 X1.26663 Y6.88780
G01 X1.35903 Y6.71493
G01 X1.48341 Y6.56339
G01 X3.73050 Y4.31628
G01 X3.73050 Y2.19050
G01 X3.74973 Y1.99540
G01 X3.80663 Y1.80780
G01 X3.89903 Y1.63493
G01 X4.02341 Y1.48339
G01 X4.17495 Y1.35901
G01 X4.34782 Y1.26660
G01 X4.53543 Y1.20970
G01 X4.73050 Y1.19048
G01 X70.77050 Y1.19048
G01 X70.96560 Y1.20970
G01 X71.15320 Y1.26660
G01 X71.32607 Y1.35901
G01 X71.47761 Y1.48339
G01 X71.60199 Y1.63493
G01 X71.69440 Y1.80780
G01 X71.75130 Y1.99540
G01 X71.77052 Y2.19050
G04 P0 ( dwell for no time -- G64 should not smooth over this point )
G00 Z0.50000 ( retract )

G00 X64.67453 Y8.45909 ( rapid move to begin. )
G01 F300.00000
( Mill infeed pass 1/1 )
G01 Z-0.07500
G04 P0 ( dwell for no time -- G64 should not smooth over this point )
G01 F600.00000
G01 X64.67453 Y8.45909
G01 X64.56177 Y8.34500
G01 X64.44379 Y8.20860
G01 X64.39081 Y8.13212
G01 X64.33853 Y8.04627
G01 X64.27976 Y7.93857
G01 X64.12914 Y7.77550
G01 X63.99553 Y7.65762
G01 X63.90922 Y7.61249
G01 X63.75555 Y7.54637
G01 X63.61263 Y7.49900
G01 X63.48814 Y7.48869
G01 X63.32088 Y7.48861
G01 X63.19825 Y7.49862
G01 X63.10381 Y7.52788
G01 X62.89980 Y7.61241
G01 X62.81504 Y7.65658
G01 X62.67994 Y7.77553
G01 X62.52914 Y7.93847
G01 X62.47041 Y8.04672
G01 X62.41837 Y8.13214
G01 X62.36513 Y8.20890
G01 X62.24667 Y8.34571
G01 X62.13453 Y8.45909
G01 X62.13453 Y49.26196
G01 X62.24728 Y49.37595
G01 X62.36526 Y49.51233
G01 X62.41827 Y49.58883
G01 X62.47054 Y49.67466
G01 X62.52929 Y49.78238
G01 X62.67991 Y49.94542
G01 X62.81352 Y50.06333
G01 X62.89983 Y50.10846
G01 X63.05350 Y50.17455
G01 X63.19642 Y50.22193
G01 X63.32088 Y50.23224
G01 X63.48814 Y50.23231
G01 X63.61082 Y50.22231
G01 X63.70524 Y50.19302
G01 X63.90925 Y50.10854
G01 X63.99403 Y50.06437
G01 X64.12911 Y49.94542
G01 X64.27991 Y49.78248
G01 X64.33864 Y49.67420
G01 X64.39068 Y49.58881
G01 X64.44394 Y49.51200
G01 X64.55235 Y49.38525
G01 X64.67453 Y49.26196
G04 P0 ( dwell for no time -- G64 should not smooth over this point )
G00 Z0.50000 ( retract )

G00 X67.21453 Y49.26196 ( rapid move to begin. )
G01 F300.00000
( Mill infeed pass 1/1 )
G01 Z-0.07500
G04 P0 ( dwell for no time -- G64 should not smooth over this point )
G01 F600.00000
G01 X67.21453 Y49.26196
G01 X67.09235 Y49.38525
G01 X66.98394 Y49.51200
G01 X66.93068 Y49.58881
G01 X66.87864 Y49.67420
G01 X66.81991 Y49.78248
G01 X66.66911 Y49.94542
G01 X66.53403 Y50.06437
G01 X66.44925 Y50.10854
G01 X66.24524 Y50.19302
G01 X66.15082 Y50.22231
G01 X66.02817 Y50.23231
G01 X65.86088 Y50.23224
G01 X65.73645 Y50.22193
G01 X65.59350 Y50.17455
G01 X65.43983 Y50.10846
G01 X65.35352 Y50.06333
G01 X65.21991 Y49.94542
G01 X65.06929 Y49.78238
G01 X65.01054 Y49.67466
G01 X64.95827 Y49.58883
G01 X64.90526 Y49.51233
G01 X64.78728 Y49.37595
G01 X64.67453 Y49.26196
G01 X64.67453 Y8.45909
G01 X64.78667 Y8.34571
G01 X64.90513 Y8.20890
G01 X64.95837 Y8.13214
G01 X65.01041 Y8.04672
G01 X65.06914 Y7.93847
G01 X65.21994 Y7.77553
G01 X65.35504 Y7.65658
G01 X65.43980 Y7.61241
G01 X65.64381 Y7.52793
G01 X65.73828 Y7.49862
G01 X65.86091 Y7.48861
G01 X66.02817 Y7.48869
G01 X66.15263 Y7.49900
G01 X66.29555 Y7.54637
G01 X66.44922 Y7.61249
G01 X66.53553 Y7.65762
G01 X66.66914 Y7.77550
G01 X66.81976 Y7.93857
G01 X66.87853 Y8.04627
G01 X66.93081 Y8.13212
G01 X66.98379 Y8.20860
G01 X67.10177 Y8.34500
G01 X67.21453 Y8.45909
G04 P0 ( dwell for no time -- G64 should not smooth over this point )
G00 Z0.50000 ( retract )

G00 X68.56758 Y9.81047 ( rapid move to begin. )
G01 F300.00000
( Mill infeed pass 1/1 )
G01 Z-0.07500
G04 P0 ( dwell for no time -- G64 should not smooth over this point )
G01 F600.00000
G01 X68.56758 Y9.81047
G01 X68.71823 Y9.66087
G01 X68.79479 Y9.59790
G01 X68.93880 Y9.49704
G01 X69.07403 Y9.42437
G01 X69.20911 Y9.30542
G01 X69.32435 Y9.18409
G01 X69.36804 Y9.13189
G01 X69.45745 Y8.94449
G01 X69.52801 Y8.74896
G01 X69.53784 Y8.56714
G01 X69.52834 Y8.33379
G01 X69.45745 Y8.13646
G01 X69.36900 Y7.95058
G01 X69.32425 Y7.89694
G01 X69.20914 Y7.77550
G01 X69.07553 Y7.65762
G01 X68.98922 Y7.61249
G01 X68.83555 Y7.54637
G01 X68.69263 Y7.49900
G01 X68.56814 Y7.48869
G01 X68.40091 Y7.48861
G01 X68.27825 Y7.49862
G01 X68.13352 Y7.54642
G01 X67.93103 Y7.63644
G01 X67.89504 Y7.65658
G01 X67.79870 Y7.73877
G01 X67.64470 Y7.89684
G01 X67.60104 Y7.94901
G01 X67.55042 Y8.04672
G01 X67.49837 Y8.13214
G01 X67.44513 Y8.20890
G01 X67.32667 Y8.34571
G01 X67.21453 Y8.45909
G01 X67.21453 Y49.26196
G01 X67.32728 Y49.37595
G01 X67.44526 Y49.51233
G01 X67.49827 Y49.58883
G01 X67.55054 Y49.67466
G01 X67.60929 Y49.78238
G01 X67.75991 Y49.94542
G01 X67.89352 Y50.06333
G01 X67.97983 Y50.10846
G01 X68.13350 Y50.17455
G01 X68.27642 Y50.22193
G01 X68.40088 Y50.23224
G01 X68.56817 Y50.23231
G01 X68.69082 Y50.22231
G01 X68.78524 Y50.19302
G01 X68.98925 Y50.10854
G01 X69.03804 Y50.08451
G01 X69.07403 Y50.06437
G01 X69.17035 Y49.98217
G01 X69.32435 Y49.82409
G01 X69.36804 Y49.77189
G01 X69.43636 Y49.63348
G01 X69.45745 Y49.58449
G01 X69.52801 Y49.38896
G01 X69.53784 Y49.15383
G01 X69.52834 Y48.97379
G01 X69.45745 Y48.77646
G01 X69.36898 Y48.59059
G01 X69.35976 Y48.57857
G01 X69.20914 Y48.41550
G01 X69.07556 Y48.29762
G01 X68.93837 Y48.22378
G01 X68.79476 Y48.12312
G01 X68.72407 Y48.06620
G01 X68.56758 Y47.91047
G01 X9.98147 Y47.91047
G01 X9.82429 Y48.06679
G01 X9.75426 Y48.12305
G01 X9.61027 Y48.22391
G01 X9.47507 Y48.29655
G01 X9.33994 Y48.41553
G01 X9.22470 Y48.53686
G01 X9.18104 Y48.58904
G01 X9.11269 Y48.72747
G01 X9.09160 Y48.77646
G01 X9.02107 Y48.97197
G01 X9.01124 Y49.15383
G01 X9.02074 Y49.38713
G01 X9.09160 Y49.58449
G01 X9.18007 Y49.77034
G01 X9.18929 Y49.78238
G01 X9.33991 Y49.94542
G01 X9.47352 Y50.06333
G01 X9.55983 Y50.10846
G01 X9.76379 Y50.19312
G01 X9.85642 Y50.22193
G01 X9.98088 Y50.23224
G01 X10.14814 Y50.23231
G01 X10.27082 Y50.22231
G01 X10.41553 Y50.17450
G01 X10.56925 Y50.10854
G01 X10.65403 Y50.06437
G01 X10.78911 Y49.94542
G01 X10.90435 Y49.82411
G01 X10.94804 Y49.77191
G01 X10.99864 Y49.67420
G01 X11.05068 Y49.58881
G01 X11.10394 Y49.51200
G01 X11.21235 Y49.38525
G01 X11.33453 Y49.26196
G01 X11.33453 Y8.45897
G01 X11.22177 Y8.34500
G01 X11.10379 Y8.20860
G01 X11.05081 Y8.13212
G01 X10.99853 Y8.04627
G01 X10.94900 Y7.95061
G01 X10.90425 Y7.89694
G01 X10.78914 Y7.77550
G01 X10.65553 Y7.65762
G01 X10.56922 Y7.61249
G01 X10.41555 Y7.54637
G01 X10.27263 Y7.49900
G01 X10.14817 Y7.48869
G01 X9.98088 Y7.48861
G01 X9.85825 Y7.49862
G01 X9.76381 Y7.52788
G01 X9.55980 Y7.61241
G01 X9.47504 Y7.65658
G01 X9.33994 Y7.77553
G01 X9.18914 Y7.93847
G01 X9.11269 Y8.08747
G01 X9.09160 Y8.13646
G01 X9.02107 Y8.33197
G01 X9.01124 Y8.51383
G01 X9.02074 Y8.74713
G01 X9.09160 Y8.94449
G01 X9.11266 Y8.99351
G01 X9.18007 Y9.13034
G01 X9.22480 Y9.18401
G01 X9.33991 Y9.30545
G01 X9.47352 Y9.42333
G01 X9.61070 Y9.49717
G01 X9.75429 Y9.59783
G01 X9.83156 Y9.66143
G01 X9.98162 Y9.81047
G01 X68.56758 Y9.81047
G01 X68.72407 Y9.96620
G01 X68.79476 Y10.02312
G01 X68.93837 Y10.12378
G01 X69.07556 Y10.19762
G01 X69.20914 Y10.31550
G01 X69.32425 Y10.43694
G01 X69.36898 Y10.49058
G01 X69.45745 Y10.67646
G01 X69.52834 Y10.87379
G01 X69.53784 Y11.10714
G01 X69.52801 Y11.28896
G01 X69.45745 Y11.48449
G01 X69.43636 Y11.53348
G01 X69.35991 Y11.68248
G01 X69.20911 Y11.84542
G01 X69.07403 Y11.96437
G01 X68.93880 Y12.03704
G01 X68.79479 Y12.13790
G01 X68.71823 Y12.20087
G01 X68.56758 Y12.35047
G01 X9.98162 Y12.35047
G01 X9.83156 Y12.20143
G01 X9.75429 Y12.13783
G01 X9.61070 Y12.03717
G01 X9.47352 Y11.96333
G01 X9.33991 Y11.84545
G01 X9.18929 Y11.68238
G01 X9.18007 Y11.67034
G01 X9.09160 Y11.48449
G01 X9.02074 Y11.28713
G01 X9.01121 Y11.10714
G01 X9.02107 Y10.87197
G01 X9.09160 Y10.67646
G01 X9.18104 Y10.48904
G01 X9.22470 Y10.43686
G01 X9.33994 Y10.31553
G01 X9.47507 Y10.19655
G01 X9.61027 Y10.12391
G01 X9.75426 Y10.02305
G01 X9.83087 Y9.96006
G01 X9.98162 Y9.81047
G04 P0 ( dwell for no time -- G64 should not smooth over this point )
G00 Z0.50000 ( retract )

G00 X11.33453 Y8.45897 ( rapid move to begin. )
G01 F300.00000
( Mill infeed pass 1/1 )
G01 Z-0.07500
G04 P0 ( dwell for no time -- G64 should not smooth over this point )
G01 F600.00000
G01 X11.33453 Y8.45897
G01 X11.45667 Y8.33570
G01 X11.56513 Y8.20890
G01 X11.61837 Y8.13214
G01 X11.67041 Y8.04672
G01 X11.72914 Y7.93847
G01 X11.87994 Y7.77553
G01 X12.01504 Y7.65658
G01 X12.09980 Y7.61241
G01 X12.30381 Y7.52788
G01 X12.39825 Y7.49862
G01 X12.52091 Y7.48861
G01 X12.68814 Y7.48869
G01 X12.81263 Y7.49900
G01 X12.95555 Y7.54637
G01 X13.10922 Y7.61249
G01 X13.19553 Y7.65762
G01 X13.32914 Y7.77550
G01 X13.47976 Y7.93857
G01 X13.53853 Y8.04627
G01 X13.59081 Y8.13212
G01 X13.64379 Y8.20860
G01 X13.76177 Y8.34500
G01 X13.87453 Y8.45897
G04 P0 ( dwell for no time -- G64 should not smooth over this point )
G00 Z0.50000 ( retract )

G00 X16.41453 Y8.45897 ( rapid move to begin. )
G01 F300.00000
( Mill infeed pass 1/1 )
G01 Z-0.07500
G04 P0 ( dwell for no time -- G64 should not smooth over this point )
G01 F600.00000
G01 X16.41453 Y8.45897
G01 X16.30177 Y8.34500
G01 X16.18379 Y8.20860
G01 X16.13081 Y8.13212
G01 X16.07853 Y8.04627
G01 X16.01976 Y7.93857
G01 X15.86914 Y7.77550
G01 X15.73553 Y7.65762
G01 X15.64922 Y7.61249
G01 X15.49555 Y7.54637
G01 X15.35263 Y7.49900
G01 X15.22814 Y7.48869
G01 X15.06088 Y7.48861
G01 X14.93825 Y7.49862
G01 X14.84381 Y7.52788
G01 X14.63980 Y7.61241
G01 X14.55504 Y7.65658
G01 X14.41994 Y7.77553
G01 X14.26914 Y7.93847
G01 X14.21041 Y8.04672
G01 X14.15837 Y8.13214
G01 X14.10513 Y8.20890
G01 X13.99667 Y8.33570
G01 X13.87453 Y8.45897
G01 X13.87453 Y49.26196
G01 X13.98728 Y49.37595
G01 X14.10526 Y49.51233
G01 X14.15827 Y49.58883
G01 X14.21054 Y49.67466
G01 X14.26929 Y49.78238
G01 X14.41991 Y49.94542
G01 X14.55352 Y50.06333
G01 X14.63983 Y50.10846
G01 X14.79350 Y50.17455
G01 X14.93642 Y50.22193
G01 X15.06088 Y50.23224
G01 X15.22817 Y50.23231
G01 X15.35082 Y50.22231
G01 X15.44524 Y50.19302
G01 X15.64925 Y50.10854
G01 X15.73403 Y50.06437
G01 X15.86911 Y49.94542
G01 X16.01991 Y49.78248
G01 X16.07864 Y49.67420
G01 X16.13068 Y49.58881
G01 X16.18394 Y49.51200
G01 X16.30238 Y49.37519
G01 X16.41453 Y49.26183
G04 P0 ( dwell for no time -- G64 should not smooth over this point )
G00 Z0.50000 ( retract )

G00 X23.78050 Y53.46876 ( rapid move to begin. )
G01 F300.00000
( Mill infeed pass 1/1 )
G01 Z-0.07500
G04 P0 ( dwell for no time -- G64 should not smooth over this point )
G01 F600.00000
G01 X23.78050 Y53.46876
G01 X23.85528 Y53.54399
G01 X23.94270 Y53.64485
G01 X24.02068 Y53.74932
G01 X24.07829 Y53.83843
G01 X24.13209 Y53.93675
G01 X24.21626 Y54.07213
G01 X24.34466 Y54.24168
G01 X24.51845 Y54.36629
G01 X24.67047 Y54.45334
G01 X24.76069 Y54.47899
G01 X24.97087 Y54.51930
G01 X25.05053 Y54.52715
G01 X25.18433 Y54.51110
G01 X25.34036 Y54.47899
G01 X25.43061 Y54.45334
G01 X25.58258 Y54.36632
G01 X25.75642 Y54.24168
G01 X25.88481 Y54.07213
G01 X25.97882 Y53.92027
G01 X26.02898 Y53.73264
G01 X26.06653 Y53.49827
G01 X26.06653 Y52.48265
G01 X26.03932 Y52.29848
G01 X25.97882 Y52.06063
G01 X25.88481 Y51.90879
G01 X25.75642 Y51.73925
G01 X25.58258 Y51.61461
G01 X25.43061 Y51.52759
G01 X25.34036 Y51.50193
G01 X25.18433 Y51.46983
G01 X25.05053 Y51.45377
G01 X24.91672 Y51.46985
G01 X24.76069 Y51.50193
G01 X24.67047 Y51.52759
G01 X24.51845 Y51.61463
G01 X24.34415 Y51.73965
G01 X24.21570 Y51.90849
G01 X24.13120 Y52.04364
G01 X24.09142 Y52.11867
G01 X24.03315 Y52.21303
G01 X23.97839 Y52.28966
G01 X23.91606 Y52.36995
G01 X23.78050 Y52.51217
G01 X23.78050 Y53.46876
G01 X23.64499 Y53.61097
G01 X23.58268 Y53.69118
G01 X23.52792 Y53.76789
G01 X23.46963 Y53.86225
G01 X23.42985 Y53.93731
G01 X23.34535 Y54.07246
G01 X23.21690 Y54.24127
G01 X23.04260 Y54.36629
G01 X22.89061 Y54.45334
G01 X22.80036 Y54.47899
G01 X22.64433 Y54.51110
G01 X22.51055 Y54.52715
G01 X22.37672 Y54.51110
G01 X22.22069 Y54.47899
G01 X22.13049 Y54.45336
G01 X21.97845 Y54.36629
G01 X21.80415 Y54.24127
G01 X21.67570 Y54.07244
G01 X21.59120 Y53.93728
G01 X21.51048 Y53.79197
G01 X21.48071 Y53.74932
G01 X21.40273 Y53.64485
G01 X21.31528 Y53.54399
G01 X21.24053 Y53.46876
G01 X21.24053 Y52.51217
G01 X21.16580 Y52.43696
G01 X21.07840 Y52.33607
G01 X21.00037 Y52.23160
G01 X20.94276 Y52.14250
G01 X20.88899 Y52.04412
G01 X20.80481 Y51.90879
G01 X20.67644 Y51.73925
G01 X20.50260 Y51.61461
G01 X20.35061 Y51.52759
G01 X20.26036 Y51.50193
G01 X20.10436 Y51.46983
G01 X19.97055 Y51.45377
G01 X19.83672 Y51.46985
G01 X19.68069 Y51.50196
G01 X19.59049 Y51.52759
G01 X19.43845 Y51.61466
G01 X19.26466 Y51.73925
G01 X19.13624 Y51.90879
G01 X19.05209 Y52.04412
G01 X18.99829 Y52.14250
G01 X18.94068 Y52.23160
G01 X18.82539 Y52.38108
G01 X18.70053 Y52.51461
G01 X18.70053 Y53.46632
G01 X18.57563 Y53.59987
G01 X18.46037 Y53.74932
G01 X18.40271 Y53.83853
G01 X18.34896 Y53.93680
G01 X18.26481 Y54.07213
G01 X18.13642 Y54.24168
G01 X17.96258 Y54.36632
G01 X17.81061 Y54.45334
G01 X17.72036 Y54.47899
G01 X17.51018 Y54.51930
G01 X17.43053 Y54.52715
G01 X17.35087 Y54.51930
G01 X17.14069 Y54.47899
G01 X17.05047 Y54.45334
G01 X16.89845 Y54.36629
G01 X16.72466 Y54.24168
G01 X16.59626 Y54.07213
G01 X16.51209 Y53.93675
G01 X16.45829 Y53.83843
G01 X16.40068 Y53.74932
G01 X16.28539 Y53.59982
G01 X16.16050 Y53.46634
G01 X16.16050 Y52.51458
G01 X16.03563 Y52.38105
G01 X15.92037 Y52.23160
G01 X15.86268 Y52.14239
G01 X15.80896 Y52.04412
G01 X15.72481 Y51.90879
G01 X15.59642 Y51.73925
G01 X15.42263 Y51.61463
G01 X15.27061 Y51.52759
G01 X15.18036 Y51.50193
G01 X15.02433 Y51.46983
G01 X14.89055 Y51.45377
G01 X14.75672 Y51.46985
G01 X14.60069 Y51.50193
G01 X14.51047 Y51.52759
G01 X14.35845 Y51.61463
G01 X14.18466 Y51.73925
G01 X14.05624 Y51.90879
G01 X13.97209 Y52.04412
G01 X13.91829 Y52.14250
G01 X13.86068 Y52.23160
G01 X13.74539 Y52.38108
G01 X13.62053 Y52.51461
G01 X13.62053 Y53.46632
G01 X13.62053 Y52.51461
G01 X13.49563 Y52.38105
G01 X13.38037 Y52.23160
G01 X13.32269 Y52.14239
G01 X13.26896 Y52.04412
G01 X13.18481 Y51.90879
G01 X13.05642 Y51.73925
G01 X12.88263 Y51.61463
G01 X12.73061 Y51.52759
G01 X12.64036 Y51.50193
G01 X12.43015 Y51.46162
G01 X12.35053 Y51.45377
G01 X12.21672 Y51.46985
G01 X12.06069 Y51.50193
G01 X11.97047 Y51.52759
G01 X11.81845 Y51.61463
G01 X11.64443 Y51.73950
G01 X11.51624 Y51.90879
G01 X11.43209 Y52.04412
G01 X11.37829 Y52.14250
G01 X11.32068 Y52.23160
G01 X11.20539 Y52.38108
G01 X11.08053 Y52.51461
G01 X11.08053 Y53.46632
G01 X11.08053 Y52.51461
G01 X10.95563 Y52.38105
G01 X10.84037 Y52.23160
G01 X10.78269 Y52.14239
G01 X10.72896 Y52.04412
G01 X10.64481 Y51.90879
G01 X10.51642 Y51.73925
G01 X10.34258 Y51.61461
G01 X10.19061 Y51.52759
G01 X10.10036 Y51.50193
G01 X9.94433 Y51.46983
G01 X9.81055 Y51.45377
G01 X9.67672 Y51.46985
G01 X9.52069 Y51.50193
G01 X9.43047 Y51.52759
G01 X9.27845 Y51.61463
G01 X9.10466 Y51.73925
G01 X8.97624 Y51.90879
G01 X8.89209 Y52.04412
G01 X8.83829 Y52.14250
G01 X8.78068 Y52.23160
G01 X8.66539 Y52.38108
G01 X8.54050 Y52.51458
G01 X8.54050 Y53.46634
G01 X8.41563 Y53.59987
G01 X8.30037 Y53.74932
G01 X8.24271 Y53.83853
G01 X8.18896 Y53.93680
G01 X8.10481 Y54.07213
G01 X7.97662 Y54.24145
G01 X7.93329 Y54.27523
G01 X7.75678 Y54.39479
G01 X7.65059 Y54.45334
G01 X7.61370 Y54.46507
G01 X7.40433 Y54.51110
G01 X7.27053 Y54.52715
G01 X7.13672 Y54.51110
G01 X6.92737 Y54.46507
G01 X6.89049 Y54.45336
G01 X6.78427 Y54.39479
G01 X6.60774 Y54.27521
G01 X6.56466 Y54.24168
G01 X6.43626 Y54.07213
G01 X6.34223 Y53.92027
G01 X6.29207 Y53.73264
G01 X6.25453 Y53.49847
G01 X6.25455 Y52.48247
G01 X6.29207 Y52.24829
G01 X6.34226 Y52.06063
G01 X6.43624 Y51.90879
G01 X6.56443 Y51.73950
G01 X6.73845 Y51.61463
G01 X6.89047 Y51.52759
G01 X6.92735 Y51.51588
G01 X7.13672 Y51.46985
G01 X7.27053 Y51.45377
G01 X7.40433 Y51.46983
G01 X7.56036 Y51.50193
G01 X7.65061 Y51.52759
G01 X7.80258 Y51.61461
G01 X7.97642 Y51.73925
G01 X8.10481 Y51.90879
G01 X8.18896 Y52.04412
G01 X8.24268 Y52.14239
G01 X8.30037 Y52.23160
G01 X8.41563 Y52.38105
G01 X8.54050 Y52.51458
G01 X8.54050 Y53.46634
G01 X8.66539 Y53.59982
G01 X8.78068 Y53.74932
G01 X8.83829 Y53.83843
G01 X8.89209 Y53.93675
G01 X8.97626 Y54.07213
G01 X9.10463 Y54.24168
G01 X9.27845 Y54.36629
G01 X9.43049 Y54.45336
G01 X9.52069 Y54.47899
G01 X9.67672 Y54.51110
G01 X9.81055 Y54.52715
G01 X9.94433 Y54.51110
G01 X10.10036 Y54.47899
G01 X10.19061 Y54.45334
G01 X10.34258 Y54.36632
G01 X10.51642 Y54.24168
G01 X10.64481 Y54.07213
G01 X10.72896 Y53.93680
G01 X10.78271 Y53.83853
G01 X10.84037 Y53.74932
G01 X10.95563 Y53.59987
G01 X11.08053 Y53.46632
G01 X11.20539 Y53.59982
G01 X11.32068 Y53.74932
G01 X11.37829 Y53.83843
G01 X11.43209 Y53.93675
G01 X11.51626 Y54.07213
G01 X11.64466 Y54.24168
G01 X11.68774 Y54.27521
G01 X11.86427 Y54.39479
G01 X11.97047 Y54.45334
G01 X12.06069 Y54.47899
G01 X12.27090 Y54.51930
G01 X12.35053 Y54.52715
G01 X12.43015 Y54.51930
G01 X12.64036 Y54.47899
G01 X12.73061 Y54.45334
G01 X12.88260 Y54.36629
G01 X13.05662 Y54.24145
G01 X13.18481 Y54.07213
G01 X13.26896 Y53.93680
G01 X13.32271 Y53.83853
G01 X13.38037 Y53.74932
G01 X13.49563 Y53.59987
G01 X13.62053 Y53.46632
G01 X13.74539 Y53.59982
G01 X13.86068 Y53.74932
G01 X13.91829 Y53.83843
G01 X13.97209 Y53.93675
G01 X14.05626 Y54.07213
G01 X14.18466 Y54.24168
G01 X14.22774 Y54.27521
G01 X14.40427 Y54.39479
G01 X14.51047 Y54.45334
G01 X14.54737 Y54.46507
G01 X14.75672 Y54.51110
G01 X14.89053 Y54.52715
G01 X15.02433 Y54.51110
G01 X15.18036 Y54.47899
G01 X15.27061 Y54.45334
G01 X15.42260 Y54.36629
G01 X15.59642 Y54.24168
G01 X15.72481 Y54.07213
G01 X15.80896 Y53.93680
G01 X15.86271 Y53.83853
G01 X15.92037 Y53.74932
G01 X16.03563 Y53.59987
G01 X16.16050 Y53.46634
G01 X16.16050 Y52.51458
G01 X16.28539 Y52.38108
G01 X16.40068 Y52.23160
G01 X16.45829 Y52.14250
G01 X16.51209 Y52.04412
G01 X16.59624 Y51.90879
G01 X16.72466 Y51.73925
G01 X16.89845 Y51.61463
G01 X17.05047 Y51.52759
G01 X17.14069 Y51.50193
G01 X17.35087 Y51.46162
G01 X17.43053 Y51.45377
G01 X17.51018 Y51.46162
G01 X17.72036 Y51.50193
G01 X17.81061 Y51.52759
G01 X17.96258 Y51.61461
G01 X18.13642 Y51.73925
G01 X18.26481 Y51.90879
G01 X18.34896 Y52.04412
G01 X18.40268 Y52.14239
G01 X18.46037 Y52.23160
G01 X18.57563 Y52.38105
G01 X18.70053 Y52.51461
G01 X18.70053 Y53.46632
G01 X18.82539 Y53.59982
G01 X18.94068 Y53.74932
G01 X18.99829 Y53.83843
G01 X19.05209 Y53.93675
G01 X19.13626 Y54.07213
G01 X19.26463 Y54.24168
G01 X19.43845 Y54.36629
G01 X19.59049 Y54.45336
G01 X19.68069 Y54.47899
G01 X19.83672 Y54.51110
G01 X19.97053 Y54.52715
G01 X20.05015 Y54.51930
G01 X20.26036 Y54.47899
G01 X20.35059 Y54.45334
G01 X20.50260 Y54.36632
G01 X20.67644 Y54.24168
G01 X20.77466 Y54.11534
G01 X20.88899 Y53.93680
G01 X20.94276 Y53.83843
G01 X21.00037 Y53.74932
G01 X21.07840 Y53.64485
G01 X21.16582 Y53.54397
G01 X21.24053 Y53.46876
G01 X21.24053 Y52.51217
G01 X21.37609 Y52.36990
G01 X21.43839 Y52.28966
G01 X21.49318 Y52.21303
G01 X21.55142 Y52.11867
G01 X21.59120 Y52.04364
G01 X21.67570 Y51.90851
G01 X21.80418 Y51.73965
G01 X21.97847 Y51.61463
G01 X22.13047 Y51.52759
G01 X22.22069 Y51.50193
G01 X22.37672 Y51.46985
G01 X22.51055 Y51.45377
G01 X22.64433 Y51.46983
G01 X22.85370 Y51.51588
G01 X22.89061 Y51.52759
G01 X22.99678 Y51.58616
G01 X23.04258 Y51.61461
G01 X23.21642 Y51.73925
G01 X23.34481 Y51.90879
G01 X23.42896 Y52.04412
G01 X23.48269 Y52.14239
G01 X23.54037 Y52.23160
G01 X23.61835 Y52.33607
G01 X23.70580 Y52.43696
G01 X23.78050 Y52.51217
G04 P0 ( dwell for no time -- G64 should not smooth over this point )
G00 Z0.50000 ( retract )

G00 X24.03453 Y49.26183 ( rapid move to begin. )
G01 F300.00000
( Mill infeed pass 1/1 )
G01 Z-0.07500
G04 P0 ( dwell for no time -- G64 should not smooth over this point )
G01 F600.00000
G01 X24.03453 Y49.26183
G01 X24.14728 Y49.37595
G01 X24.26526 Y49.51233
G01 X24.31827 Y49.58883
G01 X24.37054 Y49.67466
G01 X24.42929 Y49.78238
G01 X24.57991 Y49.94542
G01 X24.71352 Y50.06333
G01 X24.79983 Y50.10846
G01 X24.95350 Y50.17455
G01 X25.09642 Y50.22193
G01 X25.22088 Y50.23224
G01 X25.38817 Y50.23231
G01 X25.51082 Y50.22231
G01 X25.60524 Y50.19302
G01 X25.80925 Y50.10854
G01 X25.89403 Y50.06437
G01 X26.02911 Y49.94542
G01 X26.17991 Y49.78248
G01 X26.23864 Y49.67420
G01 X26.29068 Y49.58881
G01 X26.34394 Y49.51200
G01 X26.45235 Y49.38525
G01 X26.57453 Y49.26196
G04 P0 ( dwell for no time -- G64 should not smooth over this point )
G00 Z0.50000 ( retract )

G00 X29.11453 Y49.26196 ( rapid move to begin. )
G01 F300.00000
( Mill infeed pass 1/1 )
G01 Z-0.07500
G04 P0 ( dwell for no time -- G64 should not smooth over this point )
G01 F600.00000
G01 X29.11453 Y49.26196
G01 X28.99235 Y49.38525
G01 X28.88394 Y49.51200
G01 X28.83068 Y49.58881
G01 X28.77864 Y49.67420
G01 X28.71991 Y49.78248
G01 X28.56911 Y49.94542
G01 X28.43403 Y50.06437
G01 X28.34925 Y50.10854
G01 X28.14524 Y50.19302
G01 X28.05082 Y50.22231
G01 X27.92814 Y50.23231
G01 X27.76088 Y50.23224
G01 X27.63642 Y50.22193
G01 X27.49350 Y50.17455
G01 X27.33983 Y50.10846
G01 X27.25352 Y50.06333
G01 X27.11991 Y49.94542
G01 X26.96929 Y49.78238
G01 X26.91054 Y49.67466
G01 X26.85827 Y49.58883
G01 X26.80526 Y49.51233
G01 X26.68728 Y49.37595
G01 X26.57453 Y49.26196
G01 X26.57453 Y8.45897
G01 X26.69667 Y8.33570
G01 X26.78410 Y8.23534
G01 X26.83505 Y8.16829
G01 X26.91041 Y8.04672
G01 X26.96914 Y7.93847
G01 X27.11994 Y7.77553
G01 X27.25504 Y7.65658
G01 X27.33980 Y7.61241
G01 X27.54381 Y7.52788
G01 X27.63825 Y7.49862
G01 X27.76088 Y7.48861
G01 X27.92817 Y7.48869
G01 X28.05263 Y7.49900
G01 X28.19555 Y7.54637
G01 X28.34922 Y7.61249
G01 X28.43553 Y7.65762
G01 X28.56914 Y7.77550
G01 X28.71976 Y7.93857
G01 X28.77853 Y8.04627
G01 X28.83081 Y8.13212
G01 X28.88379 Y8.20860
G01 X29.00177 Y8.34500
G01 X29.11453 Y8.45897
G01 X29.11453 Y49.26196
G01 X29.22728 Y49.37595
G01 X29.34526 Y49.51233
G01 X29.39827 Y49.58883
G01 X29.45054 Y49.67466
G01 X29.50929 Y49.78238
G01 X29.65991 Y49.94542
G01 X29.79352 Y50.06333
G01 X29.87983 Y50.10846
G01 X30.03350 Y50.17455
G01 X30.17642 Y50.22193
G01 X30.30088 Y50.23224
G01 X30.46814 Y50.23231
G01 X30.59082 Y50.22231
G01 X30.68524 Y50.19302
G01 X30.88925 Y50.10854
G01 X30.97403 Y50.06437
G01 X31.10911 Y49.94542
G01 X31.25991 Y49.78248
G01 X31.31864 Y49.67420
G01 X31.37068 Y49.58881
G01 X31.42394 Y49.51200
G01 X31.54238 Y49.37519
G01 X31.65453 Y49.26183
G01 X31.65453 Y8.45897
G01 X31.77667 Y8.33570
G01 X31.88513 Y8.20890
G01 X31.93837 Y8.13214
G01 X31.99041 Y8.04672
G01 X32.04914 Y7.93847
G01 X32.19994 Y7.77553
G01 X32.33504 Y7.65658
G01 X32.41980 Y7.61241
G01 X32.62381 Y7.52788
G01 X32.71825 Y7.49862
G01 X32.84088 Y7.48861
G01 X33.00817 Y7.48869
G01 X33.13263 Y7.49900
G01 X33.27555 Y7.54637
G01 X33.42922 Y7.61249
G01 X33.51553 Y7.65762
G01 X33.64914 Y7.77550
G01 X33.79976 Y7.93857
G01 X33.85853 Y8.04627
G01 X33.91081 Y8.13212
G01 X33.96379 Y8.20860
G01 X34.08177 Y8.34500
G01 X34.19453 Y8.45897
G04 P0 ( dwell for no time -- G64 should not smooth over this point )
G00 Z0.50000 ( retract )

G00 X33.94053 Y5.94155 ( rapid move to begin. )
G01 F300.00000
( Mill infeed pass 1/1 )
G01 Z-0.07500
G04 P0 ( dwell for no time -- G64 should not smooth over this point )
G01 F600.00000
G01 X33.94053 Y5.94155
G01 X34.04634 Y6.00263
G01 X34.17167 Y6.06669
G01 X34.33100 Y6.13761
G01 X34.43087 Y6.17606
G01 X34.59016 Y6.22780
G01 X34.67296 Y6.25005
G01 X34.83227 Y6.28389
G01 X34.90446 Y6.29534
G01 X35.13090 Y6.31561
G01 X35.35729 Y6.31206
G01 X35.51660 Y6.29532
G01 X35.58876 Y6.28384
G01 X35.74807 Y6.24995
G01 X35.83082 Y6.22770
G01 X35.99010 Y6.17594
G01 X36.08992 Y6.13751
G01 X36.24923 Y6.06657
G01 X36.37448 Y6.00251
G01 X36.48053 Y5.94127
G01 X36.58657 Y6.00248
G01 X36.71187 Y6.06654
G01 X36.87118 Y6.13746
G01 X36.97100 Y6.17589
G01 X37.13028 Y6.22763
G01 X37.21304 Y6.24985
G01 X37.37237 Y6.28371
G01 X37.44448 Y6.29514
G01 X37.60381 Y6.31188
G01 X37.67087 Y6.31541
G01 X37.89724 Y6.31185
G01 X38.05654 Y6.29509
G01 X38.12868 Y6.28363
G01 X38.28796 Y6.24975
G01 X38.37064 Y6.22755
G01 X38.52992 Y6.17579
G01 X38.62975 Y6.13733
G01 X38.78903 Y6.06639
G01 X38.91425 Y6.00235
G01 X39.02053 Y5.94099
G01 X39.12682 Y6.00235
G01 X39.25205 Y6.06636
G01 X39.41138 Y6.13728
G01 X39.51115 Y6.17568
G01 X39.67044 Y6.22742
G01 X39.75314 Y6.24965
G01 X39.91245 Y6.28351
G01 X39.98453 Y6.29494
G01 X40.14384 Y6.31168
G01 X40.37018 Y6.31518
G01 X40.43718 Y6.31165
G01 X40.59649 Y6.29489
G01 X40.66860 Y6.28343
G01 X40.82789 Y6.24957
G01 X40.91049 Y6.22735
G01 X41.06977 Y6.17558
G01 X41.16954 Y6.13715
G01 X41.32885 Y6.06624
G01 X41.45400 Y6.00223
G01 X41.56053 Y5.94071
G01 X41.66705 Y6.00220
G01 X41.79222 Y6.06618
G01 X41.95156 Y6.13710
G01 X42.05128 Y6.17551
G01 X42.21056 Y6.22725
G01 X42.29321 Y6.24945
G01 X42.45252 Y6.28330
G01 X42.52458 Y6.29473
G01 X42.68389 Y6.31147
G01 X42.91015 Y6.31498
G01 X42.97716 Y6.31145
G01 X43.13647 Y6.29468
G01 X43.20848 Y6.28325
G01 X43.36779 Y6.24937
G01 X43.45041 Y6.22714
G01 X43.60970 Y6.17538
G01 X43.70937 Y6.13700
G01 X43.81079 Y6.09184
G01 X43.86723 Y5.92900
G01 X43.90990 Y5.76972
G01 X43.92920 Y5.67922
G01 X43.95442 Y5.51991
G01 X43.96311 Y5.43756
G01 X43.97248 Y5.23845
G01 X43.97248 Y4.22250
G01 X43.96311 Y4.02339
G01 X43.95442 Y3.94104
G01 X43.92920 Y3.78173
G01 X43.90990 Y3.69123
G01 X43.86723 Y3.53195
G01 X43.81079 Y3.36911
G01 X43.70937 Y3.32395
G01 X43.60965 Y3.28554
G01 X43.45036 Y3.23378
G01 X43.36779 Y3.21158
G01 X43.20850 Y3.17772
G01 X43.13647 Y3.16627
G01 X42.97716 Y3.14950
G01 X42.75087 Y3.14597
G01 X42.52458 Y3.16622
G01 X42.45252 Y3.17765
G01 X42.29321 Y3.21150
G01 X42.21064 Y3.23370
G01 X42.05133 Y3.28544
G01 X41.95156 Y3.32385
G01 X41.79222 Y3.39476
G01 X41.66708 Y3.45875
G01 X41.56053 Y3.52024
G01 X41.56053 Y5.94071
G01 X41.56053 Y3.52024
G01 X41.45400 Y3.45872
G01 X41.32885 Y3.39471
G01 X41.16954 Y3.32380
G01 X41.06977 Y3.28537
G01 X40.91049 Y3.23360
G01 X40.82789 Y3.21140
G01 X40.66860 Y3.17752
G01 X40.59649 Y3.16606
G01 X40.43718 Y3.14930
G01 X40.21087 Y3.14577
G01 X39.98453 Y3.16601
G01 X39.91245 Y3.17744
G01 X39.75314 Y3.21130
G01 X39.67044 Y3.23353
G01 X39.51115 Y3.28527
G01 X39.41138 Y3.32367
G01 X39.25205 Y3.39459
G01 X39.12682 Y3.45859
G01 X39.02053 Y3.51996
G01 X39.02053 Y5.94099
G01 X39.02053 Y3.51996
G01 X38.91425 Y3.45859
G01 X38.78903 Y3.39456
G01 X38.62972 Y3.32362
G01 X38.52992 Y3.28519
G01 X38.37062 Y3.23342
G01 X38.28796 Y3.21120
G01 X38.12868 Y3.17732
G01 X38.05654 Y3.16586
G01 X37.89724 Y3.14910
G01 X37.83018 Y3.14557
G01 X37.60381 Y3.14907
G01 X37.44451 Y3.16581
G01 X37.37237 Y3.17726
G01 X37.21304 Y3.21110
G01 X37.13028 Y3.23335
G01 X36.97100 Y3.28509
G01 X36.87120 Y3.32352
G01 X36.71187 Y3.39443
G01 X36.58660 Y3.45847
G01 X36.48053 Y3.51968
G01 X36.48053 Y5.94127
G01 X36.48053 Y3.51968
G01 X36.37448 Y3.45844
G01 X36.24921 Y3.39438
G01 X36.08992 Y3.32347
G01 X35.99005 Y3.28499
G01 X35.83077 Y3.23322
G01 X35.74807 Y3.21100
G01 X35.58878 Y3.17711
G01 X35.51660 Y3.16566
G01 X35.35729 Y3.14889
G01 X35.29015 Y3.14536
G01 X35.06376 Y3.14887
G01 X34.90446 Y3.16561
G01 X34.83224 Y3.17706
G01 X34.67296 Y3.21092
G01 X34.59023 Y3.23314
G01 X34.43092 Y3.28488
G01 X34.33100 Y3.32334
G01 X34.17169 Y3.39426
G01 X34.04634 Y3.45832
G01 X33.94053 Y3.51940
G01 X33.83471 Y3.45832
G01 X33.70941 Y3.39423
G01 X33.55010 Y3.32329
G01 X33.45018 Y3.28481
G01 X33.29089 Y3.23304
G01 X33.20814 Y3.21079
G01 X33.04886 Y3.17693
G01 X32.97662 Y3.16545
G01 X32.81734 Y3.14869
G01 X32.59087 Y3.14513
G01 X32.52371 Y3.14866
G01 X32.36440 Y3.16540
G01 X32.29219 Y3.17686
G01 X32.05788 Y3.23045
G01 X31.89608 Y3.55534
G01 X31.75148 Y3.78379
G01 X31.70411 Y3.87399
G01 X31.64856 Y3.96454
G01 X31.60352 Y4.03022
G01 X31.52948 Y4.12679
G01 X31.40053 Y4.26847
G01 X31.40053 Y5.19245
G01 X31.52948 Y5.33413
G01 X31.60355 Y5.43073
G01 X31.64856 Y5.49639
G01 X31.70408 Y5.58694
G01 X31.75148 Y5.67713
G01 X31.89608 Y5.90561
G01 X32.05788 Y6.23050
G01 X32.13286 Y6.25026
G01 X32.29219 Y6.28409
G01 X32.36440 Y6.29557
G01 X32.52371 Y6.31228
G01 X32.75015 Y6.31579
G01 X32.97665 Y6.29552
G01 X33.04886 Y6.28404
G01 X33.20814 Y6.25016
G01 X33.29089 Y6.22791
G01 X33.45018 Y6.17614
G01 X33.55010 Y6.13766
G01 X33.70941 Y6.06672
G01 X33.83473 Y6.00263
G01 X33.94053 Y5.94155
G01 X33.94053 Y3.51940
G04 P0 ( dwell for no time -- G64 should not smooth over this point )
G00 Z0.50000 ( retract )

G00 X31.65453 Y8.45897 ( rapid move to begin. )
G01 F300.00000
( Mill infeed pass 1/1 )
G01 Z-0.07500
G04 P0 ( dwell for no time -- G64 should not smooth over this point )
G01 F600.00000
G01 X31.65453 Y8.45897
G01 X31.54177 Y8.34500
G01 X31.42379 Y8.20860
G01 X31.37081 Y8.13212
G01 X31.31853 Y8.04627
G01 X31.25976 Y7.93857
G01 X31.10914 Y7.77550
G01 X30.97553 Y7.65762
G01 X30.88922 Y7.61249
G01 X30.73555 Y7.54637
G01 X30.59263 Y7.49900
G01 X30.46817 Y7.48869
G01 X30.30088 Y7.48861
G01 X30.17825 Y7.49862
G01 X30.08381 Y7.52788
G01 X29.87980 Y7.61241
G01 X29.79504 Y7.65658
G01 X29.65994 Y7.77553
G01 X29.50914 Y7.93847
G01 X29.45041 Y8.04672
G01 X29.39837 Y8.13214
G01 X29.34513 Y8.20890
G01 X29.23667 Y8.33570
G01 X29.11453 Y8.45897
G04 P0 ( dwell for no time -- G64 should not smooth over this point )
G00 Z0.50000 ( retract )

G00 X26.32053 Y4.26642 ( rapid move to begin. )
G01 F300.00000
( Mill infeed pass 1/1 )
G01 Z-0.07500
G04 P0 ( dwell for no time -- G64 should not smooth over this point )
G01 F600.00000
G01 X26.32053 Y4.26642
G01 X26.23592 Y4.17802
G01 X26.15710 Y4.08407
G01 X26.11796 Y4.03022
G01 X26.05596 Y3.94122
G01 X25.96978 Y3.78369
G01 X25.88530 Y3.64854
G01 X25.75685 Y3.47963
G01 X25.58258 Y3.35461
G01 X25.43061 Y3.26759
G01 X25.34036 Y3.24193
G01 X25.13015 Y3.20162
G01 X25.05053 Y3.19377
G01 X24.91672 Y3.20983
G01 X24.76069 Y3.24193
G01 X24.67047 Y3.26759
G01 X24.51845 Y3.35463
G01 X24.34466 Y3.47925
G01 X24.21624 Y3.64882
G01 X24.12226 Y3.80063
G01 X24.06175 Y4.03845
G01 X24.03455 Y4.22250
G01 X24.03453 Y5.23845
G01 X24.07207 Y5.47264
G01 X24.12226 Y5.66029
G01 X24.21626 Y5.81213
G01 X24.34466 Y5.98168
G01 X24.51845 Y6.10629
G01 X24.67047 Y6.19334
G01 X24.76069 Y6.21899
G01 X24.91672 Y6.25110
G01 X25.05053 Y6.26715
G01 X25.18433 Y6.25110
G01 X25.34036 Y6.21899
G01 X25.43061 Y6.19334
G01 X25.58258 Y6.10632
G01 X25.75665 Y5.98148
G01 X25.88530 Y5.81241
G01 X25.96975 Y5.67726
G01 X26.05596 Y5.51970
G01 X26.11793 Y5.43073
G01 X26.15710 Y5.37685
G01 X26.23592 Y5.28292
G01 X26.32053 Y5.19451
G01 X26.32053 Y4.26642
G04 P0 ( dwell for no time -- G64 should not smooth over this point )
G00 Z0.50000 ( retract )

G00 X21.49453 Y8.45897 ( rapid move to begin. )
G01 F300.00000
( Mill infeed pass 1/1 )
G01 Z-0.07500
G04 P0 ( dwell for no time -- G64 should not smooth over this point )
G01 F600.00000
G01 X21.49453 Y8.45897
G01 X21.61667 Y8.33570
G01 X21.72513 Y8.20890
G01 X21.77837 Y8.13214
G01 X21.83041 Y8.04672
G01 X21.88914 Y7.93847
G01 X22.03994 Y7.77553
G01 X22.17504 Y7.65658
G01 X22.25980 Y7.61241
G01 X22.46381 Y7.52788
G01 X22.55825 Y7.49862
G01 X22.68088 Y7.48861
G01 X22.84817 Y7.48869
G01 X22.97263 Y7.49900
G01 X23.11555 Y7.54637
G01 X23.26922 Y7.61249
G01 X23.35553 Y7.65762
G01 X23.48914 Y7.77550
G01 X23.63976 Y7.93857
G01 X23.69853 Y8.04627
G01 X23.75081 Y8.13212
G01 X23.80379 Y8.20860
G01 X23.92177 Y8.34500
G01 X24.03453 Y8.45897
G04 P0 ( dwell for no time -- G64 should not smooth over this point )
G00 Z0.50000 ( retract )

G00 X26.57453 Y8.45897 ( rapid move to begin. )
G01 F300.00000
( Mill infeed pass 1/1 )
G01 Z-0.07500
G04 P0 ( dwell for no time -- G64 should not smooth over this point )
G01 F600.00000
G01 X26.57453 Y8.45897
G01 X26.46177 Y8.34500
G01 X26.34379 Y8.20860
G01 X26.29081 Y8.13212
G01 X26.23853 Y8.04627
G01 X26.17976 Y7.93857
G01 X26.02914 Y7.77550
G01 X25.89553 Y7.65762
G01 X25.80922 Y7.61249
G01 X25.65555 Y7.54637
G01 X25.51263 Y7.49900
G01 X25.38817 Y7.48869
G01 X25.22088 Y7.48861
G01 X25.09825 Y7.49862
G01 X25.00381 Y7.52788
G01 X24.79980 Y7.61241
G01 X24.71504 Y7.65658
G01 X24.57994 Y7.77553
G01 X24.42914 Y7.93847
G01 X24.37041 Y8.04672
G01 X24.31837 Y8.13214
G01 X24.26513 Y8.20890
G01 X24.15667 Y8.33570
G01 X24.03453 Y8.45897
G01 X24.03453 Y49.26183
G01 X23.92238 Y49.37519
G01 X23.80394 Y49.51200
G01 X23.75068 Y49.58881
G01 X23.69864 Y49.67420
G01 X23.63991 Y49.78248
G01 X23.48911 Y49.94542
G01 X23.35403 Y50.06437
G01 X23.26925 Y50.10854
G01 X23.06524 Y50.19302
G01 X22.97082 Y50.22231
G01 X22.84817 Y50.23231
G01 X22.68091 Y50.23224
G01 X22.55642 Y50.22193
G01 X22.41350 Y50.17455
G01 X22.25983 Y50.10846
G01 X22.17352 Y50.06333
G01 X22.03991 Y49.94545
G01 X21.88929 Y49.78238
G01 X21.83047 Y49.67450
G01 X21.77827 Y49.58883
G01 X21.72544 Y49.51255
G01 X21.60733 Y49.37598
G01 X21.49453 Y49.26196
G01 X21.49453 Y8.45897
G01 X21.38177 Y8.34500
G01 X21.26379 Y8.20860
G01 X21.21081 Y8.13212
G01 X21.15853 Y8.04627
G01 X21.09978 Y7.93857
G01 X20.94914 Y7.77550
G01 X20.81556 Y7.65762
G01 X20.72922 Y7.61246
G01 X20.57555 Y7.54637
G01 X20.43265 Y7.49900
G01 X20.30814 Y7.48869
G01 X20.14088 Y7.48861
G01 X20.01828 Y7.49862
G01 X19.92384 Y7.52788
G01 X19.71983 Y7.61241
G01 X19.63504 Y7.65658
G01 X19.49994 Y7.77553
G01 X19.34914 Y7.93847
G01 X19.29044 Y8.04672
G01 X19.23840 Y8.13214
G01 X19.18513 Y8.20890
G01 X19.07667 Y8.33570
G01 X18.95453 Y8.45897
G01 X18.95453 Y49.26183
G01 X19.06730 Y49.37595
G01 X19.18528 Y49.51233
G01 X19.23827 Y49.58883
G01 X19.29054 Y49.67466
G01 X19.34929 Y49.78238
G01 X19.49994 Y49.94542
G01 X19.63352 Y50.06333
G01 X19.71983 Y50.10846
G01 X19.87350 Y50.17455
G01 X20.01642 Y50.22193
G01 X20.14088 Y50.23224
G01 X20.30814 Y50.23231
G01 X20.43082 Y50.22231
G01 X20.52524 Y50.19302
G01 X20.72925 Y50.10854
G01 X20.81403 Y50.06437
G01 X20.94911 Y49.94542
G01 X21.09994 Y49.78248
G01 X21.15876 Y49.67407
G01 X21.23405 Y49.55258
G01 X21.28505 Y49.48545
G01 X21.37238 Y49.38525
G01 X21.49453 Y49.26196
G04 P0 ( dwell for no time -- G64 should not smooth over this point )
G00 Z0.50000 ( retract )

G00 X18.95453 Y49.26183 ( rapid move to begin. )
G01 F300.00000
( Mill infeed pass 1/1 )
G01 Z-0.07500
G04 P0 ( dwell for no time -- G64 should not smooth over this point )
G01 F600.00000
G01 X18.95453 Y49.26183
G01 X18.84238 Y49.37519
G01 X18.72394 Y49.51200
G01 X18.67068 Y49.58881
G01 X18.61864 Y49.67420
G01 X18.55991 Y49.78248
G01 X18.40911 Y49.94542
G01 X18.27403 Y50.06437
G01 X18.18925 Y50.10854
G01 X17.98524 Y50.19302
G01 X17.89082 Y50.22231
G01 X17.76817 Y50.23231
G01 X17.60088 Y50.23224
G01 X17.47642 Y50.22193
G01 X17.33350 Y50.17455
G01 X17.17983 Y50.10846
G01 X17.09352 Y50.06333
G01 X16.95991 Y49.94542
G01 X16.80929 Y49.78238
G01 X16.75054 Y49.67466
G01 X16.69827 Y49.58883
G01 X16.64526 Y49.51233
G01 X16.52728 Y49.37595
G01 X16.41453 Y49.26183
G01 X16.41453 Y8.45897
G01 X16.53667 Y8.33570
G01 X16.64513 Y8.20890
G01 X16.69837 Y8.13214
G01 X16.75042 Y8.04672
G01 X16.80914 Y7.93847
G01 X16.95994 Y7.77553
G01 X17.09504 Y7.65658
G01 X17.17980 Y7.61241
G01 X17.38381 Y7.52788
G01 X17.47825 Y7.49862
G01 X17.60088 Y7.48861
G01 X17.76817 Y7.48869
G01 X17.89263 Y7.49900
G01 X18.03555 Y7.54637
G01 X18.18922 Y7.61249
G01 X18.27553 Y7.65762
G01 X18.40914 Y7.77550
G01 X18.55976 Y7.93857
G01 X18.61853 Y8.04627
G01 X18.67081 Y8.13212
G01 X18.72379 Y8.20860
G01 X18.84177 Y8.34500
G01 X18.95453 Y8.45897
G04 P0 ( dwell for no time -- G64 should not smooth over this point )
G00 Z0.50000 ( retract )

G00 X8.54053 Y3.52055 ( rapid move to begin. )
G01 F300.00000
( Mill infeed pass 1/1 )
G01 Z-0.07500
G04 P0 ( dwell for no time -- G64 should not smooth over this point )
G01 F600.00000
G01 X8.54053 Y3.52055
G01 X8.54053 Y5.94040
G01 X8.64731 Y6.00207
G01 X8.77243 Y6.06603
G01 X8.93174 Y6.13695
G01 X9.03141 Y6.17533
G01 X9.19066 Y6.22709
G01 X9.27329 Y6.24929
G01 X9.43260 Y6.28315
G01 X9.50461 Y6.29458
G01 X9.66392 Y6.31132
G01 X9.73087 Y6.31485
G01 X9.95713 Y6.31132
G01 X10.11644 Y6.29458
G01 X10.18848 Y6.28315
G01 X10.34776 Y6.24929
G01 X10.43031 Y6.22709
G01 X10.58962 Y6.17535
G01 X10.68931 Y6.13695
G01 X10.84862 Y6.06603
G01 X10.97374 Y6.00207
G01 X11.08053 Y5.94040
G01 X11.08053 Y3.52055
G01 X11.08053 Y5.94040
G01 X11.18731 Y6.00207
G01 X11.31243 Y6.06603
G01 X11.47174 Y6.13695
G01 X11.57141 Y6.17533
G01 X11.73066 Y6.22709
G01 X11.81329 Y6.24929
G01 X11.97260 Y6.28315
G01 X12.04461 Y6.29458
G01 X12.20392 Y6.31132
G01 X12.27090 Y6.31485
G01 X12.49713 Y6.31132
G01 X12.65644 Y6.29458
G01 X12.72845 Y6.28315
G01 X12.88776 Y6.24929
G01 X12.97039 Y6.22709
G01 X13.12965 Y6.17533
G01 X13.22931 Y6.13695
G01 X13.38862 Y6.06603
G01 X13.51374 Y6.00207
G01 X13.62053 Y5.94040
G01 X13.62053 Y3.52055
G01 X13.62053 Y5.94040
G01 X13.72731 Y6.00207
G01 X13.85243 Y6.06603
G01 X14.01174 Y6.13695
G01 X14.11141 Y6.17533
G01 X14.27066 Y6.22709
G01 X14.35329 Y6.24929
G01 X14.51260 Y6.28315
G01 X14.58461 Y6.29458
G01 X14.74392 Y6.31132
G01 X14.81087 Y6.31485
G01 X15.03713 Y6.31132
G01 X15.19644 Y6.29458
G01 X15.26845 Y6.28315
G01 X15.42776 Y6.24929
G01 X15.51039 Y6.22709
G01 X15.66965 Y6.17533
G01 X15.76931 Y6.13695
G01 X15.92862 Y6.06603
G01 X16.05374 Y6.00207
G01 X16.16053 Y5.94040
G01 X16.16053 Y3.52055
G01 X16.16053 Y5.94040
G01 X16.26731 Y6.00207
G01 X16.39243 Y6.06603
G01 X16.55174 Y6.13695
G01 X16.65141 Y6.17533
G01 X16.81066 Y6.22709
G01 X16.89329 Y6.24929
G01 X17.05260 Y6.28315
G01 X17.12461 Y6.29458
G01 X17.35087 Y6.31485
G01 X17.57713 Y6.31132
G01 X17.73644 Y6.29458
G01 X17.80848 Y6.28315
G01 X17.96776 Y6.24929
G01 X18.05031 Y6.22709
G01 X18.20962 Y6.17535
G01 X18.30931 Y6.13695
G01 X18.46862 Y6.06603
G01 X18.59374 Y6.00207
G01 X18.70053 Y5.94040
G01 X18.70053 Y3.52055
G01 X18.80731 Y3.45887
G01 X18.93243 Y3.39492
G01 X19.09176 Y3.32400
G01 X19.19143 Y3.28562
G01 X19.35066 Y3.23386
G01 X19.43329 Y3.21166
G01 X19.59260 Y3.17780
G01 X19.66463 Y3.16637
G01 X19.82394 Y3.14963
G01 X20.05015 Y3.14610
G01 X20.27644 Y3.16637
G01 X20.34848 Y3.17780
G01 X20.50776 Y3.21166
G01 X20.59034 Y3.23386
G01 X20.74962 Y3.28560
G01 X20.84931 Y3.32400
G01 X20.95081 Y3.36919
G01 X21.00723 Y3.53195
G01 X21.04990 Y3.69123
G01 X21.06920 Y3.78173
G01 X21.09445 Y3.94104
G01 X21.10311 Y4.02339
G01 X21.11248 Y4.22250
G01 X21.11248 Y5.23845
G01 X21.10311 Y5.43756
G01 X21.09445 Y5.51991
G01 X21.06920 Y5.67922
G01 X21.04990 Y5.76972
G01 X21.00723 Y5.92900
G01 X20.95081 Y6.09176
G01 X20.84931 Y6.13695
G01 X20.74962 Y6.17535
G01 X20.59034 Y6.22709
G01 X20.50776 Y6.24929
G01 X20.34848 Y6.28315
G01 X20.27644 Y6.29458
G01 X20.11713 Y6.31132
G01 X20.05015 Y6.31485
G01 X19.82394 Y6.31132
G01 X19.66463 Y6.29458
G01 X19.59260 Y6.28315
G01 X19.43329 Y6.24929
G01 X19.35066 Y6.22709
G01 X19.19143 Y6.17533
G01 X19.09176 Y6.13695
G01 X18.93243 Y6.06603
G01 X18.80731 Y6.00207
G01 X18.70053 Y5.94040
G01 X18.70053 Y3.52055
G01 X18.59374 Y3.45887
G01 X18.46862 Y3.39492
G01 X18.30931 Y3.32400
G01 X18.20962 Y3.28560
G01 X18.05031 Y3.23386
G01 X17.96776 Y3.21166
G01 X17.80848 Y3.17780
G01 X17.73644 Y3.16637
G01 X17.51015 Y3.14610
G01 X17.28392 Y3.14963
G01 X17.12461 Y3.16637
G01 X17.05260 Y3.17780
G01 X16.89329 Y3.21166
G01 X16.81066 Y3.23386
G01 X16.65141 Y3.28562
G01 X16.55174 Y3.32400
G01 X16.39243 Y3.39492
G01 X16.26731 Y3.45887
G01 X16.16053 Y3.52055
G01 X16.05374 Y3.45887
G01 X15.92862 Y3.39492
G01 X15.76931 Y3.32400
G01 X15.66965 Y3.28562
G01 X15.51039 Y3.23386
G01 X15.42776 Y3.21166
G01 X15.26845 Y3.17780
G01 X15.19644 Y3.16637
G01 X14.97018 Y3.14610
G01 X14.81087 Y3.14610
G01 X14.58461 Y3.16637
G01 X14.51260 Y3.17780
G01 X14.35329 Y3.21166
G01 X14.27066 Y3.23386
G01 X14.11141 Y3.28562
G01 X14.01174 Y3.32400
G01 X13.85243 Y3.39492
G01 X13.72731 Y3.45887
G01 X13.62053 Y3.52055
G01 X13.51374 Y3.45887
G01 X13.38862 Y3.39492
G01 X13.22931 Y3.32400
G01 X13.12965 Y3.28562
G01 X12.97039 Y3.23386
G01 X12.88776 Y3.21166
G01 X12.72845 Y3.17780
G01 X12.65644 Y3.16637
G01 X12.43015 Y3.14610
G01 X12.27090 Y3.14610
G01 X12.04461 Y3.16637
G01 X11.97260 Y3.17780
G01 X11.81329 Y3.21166
G01 X11.73066 Y3.23386
G01 X11.57141 Y3.28562
G01 X11.47174 Y3.32400
G01 X11.31243 Y3.39492
G01 X11.18731 Y3.45887
G01 X11.08053 Y3.52055
G01 X10.97374 Y3.45887
G01 X10.84862 Y3.39492
G01 X10.68931 Y3.32400
G01 X10.58962 Y3.28560
G01 X10.43031 Y3.23386
G01 X10.34776 Y3.21166
G01 X10.18848 Y3.17780
G01 X10.11644 Y3.16637
G01 X9.89015 Y3.14610
G01 X9.73087 Y3.14610
G01 X9.50461 Y3.16637
G01 X9.43260 Y3.17780
G01 X9.27329 Y3.21166
G01 X9.19066 Y3.23386
G01 X9.03141 Y3.28562
G01 X8.93174 Y3.32400
G01 X8.77243 Y3.39492
G01 X8.64731 Y3.45887
G01 X8.54053 Y3.52055
G01 X8.43374 Y3.45887
G01 X8.30862 Y3.39492
G01 X8.14931 Y3.32400
G01 X8.04962 Y3.28560
G01 X7.89031 Y3.23386
G01 X7.80776 Y3.21166
G01 X7.64848 Y3.17780
G01 X7.57644 Y3.16637
G01 X7.35015 Y3.14610
G01 X7.19087 Y3.14610
G01 X6.96461 Y3.16637
G01 X6.89260 Y3.17780
G01 X6.73329 Y3.21166
G01 X6.65066 Y3.23386
G01 X6.49141 Y3.28562
G01 X6.39174 Y3.32400
G01 X6.20268 Y3.40863
G01 X6.13220 Y3.65720
G01 X6.10995 Y3.76164
G01 X6.08473 Y3.92095
G01 X6.07462 Y4.01666
G01 X6.06504 Y4.22250
G01 X6.06504 Y5.23845
G01 X6.07462 Y5.44429
G01 X6.08473 Y5.54000
G01 X6.10995 Y5.69931
G01 X6.13220 Y5.80375
G01 X6.20268 Y6.05232
G01 X6.39174 Y6.13695
G01 X6.49141 Y6.17533
G01 X6.65066 Y6.22709
G01 X6.73329 Y6.24929
G01 X6.89260 Y6.28315
G01 X6.96461 Y6.29458
G01 X7.19087 Y6.31485
G01 X7.35015 Y6.31485
G01 X7.57644 Y6.29458
G01 X7.64848 Y6.28315
G01 X7.80776 Y6.24929
G01 X7.89031 Y6.22709
G01 X8.04962 Y6.17535
G01 X8.14931 Y6.13695
G01 X8.30862 Y6.06603
G01 X8.43374 Y6.00207
G01 X8.54053 Y5.94040
G04 P0 ( dwell for no time -- G64 should not smooth over this point )
G00 Z0.50000 ( retract )

G00 X5.82623 Y9.59353 ( rapid move to begin. )
G01 F300.00000
( Mill infeed pass 1/1 )
G01 Z-0.07500
G04 P0 ( dwell for no time -- G64 should not smooth over this point )
G01 F600.00000
G01 X5.82623 Y9.59353
G01 X5.65978 Y9.19074
G01 X5.35189 Y8.88231
G01 X4.94940 Y8.71518
G01 X4.51356 Y8.71477
G01 X4.11079 Y8.88119
G01 X3.80236 Y9.18911
G01 X3.63523 Y9.59160
G01 X3.63482 Y10.02744
G01 X3.80124 Y10.43021
G01 X4.10914 Y10.73864
G01 X4.51165 Y10.90577
G01 X4.94749 Y10.90618
G01 X5.35023 Y10.73976
G01 X5.65869 Y10.43183
G01 X5.82582 Y10.02935
G01 X5.82623 Y9.59353
G04 P0 ( dwell for no time -- G64 should not smooth over this point )
G00 Z0.50000 ( retract )

G00 X9.98162 Y12.35047 ( rapid move to begin. )
G01 F300.00000
( Mill infeed pass 1/1 )
G01 Z-0.07500
G04 P0 ( dwell for no time -- G64 should not smooth over this point )
G01 F600.00000
G01 X9.98162 Y12.35047
G01 X9.83087 Y12.50006
G01 X9.75426 Y12.56305
G01 X9.61027 Y12.66391
G01 X9.47507 Y12.73655
G01 X9.33994 Y12.85553
G01 X9.22470 Y12.97684
G01 X9.18104 Y13.02901
G01 X9.09160 Y13.21646
G01 X9.02107 Y13.41197
G01 X9.01121 Y13.64712
G01 X9.02074 Y13.82713
G01 X9.09160 Y14.02446
G01 X9.18007 Y14.21031
G01 X9.18929 Y14.22238
G01 X9.33991 Y14.38545
G01 X9.47352 Y14.50333
G01 X9.61070 Y14.57717
G01 X9.75429 Y14.67783
G01 X9.83156 Y14.74143
G01 X9.98162 Y14.89047
G04 P0 ( dwell for no time -- G64 should not smooth over this point )
G00 Z0.50000 ( retract )

G00 X9.98162 Y17.43047 ( rapid move to begin. )
G01 F300.00000
( Mill infeed pass 1/1 )
G01 Z-0.07500
G04 P0 ( dwell for no time -- G64 should not smooth over this point )
G01 F600.00000
G01 X9.98162 Y17.43047
G01 X9.83087 Y17.58006
G01 X9.75426 Y17.64305
G01 X9.61027 Y17.74391
G01 X9.47507 Y17.81655
G01 X9.33994 Y17.93553
G01 X9.22470 Y18.05686
G01 X9.18104 Y18.10904
G01 X9.09160 Y18.29646
G01 X9.02107 Y18.49197
G01 X9.01121 Y18.72714
G01 X9.02074 Y18.90713
G01 X9.09160 Y19.10449
G01 X9.18007 Y19.29034
G01 X9.18929 Y19.30238
G01 X9.33991 Y19.46545
G01 X9.47352 Y19.58333
G01 X9.61070 Y19.65717
G01 X9.75429 Y19.75783
G01 X9.83156 Y19.82143
G01 X9.98162 Y19.97047
G04 P0 ( dwell for no time -- G64 should not smooth over this point )
G00 Z0.50000 ( retract )

G00 X9.98162 Y22.51047 ( rapid move to begin. )
G01 F300.00000
( Mill infeed pass 1/1 )
G01 Z-0.07500
G04 P0 ( dwell for no time -- G64 should not smooth over this point )
G01 F600.00000
G01 X9.98162 Y22.51047
G01 X9.83087 Y22.66006
G01 X9.75426 Y22.72305
G01 X9.61027 Y22.82391
G01 X9.47507 Y22.89655
G01 X9.33994 Y23.01553
G01 X9.22470 Y23.13686
G01 X9.18104 Y23.18904
G01 X9.09160 Y23.37646
G01 X9.02107 Y23.57197
G01 X9.01121 Y23.80714
G01 X9.02074 Y23.98713
G01 X9.09160 Y24.18449
G01 X9.18007 Y24.37034
G01 X9.18929 Y24.38238
G01 X9.33991 Y24.54545
G01 X9.47352 Y24.66333
G01 X9.61070 Y24.73717
G01 X9.75429 Y24.83783
G01 X9.83156 Y24.90143
G01 X9.98162 Y25.05047
G04 P0 ( dwell for no time -- G64 should not smooth over this point )
G00 Z0.50000 ( retract )

G00 X3.86182 Y31.40047 ( rapid move to begin. )
G01 F300.00000
( Mill infeed pass 1/1 )
G01 Z-0.07500
G04 P0 ( dwell for no time -- G64 should not smooth over this point )
G01 F600.00000
G01 X3.86182 Y31.40047
G01 X3.79898 Y31.27711
G01 X3.73505 Y31.13403
G01 X3.67391 Y30.97469
G01 X3.63490 Y30.85504
G01 X3.59220 Y30.69575
G01 X3.56995 Y30.59131
G01 X3.54473 Y30.43200
G01 X3.53462 Y30.33629
G01 X3.52629 Y30.17701
G01 X3.52629 Y30.08399
G01 X3.53462 Y29.92466
G01 X3.54473 Y29.82895
G01 X3.56995 Y29.66964
G01 X3.59220 Y29.56520
G01 X3.63307 Y29.41275
G01 X3.74828 Y29.35321
G01 X3.90741 Y29.28214
G01 X4.08940 Y29.20965
G01 X4.24874 Y29.12804
G01 X4.41282 Y29.01892
G01 X4.50449 Y28.94991
G01 X4.60472 Y28.86047
G01 X4.85636 Y28.86047
G01 X4.90883 Y28.90840
G01 X5.01308 Y28.99355
G01 X5.12692 Y29.07488
G01 X5.21234 Y29.12806
G01 X5.37162 Y29.20965
G01 X5.55371 Y29.28206
G01 X5.71302 Y29.35301
G01 X5.82161 Y29.40853
G01 X6.00053 Y29.51201
G04 P0 ( dwell for no time -- G64 should not smooth over this point )
G00 Z0.50000 ( retract )

G00 X9.98147 Y27.59047 ( rapid move to begin. )
G01 F300.00000
( Mill infeed pass 1/1 )
G01 Z-0.07500
G04 P0 ( dwell for no time -- G64 should not smooth over this point )
G01 F600.00000
G01 X9.98147 Y27.59047
G01 X9.82429 Y27.74679
G01 X9.75426 Y27.80305
G01 X9.61027 Y27.90391
G01 X9.47507 Y27.97655
G01 X9.33994 Y28.09553
G01 X9.22470 Y28.21684
G01 X9.18104 Y28.26901
G01 X9.09160 Y28.45646
G01 X9.02107 Y28.65197
G01 X9.01121 Y28.88714
G01 X9.02074 Y29.06713
G01 X9.09160 Y29.26449
G01 X9.18007 Y29.45034
G01 X9.18929 Y29.46238
G01 X9.33991 Y29.62545
G01 X9.47352 Y29.74333
G01 X9.61070 Y29.81717
G01 X9.75429 Y29.91783
G01 X9.83156 Y29.98143
G01 X9.98147 Y30.13047
G04 P0 ( dwell for no time -- G64 should not smooth over this point )
G00 Z0.50000 ( retract )

G00 X7.60608 Y31.40047 ( rapid move to begin. )
G01 F300.00000
( Mill infeed pass 1/1 )
G01 Z-0.07500
G04 P0 ( dwell for no time -- G64 should not smooth over this point )
G01 F600.00000
G01 X7.60608 Y31.40047
G01 X7.69526 Y31.28023
G01 X7.79882 Y31.12120
G01 X7.88256 Y30.98259
G01 X7.97182 Y30.86913
G01 X8.12178 Y30.70142
G01 X8.20873 Y30.51907
G01 X8.27639 Y30.33146
G01 X8.28581 Y30.15709
G01 X8.27672 Y29.93124
G01 X8.20873 Y29.74188
G01 X8.18769 Y29.69288
G01 X8.12313 Y29.56184
G01 X8.01518 Y29.44175
G01 X7.89895 Y29.30132
G01 X7.69544 Y28.98034
G01 X7.60642 Y28.86047
G01 X7.69516 Y28.74003
G01 X7.86905 Y28.46370
G01 X7.92417 Y28.38758
G01 X8.00126 Y28.29505
G01 X8.07972 Y28.21189
G01 X8.12178 Y28.16142
G01 X8.18764 Y28.02804
G01 X8.27639 Y27.79146
G01 X8.28581 Y27.61709
G01 X8.27672 Y27.39124
G01 X8.20873 Y27.20188
G01 X8.12313 Y27.02184
G01 X7.93677 Y26.80894
G01 X7.88218 Y26.73645
G01 X7.83001 Y26.65273
G01 X7.62148 Y26.60643
G01 X7.40377 Y26.58039
G01 X7.19087 Y26.57760
G01 X6.97797 Y26.59713
G01 X6.76029 Y26.64029
G01 X6.61488 Y26.68369
G01 X6.52399 Y26.86320
G01 X6.48975 Y26.91997
G01 X6.42072 Y27.01656
G01 X6.31549 Y27.22631
G01 X6.27449 Y27.29680
G01 X6.16753 Y27.44242
G01 X6.03898 Y27.58567
G01 X6.14945 Y27.70848
G01 X6.26159 Y27.86165
G01 X6.31480 Y27.95037
G01 X6.42044 Y28.16416
G01 X6.50873 Y28.29197
G01 X6.65353 Y28.57516
G01 X6.82679 Y28.86047
G01 X7.60642 Y28.86047
G01 X6.82679 Y28.86047
G01 X6.73944 Y28.96002
G01 X6.68633 Y29.01420
G01 X6.56222 Y29.13312
G01 X6.49080 Y29.19278
G01 X6.39768 Y29.26515
G01 X6.27901 Y29.34488
G01 X6.00053 Y29.51201
G01 X6.00053 Y31.34703
G01 X6.05209 Y31.40047
G01 X7.60608 Y31.40047
G01 X7.69509 Y31.52110
G01 X7.88218 Y31.81648
G01 X7.97182 Y31.93184
G01 X8.12252 Y32.10060
G01 X8.20873 Y32.28188
G01 X8.27672 Y32.47124
G01 X8.28581 Y32.69709
G01 X8.27639 Y32.87146
G01 X8.20873 Y33.05907
G01 X8.12221 Y33.24058
G01 X7.98876 Y33.38879
G01 X7.92417 Y33.46758
G01 X7.86905 Y33.54370
G01 X7.83004 Y33.60819
G01 X7.62148 Y33.65452
G01 X7.56308 Y33.66379
G01 X7.35015 Y33.68335
G01 X7.19087 Y33.68335
G01 X6.97797 Y33.66379
G01 X6.76029 Y33.62066
G01 X6.69194 Y33.60230
G01 X6.53266 Y33.55053
G01 X6.44828 Y33.51805
G01 X6.28897 Y33.44711
G01 X6.18064 Y33.39173
G01 X6.00053 Y33.28752
G01 X6.00053 Y31.45392
G01 X5.94896 Y31.40047
G01 X6.00053 Y31.45392
G01 X6.05209 Y31.40047
G01 X6.00053 Y31.34703
G01 X5.94896 Y31.40047
G01 X3.86182 Y31.40047
G01 X3.79898 Y31.52384
G01 X3.73505 Y31.66692
G01 X3.67391 Y31.82625
G01 X3.63490 Y31.94591
G01 X3.59220 Y32.10520
G01 X3.56995 Y32.20964
G01 X3.54473 Y32.36895
G01 X3.53462 Y32.46466
G01 X3.52629 Y32.62399
G01 X3.52629 Y32.71701
G01 X3.53462 Y32.87629
G01 X3.54473 Y32.97200
G01 X3.56995 Y33.13131
G01 X3.59220 Y33.23575
G01 X3.63279 Y33.38721
G01 X3.74897 Y33.44711
G01 X3.90828 Y33.51805
G01 X3.99266 Y33.55053
G01 X4.15194 Y33.60230
G01 X4.22029 Y33.62066
G01 X4.43797 Y33.66379
G01 X4.65087 Y33.68335
G01 X4.81018 Y33.68335
G01 X5.02308 Y33.66379
G01 X5.24076 Y33.62066
G01 X5.30906 Y33.60230
G01 X5.46834 Y33.55056
G01 X5.55277 Y33.51805
G01 X5.71208 Y33.44711
G01 X5.82041 Y33.39173
G01 X6.00053 Y33.28752
G04 P0 ( dwell for no time -- G64 should not smooth over this point )
G00 Z0.50000 ( retract )

G00 X9.98147 Y32.67047 ( rapid move to begin. )
G01 F300.00000
( Mill infeed pass 1/1 )
G01 Z-0.07500
G04 P0 ( dwell for no time -- G64 should not smooth over this point )
G01 F600.00000
G01 X9.98147 Y32.67047
G01 X9.82429 Y32.82679
G01 X9.75426 Y32.88305
G01 X9.61027 Y32.98391
G01 X9.47507 Y33.05655
G01 X9.33994 Y33.17553
G01 X9.22470 Y33.29684
G01 X9.18104 Y33.34901
G01 X9.09160 Y33.53646
G01 X9.02107 Y33.73197
G01 X9.01121 Y33.96714
G01 X9.02074 Y34.14713
G01 X9.09160 Y34.34449
G01 X9.18007 Y34.53034
G01 X9.18929 Y34.54238
G01 X9.33991 Y34.70545
G01 X9.47352 Y34.82333
G01 X9.61070 Y34.89717
G01 X9.75429 Y34.99783
G01 X9.83156 Y35.06143
G01 X9.98147 Y35.21047
G04 P0 ( dwell for no time -- G64 should not smooth over this point )
G00 Z0.50000 ( retract )

G00 X5.82623 Y37.53353 ( rapid move to begin. )
G01 F300.00000
( Mill infeed pass 1/1 )
G01 Z-0.07500
G04 P0 ( dwell for no time -- G64 should not smooth over this point )
G01 F600.00000
G01 X5.82623 Y37.53353
G01 X5.65981 Y37.13074
G01 X5.35189 Y36.82231
G01 X4.94940 Y36.65518
G01 X4.51356 Y36.65477
G01 X4.11079 Y36.82119
G01 X3.80236 Y37.12911
G01 X3.63523 Y37.53163
G01 X3.63482 Y37.96744
G01 X3.80127 Y38.37021
G01 X4.10917 Y38.67864
G01 X4.51165 Y38.84577
G01 X4.94749 Y38.84618
G01 X5.35023 Y38.67976
G01 X5.65869 Y38.37183
G01 X5.82582 Y37.96935
G01 X5.82623 Y37.53353
G04 P0 ( dwell for no time -- G64 should not smooth over this point )
G00 Z0.50000 ( retract )

G00 X9.98147 Y37.75047 ( rapid move to begin. )
G01 F300.00000
( Mill infeed pass 1/1 )
G01 Z-0.07500
G04 P0 ( dwell for no time -- G64 should not smooth over this point )
G01 F600.00000
G01 X9.98147 Y37.75047
G01 X9.82429 Y37.90679
G01 X9.75426 Y37.96305
G01 X9.61027 Y38.06391
G01 X9.47507 Y38.13655
G01 X9.33994 Y38.25553
G01 X9.22470 Y38.37684
G01 X9.18104 Y38.42901
G01 X9.09160 Y38.61646
G01 X9.02107 Y38.81197
G01 X9.01121 Y39.04714
G01 X9.02074 Y39.22713
G01 X9.09160 Y39.42449
G01 X9.18007 Y39.61034
G01 X9.18929 Y39.62238
G01 X9.33991 Y39.78545
G01 X9.47352 Y39.90333
G01 X9.61070 Y39.97717
G01 X9.75429 Y40.07783
G01 X9.83156 Y40.14143
G01 X9.98147 Y40.29047
G04 P0 ( dwell for no time -- G64 should not smooth over this point )
G00 Z0.50000 ( retract )

G00 X9.98147 Y42.83047 ( rapid move to begin. )
G01 F300.00000
( Mill infeed pass 1/1 )
G01 Z-0.07500
G04 P0 ( dwell for no time -- G64 should not smooth over this point )
G01 F600.00000
G01 X9.98147 Y42.83047
G01 X9.82429 Y42.98679
G01 X9.75426 Y43.04305
G01 X9.61027 Y43.14391
G01 X9.47507 Y43.21655
G01 X9.33994 Y43.33553
G01 X9.22470 Y43.45686
G01 X9.18104 Y43.50904
G01 X9.09160 Y43.69646
G01 X9.02107 Y43.89197
G01 X9.01121 Y44.12714
G01 X9.02074 Y44.30713
G01 X9.09160 Y44.50449
G01 X9.18007 Y44.69034
G01 X9.18929 Y44.70238
G01 X9.33991 Y44.86545
G01 X9.47352 Y44.98333
G01 X9.61070 Y45.05717
G01 X9.75429 Y45.15783
G01 X9.83156 Y45.22143
G01 X9.98147 Y45.37047
G04 P0 ( dwell for no time -- G64 should not smooth over this point )
G00 Z0.50000 ( retract )

G00 X13.87453 Y49.26196 ( rapid move to begin. )
G01 F300.00000
( Mill infeed pass 1/1 )
G01 Z-0.07500
G04 P0 ( dwell for no time -- G64 should not smooth over this point )
G01 F600.00000
G01 X13.87453 Y49.26196
G01 X13.75235 Y49.38525
G01 X13.64394 Y49.51200
G01 X13.59068 Y49.58881
G01 X13.53864 Y49.67420
G01 X13.47991 Y49.78248
G01 X13.32911 Y49.94542
G01 X13.19403 Y50.06437
G01 X13.10925 Y50.10854
G01 X12.90524 Y50.19302
G01 X12.81082 Y50.22231
G01 X12.68814 Y50.23231
G01 X12.52091 Y50.23224
G01 X12.39642 Y50.22193
G01 X12.25350 Y50.17455
G01 X12.09983 Y50.10846
G01 X12.01352 Y50.06333
G01 X11.87991 Y49.94542
G01 X11.72929 Y49.78238
G01 X11.67054 Y49.67466
G01 X11.61827 Y49.58883
G01 X11.56526 Y49.51233
G01 X11.44728 Y49.37595
G01 X11.33453 Y49.26196
G04 P0 ( dwell for no time -- G64 should not smooth over this point )
G00 Z0.50000 ( retract )

G00 X9.98147 Y47.91047 ( rapid move to begin. )
G01 F300.00000
( Mill infeed pass 1/1 )
G01 Z-0.07500
G04 P0 ( dwell for no time -- G64 should not smooth over this point )
G01 F600.00000
G01 X9.98147 Y47.91047
G01 X9.83156 Y47.76143
G01 X9.75429 Y47.69783
G01 X9.61070 Y47.59717
G01 X9.47352 Y47.52333
G01 X9.33991 Y47.40545
G01 X9.18929 Y47.24238
G01 X9.18007 Y47.23034
G01 X9.09160 Y47.04449
G01 X9.02074 Y46.84713
G01 X9.01121 Y46.66714
G01 X9.02107 Y46.43197
G01 X9.09160 Y46.23646
G01 X9.18104 Y46.04901
G01 X9.22470 Y45.99684
G01 X9.33994 Y45.87553
G01 X9.47507 Y45.75655
G01 X9.61027 Y45.68391
G01 X9.75426 Y45.58305
G01 X9.82429 Y45.52679
G01 X9.98147 Y45.37047
G01 X68.56758 Y45.37047
G01 X68.71823 Y45.22087
G01 X68.79479 Y45.15790
G01 X68.93880 Y45.05704
G01 X69.07403 Y44.98437
G01 X69.20911 Y44.86542
G01 X69.35991 Y44.70248
G01 X69.43636 Y44.55348
G01 X69.45745 Y44.50449
G01 X69.52801 Y44.30896
G01 X69.53784 Y44.12714
G01 X69.52834 Y43.89379
G01 X69.45745 Y43.69646
G01 X69.36898 Y43.51058
G01 X69.32425 Y43.45694
G01 X69.20914 Y43.33550
G01 X69.07556 Y43.21762
G01 X68.93837 Y43.14378
G01 X68.79476 Y43.04312
G01 X68.72407 Y42.98620
G01 X68.56758 Y42.83047
G01 X9.98147 Y42.83047
G01 X9.83156 Y42.68143
G01 X9.75429 Y42.61783
G01 X9.61070 Y42.51717
G01 X9.47352 Y42.44333
G01 X9.33991 Y42.32545
G01 X9.18929 Y42.16238
G01 X9.18007 Y42.15034
G01 X9.09160 Y41.96449
G01 X9.02074 Y41.76713
G01 X9.01121 Y41.58714
G01 X9.02107 Y41.35197
G01 X9.09160 Y41.15646
G01 X9.18104 Y40.96901
G01 X9.22470 Y40.91684
G01 X9.33994 Y40.79553
G01 X9.47507 Y40.67655
G01 X9.61027 Y40.60391
G01 X9.75426 Y40.50305
G01 X9.82429 Y40.44679
G01 X9.98147 Y40.29047
G01 X68.56758 Y40.29047
G01 X68.71823 Y40.14087
G01 X68.79479 Y40.07790
G01 X68.93880 Y39.97704
G01 X69.07403 Y39.90437
G01 X69.20911 Y39.78542
G01 X69.35991 Y39.62248
G01 X69.43636 Y39.47348
G01 X69.45745 Y39.42449
G01 X69.52801 Y39.22896
G01 X69.53784 Y39.04714
G01 X69.52834 Y38.81379
G01 X69.45745 Y38.61646
G01 X69.36898 Y38.43059
G01 X69.32425 Y38.37694
G01 X69.20914 Y38.25550
G01 X69.07556 Y38.13762
G01 X68.93837 Y38.06378
G01 X68.79476 Y37.96312
G01 X68.72407 Y37.90620
G01 X68.56758 Y37.75047
G01 X9.98147 Y37.75047
G01 X9.83156 Y37.60143
G01 X9.75429 Y37.53783
G01 X9.61070 Y37.43717
G01 X9.47352 Y37.36333
G01 X9.33991 Y37.24545
G01 X9.18929 Y37.08238
G01 X9.18007 Y37.07034
G01 X9.09160 Y36.88449
G01 X9.02074 Y36.68713
G01 X9.01121 Y36.50714
G01 X9.02107 Y36.27197
G01 X9.09160 Y36.07646
G01 X9.18104 Y35.88904
G01 X9.22470 Y35.83686
G01 X9.33994 Y35.71553
G01 X9.47507 Y35.59655
G01 X9.61027 Y35.52391
G01 X9.75426 Y35.42305
G01 X9.82429 Y35.36679
G01 X9.98147 Y35.21047
G01 X68.56758 Y35.21047
G01 X68.71823 Y35.06087
G01 X68.79479 Y34.99790
G01 X68.93880 Y34.89704
G01 X69.07403 Y34.82437
G01 X69.20911 Y34.70542
G01 X69.35991 Y34.54248
G01 X69.43636 Y34.39348
G01 X69.45745 Y34.34449
G01 X69.52801 Y34.14896
G01 X69.53784 Y33.96714
G01 X69.52834 Y33.73379
G01 X69.45745 Y33.53646
G01 X69.36898 Y33.35059
G01 X69.32425 Y33.29694
G01 X69.20914 Y33.17550
G01 X69.07556 Y33.05762
G01 X68.93837 Y32.98378
G01 X68.79476 Y32.88312
G01 X68.72407 Y32.82620
G01 X68.56758 Y32.67047
G01 X9.98147 Y32.67047
G01 X9.83156 Y32.52143
G01 X9.75429 Y32.45783
G01 X9.61070 Y32.35717
G01 X9.47352 Y32.28333
G01 X9.33991 Y32.16545
G01 X9.18929 Y32.00238
G01 X9.18007 Y31.99034
G01 X9.09160 Y31.80449
G01 X9.02074 Y31.60713
G01 X9.01121 Y31.42714
G01 X9.02107 Y31.19197
G01 X9.09160 Y30.99646
G01 X9.18104 Y30.80904
G01 X9.22470 Y30.75686
G01 X9.33994 Y30.63553
G01 X9.47507 Y30.51655
G01 X9.61027 Y30.44391
G01 X9.75426 Y30.34305
G01 X9.82429 Y30.28679
G01 X9.98147 Y30.13047
G01 X68.56758 Y30.13047
G01 X68.71823 Y29.98087
G01 X68.79479 Y29.91790
G01 X68.93880 Y29.81704
G01 X69.07403 Y29.74437
G01 X69.20911 Y29.62542
G01 X69.35991 Y29.46248
G01 X69.43636 Y29.31348
G01 X69.45745 Y29.26449
G01 X69.52801 Y29.06896
G01 X69.53784 Y28.88714
G01 X69.52834 Y28.65379
G01 X69.45745 Y28.45646
G01 X69.36898 Y28.27059
G01 X69.32425 Y28.21694
G01 X69.20914 Y28.09550
G01 X69.07556 Y27.97762
G01 X68.93837 Y27.90378
G01 X68.79476 Y27.80312
G01 X68.72407 Y27.74620
G01 X68.56758 Y27.59047
G01 X9.98147 Y27.59047
G01 X9.83156 Y27.44140
G01 X9.75429 Y27.37783
G01 X9.61070 Y27.27714
G01 X9.47352 Y27.20330
G01 X9.33991 Y27.08545
G01 X9.18929 Y26.92235
G01 X9.18007 Y26.91034
G01 X9.09160 Y26.72449
G01 X9.02074 Y26.52713
G01 X9.01121 Y26.34714
G01 X9.02107 Y26.11197
G01 X9.09160 Y25.91646
G01 X9.18104 Y25.72901
G01 X9.22470 Y25.67684
G01 X9.33994 Y25.55553
G01 X9.47507 Y25.43655
G01 X9.61027 Y25.36391
G01 X9.75426 Y25.26305
G01 X9.83087 Y25.20006
G01 X9.98162 Y25.05047
G01 X68.56758 Y25.05047
G01 X68.71823 Y24.90087
G01 X68.79479 Y24.83790
G01 X68.93880 Y24.73704
G01 X69.07403 Y24.66437
G01 X69.20911 Y24.54542
G01 X69.35991 Y24.38248
G01 X69.43636 Y24.23348
G01 X69.45745 Y24.18449
G01 X69.52801 Y23.98896
G01 X69.53784 Y23.80714
G01 X69.52834 Y23.57379
G01 X69.45745 Y23.37646
G01 X69.36898 Y23.19058
G01 X69.32425 Y23.13694
G01 X69.20914 Y23.01550
G01 X69.07556 Y22.89762
G01 X68.93837 Y22.82378
G01 X68.79476 Y22.72312
G01 X68.72407 Y22.66620
G01 X68.56758 Y22.51047
G01 X9.98162 Y22.51047
G01 X9.83156 Y22.36143
G01 X9.75429 Y22.29783
G01 X9.61070 Y22.19717
G01 X9.47352 Y22.12333
G01 X9.33991 Y22.00545
G01 X9.18929 Y21.84238
G01 X9.18007 Y21.83034
G01 X9.09160 Y21.64449
G01 X9.02074 Y21.44713
G01 X9.01121 Y21.26714
G01 X9.02107 Y21.03197
G01 X9.09160 Y20.83646
G01 X9.18104 Y20.64901
G01 X9.22470 Y20.59684
G01 X9.33994 Y20.47553
G01 X9.47507 Y20.35655
G01 X9.61027 Y20.28391
G01 X9.75426 Y20.18305
G01 X9.83087 Y20.12006
G01 X9.98162 Y19.97047
G01 X68.56758 Y19.97047
G01 X68.71823 Y19.82087
G01 X68.79479 Y19.75790
G01 X68.93880 Y19.65704
G01 X69.07403 Y19.58437
G01 X69.20911 Y19.46542
G01 X69.35991 Y19.30248
G01 X69.43636 Y19.15348
G01 X69.45745 Y19.10449
G01 X69.52801 Y18.90896
G01 X69.53784 Y18.72714
G01 X69.52834 Y18.49379
G01 X69.45745 Y18.29646
G01 X69.36898 Y18.11059
G01 X69.32425 Y18.05694
G01 X69.20914 Y17.93550
G01 X69.07556 Y17.81762
G01 X68.93837 Y17.74378
G01 X68.79476 Y17.64312
G01 X68.72407 Y17.58620
G01 X68.56758 Y17.43047
G01 X9.98162 Y17.43047
G01 X9.83156 Y17.28143
G01 X9.75429 Y17.21783
G01 X9.61070 Y17.11717
G01 X9.47352 Y17.04333
G01 X9.33991 Y16.92545
G01 X9.18929 Y16.76238
G01 X9.18007 Y16.75034
G01 X9.09160 Y16.56449
G01 X9.02074 Y16.36713
G01 X9.01121 Y16.18714
G01 X9.02107 Y15.95197
G01 X9.09160 Y15.75646
G01 X9.18104 Y15.56901
G01 X9.22470 Y15.51684
G01 X9.33994 Y15.39553
G01 X9.47507 Y15.27655
G01 X9.61027 Y15.20391
G01 X9.75426 Y15.10305
G01 X9.83087 Y15.04006
G01 X9.98162 Y14.89047
G01 X68.56758 Y14.89047
G01 X68.71823 Y14.74087
G01 X68.79479 Y14.67790
G01 X68.93880 Y14.57704
G01 X69.07403 Y14.50437
G01 X69.20911 Y14.38542
G01 X69.35991 Y14.22248
G01 X69.43636 Y14.07348
G01 X69.45745 Y14.02446
G01 X69.52801 Y13.82893
G01 X69.53784 Y13.64712
G01 X69.52834 Y13.41379
G01 X69.45745 Y13.21646
G01 X69.36898 Y13.03059
G01 X69.32425 Y12.97694
G01 X69.20914 Y12.85550
G01 X69.07556 Y12.73762
G01 X68.93837 Y12.66378
G01 X68.79476 Y12.56312
G01 X68.72407 Y12.50620
G01 X68.56758 Y12.35047
G04 P0 ( dwell for no time -- G64 should not smooth over this point )
G00 Z0.50000 ( retract )

G00 X68.56758 Y14.89047 ( rapid move to begin. )
G01 F300.00000
( Mill infeed pass 1/1 )
G01 Z-0.07500
G04 P0 ( dwell for no time -- G64 should not smooth over this point )
G01 F600.00000
G01 X68.56758 Y14.89047
G01 X68.65097 Y14.97534
G01 X68.75069 Y15.06805
G01 X68.84630 Y15.14224
G01 X68.93837 Y15.20378
G01 X69.07556 Y15.27762
G01 X69.20914 Y15.39550
G01 X69.35976 Y15.55857
G01 X69.36898 Y15.57058
G01 X69.45745 Y15.75646
G01 X69.52834 Y15.95379
G01 X69.53784 Y16.13383
G01 X69.52801 Y16.36896
G01 X69.45745 Y16.56449
G01 X69.36804 Y16.75189
G01 X69.32435 Y16.80409
G01 X69.20911 Y16.92542
G01 X69.07403 Y17.04437
G01 X68.93880 Y17.11704
G01 X68.79479 Y17.21790
G01 X68.71823 Y17.28087
G01 X68.56758 Y17.43047
G04 P0 ( dwell for no time -- G64 should not smooth over this point )
G00 Z0.50000 ( retract )

G00 X68.56758 Y19.97047 ( rapid move to begin. )
G01 F300.00000
( Mill infeed pass 1/1 )
G01 Z-0.07500
G04 P0 ( dwell for no time -- G64 should not smooth over this point )
G01 F600.00000
G01 X68.56758 Y19.97047
G01 X68.72407 Y20.12620
G01 X68.79476 Y20.18312
G01 X68.93837 Y20.28378
G01 X69.07556 Y20.35762
G01 X69.20914 Y20.47550
G01 X69.35976 Y20.63857
G01 X69.36898 Y20.65058
G01 X69.45745 Y20.83646
G01 X69.52834 Y21.03379
G01 X69.53784 Y21.21383
G01 X69.52801 Y21.44896
G01 X69.45745 Y21.64449
G01 X69.36804 Y21.83189
G01 X69.32435 Y21.88409
G01 X69.20911 Y22.00542
G01 X69.07403 Y22.12437
G01 X68.93880 Y22.19704
G01 X68.79479 Y22.29790
G01 X68.71823 Y22.36087
G01 X68.56758 Y22.51047
G04 P0 ( dwell for no time -- G64 should not smooth over this point )
G00 Z0.50000 ( retract )

G00 X68.56758 Y25.05047 ( rapid move to begin. )
G01 F300.00000
( Mill infeed pass 1/1 )
G01 Z-0.07500
G04 P0 ( dwell for no time -- G64 should not smooth over this point )
G01 F600.00000
G01 X68.56758 Y25.05047
G01 X68.65097 Y25.13534
G01 X68.75069 Y25.22805
G01 X68.84630 Y25.30224
G01 X68.93837 Y25.36378
G01 X69.07556 Y25.43762
G01 X69.20914 Y25.55550
G01 X69.35976 Y25.71857
G01 X69.36898 Y25.73059
G01 X69.45745 Y25.91646
G01 X69.52834 Y26.11379
G01 X69.53784 Y26.29383
G01 X69.52801 Y26.52896
G01 X69.45745 Y26.72449
G01 X69.36804 Y26.91189
G01 X69.32435 Y26.96409
G01 X69.20911 Y27.08540
G01 X69.07403 Y27.20437
G01 X68.93880 Y27.27704
G01 X68.79479 Y27.37790
G01 X68.71823 Y27.44087
G01 X68.56758 Y27.59047
G04 P0 ( dwell for no time -- G64 should not smooth over this point )
G00 Z0.50000 ( retract )

G00 X68.56758 Y30.13047 ( rapid move to begin. )
G01 F300.00000
( Mill infeed pass 1/1 )
G01 Z-0.07500
G04 P0 ( dwell for no time -- G64 should not smooth over this point )
G01 F600.00000
G01 X68.56758 Y30.13047
G01 X68.72407 Y30.28620
G01 X68.79476 Y30.34312
G01 X68.93837 Y30.44378
G01 X69.07556 Y30.51762
G01 X69.20914 Y30.63550
G01 X69.35976 Y30.79857
G01 X69.36898 Y30.81058
G01 X69.45745 Y30.99646
G01 X69.52834 Y31.19379
G01 X69.53784 Y31.37383
G01 X69.52801 Y31.60896
G01 X69.45745 Y31.80449
G01 X69.36804 Y31.99189
G01 X69.32435 Y32.04409
G01 X69.20911 Y32.16542
G01 X69.07403 Y32.28437
G01 X68.93880 Y32.35704
G01 X68.79479 Y32.45790
G01 X68.71823 Y32.52087
G01 X68.56758 Y32.67047
G04 P0 ( dwell for no time -- G64 should not smooth over this point )
G00 Z0.50000 ( retract )

G00 X68.56758 Y35.21047 ( rapid move to begin. )
G01 F300.00000
( Mill infeed pass 1/1 )
G01 Z-0.07500
G04 P0 ( dwell for no time -- G64 should not smooth over this point )
G01 F600.00000
G01 X68.56758 Y35.21047
G01 X68.72407 Y35.36620
G01 X68.79476 Y35.42312
G01 X68.93837 Y35.52378
G01 X69.07556 Y35.59762
G01 X69.20914 Y35.71550
G01 X69.35976 Y35.87857
G01 X69.36898 Y35.89059
G01 X69.45745 Y36.07646
G01 X69.52834 Y36.27379
G01 X69.53784 Y36.45383
G01 X69.52801 Y36.68896
G01 X69.45745 Y36.88449
G01 X69.36804 Y37.07189
G01 X69.32435 Y37.12409
G01 X69.20911 Y37.24542
G01 X69.07403 Y37.36437
G01 X68.93880 Y37.43704
G01 X68.79479 Y37.53790
G01 X68.71823 Y37.60087
G01 X68.56758 Y37.75047
G04 P0 ( dwell for no time -- G64 should not smooth over this point )
G00 Z0.50000 ( retract )

G00 X68.56758 Y40.29047 ( rapid move to begin. )
G01 F300.00000
( Mill infeed pass 1/1 )
G01 Z-0.07500
G04 P0 ( dwell for no time -- G64 should not smooth over this point )
G01 F600.00000
G01 X68.56758 Y40.29047
G01 X68.72407 Y40.44620
G01 X68.79476 Y40.50312
G01 X68.93837 Y40.60378
G01 X69.07556 Y40.67762
G01 X69.20914 Y40.79550
G01 X69.35976 Y40.95857
G01 X69.36898 Y40.97058
G01 X69.45745 Y41.15646
G01 X69.52834 Y41.35379
G01 X69.53784 Y41.53383
G01 X69.52801 Y41.76896
G01 X69.45745 Y41.96449
G01 X69.36804 Y42.15189
G01 X69.32435 Y42.20409
G01 X69.20911 Y42.32542
G01 X69.07403 Y42.44437
G01 X68.93880 Y42.51704
G01 X68.79479 Y42.61790
G01 X68.71823 Y42.68087
G01 X68.56758 Y42.83047
G04 P0 ( dwell for no time -- G64 should not smooth over this point )
G00 Z0.50000 ( retract )

G00 X68.56758 Y45.37047 ( rapid move to begin. )
G01 F300.00000
( Mill infeed pass 1/1 )
G01 Z-0.07500
G04 P0 ( dwell for no time -- G64 should not smooth over this point )
G01 F600.00000
G01 X68.56758 Y45.37047
G01 X68.72407 Y45.52620
G01 X68.79476 Y45.58312
G01 X68.93837 Y45.68378
G01 X69.07556 Y45.75762
G01 X69.20914 Y45.87550
G01 X69.35976 Y46.03857
G01 X69.36898 Y46.05058
G01 X69.45745 Y46.23646
G01 X69.52834 Y46.43379
G01 X69.53784 Y46.61383
G01 X69.52801 Y46.84896
G01 X69.45745 Y47.04449
G01 X69.36804 Y47.23189
G01 X69.32435 Y47.28409
G01 X69.20911 Y47.40542
G01 X69.07403 Y47.52437
G01 X68.93880 Y47.59704
G01 X68.79479 Y47.69790
G01 X68.71823 Y47.76087
G01 X68.56758 Y47.91047
G04 P0 ( dwell for no time -- G64 should not smooth over this point )
G00 Z0.50000 ( retract )

G00 X62.13453 Y49.26196 ( rapid move to begin. )
G01 F300.00000
( Mill infeed pass 1/1 )
G01 Z-0.07500
G04 P0 ( dwell for no time -- G64 should not smooth over this point )
G01 F600.00000
G01 X62.13453 Y49.26196
G01 X62.01235 Y49.38525
G01 X61.90394 Y49.51200
G01 X61.85068 Y49.58881
G01 X61.79864 Y49.67420
G01 X61.73991 Y49.78248
G01 X61.58911 Y49.94542
G01 X61.45403 Y50.06437
G01 X61.36925 Y50.10854
G01 X61.16524 Y50.19302
G01 X61.07082 Y50.22231
G01 X60.94817 Y50.23231
G01 X60.78088 Y50.23224
G01 X60.65642 Y50.22193
G01 X60.51350 Y50.17455
G01 X60.35983 Y50.10846
G01 X60.27352 Y50.06333
G01 X60.13991 Y49.94542
G01 X59.98929 Y49.78238
G01 X59.93054 Y49.67466
G01 X59.87827 Y49.58883
G01 X59.82526 Y49.51233
G01 X59.70728 Y49.37595
G01 X59.59453 Y49.26196
G01 X59.59453 Y8.45909
G01 X59.70667 Y8.34571
G01 X59.82513 Y8.20890
G01 X59.87837 Y8.13214
G01 X59.93041 Y8.04672
G01 X59.98914 Y7.93847
G01 X60.13994 Y7.77553
G01 X60.27504 Y7.65658
G01 X60.35980 Y7.61241
G01 X60.56381 Y7.52788
G01 X60.65825 Y7.49862
G01 X60.78088 Y7.48861
G01 X60.94817 Y7.48869
G01 X61.07263 Y7.49900
G01 X61.21555 Y7.54637
G01 X61.36922 Y7.61249
G01 X61.45553 Y7.65762
G01 X61.58914 Y7.77550
G01 X61.73976 Y7.93857
G01 X61.79853 Y8.04627
G01 X61.85081 Y8.13212
G01 X61.90379 Y8.20860
G01 X62.02177 Y8.34500
G01 X62.13453 Y8.45909
G04 P0 ( dwell for no time -- G64 should not smooth over this point )
G00 Z0.50000 ( retract )

G00 X59.59453 Y8.45909 ( rapid move to begin. )
G01 F300.00000
( Mill infeed pass 1/1 )
G01 Z-0.07500
G04 P0 ( dwell for no time -- G64 should not smooth over this point )
G01 F600.00000
G01 X59.59453 Y8.45909
G01 X59.48177 Y8.34500
G01 X59.36382 Y8.20860
G01 X59.31081 Y8.13212
G01 X59.25853 Y8.04627
G01 X59.19976 Y7.93857
G01 X59.04914 Y7.77550
G01 X58.91553 Y7.65762
G01 X58.82922 Y7.61249
G01 X58.67555 Y7.54637
G01 X58.53263 Y7.49900
G01 X58.40817 Y7.48869
G01 X58.24088 Y7.48861
G01 X58.11825 Y7.49862
G01 X58.02381 Y7.52788
G01 X57.81980 Y7.61241
G01 X57.73504 Y7.65658
G01 X57.59994 Y7.77553
G01 X57.44914 Y7.93847
G01 X57.39041 Y8.04672
G01 X57.33837 Y8.13214
G01 X57.28513 Y8.20890
G01 X57.17667 Y8.33570
G01 X57.05453 Y8.45897
G01 X57.05453 Y49.26196
G01 X57.16728 Y49.37595
G01 X57.28526 Y49.51233
G01 X57.33827 Y49.58883
G01 X57.39054 Y49.67466
G01 X57.44929 Y49.78238
G01 X57.59991 Y49.94542
G01 X57.73352 Y50.06333
G01 X57.81983 Y50.10846
G01 X57.97350 Y50.17455
G01 X58.11642 Y50.22193
G01 X58.24088 Y50.23224
G01 X58.40814 Y50.23231
G01 X58.53082 Y50.22231
G01 X58.62524 Y50.19302
G01 X58.82925 Y50.10854
G01 X58.91403 Y50.06437
G01 X59.04911 Y49.94542
G01 X59.19994 Y49.78248
G01 X59.25864 Y49.67420
G01 X59.31068 Y49.58881
G01 X59.36394 Y49.51200
G01 X59.47238 Y49.38525
G01 X59.59453 Y49.26196
G04 P0 ( dwell for no time -- G64 should not smooth over this point )
G00 Z0.50000 ( retract )

G00 X57.05453 Y49.26196 ( rapid move to begin. )
G01 F300.00000
( Mill infeed pass 1/1 )
G01 Z-0.07500
G04 P0 ( dwell for no time -- G64 should not smooth over this point )
G01 F600.00000
G01 X57.05453 Y49.26196
G01 X56.93235 Y49.38525
G01 X56.82394 Y49.51200
G01 X56.77068 Y49.58881
G01 X56.71864 Y49.67420
G01 X56.65991 Y49.78248
G01 X56.50911 Y49.94542
G01 X56.37403 Y50.06437
G01 X56.28925 Y50.10854
G01 X56.08524 Y50.19302
G01 X55.99082 Y50.22231
G01 X55.86817 Y50.23231
G01 X55.70088 Y50.23224
G01 X55.57642 Y50.22193
G01 X55.43350 Y50.17455
G01 X55.27983 Y50.10846
G01 X55.19352 Y50.06333
G01 X55.05991 Y49.94542
G01 X54.90929 Y49.78238
G01 X54.85054 Y49.67466
G01 X54.79827 Y49.58883
G01 X54.74526 Y49.51233
G01 X54.62728 Y49.37595
G01 X54.51453 Y49.26183
G04 P0 ( dwell for no time -- G64 should not smooth over this point )
G00 Z0.50000 ( retract )

G00 X56.62623 Y52.77348 ( rapid move to begin. )
G01 F300.00000
( Mill infeed pass 1/1 )
G01 Z-0.07500
G04 P0 ( dwell for no time -- G64 should not smooth over this point )
G01 F600.00000
G01 X56.62623 Y52.77348
G01 X56.62582 Y53.20932
G01 X56.45869 Y53.61183
G01 X56.15023 Y53.91976
G01 X55.74747 Y54.08618
G01 X55.31165 Y54.08577
G01 X54.90914 Y53.91864
G01 X54.60127 Y53.61023
G01 X54.40647 Y53.13879
G01 X54.36787 Y53.05621
G01 X54.32885 Y52.98979
G01 X54.36352 Y52.93172
G01 X54.40553 Y52.84308
G01 X54.60236 Y52.36909
G01 X54.91079 Y52.06119
G01 X55.31356 Y51.89474
G01 X55.74940 Y51.89515
G01 X56.15189 Y52.06228
G01 X56.45981 Y52.37071
G01 X56.62623 Y52.77348
G04 P0 ( dwell for no time -- G64 should not smooth over this point )
G00 Z0.50000 ( retract )

G00 X51.97453 Y49.26183 ( rapid move to begin. )
G01 F300.00000
( Mill infeed pass 1/1 )
G01 Z-0.07500
G04 P0 ( dwell for no time -- G64 should not smooth over this point )
G01 F600.00000
G01 X51.97453 Y49.26183
G01 X51.86238 Y49.37519
G01 X51.74394 Y49.51200
G01 X51.69068 Y49.58881
G01 X51.63864 Y49.67420
G01 X51.57991 Y49.78248
G01 X51.42911 Y49.94542
G01 X51.29403 Y50.06437
G01 X51.20925 Y50.10854
G01 X51.00524 Y50.19302
G01 X50.91082 Y50.22231
G01 X50.78814 Y50.23231
G01 X50.62088 Y50.23224
G01 X50.49642 Y50.22193
G01 X50.35350 Y50.17455
G01 X50.19983 Y50.10846
G01 X50.11352 Y50.06333
G01 X49.97991 Y49.94542
G01 X49.82929 Y49.78238
G01 X49.77054 Y49.67466
G01 X49.71827 Y49.58883
G01 X49.66526 Y49.51233
G01 X49.54728 Y49.37595
G01 X49.43453 Y49.26196
G01 X49.43453 Y8.45909
G01 X49.54667 Y8.34571
G01 X49.66513 Y8.20890
G01 X49.71837 Y8.13214
G01 X49.77041 Y8.04672
G01 X49.82914 Y7.93847
G01 X49.97994 Y7.77553
G01 X50.11504 Y7.65658
G01 X50.19980 Y7.61241
G01 X50.40381 Y7.52788
G01 X50.49825 Y7.49862
G01 X50.62091 Y7.48861
G01 X50.78817 Y7.48869
G01 X50.91263 Y7.49900
G01 X51.05555 Y7.54637
G01 X51.20922 Y7.61249
G01 X51.29553 Y7.65762
G01 X51.42914 Y7.77550
G01 X51.57976 Y7.93857
G01 X51.63853 Y8.04627
G01 X51.69081 Y8.13212
G01 X51.74379 Y8.20860
G01 X51.86177 Y8.34500
G01 X51.97453 Y8.45909
G04 P0 ( dwell for no time -- G64 should not smooth over this point )
G00 Z0.50000 ( retract )

G00 X57.89626 Y4.51353 ( rapid move to begin. )
G01 F300.00000
( Mill infeed pass 1/1 )
G01 Z-0.07500
G04 P0 ( dwell for no time -- G64 should not smooth over this point )
G01 F600.00000
G01 X57.89626 Y4.51353
G01 X57.89585 Y4.94932
G01 X57.72872 Y5.35183
G01 X57.42023 Y5.65976
G01 X57.01749 Y5.82618
G01 X56.58165 Y5.82577
G01 X56.17917 Y5.65864
G01 X55.87127 Y5.35023
G01 X55.70482 Y4.94744
G01 X55.70523 Y4.51160
G01 X55.87236 Y4.10911
G01 X56.18077 Y3.80122
G01 X56.58356 Y3.63477
G01 X57.01937 Y3.63518
G01 X57.42189 Y3.80231
G01 X57.72981 Y4.11074
G01 X57.89626 Y4.51353
G04 P0 ( dwell for no time -- G64 should not smooth over this point )
G00 Z0.50000 ( retract )

G00 X57.05453 Y8.45897 ( rapid move to begin. )
G01 F300.00000
( Mill infeed pass 1/1 )
G01 Z-0.07500
G04 P0 ( dwell for no time -- G64 should not smooth over this point )
G01 F600.00000
G01 X57.05453 Y8.45897
G01 X56.94177 Y8.34500
G01 X56.82379 Y8.20860
G01 X56.77081 Y8.13212
G01 X56.71853 Y8.04627
G01 X56.65976 Y7.93857
G01 X56.50914 Y7.77550
G01 X56.37553 Y7.65762
G01 X56.28922 Y7.61249
G01 X56.13555 Y7.54637
G01 X55.99263 Y7.49900
G01 X55.86817 Y7.48869
G01 X55.70088 Y7.48861
G01 X55.57825 Y7.49862
G01 X55.48381 Y7.52788
G01 X55.27980 Y7.61241
G01 X55.19504 Y7.65658
G01 X55.05994 Y7.77553
G01 X54.90914 Y7.93847
G01 X54.85041 Y8.04672
G01 X54.79837 Y8.13214
G01 X54.74513 Y8.20890
G01 X54.63667 Y8.33570
G01 X54.51453 Y8.45897
G01 X54.51453 Y49.26183
G01 X54.40238 Y49.37519
G01 X54.28394 Y49.51200
G01 X54.23068 Y49.58881
G01 X54.17864 Y49.67420
G01 X54.11991 Y49.78248
G01 X53.96911 Y49.94542
G01 X53.83403 Y50.06437
G01 X53.74925 Y50.10854
G01 X53.59553 Y50.17450
G01 X53.45082 Y50.22231
G01 X53.32814 Y50.23231
G01 X53.16088 Y50.23224
G01 X53.03642 Y50.22193
G01 X52.94379 Y50.19312
G01 X52.73983 Y50.10846
G01 X52.65352 Y50.06333
G01 X52.51991 Y49.94542
G01 X52.36929 Y49.78238
G01 X52.31054 Y49.67466
G01 X52.25827 Y49.58883
G01 X52.20526 Y49.51233
G01 X52.08728 Y49.37595
G01 X51.97453 Y49.26183
G01 X51.97453 Y8.45909
G01 X52.08667 Y8.34571
G01 X52.20513 Y8.20890
G01 X52.25837 Y8.13214
G01 X52.31041 Y8.04672
G01 X52.36914 Y7.93847
G01 X52.51994 Y7.77553
G01 X52.65504 Y7.65658
G01 X52.73980 Y7.61241
G01 X52.94381 Y7.52788
G01 X53.03825 Y7.49862
G01 X53.16088 Y7.48861
G01 X53.32817 Y7.48869
G01 X53.45263 Y7.49900
G01 X53.59555 Y7.54637
G01 X53.74922 Y7.61249
G01 X53.83553 Y7.65762
G01 X53.96914 Y7.77550
G01 X54.11976 Y7.93857
G01 X54.17853 Y8.04627
G01 X54.23081 Y8.13212
G01 X54.28379 Y8.20860
G01 X54.40177 Y8.34500
G01 X54.51453 Y8.45897
G04 P0 ( dwell for no time -- G64 should not smooth over this point )
G00 Z0.50000 ( retract )

G00 X49.43453 Y8.45909 ( rapid move to begin. )
G01 F300.00000
( Mill infeed pass 1/1 )
G01 Z-0.07500
G04 P0 ( dwell for no time -- G64 should not smooth over this point )
G01 F600.00000
G01 X49.43453 Y8.45909
G01 X49.32177 Y8.34500
G01 X49.20379 Y8.20860
G01 X49.15081 Y8.13212
G01 X49.09853 Y8.04627
G01 X49.03976 Y7.93857
G01 X48.88914 Y7.77550
G01 X48.75553 Y7.65762
G01 X48.66922 Y7.61249
G01 X48.51555 Y7.54637
G01 X48.37263 Y7.49900
G01 X48.24817 Y7.48869
G01 X48.08091 Y7.48861
G01 X47.95825 Y7.49862
G01 X47.86381 Y7.52788
G01 X47.65980 Y7.61241
G01 X47.57504 Y7.65658
G01 X47.43994 Y7.77553
G01 X47.28914 Y7.93847
G01 X47.23041 Y8.04672
G01 X47.17837 Y8.13214
G01 X47.12513 Y8.20890
G01 X47.01667 Y8.33570
G01 X46.89453 Y8.45897
G01 X46.89453 Y49.26196
G01 X47.00728 Y49.37595
G01 X47.12526 Y49.51233
G01 X47.17827 Y49.58883
G01 X47.23054 Y49.67466
G01 X47.28929 Y49.78238
G01 X47.43991 Y49.94542
G01 X47.57352 Y50.06333
G01 X47.65983 Y50.10846
G01 X47.81350 Y50.17455
G01 X47.95642 Y50.22193
G01 X48.08091 Y50.23224
G01 X48.24814 Y50.23231
G01 X48.37082 Y50.22231
G01 X48.46524 Y50.19302
G01 X48.66925 Y50.10854
G01 X48.75403 Y50.06437
G01 X48.88911 Y49.94542
G01 X49.03991 Y49.78248
G01 X49.09864 Y49.67420
G01 X49.15068 Y49.58881
G01 X49.20394 Y49.51200
G01 X49.31235 Y49.38525
G01 X49.43453 Y49.26196
G04 P0 ( dwell for no time -- G64 should not smooth over this point )
G00 Z0.50000 ( retract )

G00 X46.89453 Y49.26196 ( rapid move to begin. )
G01 F300.00000
( Mill infeed pass 1/1 )
G01 Z-0.07500
G04 P0 ( dwell for no time -- G64 should not smooth over this point )
G01 F600.00000
G01 X46.89453 Y49.26196
G01 X46.77235 Y49.38525
G01 X46.66394 Y49.51200
G01 X46.61068 Y49.58881
G01 X46.55864 Y49.67420
G01 X46.49991 Y49.78248
G01 X46.34914 Y49.94542
G01 X46.21406 Y50.06434
G01 X46.12927 Y50.10854
G01 X45.92524 Y50.19305
G01 X45.83085 Y50.22231
G01 X45.70814 Y50.23231
G01 X45.54088 Y50.23224
G01 X45.41642 Y50.22193
G01 X45.27350 Y50.17455
G01 X45.11983 Y50.10846
G01 X45.03352 Y50.06333
G01 X44.89991 Y49.94542
G01 X44.74929 Y49.78238
G01 X44.69054 Y49.67466
G01 X44.63827 Y49.58883
G01 X44.58526 Y49.51233
G01 X44.46728 Y49.37595
G01 X44.35453 Y49.26183
G01 X44.35453 Y8.45897
G01 X44.47667 Y8.33570
G01 X44.58513 Y8.20890
G01 X44.63837 Y8.13214
G01 X44.69041 Y8.04672
G01 X44.74914 Y7.93847
G01 X44.89994 Y7.77553
G01 X45.03504 Y7.65658
G01 X45.11980 Y7.61241
G01 X45.32381 Y7.52788
G01 X45.41825 Y7.49862
G01 X45.54088 Y7.48861
G01 X45.70819 Y7.48869
G01 X45.83263 Y7.49900
G01 X45.97555 Y7.54637
G01 X46.12922 Y7.61249
G01 X46.21553 Y7.65762
G01 X46.34914 Y7.77550
G01 X46.49976 Y7.93857
G01 X46.55853 Y8.04627
G01 X46.61081 Y8.13212
G01 X46.66379 Y8.20860
G01 X46.78177 Y8.34500
G01 X46.89453 Y8.45897
G04 P0 ( dwell for no time -- G64 should not smooth over this point )
G00 Z0.50000 ( retract )

G00 X44.35453 Y8.45897 ( rapid move to begin. )
G01 F300.00000
( Mill infeed pass 1/1 )
G01 Z-0.07500
G04 P0 ( dwell for no time -- G64 should not smooth over this point )
G01 F600.00000
G01 X44.35453 Y8.45897
G01 X44.24177 Y8.34500
G01 X44.12379 Y8.20860
G01 X44.07081 Y8.13212
G01 X44.01853 Y8.04627
G01 X43.95976 Y7.93857
G01 X43.80914 Y7.77550
G01 X43.67553 Y7.65762
G01 X43.58922 Y7.61249
G01 X43.43555 Y7.54637
G01 X43.29263 Y7.49900
G01 X43.16817 Y7.48869
G01 X43.00088 Y7.48861
G01 X42.87825 Y7.49862
G01 X42.78381 Y7.52788
G01 X42.57980 Y7.61241
G01 X42.49504 Y7.65658
G01 X42.35994 Y7.77553
G01 X42.20914 Y7.93847
G01 X42.15041 Y8.04672
G01 X42.09837 Y8.13214
G01 X42.04513 Y8.20890
G01 X41.93667 Y8.33570
G01 X41.81453 Y8.45897
G01 X41.81453 Y49.26196
G01 X41.92728 Y49.37595
G01 X42.04526 Y49.51233
G01 X42.09827 Y49.58883
G01 X42.15054 Y49.67466
G01 X42.20929 Y49.78238
G01 X42.35991 Y49.94542
G01 X42.49352 Y50.06333
G01 X42.57983 Y50.10846
G01 X42.73350 Y50.17455
G01 X42.87642 Y50.22193
G01 X43.00088 Y50.23224
G01 X43.16814 Y50.23231
G01 X43.29082 Y50.22231
G01 X43.38524 Y50.19302
G01 X43.58925 Y50.10854
G01 X43.67403 Y50.06437
G01 X43.80911 Y49.94542
G01 X43.95991 Y49.78248
G01 X44.01864 Y49.67420
G01 X44.07068 Y49.58881
G01 X44.12394 Y49.51200
G01 X44.24238 Y49.37519
G01 X44.35453 Y49.26183
G04 P0 ( dwell for no time -- G64 should not smooth over this point )
G00 Z0.50000 ( retract )

G00 X41.81453 Y49.26196 ( rapid move to begin. )
G01 F300.00000
( Mill infeed pass 1/1 )
G01 Z-0.07500
G04 P0 ( dwell for no time -- G64 should not smooth over this point )
G01 F600.00000
G01 X41.81453 Y49.26196
G01 X41.69235 Y49.38525
G01 X41.58394 Y49.51200
G01 X41.53068 Y49.58881
G01 X41.47864 Y49.67420
G01 X41.41991 Y49.78248
G01 X41.26911 Y49.94542
G01 X41.13403 Y50.06437
G01 X41.04925 Y50.10854
G01 X40.84524 Y50.19302
G01 X40.75082 Y50.22231
G01 X40.62817 Y50.23231
G01 X40.46091 Y50.23224
G01 X40.33642 Y50.22193
G01 X40.19350 Y50.17455
G01 X40.03983 Y50.10846
G01 X39.95352 Y50.06333
G01 X39.81991 Y49.94542
G01 X39.66929 Y49.78238
G01 X39.61054 Y49.67466
G01 X39.55827 Y49.58883
G01 X39.50526 Y49.51233
G01 X39.38728 Y49.37595
G01 X39.27453 Y49.26196
G01 X39.27453 Y8.45897
G01 X39.39667 Y8.33570
G01 X39.48410 Y8.23534
G01 X39.53505 Y8.16829
G01 X39.61041 Y8.04672
G01 X39.66914 Y7.93847
G01 X39.81994 Y7.77553
G01 X39.95504 Y7.65658
G01 X40.03980 Y7.61241
G01 X40.24381 Y7.52788
G01 X40.33825 Y7.49862
G01 X40.46091 Y7.48861
G01 X40.62817 Y7.48869
G01 X40.75263 Y7.49900
G01 X40.89555 Y7.54637
G01 X41.04922 Y7.61249
G01 X41.13553 Y7.65762
G01 X41.26914 Y7.77550
G01 X41.41976 Y7.93857
G01 X41.47853 Y8.04627
G01 X41.53081 Y8.13212
G01 X41.58379 Y8.20860
G01 X41.70177 Y8.34500
G01 X41.81453 Y8.45897
G04 P0 ( dwell for no time -- G64 should not smooth over this point )
G00 Z0.50000 ( retract )

G00 X39.27453 Y8.45897 ( rapid move to begin. )
G01 F300.00000
( Mill infeed pass 1/1 )
G01 Z-0.07500
G04 P0 ( dwell for no time -- G64 should not smooth over this point )
G01 F600.00000
G01 X39.27453 Y8.45897
G01 X39.16177 Y8.34500
G01 X39.04379 Y8.20860
G01 X38.99081 Y8.13212
G01 X38.93853 Y8.04627
G01 X38.87976 Y7.93857
G01 X38.72914 Y7.77550
G01 X38.59553 Y7.65762
G01 X38.50922 Y7.61249
G01 X38.35555 Y7.54637
G01 X38.21263 Y7.49900
G01 X38.08817 Y7.48869
G01 X37.92088 Y7.48861
G01 X37.79825 Y7.49862
G01 X37.70381 Y7.52788
G01 X37.49980 Y7.61241
G01 X37.41504 Y7.65658
G01 X37.27994 Y7.77553
G01 X37.12914 Y7.93847
G01 X37.07041 Y8.04672
G01 X37.01837 Y8.13214
G01 X36.96513 Y8.20890
G01 X36.85667 Y8.33570
G01 X36.73453 Y8.45897
G01 X36.73453 Y49.26183
G01 X36.84728 Y49.37595
G01 X36.96526 Y49.51233
G01 X37.01827 Y49.58883
G01 X37.07054 Y49.67466
G01 X37.12929 Y49.78238
G01 X37.27991 Y49.94542
G01 X37.41352 Y50.06333
G01 X37.49983 Y50.10846
G01 X37.65350 Y50.17455
G01 X37.79642 Y50.22193
G01 X37.92088 Y50.23224
G01 X38.08817 Y50.23231
G01 X38.21082 Y50.22231
G01 X38.30524 Y50.19302
G01 X38.50925 Y50.10854
G01 X38.59403 Y50.06437
G01 X38.72911 Y49.94542
G01 X38.87991 Y49.78248
G01 X38.93864 Y49.67420
G01 X38.99068 Y49.58881
G01 X39.04394 Y49.51200
G01 X39.15235 Y49.38525
G01 X39.27453 Y49.26196
G04 P0 ( dwell for no time -- G64 should not smooth over this point )
G00 Z0.50000 ( retract )

G00 X43.08450 Y52.51217 ( rapid move to begin. )
G01 F300.00000
( Mill infeed pass 1/1 )
G01 Z-0.07500
G04 P0 ( dwell for no time -- G64 should not smooth over this point )
G01 F600.00000
G01 X43.08450 Y52.51217
G01 X43.00980 Y52.43696
G01 X42.92235 Y52.33607
G01 X42.84437 Y52.23160
G01 X42.81457 Y52.18895
G01 X42.73385 Y52.04364
G01 X42.64935 Y51.90849
G01 X42.52090 Y51.73965
G01 X42.47729 Y51.70572
G01 X42.30078 Y51.58616
G01 X42.19461 Y51.52759
G01 X42.15770 Y51.51588
G01 X41.94833 Y51.46983
G01 X41.81453 Y51.45377
G01 X41.68072 Y51.46985
G01 X41.47135 Y51.51588
G01 X41.43447 Y51.52759
G01 X41.32827 Y51.58616
G01 X41.15176 Y51.70572
G01 X41.10815 Y51.73965
G01 X40.97970 Y51.90849
G01 X40.89520 Y52.04364
G01 X40.85542 Y52.11867
G01 X40.79715 Y52.21303
G01 X40.74239 Y52.28966
G01 X40.68006 Y52.36995
G01 X40.54450 Y52.51217
G01 X40.54450 Y53.46634
G01 X40.41963 Y53.59987
G01 X40.30437 Y53.74932
G01 X40.24671 Y53.83853
G01 X40.19296 Y53.93675
G01 X40.10879 Y54.07213
G01 X39.98039 Y54.24168
G01 X39.80658 Y54.36632
G01 X39.65461 Y54.45334
G01 X39.61770 Y54.46507
G01 X39.40833 Y54.51110
G01 X39.27453 Y54.52715
G01 X39.14072 Y54.51110
G01 X38.98469 Y54.47899
G01 X38.89447 Y54.45334
G01 X38.74245 Y54.36629
G01 X38.56866 Y54.24168
G01 X38.44026 Y54.07213
G01 X38.35609 Y53.93675
G01 X38.30229 Y53.83843
G01 X38.24468 Y53.74932
G01 X38.12939 Y53.59982
G01 X38.00453 Y53.46634
G01 X37.87963 Y53.59987
G01 X37.76437 Y53.74932
G01 X37.70671 Y53.83853
G01 X37.65296 Y53.93680
G01 X37.56881 Y54.07213
G01 X37.44042 Y54.24168
G01 X37.26660 Y54.36629
G01 X37.11461 Y54.45334
G01 X37.02436 Y54.47899
G01 X36.86833 Y54.51110
G01 X36.73453 Y54.52715
G01 X36.60072 Y54.51110
G01 X36.44469 Y54.47899
G01 X36.35447 Y54.45334
G01 X36.20245 Y54.36629
G01 X36.02866 Y54.24168
G01 X35.90026 Y54.07213
G01 X35.81609 Y53.93675
G01 X35.76229 Y53.83843
G01 X35.70468 Y53.74932
G01 X35.58939 Y53.59982
G01 X35.46450 Y53.46634
G01 X35.46450 Y52.51458
G01 X35.33963 Y52.38105
G01 X35.22437 Y52.23160
G01 X35.16669 Y52.14239
G01 X35.11296 Y52.04412
G01 X35.02881 Y51.90879
G01 X34.90062 Y51.73950
G01 X34.85729 Y51.70572
G01 X34.68078 Y51.58616
G01 X34.57461 Y51.52759
G01 X34.53770 Y51.51588
G01 X34.32833 Y51.46983
G01 X34.19455 Y51.45377
G01 X34.06072 Y51.46985
G01 X33.90469 Y51.50193
G01 X33.81447 Y51.52759
G01 X33.66245 Y51.61463
G01 X33.48866 Y51.73925
G01 X33.36024 Y51.90879
G01 X33.27609 Y52.04412
G01 X33.22229 Y52.14250
G01 X33.16468 Y52.23160
G01 X33.04939 Y52.38108
G01 X32.92453 Y52.51458
G01 X32.79963 Y52.38105
G01 X32.68437 Y52.23160
G01 X32.62668 Y52.14239
G01 X32.57296 Y52.04412
G01 X32.48881 Y51.90879
G01 X32.36042 Y51.73925
G01 X32.18658 Y51.61461
G01 X32.03461 Y51.52759
G01 X31.94436 Y51.50193
G01 X31.78833 Y51.46983
G01 X31.65455 Y51.45377
G01 X31.52072 Y51.46985
G01 X31.36469 Y51.50193
G01 X31.27447 Y51.52759
G01 X31.12245 Y51.61463
G01 X30.94866 Y51.73925
G01 X30.82024 Y51.90879
G01 X30.73609 Y52.04412
G01 X30.68229 Y52.14250
G01 X30.62468 Y52.23160
G01 X30.50939 Y52.38108
G01 X30.38450 Y52.51458
G01 X30.38450 Y53.46634
G01 X30.25963 Y53.59987
G01 X30.14437 Y53.74932
G01 X30.08671 Y53.83853
G01 X30.03296 Y53.93675
G01 X29.94879 Y54.07213
G01 X29.82039 Y54.24168
G01 X29.77731 Y54.27521
G01 X29.60078 Y54.39479
G01 X29.49461 Y54.45334
G01 X29.45768 Y54.46507
G01 X29.24833 Y54.51110
G01 X29.11453 Y54.52715
G01 X28.98072 Y54.51110
G01 X28.77137 Y54.46507
G01 X28.73447 Y54.45334
G01 X28.62827 Y54.39479
G01 X28.45176 Y54.27521
G01 X28.40863 Y54.24168
G01 X28.28026 Y54.07213
G01 X28.18623 Y53.92027
G01 X28.13607 Y53.73264
G01 X28.09853 Y53.49847
G01 X28.09853 Y52.48245
G01 X28.13607 Y52.24829
G01 X28.18626 Y52.06063
G01 X28.28024 Y51.90879
G01 X28.40843 Y51.73950
G01 X28.58247 Y51.61463
G01 X28.73447 Y51.52759
G01 X28.77135 Y51.51588
G01 X28.98072 Y51.46985
G01 X29.11455 Y51.45377
G01 X29.24833 Y51.46983
G01 X29.40436 Y51.50193
G01 X29.49461 Y51.52759
G01 X29.64658 Y51.61463
G01 X29.82039 Y51.73925
G01 X29.94881 Y51.90879
G01 X30.03296 Y52.04412
G01 X30.08668 Y52.14239
G01 X30.14437 Y52.23160
G01 X30.25963 Y52.38105
G01 X30.38450 Y52.51458
G01 X30.38450 Y53.46634
G01 X30.50939 Y53.59982
G01 X30.62468 Y53.74932
G01 X30.68229 Y53.83843
G01 X30.73609 Y53.93675
G01 X30.82026 Y54.07213
G01 X30.94866 Y54.24168
G01 X31.12245 Y54.36629
G01 X31.27447 Y54.45334
G01 X31.36469 Y54.47899
G01 X31.52072 Y54.51110
G01 X31.65453 Y54.52715
G01 X31.78833 Y54.51110
G01 X31.94436 Y54.47899
G01 X32.03461 Y54.45334
G01 X32.18658 Y54.36632
G01 X32.36042 Y54.24168
G01 X32.48881 Y54.07213
G01 X32.57296 Y53.93680
G01 X32.62671 Y53.83853
G01 X32.68437 Y53.74932
G01 X32.79963 Y53.59987
G01 X32.92453 Y53.46634
G01 X32.92453 Y52.51458
G01 X32.92453 Y53.46634
G01 X33.04939 Y53.59982
G01 X33.16468 Y53.74932
G01 X33.22229 Y53.83843
G01 X33.27609 Y53.93675
G01 X33.36026 Y54.07213
G01 X33.48866 Y54.24168
G01 X33.66245 Y54.36629
G01 X33.81447 Y54.45334
G01 X33.90469 Y54.47899
G01 X34.11487 Y54.51930
G01 X34.19453 Y54.52715
G01 X34.27415 Y54.51930
G01 X34.48436 Y54.47899
G01 X34.57461 Y54.45334
G01 X34.68078 Y54.39479
G01 X34.85731 Y54.27521
G01 X34.90039 Y54.24168
G01 X35.02879 Y54.07213
G01 X35.11296 Y53.93675
G01 X35.16671 Y53.83853
G01 X35.22437 Y53.74932
G01 X35.33963 Y53.59987
G01 X35.46450 Y53.46634
G01 X35.46450 Y52.51458
G01 X35.58939 Y52.38108
G01 X35.70468 Y52.23160
G01 X35.76229 Y52.14250
G01 X35.81609 Y52.04412
G01 X35.90024 Y51.90879
G01 X36.02866 Y51.73925
G01 X36.20247 Y51.61463
G01 X36.35447 Y51.52759
G01 X36.44469 Y51.50193
G01 X36.60072 Y51.46985
G01 X36.73455 Y51.45377
G01 X36.86833 Y51.46983
G01 X37.02436 Y51.50193
G01 X37.11461 Y51.52759
G01 X37.26658 Y51.61461
G01 X37.44042 Y51.73925
G01 X37.56881 Y51.90879
G01 X37.65296 Y52.04412
G01 X37.70668 Y52.14239
G01 X37.76437 Y52.23160
G01 X37.87963 Y52.38105
G01 X38.00453 Y52.51458
G01 X38.00453 Y53.46634
G01 X38.00453 Y52.51458
G01 X38.12939 Y52.38108
G01 X38.24468 Y52.23160
G01 X38.30229 Y52.14250
G01 X38.35609 Y52.04412
G01 X38.44024 Y51.90879
G01 X38.56866 Y51.73925
G01 X38.74245 Y51.61463
G01 X38.89447 Y51.52759
G01 X38.98469 Y51.50193
G01 X39.19487 Y51.46162
G01 X39.27453 Y51.45377
G01 X39.35415 Y51.46162
G01 X39.56436 Y51.50193
G01 X39.65461 Y51.52759
G01 X39.76078 Y51.58616
G01 X39.93729 Y51.70572
G01 X39.98062 Y51.73950
G01 X40.10881 Y51.90879
G01 X40.19296 Y52.04412
G01 X40.24668 Y52.14239
G01 X40.30437 Y52.23160
G01 X40.38235 Y52.33607
G01 X40.46980 Y52.43696
G01 X40.54450 Y52.51217
G01 X40.54450 Y53.46634
G01 X40.66939 Y53.59982
G01 X40.78468 Y53.74932
G01 X40.84229 Y53.83843
G01 X40.89609 Y53.93675
G01 X40.98026 Y54.07213
G01 X41.10866 Y54.24168
G01 X41.28245 Y54.36629
G01 X41.43447 Y54.45334
G01 X41.52469 Y54.47899
G01 X41.68072 Y54.51110
G01 X41.81453 Y54.52715
G01 X41.94833 Y54.51110
G01 X42.10436 Y54.47899
G01 X42.19461 Y54.45334
G01 X42.34660 Y54.36629
G01 X42.52039 Y54.24168
G01 X42.64879 Y54.07213
G01 X42.73296 Y53.93675
G01 X42.78671 Y53.83853
G01 X42.84437 Y53.74932
G01 X42.95963 Y53.59987
G01 X43.08450 Y53.46634
G01 X43.08450 Y52.51217
G01 X43.15928 Y52.43688
G01 X43.24670 Y52.33607
G01 X43.32468 Y52.23160
G01 X43.38229 Y52.14250
G01 X43.43609 Y52.04412
G01 X43.52024 Y51.90879
G01 X43.64866 Y51.73925
G01 X43.82245 Y51.61463
G01 X43.97447 Y51.52759
G01 X44.06469 Y51.50193
G01 X44.27487 Y51.46162
G01 X44.35453 Y51.45377
G01 X44.43415 Y51.46162
G01 X44.64436 Y51.50193
G01 X44.73461 Y51.52759
G01 X44.88658 Y51.61461
G01 X45.06042 Y51.73925
G01 X45.18881 Y51.90879
G01 X45.27296 Y52.04412
G01 X45.32668 Y52.14239
G01 X45.38437 Y52.23160
G01 X45.49963 Y52.38105
G01 X45.62450 Y52.51458
G01 X45.62450 Y53.46634
G01 X45.74939 Y53.59982
G01 X45.82242 Y53.69126
G01 X45.87713 Y53.76789
G01 X45.93540 Y53.86225
G01 X45.97522 Y53.93731
G01 X46.05970 Y54.07244
G01 X46.18815 Y54.24127
G01 X46.36245 Y54.36629
G01 X46.51449 Y54.45334
G01 X46.60471 Y54.47899
G01 X46.76074 Y54.51110
G01 X46.89453 Y54.52715
G01 X46.97418 Y54.51930
G01 X47.18436 Y54.47899
G01 X47.27461 Y54.45334
G01 X47.42658 Y54.36632
G01 X47.60090 Y54.24127
G01 X47.72935 Y54.07244
G01 X47.81385 Y53.93731
G01 X47.85365 Y53.86225
G01 X47.91192 Y53.76789
G01 X47.96668 Y53.69118
G01 X48.03963 Y53.59987
G01 X48.16450 Y53.46634
G01 X48.16450 Y52.51458
G01 X48.28939 Y52.38108
G01 X48.40468 Y52.23160
G01 X48.46229 Y52.14250
G01 X48.51609 Y52.04412
G01 X48.60024 Y51.90879
G01 X48.72866 Y51.73925
G01 X48.77174 Y51.70574
G01 X48.94827 Y51.58616
G01 X49.05447 Y51.52759
G01 X49.14469 Y51.50193
G01 X49.30072 Y51.46985
G01 X49.43453 Y51.45377
G01 X49.56833 Y51.46983
G01 X49.72436 Y51.50193
G01 X49.81461 Y51.52759
G01 X49.92078 Y51.58616
G01 X49.96658 Y51.61461
G01 X50.14042 Y51.73925
G01 X50.26881 Y51.90879
G01 X50.35296 Y52.04412
G01 X50.40668 Y52.14239
G01 X50.46437 Y52.23160
G01 X50.54235 Y52.33607
G01 X50.62980 Y52.43696
G01 X50.70450 Y52.51458
G01 X50.70450 Y53.46634
G01 X50.82939 Y53.59982
G01 X50.94468 Y53.74932
G01 X51.00229 Y53.83843
G01 X51.05609 Y53.93675
G01 X51.14026 Y54.07213
G01 X51.26866 Y54.24168
G01 X51.44245 Y54.36629
G01 X51.59447 Y54.45334
G01 X51.68469 Y54.47899
G01 X51.89490 Y54.51930
G01 X51.97453 Y54.52715
G01 X52.10833 Y54.51110
G01 X52.26436 Y54.47899
G01 X52.35461 Y54.45334
G01 X52.50658 Y54.36632
G01 X52.68042 Y54.24168
G01 X52.80881 Y54.07213
G01 X52.90282 Y53.92027
G01 X52.95298 Y53.73264
G01 X52.99766 Y53.44785
G01 X53.02672 Y53.32537
G01 X53.07064 Y53.21610
G01 X53.09365 Y53.17003
G01 X53.15578 Y53.06487
G01 X53.20932 Y52.98984
G01 X53.13967 Y52.88885
G01 X53.07770 Y52.78021
G01 X53.03048 Y52.66396
G01 X53.01544 Y52.61443
G01 X52.99454 Y52.51102
G01 X52.96401 Y52.29840
G01 X52.95354 Y52.24813
G01 X52.90312 Y52.06122
G01 X52.80881 Y51.90879
G01 X52.68042 Y51.73925
G01 X52.50658 Y51.61461
G01 X52.35461 Y51.52759
G01 X52.26436 Y51.50193
G01 X52.10833 Y51.46985
G01 X51.97453 Y51.45377
G01 X51.89490 Y51.46162
G01 X51.68469 Y51.50193
G01 X51.59447 Y51.52759
G01 X51.44245 Y51.61463
G01 X51.26866 Y51.73925
G01 X51.14024 Y51.90879
G01 X51.05609 Y52.04412
G01 X51.00229 Y52.14250
G01 X50.94468 Y52.23160
G01 X50.82939 Y52.38108
G01 X50.70450 Y52.51458
G01 X50.70450 Y53.46634
G01 X50.57963 Y53.59987
G01 X50.46437 Y53.74932
G01 X50.40671 Y53.83853
G01 X50.35296 Y53.93680
G01 X50.26881 Y54.07213
G01 X50.14062 Y54.24145
G01 X50.09729 Y54.27523
G01 X49.92078 Y54.39479
G01 X49.81461 Y54.45334
G01 X49.72436 Y54.47899
G01 X49.56833 Y54.51110
G01 X49.43453 Y54.52715
G01 X49.30072 Y54.51110
G01 X49.14469 Y54.47899
G01 X49.05447 Y54.45334
G01 X48.94827 Y54.39479
G01 X48.77174 Y54.27521
G01 X48.72866 Y54.24168
G01 X48.60026 Y54.07213
G01 X48.51609 Y53.93675
G01 X48.46229 Y53.83843
G01 X48.40468 Y53.74932
G01 X48.32670 Y53.64485
G01 X48.23928 Y53.54399
G01 X48.16450 Y53.46634
G01 X48.16450 Y52.51458
G01 X48.08980 Y52.43696
G01 X48.00235 Y52.33607
G01 X47.92437 Y52.23160
G01 X47.86668 Y52.14239
G01 X47.81296 Y52.04412
G01 X47.69866 Y51.86558
G01 X47.60039 Y51.73925
G01 X47.42658 Y51.61463
G01 X47.27461 Y51.52759
G01 X47.18436 Y51.50193
G01 X47.02833 Y51.46983
G01 X46.89455 Y51.45377
G01 X46.76074 Y51.46985
G01 X46.60471 Y51.50193
G01 X46.51449 Y51.52759
G01 X46.36250 Y51.61463
G01 X46.18866 Y51.73925
G01 X46.09039 Y51.86558
G01 X45.97611 Y52.04412
G01 X45.92229 Y52.14250
G01 X45.86471 Y52.23160
G01 X45.74939 Y52.38108
G01 X45.62450 Y52.51458
G01 X45.62450 Y53.46634
G01 X45.54982 Y53.54397
G01 X45.46235 Y53.64485
G01 X45.38437 Y53.74932
G01 X45.32671 Y53.83853
G01 X45.27296 Y53.93680
G01 X45.18881 Y54.07213
G01 X45.06042 Y54.24168
G01 X44.88658 Y54.36632
G01 X44.73461 Y54.45334
G01 X44.64436 Y54.47899
G01 X44.48833 Y54.51110
G01 X44.35453 Y54.52715
G01 X44.22072 Y54.51110
G01 X44.01137 Y54.46507
G01 X43.97447 Y54.45334
G01 X43.86827 Y54.39479
G01 X43.69174 Y54.27521
G01 X43.64866 Y54.24168
G01 X43.52026 Y54.07213
G01 X43.43609 Y53.93675
G01 X43.38229 Y53.83843
G01 X43.32468 Y53.74932
G01 X43.20939 Y53.59982
G01 X43.08450 Y53.46634
G04 P0 ( dwell for no time -- G64 should not smooth over this point )
G00 Z0.50000 ( retract )

G00 X31.65453 Y49.26183 ( rapid move to begin. )
G01 F300.00000
( Mill infeed pass 1/1 )
G01 Z-0.07500
G04 P0 ( dwell for no time -- G64 should not smooth over this point )
G01 F600.00000
G01 X31.65453 Y49.26183
G01 X31.76728 Y49.37595
G01 X31.88526 Y49.51233
G01 X31.93827 Y49.58883
G01 X31.99054 Y49.67466
G01 X32.04929 Y49.78238
G01 X32.19991 Y49.94542
G01 X32.33352 Y50.06333
G01 X32.41983 Y50.10846
G01 X32.57350 Y50.17455
G01 X32.71642 Y50.22193
G01 X32.84088 Y50.23224
G01 X33.00817 Y50.23231
G01 X33.13082 Y50.22231
G01 X33.22524 Y50.19302
G01 X33.42925 Y50.10854
G01 X33.51403 Y50.06437
G01 X33.64911 Y49.94542
G01 X33.79991 Y49.78248
G01 X33.85864 Y49.67420
G01 X33.91068 Y49.58881
G01 X33.96394 Y49.51200
G01 X34.07235 Y49.38525
G01 X34.19453 Y49.26196
G04 P0 ( dwell for no time -- G64 should not smooth over this point )
G00 Z0.50000 ( retract )

G00 X36.73453 Y49.26183 ( rapid move to begin. )
G01 F300.00000
( Mill infeed pass 1/1 )
G01 Z-0.07500
G04 P0 ( dwell for no time -- G64 should not smooth over this point )
G01 F600.00000
G01 X36.73453 Y49.26183
G01 X36.62238 Y49.37519
G01 X36.50394 Y49.51200
G01 X36.45068 Y49.58881
G01 X36.39864 Y49.67420
G01 X36.33991 Y49.78248
G01 X36.18911 Y49.94542
G01 X36.05403 Y50.06437
G01 X35.96925 Y50.10854
G01 X35.76524 Y50.19302
G01 X35.67082 Y50.22231
G01 X35.54814 Y50.23231
G01 X35.38088 Y50.23224
G01 X35.25642 Y50.22193
G01 X35.11350 Y50.17455
G01 X34.95983 Y50.10846
G01 X34.87352 Y50.06333
G01 X34.73991 Y49.94542
G01 X34.58929 Y49.78238
G01 X34.53054 Y49.67466
G01 X34.47827 Y49.58883
G01 X34.42526 Y49.51233
G01 X34.30728 Y49.37595
G01 X34.19453 Y49.26196
G01 X34.19453 Y8.45897
G01 X34.31667 Y8.33570
G01 X34.42513 Y8.20890
G01 X34.47837 Y8.13214
G01 X34.53041 Y8.04672
G01 X34.58914 Y7.93847
G01 X34.73994 Y7.77553
G01 X34.87504 Y7.65658
G01 X34.95980 Y7.61241
G01 X35.16381 Y7.52788
G01 X35.25825 Y7.49862
G01 X35.38088 Y7.48861
G01 X35.54817 Y7.48869
G01 X35.67263 Y7.49900
G01 X35.81555 Y7.54637
G01 X35.96922 Y7.61249
G01 X36.05553 Y7.65762
G01 X36.18914 Y7.77550
G01 X36.33976 Y7.93857
G01 X36.39853 Y8.04627
G01 X36.45081 Y8.13212
G01 X36.50379 Y8.20860
G01 X36.62177 Y8.34500
G01 X36.73453 Y8.45897

G04 P0 ( dwell for no time -- G64 should not smooth over this point )
G00 Z40.000000 ( retract )


M5 ( Spindle off. )
G04 P1.000000
M9 ( Coolant off. )
M2 ( Program end. )

