( pcb2gcode 1.3.0 )
( Software-independent Gcode )

( This file uses only one drill bit. Forced by 'onedrill' option )


G94       (Millimeters per minute feed rate.)
G21       (Units == Millimeters.)
G90       (Absolute coordinates.)
G91.1     (Incremental arc distance mode.)
S20000     (RPM spindle speed.)

G00 Z40.00000 (Retract)
T1
M5      (Spindle stop.)
(MSG, Change tool bit to drill size 1.01600 mm)
M6      (Tool change.)
M0      (Temporary machine stop.)
M3      (Spindle on clockwise.)

G81 R0.50000 Z-2.00000 F1000.00000 X4.86080 Y8.67080
X7.40080 Y8.67080
X9.94080 Y8.67080
X12.48080 Y8.67080
X15.02080 Y8.67080
X17.56080 Y8.67080
X20.10080 Y8.67080
X22.64080 Y8.67080
X25.18080 Y8.67080
X27.72080 Y8.67080
X30.26080 Y8.67080
X32.80080 Y8.67080
X35.34080 Y8.67080
X37.88080 Y8.67080
X40.42080 Y8.67080
X42.96080 Y8.67080
X45.50080 Y8.67080
X48.04080 Y8.67080
X50.58080 Y8.67080
X53.12080 Y8.67080
X55.66080 Y8.67080
X58.20080 Y8.67080
X60.74080 Y8.67080
X63.28080 Y8.67080
X63.28080 Y11.21080
X63.28080 Y13.75080
X63.28080 Y16.29080
X63.28080 Y18.83080
X63.28080 Y21.37080
X63.28080 Y23.91080
X63.28080 Y26.45080
X63.28080 Y28.99080
X63.28080 Y31.53080
X63.28080 Y34.07080
X63.28080 Y36.61080
X63.28080 Y39.15080
X63.28080 Y41.69080
X63.28080 Y44.23080
X63.28080 Y46.77080
X63.28080 Y49.31080
X60.74080 Y49.31080
X60.74080 Y46.77080
X60.74080 Y44.23080
X60.74080 Y41.69080
X60.74080 Y39.15080
X60.74080 Y36.61080
X60.74080 Y34.07080
X60.74080 Y31.53080
X60.74080 Y28.99080
X60.74080 Y26.45080
X60.74080 Y23.91080
X60.74080 Y21.37080
X60.74080 Y18.83080
X60.74080 Y16.29080
X60.74080 Y13.75080
X60.74080 Y11.21080
X58.20080 Y11.21080
X58.20080 Y13.75080
X58.20080 Y16.29080
X58.20080 Y18.83080
X58.20080 Y21.37080
X58.20080 Y23.91080
X58.20080 Y26.45080
X58.20080 Y28.99080
X58.20080 Y31.53080
X58.20080 Y34.07080
X58.20080 Y36.61080
X58.20080 Y39.15080
X58.20080 Y41.69080
X58.20080 Y44.23080
X58.20080 Y46.77080
X58.20080 Y49.31080
X55.66080 Y49.31080
X55.66080 Y46.77080
X55.66080 Y44.23080
X55.66080 Y41.69080
X55.66080 Y39.15080
X55.66080 Y36.61080
X55.66080 Y34.07080
X55.66080 Y31.53080
X55.66080 Y28.99080
X55.66080 Y26.45080
X55.66080 Y23.91080
X55.66080 Y21.37080
X55.66080 Y18.83080
X55.66080 Y16.29080
X55.66080 Y13.75080
X55.66080 Y11.21080
X53.12080 Y11.21080
X53.12080 Y13.75080
X53.12080 Y16.29080
X53.12080 Y18.83080
X53.12080 Y21.37080
X53.12080 Y23.91080
X53.12080 Y26.45080
X53.12080 Y28.99080
X53.12080 Y31.53080
X53.12080 Y34.07080
X53.12080 Y36.61080
X53.12080 Y39.15080
X53.12080 Y41.69080
X53.12080 Y44.23080
X53.12080 Y46.77080
X53.12080 Y49.31080
X50.58080 Y49.31080
X50.58080 Y46.77080
X50.58080 Y44.23080
X50.58080 Y41.69080
X50.58080 Y39.15080
X50.58080 Y36.61080
X50.58080 Y34.07080
X50.58080 Y31.53080
X50.58080 Y28.99080
X50.58080 Y26.45080
X50.58080 Y23.91080
X50.58080 Y21.37080
X50.58080 Y18.83080
X50.58080 Y16.29080
X50.58080 Y13.75080
X50.58080 Y11.21080
X48.04080 Y11.21080
X48.04080 Y13.75080
X48.04080 Y16.29080
X48.04080 Y18.83080
X48.04080 Y21.37080
X48.04080 Y23.91080
X48.04080 Y26.45080
X48.04080 Y28.99080
X48.04080 Y31.53080
X48.04080 Y34.07080
X48.04080 Y36.61080
X48.04080 Y39.15080
X48.04080 Y41.69080
X48.04080 Y44.23080
X48.04080 Y46.77080
X48.04080 Y49.31080
X45.50080 Y49.31080
X45.50080 Y46.77080
X45.50080 Y44.23080
X45.50080 Y41.69080
X45.50080 Y39.15080
X45.50080 Y36.61080
X45.50080 Y34.07080
X45.50080 Y31.53080
X45.50080 Y28.99080
X45.50080 Y26.45080
X45.50080 Y23.91080
X45.50080 Y21.37080
X45.50080 Y18.83080
X45.50080 Y16.29080
X45.50080 Y13.75080
X45.50080 Y11.21080
X42.96080 Y11.21080
X42.96080 Y13.75080
X42.96080 Y16.29080
X42.96080 Y18.83080
X42.96080 Y21.37080
X42.96080 Y23.91080
X42.96080 Y26.45080
X42.96080 Y28.99080
X42.96080 Y31.53080
X42.96080 Y34.07080
X42.96080 Y36.61080
X42.96080 Y39.15080
X42.96080 Y41.69080
X42.96080 Y44.23080
X42.96080 Y46.77080
X42.96080 Y49.31080
X40.42080 Y49.31080
X40.42080 Y46.77080
X40.42080 Y44.23080
X40.42080 Y41.69080
X40.42080 Y39.15080
X40.42080 Y36.61080
X40.42080 Y34.07080
X40.42080 Y31.53080
X40.42080 Y28.99080
X40.42080 Y26.45080
X40.42080 Y23.91080
X40.42080 Y21.37080
X40.42080 Y18.83080
X40.42080 Y16.29080
X40.42080 Y13.75080
X40.42080 Y11.21080
X37.88080 Y11.21080
X37.88080 Y13.75080
X37.88080 Y16.29080
X37.88080 Y18.83080
X37.88080 Y21.37080
X37.88080 Y23.91080
X37.88080 Y26.45080
X37.88080 Y28.99080
X37.88080 Y31.53080
X37.88080 Y34.07080
X37.88080 Y36.61080
X37.88080 Y39.15080
X37.88080 Y41.69080
X37.88080 Y44.23080
X37.88080 Y46.77080
X37.88080 Y49.31080
X35.34080 Y49.31080
X35.34080 Y46.77080
X35.34080 Y44.23080
X35.34080 Y41.69080
X35.34080 Y39.15080
X35.34080 Y36.61080
X35.34080 Y34.07080
X35.34080 Y31.53080
X35.34080 Y28.99080
X35.34080 Y26.45080
X35.34080 Y23.91080
X35.34080 Y21.37080
X35.34080 Y18.83080
X35.34080 Y16.29080
X35.34080 Y13.75080
X35.34080 Y11.21080
X32.80080 Y11.21080
X32.80080 Y13.75080
X32.80080 Y16.29080
X32.80080 Y18.83080
X32.80080 Y21.37080
X32.80080 Y23.91080
X32.80080 Y26.45080
X32.80080 Y28.99080
X32.80080 Y31.53080
X32.80080 Y34.07080
X32.80080 Y36.61080
X32.80080 Y39.15080
X32.80080 Y41.69080
X32.80080 Y44.23080
X32.80080 Y46.77080
X32.80080 Y49.31080
X30.26080 Y49.31080
X30.26080 Y46.77080
X30.26080 Y44.23080
X30.26080 Y41.69080
X30.26080 Y39.15080
X30.26080 Y36.61080
X30.26080 Y34.07080
X30.26080 Y31.53080
X30.26080 Y28.99080
X30.26080 Y26.45080
X30.26080 Y23.91080
X30.26080 Y21.37080
X30.26080 Y18.83080
X30.26080 Y16.29080
X30.26080 Y13.75080
X30.26080 Y11.21080
X27.72080 Y11.21080
X27.72080 Y13.75080
X27.72080 Y16.29080
X27.72080 Y18.83080
X27.72080 Y21.37080
X27.72080 Y23.91080
X27.72080 Y26.45080
X27.72080 Y28.99080
X27.72080 Y31.53080
X27.72080 Y34.07080
X27.72080 Y36.61080
X27.72080 Y39.15080
X27.72080 Y41.69080
X27.72080 Y44.23080
X27.72080 Y46.77080
X27.72080 Y49.31080
X25.18080 Y49.31080
X25.18080 Y46.77080
X25.18080 Y44.23080
X25.18080 Y41.69080
X25.18080 Y39.15080
X25.18080 Y36.61080
X25.18080 Y34.07080
X25.18080 Y31.53080
X25.18080 Y28.99080
X25.18080 Y26.45080
X25.18080 Y23.91080
X25.18080 Y21.37080
X25.18080 Y18.83080
X25.18080 Y16.29080
X25.18080 Y13.75080
X25.18080 Y11.21080
X22.64080 Y11.21080
X22.64080 Y13.75080
X22.64080 Y16.29080
X22.64080 Y18.83080
X22.64080 Y21.37080
X22.64080 Y23.91080
X22.64080 Y26.45080
X22.64080 Y28.99080
X22.64080 Y31.53080
X22.64080 Y34.07080
X22.64080 Y36.61080
X22.64080 Y39.15080
X22.64080 Y41.69080
X22.64080 Y44.23080
X22.64080 Y46.77080
X22.64080 Y49.31080
X20.10080 Y49.31080
X20.10080 Y46.77080
X20.10080 Y44.23080
X20.10080 Y41.69080
X20.10080 Y39.15080
X20.10080 Y36.61080
X20.10080 Y34.07080
X20.10080 Y31.53080
X20.10080 Y28.99080
X20.10080 Y26.45080
X20.10080 Y23.91080
X20.10080 Y21.37080
X20.10080 Y18.83080
X20.10080 Y16.29080
X20.10080 Y13.75080
X20.10080 Y11.21080
X17.56080 Y11.21080
X17.56080 Y13.75080
X17.56080 Y16.29080
X17.56080 Y18.83080
X17.56080 Y21.37080
X17.56080 Y23.91080
X17.56080 Y26.45080
X17.56080 Y28.99080
X17.56080 Y31.53080
X17.56080 Y34.07080
X17.56080 Y36.61080
X17.56080 Y39.15080
X17.56080 Y41.69080
X17.56080 Y44.23080
X17.56080 Y46.77080
X17.56080 Y49.31080
X15.02080 Y49.31080
X15.02080 Y46.77080
X15.02080 Y44.23080
X15.02080 Y41.69080
X15.02080 Y39.15080
X15.02080 Y36.61080
X15.02080 Y34.07080
X15.02080 Y31.53080
X15.02080 Y28.99080
X15.02080 Y26.45080
X15.02080 Y23.91080
X15.02080 Y21.37080
X15.02080 Y18.83080
X15.02080 Y16.29080
X15.02080 Y13.75080
X15.02080 Y11.21080
X12.48080 Y11.21080
X12.48080 Y13.75080
X12.48080 Y16.29080
X12.48080 Y18.83080
X12.48080 Y21.37080
X12.48080 Y23.91080
X12.48080 Y26.45080
X12.48080 Y28.99080
X12.48080 Y31.53080
X12.48080 Y34.07080
X12.48080 Y36.61080
X12.48080 Y39.15080
X12.48080 Y41.69080
X12.48080 Y44.23080
X12.48080 Y46.77080
X12.48080 Y49.31080
X9.94080 Y49.31080
X9.94080 Y46.77080
X9.94080 Y44.23080
X9.94080 Y41.69080
X9.94080 Y39.15080
X9.94080 Y36.61080
X9.94080 Y34.07080
X9.94080 Y31.53080
X9.94080 Y28.99080
X9.94080 Y26.45080
X9.94080 Y23.91080
X9.94080 Y21.37080
X9.94080 Y18.83080
X9.94080 Y16.29080
X9.94080 Y13.75080
X9.94080 Y11.21080
X7.40080 Y11.21080
X7.40080 Y13.75080
X7.40080 Y16.29080
X7.40080 Y18.83080
X7.40080 Y21.37080
X7.40080 Y23.91080
X7.40080 Y26.45080
X7.40080 Y28.99080
X7.40080 Y31.53080
X7.40080 Y34.07080
X7.40080 Y36.61080
X7.40080 Y39.15080
X7.40080 Y41.69080
X7.40080 Y44.23080
X7.40080 Y46.77080
X7.40080 Y49.31080
X4.86080 Y49.31080
X4.86080 Y46.77080
X4.86080 Y44.23080
X4.86080 Y41.69080
X4.86080 Y39.15080
X4.86080 Y36.61080
X4.86080 Y34.07080
X4.86080 Y31.53080
X4.86080 Y28.99080
X4.86080 Y26.45080
X4.86080 Y23.91080
X4.86080 Y21.37080
X4.86080 Y18.83080
X4.86080 Y16.29080
X4.86080 Y13.75080
X4.86080 Y11.21080
X30.51480 Y4.86080
X33.05480 Y4.86080
X35.59480 Y4.86080
X38.13480 Y4.86080
X40.67480 Y4.86080
X43.21480 Y4.86080
X45.75480 Y4.86080
X48.29480 Y4.86080
X53.37480 Y4.86080
X55.91480 Y4.86080
X58.45480 Y4.86080
X60.99480 Y4.86080
X63.53480 Y4.86080
X66.07480 Y4.86080
X66.07480 Y27.72080
X68.61480 Y27.72080
X68.61480 Y30.26080
X68.61480 Y32.80080
X66.07480 Y32.80080
X66.07480 Y30.26080
X66.07480 Y53.12080
X63.53480 Y53.12080
X60.99480 Y53.12080
X58.45480 Y53.12080
X55.91480 Y53.12080
X53.37480 Y53.12080
X50.83480 Y53.12080
X48.29480 Y53.12080
X44.23080 Y53.12080
X41.69080 Y53.12080
X39.15080 Y53.12080
X36.61080 Y53.12080
X34.07080 Y53.12080
X31.53080 Y53.12080
X28.99080 Y53.12080
X26.45080 Y53.12080
X23.91080 Y53.12080
X21.37080 Y53.12080
X78.08240 Y8.67080
X80.62240 Y8.67080
X83.16240 Y8.67080
X85.70240 Y8.67080
X88.24240 Y8.67080
X90.78240 Y8.67080
X93.32240 Y8.67080
X95.86240 Y8.67080
X98.40240 Y8.67080
X100.94240 Y8.67080
X103.48240 Y8.67080
X106.02240 Y8.67080
X108.56240 Y8.67080
X111.10240 Y8.67080
X113.64240 Y8.67080
X116.18240 Y8.67080
X118.72240 Y8.67080
X121.26240 Y8.67080
X123.80240 Y8.67080
X126.34240 Y8.67080
X128.88240 Y8.67080
X131.42240 Y8.67080
X133.96240 Y8.67080
X136.50240 Y8.67080
X136.50240 Y11.21080
X136.50240 Y13.75080
X136.50240 Y16.29080
X136.50240 Y18.83080
X136.50240 Y21.37080
X136.50240 Y23.91080
X136.50240 Y26.45080
X136.50240 Y28.99080
X136.50240 Y31.53080
X136.50240 Y34.07080
X136.50240 Y36.61080
X136.50240 Y39.15080
X136.50240 Y41.69080
X136.50240 Y44.23080
X136.50240 Y46.77080
X136.50240 Y49.31080
X133.96240 Y49.31080
X133.96240 Y46.77080
X133.96240 Y44.23080
X133.96240 Y41.69080
X133.96240 Y39.15080
X133.96240 Y36.61080
X133.96240 Y34.07080
X133.96240 Y31.53080
X133.96240 Y28.99080
X133.96240 Y26.45080
X133.96240 Y23.91080
X133.96240 Y21.37080
X133.96240 Y18.83080
X133.96240 Y16.29080
X133.96240 Y13.75080
X133.96240 Y11.21080
X131.42240 Y11.21080
X131.42240 Y13.75080
X131.42240 Y16.29080
X131.42240 Y18.83080
X131.42240 Y21.37080
X131.42240 Y23.91080
X131.42240 Y26.45080
X131.42240 Y28.99080
X131.42240 Y31.53080
X131.42240 Y34.07080
X131.42240 Y36.61080
X131.42240 Y39.15080
X131.42240 Y41.69080
X131.42240 Y44.23080
X131.42240 Y46.77080
X131.42240 Y49.31080
X128.88240 Y49.31080
X128.88240 Y46.77080
X128.88240 Y44.23080
X128.88240 Y41.69080
X128.88240 Y39.15080
X128.88240 Y36.61080
X128.88240 Y34.07080
X128.88240 Y31.53080
X128.88240 Y28.99080
X128.88240 Y26.45080
X128.88240 Y23.91080
X128.88240 Y21.37080
X128.88240 Y18.83080
X128.88240 Y16.29080
X128.88240 Y13.75080
X128.88240 Y11.21080
X126.34240 Y11.21080
X126.34240 Y13.75080
X126.34240 Y16.29080
X126.34240 Y18.83080
X126.34240 Y21.37080
X126.34240 Y23.91080
X126.34240 Y26.45080
X126.34240 Y28.99080
X126.34240 Y31.53080
X126.34240 Y34.07080
X126.34240 Y36.61080
X126.34240 Y39.15080
X126.34240 Y41.69080
X126.34240 Y44.23080
X126.34240 Y46.77080
X126.34240 Y49.31080
X123.80240 Y49.31080
X123.80240 Y46.77080
X123.80240 Y44.23080
X123.80240 Y41.69080
X123.80240 Y39.15080
X123.80240 Y36.61080
X123.80240 Y34.07080
X123.80240 Y31.53080
X123.80240 Y28.99080
X123.80240 Y26.45080
X123.80240 Y23.91080
X123.80240 Y21.37080
X123.80240 Y18.83080
X123.80240 Y16.29080
X123.80240 Y13.75080
X123.80240 Y11.21080
X121.26240 Y11.21080
X121.26240 Y13.75080
X121.26240 Y16.29080
X121.26240 Y18.83080
X121.26240 Y21.37080
X121.26240 Y23.91080
X121.26240 Y26.45080
X121.26240 Y28.99080
X121.26240 Y31.53080
X121.26240 Y34.07080
X121.26240 Y36.61080
X121.26240 Y39.15080
X121.26240 Y41.69080
X121.26240 Y44.23080
X121.26240 Y46.77080
X121.26240 Y49.31080
X118.72240 Y49.31080
X118.72240 Y46.77080
X118.72240 Y44.23080
X118.72240 Y41.69080
X118.72240 Y39.15080
X118.72240 Y36.61080
X118.72240 Y34.07080
X118.72240 Y31.53080
X118.72240 Y28.99080
X118.72240 Y26.45080
X118.72240 Y23.91080
X118.72240 Y21.37080
X118.72240 Y18.83080
X118.72240 Y16.29080
X118.72240 Y13.75080
X118.72240 Y11.21080
X116.18240 Y11.21080
X116.18240 Y13.75080
X116.18240 Y16.29080
X116.18240 Y18.83080
X116.18240 Y21.37080
X116.18240 Y23.91080
X116.18240 Y26.45080
X116.18240 Y28.99080
X116.18240 Y31.53080
X116.18240 Y34.07080
X116.18240 Y36.61080
X116.18240 Y39.15080
X116.18240 Y41.69080
X116.18240 Y44.23080
X116.18240 Y46.77080
X116.18240 Y49.31080
X113.64240 Y49.31080
X113.64240 Y46.77080
X113.64240 Y44.23080
X113.64240 Y41.69080
X113.64240 Y39.15080
X113.64240 Y36.61080
X113.64240 Y34.07080
X113.64240 Y31.53080
X113.64240 Y28.99080
X113.64240 Y26.45080
X113.64240 Y23.91080
X113.64240 Y21.37080
X113.64240 Y18.83080
X113.64240 Y16.29080
X113.64240 Y13.75080
X113.64240 Y11.21080
X111.10240 Y11.21080
X111.10240 Y13.75080
X111.10240 Y16.29080
X111.10240 Y18.83080
X111.10240 Y21.37080
X111.10240 Y23.91080
X111.10240 Y26.45080
X111.10240 Y28.99080
X111.10240 Y31.53080
X111.10240 Y34.07080
X111.10240 Y36.61080
X111.10240 Y39.15080
X111.10240 Y41.69080
X111.10240 Y44.23080
X111.10240 Y46.77080
X111.10240 Y49.31080
X108.56240 Y49.31080
X108.56240 Y46.77080
X108.56240 Y44.23080
X108.56240 Y41.69080
X108.56240 Y39.15080
X108.56240 Y36.61080
X108.56240 Y34.07080
X108.56240 Y31.53080
X108.56240 Y28.99080
X108.56240 Y26.45080
X108.56240 Y23.91080
X108.56240 Y21.37080
X108.56240 Y18.83080
X108.56240 Y16.29080
X108.56240 Y13.75080
X108.56240 Y11.21080
X106.02240 Y11.21080
X106.02240 Y13.75080
X106.02240 Y16.29080
X106.02240 Y18.83080
X106.02240 Y21.37080
X106.02240 Y23.91080
X106.02240 Y26.45080
X106.02240 Y28.99080
X106.02240 Y31.53080
X106.02240 Y34.07080
X106.02240 Y36.61080
X106.02240 Y39.15080
X106.02240 Y41.69080
X106.02240 Y44.23080
X106.02240 Y46.77080
X106.02240 Y49.31080
X103.48240 Y49.31080
X103.48240 Y46.77080
X103.48240 Y44.23080
X103.48240 Y41.69080
X103.48240 Y39.15080
X103.48240 Y36.61080
X103.48240 Y34.07080
X103.48240 Y31.53080
X103.48240 Y28.99080
X103.48240 Y26.45080
X103.48240 Y23.91080
X103.48240 Y21.37080
X103.48240 Y18.83080
X103.48240 Y16.29080
X103.48240 Y13.75080
X103.48240 Y11.21080
X100.94240 Y11.21080
X100.94240 Y13.75080
X100.94240 Y16.29080
X100.94240 Y18.83080
X100.94240 Y21.37080
X100.94240 Y23.91080
X100.94240 Y26.45080
X100.94240 Y28.99080
X100.94240 Y31.53080
X100.94240 Y34.07080
X100.94240 Y36.61080
X100.94240 Y39.15080
X100.94240 Y41.69080
X100.94240 Y44.23080
X100.94240 Y46.77080
X100.94240 Y49.31080
X98.40240 Y49.31080
X98.40240 Y46.77080
X98.40240 Y44.23080
X98.40240 Y41.69080
X98.40240 Y39.15080
X98.40240 Y36.61080
X98.40240 Y34.07080
X98.40240 Y31.53080
X98.40240 Y28.99080
X98.40240 Y26.45080
X98.40240 Y23.91080
X98.40240 Y21.37080
X98.40240 Y18.83080
X98.40240 Y16.29080
X98.40240 Y13.75080
X98.40240 Y11.21080
X95.86240 Y11.21080
X95.86240 Y13.75080
X95.86240 Y16.29080
X95.86240 Y18.83080
X95.86240 Y21.37080
X95.86240 Y23.91080
X95.86240 Y26.45080
X95.86240 Y28.99080
X95.86240 Y31.53080
X95.86240 Y34.07080
X95.86240 Y36.61080
X95.86240 Y39.15080
X95.86240 Y41.69080
X95.86240 Y44.23080
X95.86240 Y46.77080
X95.86240 Y49.31080
X93.32240 Y49.31080
X93.32240 Y46.77080
X93.32240 Y44.23080
X93.32240 Y41.69080
X93.32240 Y39.15080
X93.32240 Y36.61080
X93.32240 Y34.07080
X93.32240 Y31.53080
X93.32240 Y28.99080
X93.32240 Y26.45080
X93.32240 Y23.91080
X93.32240 Y21.37080
X93.32240 Y18.83080
X93.32240 Y16.29080
X93.32240 Y13.75080
X93.32240 Y11.21080
X90.78240 Y11.21080
X90.78240 Y13.75080
X90.78240 Y16.29080
X90.78240 Y18.83080
X90.78240 Y21.37080
X90.78240 Y23.91080
X90.78240 Y26.45080
X90.78240 Y28.99080
X90.78240 Y31.53080
X90.78240 Y34.07080
X90.78240 Y36.61080
X90.78240 Y39.15080
X90.78240 Y41.69080
X90.78240 Y44.23080
X90.78240 Y46.77080
X90.78240 Y49.31080
X88.24240 Y49.31080
X88.24240 Y46.77080
X88.24240 Y44.23080
X88.24240 Y41.69080
X88.24240 Y39.15080
X88.24240 Y36.61080
X88.24240 Y34.07080
X88.24240 Y31.53080
X88.24240 Y28.99080
X88.24240 Y26.45080
X88.24240 Y23.91080
X88.24240 Y21.37080
X88.24240 Y18.83080
X88.24240 Y16.29080
X88.24240 Y13.75080
X88.24240 Y11.21080
X85.70240 Y11.21080
X85.70240 Y13.75080
X85.70240 Y16.29080
X85.70240 Y18.83080
X85.70240 Y21.37080
X85.70240 Y23.91080
X85.70240 Y26.45080
X85.70240 Y28.99080
X85.70240 Y31.53080
X85.70240 Y34.07080
X85.70240 Y36.61080
X85.70240 Y39.15080
X85.70240 Y41.69080
X85.70240 Y44.23080
X85.70240 Y46.77080
X85.70240 Y49.31080
X83.16240 Y49.31080
X83.16240 Y46.77080
X83.16240 Y44.23080
X83.16240 Y41.69080
X83.16240 Y39.15080
X83.16240 Y36.61080
X83.16240 Y34.07080
X83.16240 Y31.53080
X83.16240 Y28.99080
X83.16240 Y26.45080
X83.16240 Y23.91080
X83.16240 Y21.37080
X83.16240 Y18.83080
X83.16240 Y16.29080
X83.16240 Y13.75080
X83.16240 Y11.21080
X80.62240 Y11.21080
X80.62240 Y13.75080
X80.62240 Y16.29080
X80.62240 Y18.83080
X80.62240 Y21.37080
X80.62240 Y23.91080
X80.62240 Y26.45080
X80.62240 Y28.99080
X80.62240 Y31.53080
X80.62240 Y34.07080
X80.62240 Y36.61080
X80.62240 Y39.15080
X80.62240 Y41.69080
X80.62240 Y44.23080
X80.62240 Y46.77080
X80.62240 Y49.31080
X78.08240 Y49.31080
X78.08240 Y46.77080
X78.08240 Y44.23080
X78.08240 Y41.69080
X78.08240 Y39.15080
X78.08240 Y36.61080
X78.08240 Y34.07080
X78.08240 Y31.53080
X78.08240 Y28.99080
X78.08240 Y26.45080
X78.08240 Y23.91080
X78.08240 Y21.37080
X78.08240 Y18.83080
X78.08240 Y16.29080
X78.08240 Y13.75080
X78.08240 Y11.21080
X103.73640 Y4.86080
X106.27640 Y4.86080
X108.81640 Y4.86080
X111.35640 Y4.86080
X113.89640 Y4.86080
X116.43640 Y4.86080
X118.97640 Y4.86080
X121.51640 Y4.86080
X126.59640 Y4.86080
X129.13640 Y4.86080
X131.67640 Y4.86080
X134.21640 Y4.86080
X136.75640 Y4.86080
X139.29640 Y4.86080
X139.29640 Y27.72080
X141.83640 Y27.72080
X141.83640 Y30.26080
X141.83640 Y32.80080
X139.29640 Y32.80080
X139.29640 Y30.26080
X139.29640 Y53.12080
X136.75640 Y53.12080
X134.21640 Y53.12080
X131.67640 Y53.12080
X129.13640 Y53.12080
X126.59640 Y53.12080
X124.05640 Y53.12080
X121.51640 Y53.12080
X117.45240 Y53.12080
X114.91240 Y53.12080
X112.37240 Y53.12080
X109.83240 Y53.12080
X107.29240 Y53.12080
X104.75240 Y53.12080
X102.21240 Y53.12080
X99.67240 Y53.12080
X97.13240 Y53.12080
X94.59240 Y53.12080
X78.08240 Y65.57290
X80.62240 Y65.57290
X83.16240 Y65.57290
X85.70240 Y65.57290
X88.24240 Y65.57290
X90.78240 Y65.57290
X93.32240 Y65.57290
X95.86240 Y65.57290
X98.40240 Y65.57290
X100.94240 Y65.57290
X103.48240 Y65.57290
X106.02240 Y65.57290
X108.56240 Y65.57290
X111.10240 Y65.57290
X113.64240 Y65.57290
X116.18240 Y65.57290
X118.72240 Y65.57290
X121.26240 Y65.57290
X123.80240 Y65.57290
X126.34240 Y65.57290
X128.88240 Y65.57290
X131.42240 Y65.57290
X133.96240 Y65.57290
X136.50240 Y65.57290
X136.50240 Y68.11290
X136.50240 Y70.65290
X136.50240 Y73.19290
X136.50240 Y75.73290
X136.50240 Y78.27290
X136.50240 Y80.81290
X136.50240 Y83.35290
X136.50240 Y85.89290
X136.50240 Y88.43290
X136.50240 Y90.97290
X136.50240 Y93.51290
X136.50240 Y96.05290
X136.50240 Y98.59290
X136.50240 Y101.13290
X136.50240 Y103.67290
X136.50240 Y106.21290
X133.96240 Y106.21290
X133.96240 Y103.67290
X133.96240 Y101.13290
X133.96240 Y98.59290
X133.96240 Y96.05290
X133.96240 Y93.51290
X133.96240 Y90.97290
X133.96240 Y88.43290
X133.96240 Y85.89290
X133.96240 Y83.35290
X133.96240 Y80.81290
X133.96240 Y78.27290
X133.96240 Y75.73290
X133.96240 Y73.19290
X133.96240 Y70.65290
X133.96240 Y68.11290
X131.42240 Y68.11290
X131.42240 Y70.65290
X131.42240 Y73.19290
X131.42240 Y75.73290
X131.42240 Y78.27290
X131.42240 Y80.81290
X131.42240 Y83.35290
X131.42240 Y85.89290
X131.42240 Y88.43290
X131.42240 Y90.97290
X131.42240 Y93.51290
X131.42240 Y96.05290
X131.42240 Y98.59290
X131.42240 Y101.13290
X131.42240 Y103.67290
X131.42240 Y106.21290
X128.88240 Y106.21290
X128.88240 Y103.67290
X128.88240 Y101.13290
X128.88240 Y98.59290
X128.88240 Y96.05290
X128.88240 Y93.51290
X128.88240 Y90.97290
X128.88240 Y88.43290
X128.88240 Y85.89290
X128.88240 Y83.35290
X128.88240 Y80.81290
X128.88240 Y78.27290
X128.88240 Y75.73290
X128.88240 Y73.19290
X128.88240 Y70.65290
X128.88240 Y68.11290
X126.34240 Y68.11290
X126.34240 Y70.65290
X126.34240 Y73.19290
X126.34240 Y75.73290
X126.34240 Y78.27290
X126.34240 Y80.81290
X126.34240 Y83.35290
X126.34240 Y85.89290
X126.34240 Y88.43290
X126.34240 Y90.97290
X126.34240 Y93.51290
X126.34240 Y96.05290
X126.34240 Y98.59290
X126.34240 Y101.13290
X126.34240 Y103.67290
X126.34240 Y106.21290
X123.80240 Y106.21290
X123.80240 Y103.67290
X123.80240 Y101.13290
X123.80240 Y98.59290
X123.80240 Y96.05290
X123.80240 Y93.51290
X123.80240 Y90.97290
X123.80240 Y88.43290
X123.80240 Y85.89290
X123.80240 Y83.35290
X123.80240 Y80.81290
X123.80240 Y78.27290
X123.80240 Y75.73290
X123.80240 Y73.19290
X123.80240 Y70.65290
X123.80240 Y68.11290
X121.26240 Y68.11290
X121.26240 Y70.65290
X121.26240 Y73.19290
X121.26240 Y75.73290
X121.26240 Y78.27290
X121.26240 Y80.81290
X121.26240 Y83.35290
X121.26240 Y85.89290
X121.26240 Y88.43290
X121.26240 Y90.97290
X121.26240 Y93.51290
X121.26240 Y96.05290
X121.26240 Y98.59290
X121.26240 Y101.13290
X121.26240 Y103.67290
X121.26240 Y106.21290
X118.72240 Y106.21290
X118.72240 Y103.67290
X118.72240 Y101.13290
X118.72240 Y98.59290
X118.72240 Y96.05290
X118.72240 Y93.51290
X118.72240 Y90.97290
X118.72240 Y88.43290
X118.72240 Y85.89290
X118.72240 Y83.35290
X118.72240 Y80.81290
X118.72240 Y78.27290
X118.72240 Y75.73290
X118.72240 Y73.19290
X118.72240 Y70.65290
X118.72240 Y68.11290
X116.18240 Y68.11290
X116.18240 Y70.65290
X116.18240 Y73.19290
X116.18240 Y75.73290
X116.18240 Y78.27290
X116.18240 Y80.81290
X116.18240 Y83.35290
X116.18240 Y85.89290
X116.18240 Y88.43290
X116.18240 Y90.97290
X116.18240 Y93.51290
X116.18240 Y96.05290
X116.18240 Y98.59290
X116.18240 Y101.13290
X116.18240 Y103.67290
X116.18240 Y106.21290
X113.64240 Y106.21290
X113.64240 Y103.67290
X113.64240 Y101.13290
X113.64240 Y98.59290
X113.64240 Y96.05290
X113.64240 Y93.51290
X113.64240 Y90.97290
X113.64240 Y88.43290
X113.64240 Y85.89290
X113.64240 Y83.35290
X113.64240 Y80.81290
X113.64240 Y78.27290
X113.64240 Y75.73290
X113.64240 Y73.19290
X113.64240 Y70.65290
X113.64240 Y68.11290
X111.10240 Y68.11290
X111.10240 Y70.65290
X111.10240 Y73.19290
X111.10240 Y75.73290
X111.10240 Y78.27290
X111.10240 Y80.81290
X111.10240 Y83.35290
X111.10240 Y85.89290
X111.10240 Y88.43290
X111.10240 Y90.97290
X111.10240 Y93.51290
X111.10240 Y96.05290
X111.10240 Y98.59290
X111.10240 Y101.13290
X111.10240 Y103.67290
X111.10240 Y106.21290
X108.56240 Y106.21290
X108.56240 Y103.67290
X108.56240 Y101.13290
X108.56240 Y98.59290
X108.56240 Y96.05290
X108.56240 Y93.51290
X108.56240 Y90.97290
X108.56240 Y88.43290
X108.56240 Y85.89290
X108.56240 Y83.35290
X108.56240 Y80.81290
X108.56240 Y78.27290
X108.56240 Y75.73290
X108.56240 Y73.19290
X108.56240 Y70.65290
X108.56240 Y68.11290
X106.02240 Y68.11290
X106.02240 Y70.65290
X106.02240 Y73.19290
X106.02240 Y75.73290
X106.02240 Y78.27290
X106.02240 Y80.81290
X106.02240 Y83.35290
X106.02240 Y85.89290
X106.02240 Y88.43290
X106.02240 Y90.97290
X106.02240 Y93.51290
X106.02240 Y96.05290
X106.02240 Y98.59290
X106.02240 Y101.13290
X106.02240 Y103.67290
X106.02240 Y106.21290
X103.48240 Y106.21290
X103.48240 Y103.67290
X103.48240 Y101.13290
X103.48240 Y98.59290
X103.48240 Y96.05290
X103.48240 Y93.51290
X103.48240 Y90.97290
X103.48240 Y88.43290
X103.48240 Y85.89290
X103.48240 Y83.35290
X103.48240 Y80.81290
X103.48240 Y78.27290
X103.48240 Y75.73290
X103.48240 Y73.19290
X103.48240 Y70.65290
X103.48240 Y68.11290
X100.94240 Y68.11290
X100.94240 Y70.65290
X100.94240 Y73.19290
X100.94240 Y75.73290
X100.94240 Y78.27290
X100.94240 Y80.81290
X100.94240 Y83.35290
X100.94240 Y85.89290
X100.94240 Y88.43290
X100.94240 Y90.97290
X100.94240 Y93.51290
X100.94240 Y96.05290
X100.94240 Y98.59290
X100.94240 Y101.13290
X100.94240 Y103.67290
X100.94240 Y106.21290
X98.40240 Y106.21290
X98.40240 Y103.67290
X98.40240 Y101.13290
X98.40240 Y98.59290
X98.40240 Y96.05290
X98.40240 Y93.51290
X98.40240 Y90.97290
X98.40240 Y88.43290
X98.40240 Y85.89290
X98.40240 Y83.35290
X98.40240 Y80.81290
X98.40240 Y78.27290
X98.40240 Y75.73290
X98.40240 Y73.19290
X98.40240 Y70.65290
X98.40240 Y68.11290
X95.86240 Y68.11290
X95.86240 Y70.65290
X95.86240 Y73.19290
X95.86240 Y75.73290
X95.86240 Y78.27290
X95.86240 Y80.81290
X95.86240 Y83.35290
X95.86240 Y85.89290
X95.86240 Y88.43290
X95.86240 Y90.97290
X95.86240 Y93.51290
X95.86240 Y96.05290
X95.86240 Y98.59290
X95.86240 Y101.13290
X95.86240 Y103.67290
X95.86240 Y106.21290
X93.32240 Y106.21290
X93.32240 Y103.67290
X93.32240 Y101.13290
X93.32240 Y98.59290
X93.32240 Y96.05290
X93.32240 Y93.51290
X93.32240 Y90.97290
X93.32240 Y88.43290
X93.32240 Y85.89290
X93.32240 Y83.35290
X93.32240 Y80.81290
X93.32240 Y78.27290
X93.32240 Y75.73290
X93.32240 Y73.19290
X93.32240 Y70.65290
X93.32240 Y68.11290
X90.78240 Y68.11290
X90.78240 Y70.65290
X90.78240 Y73.19290
X90.78240 Y75.73290
X90.78240 Y78.27290
X90.78240 Y80.81290
X90.78240 Y83.35290
X90.78240 Y85.89290
X90.78240 Y88.43290
X90.78240 Y90.97290
X90.78240 Y93.51290
X90.78240 Y96.05290
X90.78240 Y98.59290
X90.78240 Y101.13290
X90.78240 Y103.67290
X90.78240 Y106.21290
X88.24240 Y106.21290
X88.24240 Y103.67290
X88.24240 Y101.13290
X88.24240 Y98.59290
X88.24240 Y96.05290
X88.24240 Y93.51290
X88.24240 Y90.97290
X88.24240 Y88.43290
X88.24240 Y85.89290
X88.24240 Y83.35290
X88.24240 Y80.81290
X88.24240 Y78.27290
X88.24240 Y75.73290
X88.24240 Y73.19290
X88.24240 Y70.65290
X88.24240 Y68.11290
X85.70240 Y68.11290
X85.70240 Y70.65290
X85.70240 Y73.19290
X85.70240 Y75.73290
X85.70240 Y78.27290
X85.70240 Y80.81290
X85.70240 Y83.35290
X85.70240 Y85.89290
X85.70240 Y88.43290
X85.70240 Y90.97290
X85.70240 Y93.51290
X85.70240 Y96.05290
X85.70240 Y98.59290
X85.70240 Y101.13290
X85.70240 Y103.67290
X85.70240 Y106.21290
X83.16240 Y106.21290
X83.16240 Y103.67290
X83.16240 Y101.13290
X83.16240 Y98.59290
X83.16240 Y96.05290
X83.16240 Y93.51290
X83.16240 Y90.97290
X83.16240 Y88.43290
X83.16240 Y85.89290
X83.16240 Y83.35290
X83.16240 Y80.81290
X83.16240 Y78.27290
X83.16240 Y75.73290
X83.16240 Y73.19290
X83.16240 Y70.65290
X83.16240 Y68.11290
X80.62240 Y68.11290
X80.62240 Y70.65290
X80.62240 Y73.19290
X80.62240 Y75.73290
X80.62240 Y78.27290
X80.62240 Y80.81290
X80.62240 Y83.35290
X80.62240 Y85.89290
X80.62240 Y88.43290
X80.62240 Y90.97290
X80.62240 Y93.51290
X80.62240 Y96.05290
X80.62240 Y98.59290
X80.62240 Y101.13290
X80.62240 Y103.67290
X80.62240 Y106.21290
X78.08240 Y106.21290
X78.08240 Y103.67290
X78.08240 Y101.13290
X78.08240 Y98.59290
X78.08240 Y96.05290
X78.08240 Y93.51290
X78.08240 Y90.97290
X78.08240 Y88.43290
X78.08240 Y85.89290
X78.08240 Y83.35290
X78.08240 Y80.81290
X78.08240 Y78.27290
X78.08240 Y75.73290
X78.08240 Y73.19290
X78.08240 Y70.65290
X78.08240 Y68.11290
X103.73640 Y61.76290
X106.27640 Y61.76290
X108.81640 Y61.76290
X111.35640 Y61.76290
X113.89640 Y61.76290
X116.43640 Y61.76290
X118.97640 Y61.76290
X121.51640 Y61.76290
X126.59640 Y61.76290
X129.13640 Y61.76290
X131.67640 Y61.76290
X134.21640 Y61.76290
X136.75640 Y61.76290
X139.29640 Y61.76290
X139.29640 Y84.62290
X141.83640 Y84.62290
X141.83640 Y87.16290
X141.83640 Y89.70290
X139.29640 Y89.70290
X139.29640 Y87.16290
X139.29640 Y110.02290
X136.75640 Y110.02290
X134.21640 Y110.02290
X131.67640 Y110.02290
X129.13640 Y110.02290
X126.59640 Y110.02290
X124.05640 Y110.02290
X121.51640 Y110.02290
X117.45240 Y110.02290
X114.91240 Y110.02290
X112.37240 Y110.02290
X109.83240 Y110.02290
X107.29240 Y110.02290
X104.75240 Y110.02290
X102.21240 Y110.02290
X99.67240 Y110.02290
X97.13240 Y110.02290
X94.59240 Y110.02290
X4.86080 Y65.57290
X7.40080 Y65.57290
X9.94080 Y65.57290
X12.48080 Y65.57290
X15.02080 Y65.57290
X17.56080 Y65.57290
X20.10080 Y65.57290
X22.64080 Y65.57290
X25.18080 Y65.57290
X27.72080 Y65.57290
X30.26080 Y65.57290
X32.80080 Y65.57290
X35.34080 Y65.57290
X37.88080 Y65.57290
X40.42080 Y65.57290
X42.96080 Y65.57290
X45.50080 Y65.57290
X48.04080 Y65.57290
X50.58080 Y65.57290
X53.12080 Y65.57290
X55.66080 Y65.57290
X58.20080 Y65.57290
X60.74080 Y65.57290
X63.28080 Y65.57290
X63.28080 Y68.11290
X63.28080 Y70.65290
X63.28080 Y73.19290
X63.28080 Y75.73290
X63.28080 Y78.27290
X63.28080 Y80.81290
X63.28080 Y83.35290
X63.28080 Y85.89290
X63.28080 Y88.43290
X63.28080 Y90.97290
X63.28080 Y93.51290
X63.28080 Y96.05290
X63.28080 Y98.59290
X63.28080 Y101.13290
X63.28080 Y103.67290
X63.28080 Y106.21290
X60.74080 Y106.21290
X60.74080 Y103.67290
X60.74080 Y101.13290
X60.74080 Y98.59290
X60.74080 Y96.05290
X60.74080 Y93.51290
X60.74080 Y90.97290
X60.74080 Y88.43290
X60.74080 Y85.89290
X60.74080 Y83.35290
X60.74080 Y80.81290
X60.74080 Y78.27290
X60.74080 Y75.73290
X60.74080 Y73.19290
X60.74080 Y70.65290
X60.74080 Y68.11290
X58.20080 Y68.11290
X58.20080 Y70.65290
X58.20080 Y73.19290
X58.20080 Y75.73290
X58.20080 Y78.27290
X58.20080 Y80.81290
X58.20080 Y83.35290
X58.20080 Y85.89290
X58.20080 Y88.43290
X58.20080 Y90.97290
X58.20080 Y93.51290
X58.20080 Y96.05290
X58.20080 Y98.59290
X58.20080 Y101.13290
X58.20080 Y103.67290
X58.20080 Y106.21290
X55.66080 Y106.21290
X55.66080 Y103.67290
X55.66080 Y101.13290
X55.66080 Y98.59290
X55.66080 Y96.05290
X55.66080 Y93.51290
X55.66080 Y90.97290
X55.66080 Y88.43290
X55.66080 Y85.89290
X55.66080 Y83.35290
X55.66080 Y80.81290
X55.66080 Y78.27290
X55.66080 Y75.73290
X55.66080 Y73.19290
X55.66080 Y70.65290
X55.66080 Y68.11290
X53.12080 Y68.11290
X53.12080 Y70.65290
X53.12080 Y73.19290
X53.12080 Y75.73290
X53.12080 Y78.27290
X53.12080 Y80.81290
X53.12080 Y83.35290
X53.12080 Y85.89290
X53.12080 Y88.43290
X53.12080 Y90.97290
X53.12080 Y93.51290
X53.12080 Y96.05290
X53.12080 Y98.59290
X53.12080 Y101.13290
X53.12080 Y103.67290
X53.12080 Y106.21290
X50.58080 Y106.21290
X50.58080 Y103.67290
X50.58080 Y101.13290
X50.58080 Y98.59290
X50.58080 Y96.05290
X50.58080 Y93.51290
X50.58080 Y90.97290
X50.58080 Y88.43290
X50.58080 Y85.89290
X50.58080 Y83.35290
X50.58080 Y80.81290
X50.58080 Y78.27290
X50.58080 Y75.73290
X50.58080 Y73.19290
X50.58080 Y70.65290
X50.58080 Y68.11290
X48.04080 Y68.11290
X48.04080 Y70.65290
X48.04080 Y73.19290
X48.04080 Y75.73290
X48.04080 Y78.27290
X48.04080 Y80.81290
X48.04080 Y83.35290
X48.04080 Y85.89290
X48.04080 Y88.43290
X48.04080 Y90.97290
X48.04080 Y93.51290
X48.04080 Y96.05290
X48.04080 Y98.59290
X48.04080 Y101.13290
X48.04080 Y103.67290
X48.04080 Y106.21290
X45.50080 Y106.21290
X45.50080 Y103.67290
X45.50080 Y101.13290
X45.50080 Y98.59290
X45.50080 Y96.05290
X45.50080 Y93.51290
X45.50080 Y90.97290
X45.50080 Y88.43290
X45.50080 Y85.89290
X45.50080 Y83.35290
X45.50080 Y80.81290
X45.50080 Y78.27290
X45.50080 Y75.73290
X45.50080 Y73.19290
X45.50080 Y70.65290
X45.50080 Y68.11290
X42.96080 Y68.11290
X42.96080 Y70.65290
X42.96080 Y73.19290
X42.96080 Y75.73290
X42.96080 Y78.27290
X42.96080 Y80.81290
X42.96080 Y83.35290
X42.96080 Y85.89290
X42.96080 Y88.43290
X42.96080 Y90.97290
X42.96080 Y93.51290
X42.96080 Y96.05290
X42.96080 Y98.59290
X42.96080 Y101.13290
X42.96080 Y103.67290
X42.96080 Y106.21290
X40.42080 Y106.21290
X40.42080 Y103.67290
X40.42080 Y101.13290
X40.42080 Y98.59290
X40.42080 Y96.05290
X40.42080 Y93.51290
X40.42080 Y90.97290
X40.42080 Y88.43290
X40.42080 Y85.89290
X40.42080 Y83.35290
X40.42080 Y80.81290
X40.42080 Y78.27290
X40.42080 Y75.73290
X40.42080 Y73.19290
X40.42080 Y70.65290
X40.42080 Y68.11290
X37.88080 Y68.11290
X37.88080 Y70.65290
X37.88080 Y73.19290
X37.88080 Y75.73290
X37.88080 Y78.27290
X37.88080 Y80.81290
X37.88080 Y83.35290
X37.88080 Y85.89290
X37.88080 Y88.43290
X37.88080 Y90.97290
X37.88080 Y93.51290
X37.88080 Y96.05290
X37.88080 Y98.59290
X37.88080 Y101.13290
X37.88080 Y103.67290
X37.88080 Y106.21290
X35.34080 Y106.21290
X35.34080 Y103.67290
X35.34080 Y101.13290
X35.34080 Y98.59290
X35.34080 Y96.05290
X35.34080 Y93.51290
X35.34080 Y90.97290
X35.34080 Y88.43290
X35.34080 Y85.89290
X35.34080 Y83.35290
X35.34080 Y80.81290
X35.34080 Y78.27290
X35.34080 Y75.73290
X35.34080 Y73.19290
X35.34080 Y70.65290
X35.34080 Y68.11290
X32.80080 Y68.11290
X32.80080 Y70.65290
X32.80080 Y73.19290
X32.80080 Y75.73290
X32.80080 Y78.27290
X32.80080 Y80.81290
X32.80080 Y83.35290
X32.80080 Y85.89290
X32.80080 Y88.43290
X32.80080 Y90.97290
X32.80080 Y93.51290
X32.80080 Y96.05290
X32.80080 Y98.59290
X32.80080 Y101.13290
X32.80080 Y103.67290
X32.80080 Y106.21290
X30.26080 Y106.21290
X30.26080 Y103.67290
X30.26080 Y101.13290
X30.26080 Y98.59290
X30.26080 Y96.05290
X30.26080 Y93.51290
X30.26080 Y90.97290
X30.26080 Y88.43290
X30.26080 Y85.89290
X30.26080 Y83.35290
X30.26080 Y80.81290
X30.26080 Y78.27290
X30.26080 Y75.73290
X30.26080 Y73.19290
X30.26080 Y70.65290
X30.26080 Y68.11290
X27.72080 Y68.11290
X27.72080 Y70.65290
X27.72080 Y73.19290
X27.72080 Y75.73290
X27.72080 Y78.27290
X27.72080 Y80.81290
X27.72080 Y83.35290
X27.72080 Y85.89290
X27.72080 Y88.43290
X27.72080 Y90.97290
X27.72080 Y93.51290
X27.72080 Y96.05290
X27.72080 Y98.59290
X27.72080 Y101.13290
X27.72080 Y103.67290
X27.72080 Y106.21290
X25.18080 Y106.21290
X25.18080 Y103.67290
X25.18080 Y101.13290
X25.18080 Y98.59290
X25.18080 Y96.05290
X25.18080 Y93.51290
X25.18080 Y90.97290
X25.18080 Y88.43290
X25.18080 Y85.89290
X25.18080 Y83.35290
X25.18080 Y80.81290
X25.18080 Y78.27290
X25.18080 Y75.73290
X25.18080 Y73.19290
X25.18080 Y70.65290
X25.18080 Y68.11290
X22.64080 Y68.11290
X22.64080 Y70.65290
X22.64080 Y73.19290
X22.64080 Y75.73290
X22.64080 Y78.27290
X22.64080 Y80.81290
X22.64080 Y83.35290
X22.64080 Y85.89290
X22.64080 Y88.43290
X22.64080 Y90.97290
X22.64080 Y93.51290
X22.64080 Y96.05290
X22.64080 Y98.59290
X22.64080 Y101.13290
X22.64080 Y103.67290
X22.64080 Y106.21290
X20.10080 Y106.21290
X20.10080 Y103.67290
X20.10080 Y101.13290
X20.10080 Y98.59290
X20.10080 Y96.05290
X20.10080 Y93.51290
X20.10080 Y90.97290
X20.10080 Y88.43290
X20.10080 Y85.89290
X20.10080 Y83.35290
X20.10080 Y80.81290
X20.10080 Y78.27290
X20.10080 Y75.73290
X20.10080 Y73.19290
X20.10080 Y70.65290
X20.10080 Y68.11290
X17.56080 Y68.11290
X17.56080 Y70.65290
X17.56080 Y73.19290
X17.56080 Y75.73290
X17.56080 Y78.27290
X17.56080 Y80.81290
X17.56080 Y83.35290
X17.56080 Y85.89290
X17.56080 Y88.43290
X17.56080 Y90.97290
X17.56080 Y93.51290
X17.56080 Y96.05290
X17.56080 Y98.59290
X17.56080 Y101.13290
X17.56080 Y103.67290
X17.56080 Y106.21290
X15.02080 Y106.21290
X15.02080 Y103.67290
X15.02080 Y101.13290
X15.02080 Y98.59290
X15.02080 Y96.05290
X15.02080 Y93.51290
X15.02080 Y90.97290
X15.02080 Y88.43290
X15.02080 Y85.89290
X15.02080 Y83.35290
X15.02080 Y80.81290
X15.02080 Y78.27290
X15.02080 Y75.73290
X15.02080 Y73.19290
X15.02080 Y70.65290
X15.02080 Y68.11290
X12.48080 Y68.11290
X12.48080 Y70.65290
X12.48080 Y73.19290
X12.48080 Y75.73290
X12.48080 Y78.27290
X12.48080 Y80.81290
X12.48080 Y83.35290
X12.48080 Y85.89290
X12.48080 Y88.43290
X12.48080 Y90.97290
X12.48080 Y93.51290
X12.48080 Y96.05290
X12.48080 Y98.59290
X12.48080 Y101.13290
X12.48080 Y103.67290
X12.48080 Y106.21290
X9.94080 Y106.21290
X9.94080 Y103.67290
X9.94080 Y101.13290
X9.94080 Y98.59290
X9.94080 Y96.05290
X9.94080 Y93.51290
X9.94080 Y90.97290
X9.94080 Y88.43290
X9.94080 Y85.89290
X9.94080 Y83.35290
X9.94080 Y80.81290
X9.94080 Y78.27290
X9.94080 Y75.73290
X9.94080 Y73.19290
X9.94080 Y70.65290
X9.94080 Y68.11290
X7.40080 Y68.11290
X7.40080 Y70.65290
X7.40080 Y73.19290
X7.40080 Y75.73290
X7.40080 Y78.27290
X7.40080 Y80.81290
X7.40080 Y83.35290
X7.40080 Y85.89290
X7.40080 Y88.43290
X7.40080 Y90.97290
X7.40080 Y93.51290
X7.40080 Y96.05290
X7.40080 Y98.59290
X7.40080 Y101.13290
X7.40080 Y103.67290
X7.40080 Y106.21290
X4.86080 Y106.21290
X4.86080 Y103.67290
X4.86080 Y101.13290
X4.86080 Y98.59290
X4.86080 Y96.05290
X4.86080 Y93.51290
X4.86080 Y90.97290
X4.86080 Y88.43290
X4.86080 Y85.89290
X4.86080 Y83.35290
X4.86080 Y80.81290
X4.86080 Y78.27290
X4.86080 Y75.73290
X4.86080 Y73.19290
X4.86080 Y70.65290
X4.86080 Y68.11290
X30.51480 Y61.76290
X33.05480 Y61.76290
X35.59480 Y61.76290
X38.13480 Y61.76290
X40.67480 Y61.76290
X43.21480 Y61.76290
X45.75480 Y61.76290
X48.29480 Y61.76290
X53.37480 Y61.76290
X55.91480 Y61.76290
X58.45480 Y61.76290
X60.99480 Y61.76290
X63.53480 Y61.76290
X66.07480 Y61.76290
X66.07480 Y84.62290
X68.61480 Y84.62290
X68.61480 Y87.16290
X68.61480 Y89.70290
X66.07480 Y89.70290
X66.07480 Y87.16290
X66.07480 Y110.02290
X63.53480 Y110.02290
X60.99480 Y110.02290
X58.45480 Y110.02290
X55.91480 Y110.02290
X53.37480 Y110.02290
X50.83480 Y110.02290
X48.29480 Y110.02290
X44.23080 Y110.02290
X41.69080 Y110.02290
X39.15080 Y110.02290
X36.61080 Y110.02290
X34.07080 Y110.02290
X31.53080 Y110.02290
X28.99080 Y110.02290
X26.45080 Y110.02290
X23.91080 Y110.02290
X21.37080 Y110.02290

G00 Z40.000 ( All done -- retract )


M5      (Spindle off.)
M9      (Coolant off.)
M2      (Program end.)

