( pcb2gcode 1.2.1 )
( Software-independent Gcode )
      

G94 ( Millimeters per minute feed rate. )
G21 ( Units == Millimeters. )

G90 ( Absolute coordinates. )
S10000 ( RPM spindle speed. )
G64 P0.05080 ( set maximum deviation from commanded toolpath )
F600.00000 ( Feedrate. )

F600.00000 ( Feedrate. )
M3 ( Spindle on clockwise. )
G04 P0 ( dwell for no time -- G64 should not smooth over this point )
G00 Z0.50000 ( retract )

G00 X3.87020 Y55.74970 ( rapid move to begin. )
G01 Z-1.65000 F300.00000 ( plunge. )
G04 P0 ( dwell for no time -- G64 should not smooth over this point )
F600.00000
X3.87020 Y55.74970
X3.66700 Y55.57190
X3.48920 Y55.34330
X3.48920 Y43.96410
X1.05080 Y41.52570
X0.97460 Y41.39870
X0.94920 Y6.47370
X1.00000 Y6.32130
X3.48920 Y3.83210
X3.48920 Y1.39370
X3.54000 Y1.24130
X3.69240 Y1.19050
X36.37680 Y1.19050
Z-0.60000
X38.87680 Y1.19050
Z-1.65000 F300.00000
F600.00000X71.56120 Y1.19050
X71.71360 Y1.24130
X71.76440 Y1.39370
X71.76440 Y53.41290
X71.71360 Y56.71490
X71.56120 Y56.76570
X39.48640 Y56.76570
Z-0.60000
X36.98640 Y56.76570
Z-1.65000 F300.00000
F600.00000X4.91160 Y56.76570
X3.87020 Y55.77510

G04 P0 ( dwell for no time -- G64 should not smooth over this point )
G00 Z40.00000 ( retract )


M5 ( Spindle off. )
M9 ( Coolant off. )
M2 ( Program end. )

